P3
400 225
255
175 198 0
175 198 0
175 198 0
174 198 0
175 198 0
173 197 0
176 198 0
174 198 0
175 198 0
175 198 0
175 198 0
174 197 0
174 198 0
174 197 0
173 197 0
173 197 0
174 198 0
174 197 0
172 196 0
174 197 0
174 197 0
176 198 0
174 197 0
174 198 0
173 197 0
172 197 0
175 198 0
174 197 0
174 197 0
173 197 0
175 198 0
175 198 0
174 197 0
173 197 0
175 198 0
175 198 0
174 198 0
176 198 0
174 198 0
174 198 0
175 198 0
175 198 0
174 198 0
173 196 0
174 198 0
174 197 0
174 197 0
173 197 0
174 197 0
174 198 0
174 197 0
175 198 0
173 197 0
175 198 0
174 198 0
175 198 0
173 197 0
172 196 0
173 197 0
174 197 0
174 198 0
175 198 0
172 197 0
175 198 0
176 199 0
173 197 0
174 198 0
173 197 0
173 197 0
174 197 0
174 198 0
174 197 0
174 198 0
173 197 0
174 197 0
174 197 0
174 197 0
175 198 0
175 198 0
173 197 0
175 198 0
175 198 22
177 199 99
182 202 188
184 203 226
184 203 228
184 203 228
184 203 228
183 203 228
183 202 228
184 203 228
184 203 228
184 203 228
184 203 228
183 203 228
183 203 228
183 202 228
183 202 228
183 202 228
184 203 228
184 203 228
184 203 228
184 203 228
183 202 228
184 203 228
183 202 228
184 203 228
184 203 228
183 202 228
184 203 228
184 203 228
184 203 228
184 203 228
184 203 228
183 202 228
183 203 228
184 203 228
183 203 228
184 203 228
184 203 228
183 203 228
184 203 228
184 203 228
184 203 228
184 203 228
183 202 228
184 203 228
184 203 228
184 203 228
184 203 228
184 203 228
183 203 228
183 202 228
184 203 228
183 203 228
183 203 228
184 203 228
184 203 228
183 203 228
184 203 228
183 202 228
183 203 228
184 203 228
184 203 228
183 203 228
184 203 228
185 204 228
183 203 228
183 203 228
183 203 228
184 203 228
183 203 228
184 203 228
184 203 228
183 202 228
183 202 228
184 203 228
184 203 228
184 203 228
181 201 188
176 198 109
173 197 0
175 197 0
173 197 0
175 198 0
173 196 0
173 197 0
174 197 0
175 198 0
174 197 0
173 196 0
174 197 0
172 196 0
174 197 0
173 196 0
175 198 0
174 197 0
175 197 0
173 197 0
172 196 0
173 197 0
174 197 0
172 196 0
175 197 0
175 197 0
174 197 0
173 197 0
175 198 0
173 197 0
174 197 0
173 197 0
174 197 0
171 195 0
175 198 0
175 198 0
174 197 0
174 197 0
176 199 0
173 196 0
175 198 0
173 197 0
172 196 0
174 197 0
175 197 0
174 197 0
172 196 0
173 197 0
175 198 0
175 198 0
175 198 0
173 196 0
175 198 0
173 197 0
174 197 0
174 198 0
173 197 0
174 197 0
175 198 0
174 197 0
174 197 0
173 196 0
173 196 0
174 197 0
174 198 0
175 198 0
172 196 0
174 197 0
174 197 0
174 197 0
173 197 0
174 197 0
173 196 0
174 197 0
172 196 0
173 197 0
174 197 0
175 198 0
173 197 0
174 198 0
174 198 0
173 196 0
174 197 0
174 196 0
174 197 0
174 197 0
175 198 0
174 197 0
173 197 0
174 198 0
171 195 0
173 196 0
175 198 0
174 197 0
173 197 0
172 196 0
175 198 0
175 198 0
175 198 0
173 196 0
171 196 0
173 197 0
174 197 0
176 198 0
174 198 0
172 196 0
174 196 0
175 198 0
173 196 0
174 197 0
173 196 0
172 196 0
174 198 0
173 196 0
175 198 0
175 198 0
175 197 0
173 196 0
174 197 0
174 197 0
172 195 0
175 198 0
175 198 0
175 198 0
175 198 0
174 198 0
174 198 0
174 197 0
175 198 0
176 198 0
174 197 0
174 197 0
174 197 0
174 198 0
174 197 0
174 198 0
176 198 0
173 196 0
174 198 0
174 198 0
173 197 0
174 198 0
174 197 0
174 198 0
173 196 0
174 197 0
174 197 0
175 198 0
173 196 0
174 197 0
175 198 0
173 197 0
175 198 0
173 197 0
174 198 0
173 197 0
175 198 0
173 196 0
175 198 0
175 198 0
175 198 0
173 197 0
174 197 0
175 198 0
174 197 0
174 197 0
174 197 0
173 197 0
174 197 0
175 198 0
173 196 0
174 198 0
175 198 0
174 197 0
174 197 0
171 195 0
173 196 0
175 197 0
175 197 0
176 198 0
175 198 0
174 197 0
175 198 0
175 198 0
173 196 0
174 197 0
174 198 0
173 197 0
175 198 0
174 197 0
176 199 0
174 198 0
174 198 0
173 197 0
175 198 0
174 197 0
176 198 0
175 198 0
173 196 0
174 198 0
174 197 0
176 199 0
173 196 0
174 197 0
173 197 0
173 197 0
174 198 0
173 197 0
174 198 0
176 198 0
172 196 0
173 197 0
175 198 0
174 198 0
173 197 0
174 197 0
176 198 0
175 198 0
175 198 0
174 198 0
175 198 0
175 198 0
174 198 0
174 197 0
174 198 0
175 198 0
175 198 0
173 197 0
174 197 0
174 197 0
173 197 0
175 198 0
174 197 0
175 198 0
175 198 0
173 197 0
175 198 0
174 198 0
173 197 0
174 198 0
176 199 0
175 198 0
173 197 0
172 197 0
173 197 0
173 197 0
174 198 0
172 196 0
175 198 0
174 197 0
173 197 0
175 198 0
174 198 0
175 198 0
175 198 0
174 198 0
175 198 0
174 198 0
172 196 0
175 198 0
174 198 0
174 197 0
174 197 0
174 198 0
174 197 0
173 197 0
174 197 0
173 197 0
176 198 0
173 197 0
175 198 0
174 198 0
174 198 0
173 196 0
174 198 0
174 198 0
175 198 0
174 197 0
175 198 0
174 198 0
175 198 0
175 198 0
175 198 0
174 198 0
174 198 0
173 197 0
173 197 0
172 196 0
174 197 0
175 198 0
174 197 0
172 197 0
175 198 0
173 197 0
175 198 0
175 198 0
173 197 0
174 197 0
174 197 0
173 197 0
173 197 0
174 197 0
174 197 0
174 197 0
174 198 0
173 197 0
174 198 0
174 197 0
173 197 0
175 198 0
173 197 0
175 198 0
172 196 0
173 197 0
174 198 0
174 197 0
175 198 0
175 198 0
174 198 0
175 198 0
175 198 68
180 201 168
183 202 220
184 203 228
184 203 228
183 202 228
183 202 228
184 203 228
184 203 228
184 203 228
184 203 228
183 202 228
184 203 228
183 203 228
184 203 228
183 203 228
184 203 228
183 203 228
184 203 228
183 203 228
183 203 228
183 202 228
183 203 228
184 203 228
183 203 228
184 203 228
184 203 228
184 203 228
184 203 228
184 203 228
183 203 228
183 203 228
184 203 228
183 202 228
184 203 228
184 203 228
183 202 228
183 203 228
183 203 228
183 203 228
184 203 228
184 203 228
183 203 228
183 203 228
184 203 228
184 203 228
184 203 228
183 202 228
183 203 228
183 203 228
183 203 228
184 203 228
183 203 228
183 202 228
184 203 228
184 203 228
184 203 228
183 202 228
183 202 228
183 202 228
184 203 228
183 203 228
184 203 228
184 203 228
183 202 228
184 203 228
183 202 228
183 202 228
183 203 228
184 203 228
183 203 228
183 203 228
184 203 228
183 203 228
183 202 228
184 203 228
183 202 228
183 203 228
183 202 228
184 203 228
183 203 228
184 203 228
182 202 209
179 200 137
174 197 32
175 198 0
174 197 0
174 197 0
175 198 0
172 197 0
173 197 0
174 197 0
175 198 0
176 198 0
173 197 0
173 197 0
173 197 0
176 198 0
174 197 0
173 197 0
173 197 0
173 197 0
174 198 0
172 195 0
174 197 0
175 198 0
174 198 0
173 197 0
173 197 0
174 197 0
173 197 0
175 198 0
177 199 0
172 196 0
174 197 0
175 198 0
174 197 0
173 197 0
176 198 0
175 198 0
173 197 0
175 197 0
173 197 0
174 197 0
173 197 0
174 197 0
175 198 0
174 197 0
175 198 0
175 198 0
175 198 0
175 198 0
173 197 0
174 197 0
173 197 0
173 196 0
175 198 0
172 196 0
174 197 0
173 197 0
173 197 0
171 195 0
172 196 0
175 198 0
174 197 0
174 197 0
172 196 0
174 197 0
174 197 0
174 197 0
173 197 0
173 197 0
174 198 0
176 198 0
176 198 0
175 198 0
172 196 0
173 197 0
172 196 0
174 197 0
173 197 0
174 197 0
173 197 0
175 198 0
174 197 0
174 197 0
175 198 0
175 198 0
173 196 0
173 197 0
175 198 0
174 197 0
174 198 0
174 197 0
174 198 0
173 196 0
172 196 0
175 198 0
174 197 0
174 197 0
176 198 0
175 198 0
176 199 0
174 197 0
173 197 0
176 199 0
173 197 0
173 197 0
173 197 0
174 197 0
173 196 0
173 197 0
173 197 0
174 197 0
174 198 0
173 197 0
173 196 0
174 198 0
174 198 0
174 198 0
175 198 0
174 198 0
175 198 0
175 198 0
174 198 0
173 197 0
173 197 0
174 198 0
174 197 0
173 197 0
172 196 0
172 196 0
174 197 0
174 197 0
175 198 0
174 197 0
174 198 0
172 196 0
174 197 0
174 197 0
172 195 0
173 197 0
175 198 0
173 197 0
173 197 0
175 198 0
175 198 0
176 199 0
174 198 0
174 197 0
172 196 0
175 198 0
175 198 0
173 197 0
173 196 0
175 198 0
174 197 0
175 198 0
173 197 0
174 197 0
175 198 0
174 197 0
174 198 0
173 197 0
174 198 0
174 198 0
174 197 0
174 197 0
174 197 0
174 197 0
174 198 0
174 198 0
172 197 0
176 199 0
176 198 0
172 196 0
172 197 0
174 197 0
174 198 0
173 197 0
173 197 0
175 198 0
175 198 0
174 198 0
174 197 0
172 196 0
174 198 0
172 195 0
174 198 0
175 198 0
174 198 0
174 198 0
175 198 0
172 197 0
175 198 0
174 197 0
173 197 0
173 197 0
175 198 0
176 199 0
174 198 0
175 198 0
174 198 0
174 197 0
173 197 0
175 198 0
173 197 0
174 198 0
173 196 0
174 197 0
174 198 0
174 197 0
174 197 0
174 198 0
174 198 0
173 197 0
173 197 0
174 198 0
174 197 0
174 197 0
174 197 0
175 198 0
172 197 0
174 197 0
174 198 0
173 197 0
174 197 0
174 197 0
173 197 0
175 198 0
173 197 0
174 198 0
176 198 0
174 198 0
175 198 0
174 197 0
173 197 0
172 196 0
174 197 0
174 197 0
175 198 0
174 197 0
176 198 0
175 198 0
175 198 0
175 198 0
174 198 0
175 198 0
175 198 0
175 198 0
172 197 0
175 198 0
176 199 0
173 197 0
175 198 0
174 197 0
175 198 0
174 197 0
175 198 0
176 198 0
175 198 0
174 197 0
174 198 0
175 198 0
173 196 0
173 197 0
175 198 0
175 198 0
174 198 0
174 198 0
175 198 0
175 198 0
175 198 0
174 197 0
174 197 0
174 198 0
176 198 0
174 197 0
174 197 0
174 198 0
174 198 0
175 198 0
173 197 0
173 197 0
175 198 0
173 197 0
173 197 0
175 198 0
173 197 0
173 197 0
173 197 0
174 198 0
175 198 0
173 197 0
175 198 0
175 198 0
174 197 0
173 197 0
176 199 0
175 198 0
175 198 0
173 197 0
175 198 0
174 197 0
174 197 0
174 198 0
174 197 0
176 198 0
173 197 0
174 197 0
175 198 0
176 198 0
173 197 0
173 197 0
174 197 0
174 197 0
172 197 0
175 198 56
178 200 155
182 202 211
184 203 228
183 202 228
184 203 228
184 203 228
183 203 228
183 203 228
184 203 228
183 203 228
184 203 228
184 203 228
184 203 228
184 203 228
184 203 228
183 202 228
182 202 228
183 202 228
184 203 228
184 203 228
183 202 228
184 203 228
184 203 228
184 203 228
183 203 228
184 203 228
183 203 228
184 203 228
184 203 228
184 203 228
183 202 228
183 202 228
184 203 228
184 203 228
185 203 228
184 203 228
183 203 228
183 202 228
183 203 228
184 203 228
184 203 228
183 202 228
183 203 228
184 203 228
184 203 228
183 202 228
184 203 228
183 202 228
184 203 228
184 203 228
183 203 228
183 203 228
184 203 228
183 202 228
183 203 228
184 203 228
183 202 228
184 203 228
184 203 228
183 203 228
183 202 228
184 203 228
183 203 228
184 203 228
182 202 228
184 203 228
182 202 228
183 203 228
184 203 228
183 203 228
183 202 228
183 203 228
184 203 228
183 202 228
183 202 228
184 203 228
184 203 228
183 203 228
183 202 228
183 202 228
183 202 228
183 202 228
183 202 228
183 202 228
183 202 228
183 203 228
182 202 214
179 200 172
175 198 39
175 198 0
172 195 0
175 198 0
173 196 0
174 197 0
173 197 0
175 198 0
172 196 0
175 198 0
174 197 0
173 197 0
174 198 0
174 197 0
173 197 0
173 197 0
174 197 0
175 198 0
174 198 0
174 198 0
174 197 0
174 197 0
175 198 0
173 197 0
176 198 0
173 197 0
173 197 0
172 196 0
173 197 0
174 197 0
174 197 0
173 196 0
174 198 0
175 198 0
174 198 0
173 196 0
175 198 0
173 197 0
174 198 0
174 197 0
174 197 0
170 194 0
172 196 0
172 196 0
173 197 0
173 196 0
174 197 0
175 198 0
172 196 0
174 197 0
174 197 0
173 197 0
174 197 0
174 197 0
173 196 0
174 198 0
174 196 0
173 197 0
173 197 0
174 198 0
176 198 0
174 198 0
173 196 0
175 197 0
174 196 0
173 196 0
173 197 0
172 196 0
174 197 0
174 197 0
173 196 0
174 198 0
175 198 0
173 197 0
175 198 0
173 196 0
173 197 0
174 198 0
173 197 0
174 198 0
172 196 0
174 197 0
172 194 0
173 197 0
174 197 0
174 197 0
173 197 0
175 198 0
174 197 0
174 197 0
174 198 0
173 197 0
175 198 0
173 196 0
174 197 0
173 197 0
173 197 0
173 197 0
172 196 0
174 197 0
175 198 0
174 198 0
174 198 0
174 197 0
173 196 0
173 197 0
174 198 0
175 198 0
175 198 0
174 197 0
174 198 0
174 197 0
174 197 0
172 196 0
174 197 0
174 197 0
173 197 0
173 197 0
172 196 0
174 197 0
174 197 0
174 198 0
172 196 0
174 198 0
175 197 0
174 197 0
174 197 0
174 197 0
174 198 0
175 198 0
173 197 0
173 196 0
175 198 0
174 196 0
174 196 0
173 197 0
175 198 0
173 197 0
173 197 0
174 197 0
173 197 0
176 199 0
175 198 0
173 197 0
172 196 0
172 196 0
175 198 0
174 198 0
175 198 0
175 197 0
173 197 0
174 197 0
175 198 0
173 196 0
174 197 0
175 197 0
174 197 0
171 195 0
175 198 0
174 197 0
174 197 0
174 198 0
174 197 0
173 196 0
174 198 0
173 196 0
174 198 0
172 196 0
172 195 0
173 197 0
175 198 0
174 198 0
173 196 0
173 197 0
173 197 0
173 197 0
174 198 0
174 198 0
175 198 0
174 197 0
174 197 0
173 197 0
174 198 0
174 197 0
174 198 0
174 198 0
174 197 0
173 197 0
174 198 0
174 198 0
175 198 0
175 197 0
174 198 0
171 195 0
174 198 0
174 197 0
174 197 0
174 198 0
174 197 0
172 196 0
173 196 0
174 197 0
173 196 0
175 198 0
173 197 0
174 198 0
174 197 0
173 197 0
175 198 0
175 198 0
174 197 0
173 197 0
174 198 0
174 198 0
175 198 0
173 197 0
173 197 0
174 197 0
175 198 0
175 198 0
176 198 0
173 197 0
174 198 0
173 197 0
174 197 0
175 198 0
174 198 0
174 197 0
175 198 0
175 198 0
174 198 0
175 198 0
175 198 0
174 198 0
174 197 0
174 197 0
174 197 0
173 197 0
174 198 0
174 197 0
174 197 0
173 197 0
175 198 0
173 197 0
173 197 0
174 197 0
174 197 0
174 197 0
174 198 0
175 198 0
174 197 0
173 197 0
174 197 0
175 198 0
177 199 0
175 198 0
174 198 0
173 197 0
173 197 0
173 197 0
174 198 0
173 197 0
173 197 0
175 198 0
175 198 0
175 198 0
173 197 0
173 197 0
174 197 0
173 197 0
175 198 0
175 198 0
175 198 0
174 197 0
174 197 0
174 198 0
175 198 0
173 197 0
173 196 0
175 197 0
174 197 0
174 197 0
175 198 0
173 196 0
175 198 0
174 198 0
175 198 0
174 197 0
173 197 0
175 198 0
174 197 0
174 198 0
174 198 0
175 198 0
175 198 0
175 198 0
174 197 0
173 196 0
172 197 0
174 198 0
174 198 0
174 197 0
175 198 0
173 197 0
173 197 0
173 197 0
173 197 0
174 197 0
174 198 0
178 199 116
182 202 196
183 203 225
184 203 228
184 203 228
184 203 228
183 203 228
184 203 228
184 203 228
183 202 228
183 203 228
184 203 228
184 203 228
184 203 228
183 203 228
183 203 228
182 202 228
183 202 228
184 203 228
183 203 228
184 203 228
183 203 228
183 202 228
184 203 228
184 203 228
184 203 228
183 203 228
184 203 228
183 203 228
184 203 228
183 203 228
184 203 228
184 203 228
184 203 228
184 203 228
184 203 228
183 203 228
184 203 228
184 203 228
183 202 228
183 203 228
184 203 228
183 203 228
183 202 228
183 202 228
183 202 228
183 202 228
184 203 228
184 203 228
184 203 228
183 203 228
184 203 228
183 203 228
183 202 228
183 202 228
182 202 228
184 203 228
183 203 228
183 202 228
183 203 228
184 203 228
183 202 228
183 203 228
183 203 228
183 203 228
184 203 228
183 203 228
184 203 228
183 202 228
183 203 228
184 203 228
184 203 228
184 203 228
183 202 228
184 203 228
183 203 228
183 202 228
183 202 228
184 203 228
182 202 228
184 203 228
183 203 228
184 203 228
183 202 228
183 203 228
184 203 228
184 203 228
184 203 228
183 202 228
183 203 228
183 203 228
182 202 217
179 200 169
176 199 82
173 197 0
174 197 0
174 198 0
174 198 0
174 197 0
173 197 0
174 197 0
174 197 0
174 197 0
175 198 0
171 195 0
173 197 0
175 198 0
173 197 0
173 197 0
172 196 0
175 198 0
173 197 0
174 197 0
173 197 0
172 197 0
173 197 0
174 197 0
174 197 0
174 197 0
173 197 0
173 197 0
175 198 0
174 198 0
174 197 0
175 198 0
171 195 0
175 198 0
174 197 0
174 197 0
176 198 0
175 198 0
173 197 0
174 197 0
173 196 0
174 198 0
175 198 0
173 197 0
175 198 0
173 197 0
175 198 0
173 196 0
174 197 0
174 197 0
174 197 0
174 198 0
173 197 0
176 198 0
175 198 0
173 197 0
171 195 0
174 197 0
174 197 0
174 198 0
175 198 0
174 197 0
174 197 0
174 197 0
174 198 0
174 198 0
174 197 0
175 198 0
173 197 0
173 197 0
174 197 0
172 196 0
175 198 0
175 198 0
173 197 0
173 197 0
176 198 0
173 197 0
173 196 0
172 196 0
174 197 0
173 196 0
175 198 0
174 197 0
175 198 0
175 198 0
175 198 0
173 197 0
175 198 0
173 197 0
173 196 0
175 198 0
175 198 0
174 197 0
173 197 0
174 197 0
175 198 0
174 197 0
175 198 0
174 197 0
174 198 0
174 197 0
174 198 0
173 197 0
174 197 0
175 198 0
172 196 0
175 198 0
175 198 0
173 196 0
174 198 0
173 196 0
172 196 0
175 198 0
172 196 0
173 196 0
175 198 0
174 198 0
175 198 0
173 197 0
174 198 0
174 197 0
174 197 0
176 198 0
173 197 0
174 198 0
175 198 0
175 198 0
174 197 0
174 197 0
174 198 0
173 197 0
175 198 0
174 197 0
173 197 0
176 198 0
175 198 0
174 197 0
172 197 0
174 198 0
175 198 0
174 197 0
174 197 0
174 197 0
174 197 0
175 198 0
175 198 0
172 196 0
173 197 0
174 197 0
173 196 0
174 197 0
174 196 0
173 197 0
174 197 0
175 198 0
173 197 0
174 197 0
174 197 0
174 197 0
175 198 0
174 198 0
173 196 0
174 197 0
172 196 0
173 197 0
173 197 0
174 198 0
173 197 0
174 197 0
174 197 0
177 199 0
173 197 0
174 197 0
174 197 0
173 196 0
175 198 0
173 197 0
173 197 0
175 198 0
174 197 0
173 197 0
175 198 0
173 197 0
172 196 0
173 196 0
173 196 0
173 197 0
172 196 0
173 197 0
175 198 0
172 196 0
176 199 0
174 197 0
175 198 0
174 198 0
173 197 0
174 197 0
173 197 0
174 198 0
174 197 0
175 198 0
176 198 0
174 197 0
175 198 0
174 197 0
175 198 0
174 197 0
172 195 0
175 198 0
173 197 0
173 197 0
174 198 0
172 196 0
175 198 0
174 197 0
173 197 0
172 196 0
175 198 0
175 198 0
173 196 0
176 199 0
174 198 0
175 198 0
176 198 0
173 197 0
173 197 0
174 198 0
174 198 0
175 198 0
175 198 0
175 198 0
173 197 0
174 197 0
174 198 0
173 197 0
176 199 0
175 198 0
174 197 0
174 197 0
174 198 0
173 197 0
175 198 0
174 198 0
174 197 0
175 198 0
174 198 0
175 198 0
175 198 0
175 198 0
175 198 0
176 199 0
174 198 0
174 198 0
174 197 0
174 197 0
175 198 0
174 197 0
174 198 0
175 198 0
174 197 0
173 196 0
174 198 0
175 198 0
173 197 0
173 197 0
174 198 0
173 197 0
175 198 0
174 198 0
174 197 0
174 197 0
173 197 0
174 197 0
175 198 0
174 198 0
174 198 0
173 197 0
175 198 0
174 197 0
176 198 0
176 198 0
172 196 0
174 198 0
174 197 0
174 197 0
173 197 0
174 197 0
174 198 0
175 198 0
172 196 0
174 197 0
173 197 0
173 197 0
174 198 0
175 198 0
175 198 0
175 197 0
173 197 0
172 196 0
173 197 0
174 197 0
175 198 0
175 198 0
175 198 75
179 200 153
183 202 213
184 203 228
182 202 228
184 203 228
184 203 228
183 203 228
183 203 228
183 203 228
184 203 228
184 203 228
184 203 228
183 203 228
184 203 228
183 202 228
183 203 228
184 203 228
184 203 228
184 203 228
183 202 228
183 203 228
183 203 228
183 203 228
184 203 228
184 203 228
184 203 228
184 203 228
184 203 228
183 202 228
183 203 228
183 203 228
183 203 228
183 203 228
182 202 228
183 202 228
183 203 228
183 202 228
183 203 228
183 202 228
184 203 228
183 203 228
183 202 228
184 203 228
184 203 228
183 203 228
183 203 228
184 203 228
183 203 228
184 203 228
183 202 228
183 202 228
183 202 228
184 203 228
184 203 228
184 203 228
183 203 228
183 202 228
183 203 228
184 203 228
183 202 228
183 202 228
183 202 228
183 203 228
183 202 228
183 203 228
184 203 228
183 203 228
184 203 228
184 203 228
183 202 228
183 202 228
183 203 228
184 203 228
183 203 228
183 203 228
183 203 228
183 203 228
183 202 228
183 203 228
183 203 228
183 202 228
183 202 228
184 203 228
183 202 228
184 203 228
184 203 228
183 203 228
184 203 228
183 202 228
183 203 228
183 202 228
183 203 228
184 203 228
183 202 228
183 202 228
183 203 228
181 201 190
176 199 91
173 197 0
173 197 0
174 197 0
175 198 0
174 197 0
175 198 0
174 197 0
173 197 0
174 196 0
174 198 0
175 198 0
172 196 0
174 197 0
175 198 0
173 196 0
174 197 0
175 197 0
174 198 0
174 197 0
173 196 0
174 197 0
173 197 0
172 196 0
174 197 0
171 196 0
173 196 0
172 196 0
173 196 0
173 197 0
174 197 0
173 196 0
173 197 0
175 198 0
174 197 0
174 197 0
172 196 0
170 195 0
174 197 0
174 197 0
172 196 0
174 197 0
173 197 0
174 197 0
172 196 0
175 198 0
174 197 0
173 196 0
173 197 0
174 197 0
173 197 0
175 198 0
173 197 0
175 198 0
172 197 0
172 197 0
173 197 0
174 197 0
174 198 0
174 197 0
175 198 0
174 197 0
173 196 0
175 198 0
173 196 0
174 198 0
175 198 0
174 197 0
173 196 0
173 197 0
173 197 0
174 198 0
173 196 0
173 197 0
174 197 0
174 197 0
173 197 0
173 197 0
173 197 0
173 196 0
173 196 0
175 198 0
174 197 0
174 197 0
173 197 0
174 197 0
174 197 0
174 197 0
175 198 0
173 196 0
173 197 0
173 197 0
174 197 0
174 198 0
173 197 0
173 196 0
174 197 0
173 197 0
173 196 0
173 197 0
175 198 0
174 198 0
173 197 0
173 197 0
173 196 0
175 198 0
175 198 0
173 197 0
174 197 0
175 198 0
175 198 0
174 198 0
173 196 0
175 198 0
172 196 0
174 198 0
173 197 0
172 196 0
174 198 0
172 196 0
174 197 0
173 196 0
174 198 0
173 197 0
174 197 0
173 197 0
175 198 0
174 197 0
173 197 0
173 197 0
174 198 0
173 197 0
173 197 0
174 197 0
173 197 0
174 197 0
173 197 0
175 198 0
174 198 0
174 197 0
173 197 0
174 198 0
174 198 0
174 197 0
175 198 0
174 197 0
173 197 0
174 197 0
171 195 0
174 197 0
173 197 0
172 196 0
174 197 0
175 198 0
173 196 0
175 198 0
173 197 0
172 196 0
174 197 0
174 198 0
172 196 0
174 197 0
173 196 0
173 196 0
174 198 0
174 198 0
171 195 0
173 197 0
174 197 0
174 197 0
174 197 0
174 198 0
176 198 0
174 198 0
173 196 0
174 198 0
173 197 0
175 198 0
174 198 0
175 198 0
175 198 0
173 196 0
174 198 0
173 197 0
173 197 0
172 197 0
173 197 0
173 197 0
174 197 0
175 198 0
175 198 0
173 197 0
173 196 0
174 197 0
173 196 0
174 197 0
174 198 0
172 195 0
174 197 0
173 196 0
171 195 0
173 197 0
175 198 0
172 196 0
174 198 0
174 198 0
172 196 0
174 198 0
173 197 0
175 198 0
174 198 0
174 198 0
173 197 0
174 197 0
174 197 0
175 198 0
171 195 0
173 197 0
174 198 0
173 196 0
173 197 0
174 196 0
175 198 0
175 198 0
174 197 0
174 197 0
175 198 0
173 197 0
174 197 0
174 197 0
174 197 0
175 198 0
174 197 0
174 198 0
175 198 0
173 197 0
175 198 0
174 197 0
174 198 0
175 198 0
174 197 0
174 198 0
175 198 0
173 197 0
174 197 0
174 197 0
174 197 0
174 198 0
173 197 0
175 198 0
172 197 0
173 197 0
176 198 0
176 199 0
174 197 0
174 197 0
174 198 0
173 197 0
174 197 0
174 198 0
174 197 0
174 197 0
175 198 0
175 198 0
175 198 0
174 198 0
175 198 0
173 197 0
174 197 0
175 197 0
176 198 0
174 198 0
175 198 0
174 198 0
174 198 0
174 197 0
174 197 0
174 197 0
175 198 0
173 197 0
173 197 0
174 197 0
174 198 0
173 197 0
175 198 0
174 198 0
173 197 0
175 198 0
173 197 0
174 198 0
173 197 0
175 198 0
175 198 0
173 197 0
175 198 0
174 197 0
175 198 0
175 198 0
173 197 0
176 199 68
178 199 127
179 200 191
183 203 227
183 202 228
183 202 228
183 203 228
184 203 228
184 203 228
184 203 228
183 202 228
184 203 228
184 203 228
184 203 228
183 203 228
184 203 228
183 202 228
184 203 228
184 203 228
184 203 228
184 203 228
183 203 228
183 202 228
184 203 228
184 203 228
184 203 228
183 203 228
183 202 228
184 203 228
184 203 228
184 203 228
184 203 228
183 203 228
183 203 228
183 202 228
184 203 228
184 203 228
184 203 228
183 203 228
184 203 228
184 203 228
183 203 228
184 203 228
183 202 228
183 203 228
182 202 228
184 203 228
183 202 228
183 203 228
184 203 228
182 202 228
183 202 228
184 203 228
183 203 228
183 202 228
183 203 228
183 203 228
184 203 228
183 203 228
184 203 228
184 203 228
183 203 228
184 203 228
184 203 228
184 203 228
184 203 228
184 203 228
184 203 228
184 203 228
184 203 228
184 203 228
183 203 228
184 203 228
184 203 228
184 203 228
183 202 228
184 203 228
183 203 228
183 202 228
183 203 228
184 203 228
183 202 228
183 202 228
183 203 228
184 203 228
184 203 228
182 202 228
183 202 228
183 202 228
184 203 228
184 203 228
183 202 228
183 203 228
183 202 228
183 202 228
183 202 228
183 203 228
183 202 228
184 203 228
183 203 228
183 203 228
184 203 228
181 201 198
177 199 109
174 197 0
174 197 0
175 198 0
172 196 0
172 196 0
173 196 0
175 198 0
174 197 0
174 197 0
174 197 0
174 197 0
175 198 0
173 197 0
172 196 0
174 198 0
174 198 0
174 197 0
174 198 0
174 197 0
174 197 0
175 198 0
173 197 0
174 196 0
175 198 0
172 196 0
175 198 0
174 197 0
176 199 0
173 196 0
175 198 0
173 197 0
174 197 0
172 197 0
173 197 0
174 198 0
173 197 0
175 198 0
173 197 0
176 199 0
173 197 0
173 197 0
174 197 0
175 198 0
175 197 0
173 197 0
175 198 0
175 198 0
175 198 0
176 199 0
173 197 0
173 196 0
173 197 0
174 197 0
173 196 0
173 197 0
172 197 0
174 197 0
174 198 0
174 198 0
173 196 0
174 197 0
173 196 0
174 198 0
174 197 0
173 197 0
174 197 0
175 198 0
174 197 0
174 197 0
173 197 0
173 197 0
174 198 0
173 197 0
174 197 0
174 198 0
175 198 0
173 196 0
175 198 0
173 196 0
173 197 0
172 196 0
173 196 0
173 196 0
175 198 0
174 197 0
174 198 0
173 196 0
174 197 0
172 196 0
173 196 0
176 198 0
173 196 0
174 197 0
174 197 0
174 197 0
171 194 0
174 197 0
173 196 0
173 197 0
173 196 0
174 197 0
174 197 0
174 197 0
174 197 0
174 198 0
173 197 0
172 196 0
174 198 0
174 197 0
173 197 0
174 197 0
173 196 0
175 198 0
173 197 0
174 197 0
173 197 0
174 197 0
173 197 0
174 197 0
174 197 0
172 197 0
172 196 0
173 197 0
171 196 0
175 198 0
175 198 0
173 197 0
175 198 0
174 197 0
174 198 0
173 197 0
174 198 0
173 197 0
174 197 0
174 198 0
173 196 0
172 196 0
174 197 0
173 197 0
176 199 0
174 198 0
174 197 0
175 198 0
175 198 0
173 197 0
176 199 0
173 196 0
175 198 0
174 197 0
174 197 0
173 197 0
173 197 0
174 197 0
173 196 0
174 197 0
173 197 0
174 197 0
175 198 0
173 197 0
173 197 0
174 198 0
173 197 0
173 197 0
176 198 0
175 198 0
173 197 0
174 198 0
173 197 0
170 194 0
173 197 0
174 197 0
174 197 0
174 197 0
175 198 0
173 197 0
173 197 0
175 198 0
172 196 0
174 198 0
175 198 0
173 196 0
173 197 0
174 197 0
174 197 0
173 197 0
173 197 0
174 198 0
174 198 0
174 197 0
175 198 0
174 198 0
175 198 0
174 198 0
174 198 0
174 197 0
174 198 0
176 198 0
176 199 0
175 198 0
175 198 0
176 199 0
173 197 0
174 197 0
174 197 0
173 197 0
174 198 0
174 198 0
174 197 0
172 197 0
173 196 0
175 198 0
173 197 0
174 198 0
173 196 0
175 198 0
174 198 0
174 198 0
175 198 0
173 197 0
175 198 0
174 197 0
173 197 0
175 198 0
174 197 0
174 198 0
174 198 0
172 197 0
174 198 0
174 198 0
171 196 0
172 197 0
172 197 0
174 198 0
174 198 0
173 197 0
176 199 0
174 198 0
175 198 0
174 197 0
174 197 0
174 197 0
174 197 0
174 198 0
172 197 0
175 198 0
175 198 0
173 197 0
175 198 0
174 197 0
174 197 0
174 198 0
174 197 0
173 197 0
176 198 0
173 197 0
174 197 0
175 198 0
174 198 0
175 198 0
175 198 0
175 198 0
176 199 0
176 199 0
175 198 0
176 199 0
174 198 0
174 198 0
174 198 0
176 199 0
174 197 0
173 197 0
175 198 0
176 198 0
173 197 0
174 198 0
173 197 0
173 197 0
174 198 0
175 198 0
172 197 0
174 197 0
176 199 0
174 197 0
174 198 0
175 198 0
174 197 0
173 196 0
173 196 0
174 198 0
175 198 0
175 198 0
174 197 0
173 196 0
173 197 0
175 198 123
179 200 169
184 203 225
183 202 228
183 202 228
183 202 228
183 203 228
184 203 228
183 203 228
183 203 228
183 202 228
183 202 228
183 203 228
183 203 228
183 203 228
184 203 228
183 202 228
183 203 228
183 203 228
183 203 228
184 203 228
183 203 228
184 203 228
183 202 228
183 202 228
184 203 228
183 203 228
184 203 228
182 202 228
183 202 228
183 203 228
184 203 228
183 202 228
184 203 228
184 203 228
183 203 228
184 203 228
184 203 228
184 203 228
182 202 228
182 202 228
184 203 228
183 203 228
183 203 228
183 203 228
183 202 228
183 202 228
183 203 228
183 203 228
183 203 228
183 202 228
184 203 228
183 203 228
183 202 228
183 202 228
184 203 228
183 203 228
183 203 228
184 203 228
183 203 228
184 203 228
183 203 228
184 203 228
183 203 228
183 203 228
183 203 228
183 202 228
184 203 228
183 202 228
183 202 228
184 203 228
183 203 228
184 203 228
183 202 228
183 202 228
183 202 228
183 202 228
184 203 228
183 203 228
184 203 228
183 202 228
183 203 228
183 203 228
184 203 228
184 203 228
183 202 228
184 203 228
183 202 228
183 202 228
183 203 228
182 202 228
183 202 228
183 203 228
183 202 228
184 203 228
183 202 228
183 203 228
183 202 228
184 203 228
183 202 228
183 203 228
183 203 228
182 202 228
183 202 228
183 203 228
182 202 228
181 201 213
177 199 135
175 198 45
173 197 0
174 197 0
175 198 0
175 198 0
173 197 0
173 196 0
172 196 0
174 197 0
175 198 0
172 196 0
173 196 0
174 197 0
174 198 0
174 198 0
172 197 0
173 196 0
173 197 0
173 196 0
174 197 0
174 197 0
175 198 0
173 197 0
174 197 0
174 197 0
174 197 0
172 196 0
174 197 0
170 195 0
174 197 0
175 198 0
174 198 0
174 197 0
172 196 0
173 196 0
174 198 0
173 197 0
175 198 0
173 196 0
172 196 0
173 197 0
174 197 0
175 198 0
173 196 0
175 198 0
171 195 0
173 196 0
173 196 0
175 198 0
174 197 0
174 197 0
174 197 0
172 196 0
173 197 0
174 197 0
173 197 0
174 196 0
174 198 0
175 198 0
175 198 0
176 199 0
174 197 0
172 196 0
174 197 0
175 198 0
170 194 0
174 197 0
174 196 0
172 196 0
173 197 0
173 197 0
175 198 0
174 197 0
172 196 0
175 198 0
172 196 0
172 196 0
174 198 0
174 197 0
174 197 0
174 198 0
174 197 0
173 197 0
173 196 0
174 197 0
174 198 0
173 196 0
175 198 0
174 197 0
175 198 0
173 197 0
174 197 0
175 198 0
175 198 0
173 197 0
175 198 0
175 198 0
174 198 0
172 196 0
174 197 0
174 197 0
174 197 0
174 197 0
173 197 0
174 198 0
174 197 0
174 197 0
173 197 0
175 198 0
173 197 0
174 198 0
174 197 0
175 198 0
172 196 0
173 197 0
174 198 0
174 197 0
172 196 0
174 197 0
175 198 0
173 197 0
172 196 0
174 198 0
172 196 0
174 197 0
174 197 0
173 196 0
171 194 0
175 198 0
174 197 0
175 198 0
173 197 0
172 195 0
174 197 0
174 198 0
173 196 0
175 198 0
176 198 0
175 198 0
175 198 0
174 197 0
174 197 0
173 196 0
173 197 0
174 197 0
175 198 0
174 198 0
175 198 0
172 196 0
174 198 0
175 198 0
173 197 0
173 197 0
173 197 0
173 197 0
175 198 0
173 197 0
171 195 0
173 197 0
174 197 0
171 195 0
174 197 0
173 196 0
172 196 0
172 196 0
174 197 0
172 196 0
177 199 0
172 196 0
174 197 0
174 198 0
175 198 0
175 198 0
175 198 0
174 198 0
175 197 0
170 195 0
175 198 0
174 198 0
175 198 0
174 198 0
174 198 0
174 197 0
174 198 0
173 196 0
173 197 0
174 198 0
174 198 0
174 197 0
173 197 0
174 198 0
173 196 0
173 197 0
173 196 0
172 196 0
174 198 0
173 197 0
174 198 0
175 198 0
175 198 0
175 198 0
172 197 0
175 198 0
172 196 0
176 199 0
174 198 0
176 198 0
173 197 0
175 198 0
173 197 0
173 197 0
174 197 0
175 198 0
173 197 0
174 198 0
175 198 0
173 197 0
172 196 0
175 198 0
173 197 0
174 198 0
174 197 0
173 197 0
174 197 0
174 197 0
173 196 0
176 198 0
174 197 0
172 196 0
174 197 0
173 197 0
176 198 0
174 198 0
175 198 0
173 197 0
176 198 0
174 197 0
174 197 0
176 199 0
173 197 0
175 198 0
174 198 0
175 198 0
174 198 0
173 197 0
175 198 0
174 197 0
175 198 0
174 197 0
174 197 0
173 197 0
175 198 0
174 198 0
173 197 0
174 198 0
175 198 0
174 198 0
176 198 0
174 197 0
173 197 0
174 197 0
174 198 0
174 198 0
173 197 0
174 198 0
173 197 0
173 197 0
175 198 0
175 198 0
174 197 0
174 197 0
173 197 0
174 198 0
175 198 0
174 198 0
174 197 0
175 198 0
176 198 0
173 197 0
174 198 0
174 197 0
175 198 0
173 197 0
175 198 0
175 198 0
173 197 0
174 198 0
174 197 0
173 197 0
175 198 79
177 199 156
182 202 212
183 203 228
183 203 228
184 203 228
183 203 228
184 203 228
185 203 228
183 202 228
184 203 228
183 202 228
183 202 228
183 203 228
183 202 228
184 203 228
183 203 228
183 203 228
184 203 228
184 203 228
183 202 228
183 202 228
183 202 228
184 203 228
184 203 228
183 203 228
183 203 228
183 203 228
183 203 228
183 202 228
184 203 228
184 203 228
183 203 228
183 202 228
184 203 228
183 202 228
183 202 228
183 203 228
182 202 228
183 202 228
183 203 228
183 203 228
183 202 228
182 202 228
183 202 228
183 203 228
184 203 228
184 203 228
183 202 228
184 203 228
183 203 228
183 203 228
184 203 228
184 203 228
184 203 228
183 203 228
183 202 228
184 203 228
183 202 228
184 203 228
183 202 228
183 202 228
184 203 228
183 203 228
183 203 228
182 202 228
183 202 228
183 203 228
183 202 228
183 203 228
183 202 228
183 203 228
183 202 228
184 203 228
183 202 228
183 203 228
184 203 228
183 202 228
184 203 228
184 203 228
183 202 228
183 203 228
183 203 228
183 202 228
184 203 228
183 202 228
183 202 228
183 203 228
183 203 228
183 202 228
182 202 228
183 203 228
183 203 228
183 202 228
183 203 228
183 203 228
183 202 228
183 203 228
183 203 228
183 202 228
183 202 228
183 203 228
184 203 228
182 202 228
183 203 228
183 202 228
184 203 228
184 203 228
183 202 228
183 202 228
183 202 228
182 202 212
180 200 165
175 198 60
174 197 0
174 197 0
173 196 0
174 197 0
173 197 0
175 198 0
175 198 0
174 198 0
174 198 0
175 198 0
174 197 0
175 198 0
174 198 0
172 197 0
176 198 0
174 197 0
172 195 0
173 197 0
174 197 0
172 196 0
174 197 0
174 197 0
174 197 0
174 197 0
173 197 0
172 196 0
174 197 0
173 197 0
173 196 0
174 197 0
175 198 0
173 197 0
173 197 0
175 198 0
173 197 0
173 197 0
172 196 0
174 197 0
174 197 0
173 197 0
176 198 0
174 197 0
174 197 0
175 198 0
174 197 0
174 197 0
174 197 0
172 196 0
175 198 0
172 196 0
175 198 0
173 196 0
174 197 0
175 197 0
172 196 0
176 199 0
174 197 0
174 197 0
173 196 0
174 198 0
176 198 0
174 197 0
173 196 0
174 196 0
173 196 0
173 197 0
174 197 0
174 198 0
174 197 0
174 198 0
174 197 0
174 198 0
173 196 0
175 198 0
174 197 0
173 197 0
173 197 0
174 198 0
173 197 0
172 196 0
174 197 0
172 195 0
174 197 0
172 196 0
174 197 0
174 198 0
174 197 0
175 198 0
170 195 0
173 197 0
173 197 0
175 198 0
172 196 0
175 198 0
174 197 0
174 197 0
173 197 0
173 197 0
174 197 0
176 198 0
174 197 0
176 198 0
172 197 0
173 197 0
174 198 0
174 198 0
173 197 0
172 195 0
174 197 0
173 197 0
175 198 0
174 197 0
175 198 0
173 196 0
173 197 0
175 198 0
173 196 0
174 197 0
175 198 0
171 196 0
173 197 0
175 198 0
174 197 0
174 197 0
174 198 0
171 195 0
174 197 0
174 197 0
173 196 0
174 198 0
174 197 0
176 198 0
174 198 0
175 198 0
175 198 0
174 197 0
174 198 0
173 197 0
173 197 0
173 197 0
175 198 0
173 197 0
172 196 0
173 196 0
175 198 0
174 197 0
175 198 0
174 197 0
174 198 0
173 197 0
174 197 0
174 197 0
175 198 0
173 197 0
175 198 0
174 197 0
174 197 0
175 198 0
172 196 0
173 197 0
173 197 0
174 197 0
173 196 0
172 195 0
175 198 0
173 196 0
173 197 0
175 198 0
174 198 0
173 197 0
175 198 0
173 197 0
174 198 0
173 197 0
173 197 0
174 197 0
174 197 0
174 197 0
174 197 0
172 195 0
174 197 0
173 197 0
174 197 0
175 198 0
173 197 0
174 197 0
174 197 0
174 198 0
173 196 0
174 197 0
173 197 0
173 196 0
173 197 0
174 197 0
173 197 0
174 197 0
175 198 0
173 196 0
175 197 0
173 197 0
176 199 0
175 198 0
174 198 0
174 197 0
173 197 0
173 197 0
174 197 0
173 197 0
173 197 0
172 196 0
174 197 0
174 198 0
174 197 0
172 196 0
174 198 0
175 198 0
176 199 0
175 198 0
176 198 0
174 198 0
176 199 0
174 197 0
175 198 0
175 198 0
175 198 0
174 198 0
173 197 0
175 198 0
175 198 0
175 198 0
175 198 0
174 197 0
173 197 0
174 197 0
175 198 0
175 198 0
175 198 0
175 198 0
176 198 0
173 197 0
174 197 0
175 198 0
175 198 0
175 198 0
173 197 0
173 197 0
175 198 0
173 197 0
173 197 0
175 198 0
173 197 0
174 197 0
174 198 0
175 198 0
176 198 0
174 197 0
175 198 0
175 198 0
174 197 0
175 198 0
174 197 0
174 198 0
175 198 0
172 196 0
175 198 0
173 197 0
173 197 0
175 198 0
174 197 0
174 197 0
174 197 0
173 197 0
174 197 0
175 198 0
173 197 0
175 198 0
174 198 0
175 198 0
174 197 0
174 197 0
175 198 0
175 198 0
175 198 0
174 197 32
178 200 151
180 201 190
183 202 227
184 203 228
184 203 228
183 203 228
183 202 228
183 203 228
183 203 228
183 202 228
184 203 228
183 202 228
183 203 228
183 202 228
183 203 228
183 202 228
183 203 228
184 203 228
183 202 228
183 202 228
184 203 228
184 203 228
183 202 228
183 203 228
183 202 228
184 203 228
183 202 228
183 203 228
183 202 228
184 203 228
182 202 228
184 203 228
182 202 228
183 203 228
183 202 228
183 203 228
184 203 228
183 203 228
182 202 228
183 202 228
183 203 228
183 202 228
183 202 228
184 203 228
183 202 228
183 202 228
183 203 228
183 203 228
183 203 228
183 203 228
184 203 228
183 203 228
183 202 228
183 203 228
184 203 228
183 202 228
183 202 228
184 203 228
183 202 228
183 202 228
183 202 228
183 202 228
183 203 228
184 203 228
184 203 228
183 203 228
183 202 228
184 203 228
183 203 228
184 203 228
184 203 228
183 203 228
184 203 228
183 202 228
183 202 228
183 203 228
183 203 228
183 202 228
184 203 228
183 202 228
183 203 228
183 202 228
183 203 228
183 202 228
183 202 228
183 203 228
184 203 228
183 202 228
182 202 228
182 202 228
183 202 228
183 203 228
183 203 228
183 203 228
183 202 228
183 202 228
184 203 228
182 202 228
184 203 228
183 202 228
183 202 228
183 202 228
183 203 228
183 203 228
183 202 228
183 203 228
183 202 228
183 203 228
183 202 228
184 203 228
185 203 228
183 202 228
183 202 228
184 203 228
184 203 228
183 203 226
180 200 178
174 197 82
173 197 0
175 198 0
173 197 0
173 197 0
174 197 0
173 197 0
172 195 0
173 196 0
173 197 0
175 198 0
175 197 0
174 197 0
175 198 0
175 198 0
174 197 0
175 198 0
173 197 0
174 198 0
174 197 0
173 196 0
172 196 0
174 197 0
173 196 0
172 196 0
175 198 0
172 197 0
174 197 0
173 197 0
175 198 0
173 197 0
173 196 0
175 198 0
174 198 0
173 196 0
176 198 0
174 197 0
175 198 0
173 197 0
175 197 0
173 197 0
172 195 0
175 198 0
173 196 0
175 197 0
174 197 0
173 196 0
173 197 0
175 197 0
173 197 0
174 197 0
174 198 0
173 196 0
174 198 0
174 197 0
174 197 0
173 197 0
174 197 0
172 196 0
172 196 0
174 197 0
172 196 0
175 198 0
171 196 0
174 198 0
173 197 0
175 198 0
174 197 0
174 197 0
172 196 0
174 198 0
174 198 0
174 197 0
174 197 0
174 198 0
173 197 0
173 197 0
174 197 0
175 197 0
174 197 0
174 198 0
175 197 0
174 197 0
174 198 0
173 197 0
173 197 0
173 197 0
172 197 0
175 198 0
176 198 0
175 198 0
174 198 0
174 197 0
174 197 0
174 197 0
175 198 0
175 197 0
173 196 0
173 197 0
173 196 0
174 197 0
173 197 0
174 197 0
176 198 0
174 197 0
172 196 0
173 197 0
174 197 0
172 196 0
174 197 0
172 196 0
172 196 0
173 197 0
172 196 0
173 197 0
174 198 0
174 198 0
174 197 0
177 199 0
174 197 0
174 197 0
173 197 0
174 198 0
175 198 0
173 197 0
175 198 0
174 197 0
173 196 0
174 197 0
173 197 0
172 196 0
175 198 0
174 198 0
173 196 0
172 196 0
176 198 0
175 198 0
175 198 0
176 199 0
174 197 0
177 199 0
174 197 0
175 198 0
174 198 0
172 196 0
173 197 0
174 197 0
174 198 0
174 198 0
175 198 0
175 198 0
172 196 0
173 196 0
174 197 0
172 196 0
175 198 0
175 198 0
173 197 0
175 198 0
175 198 0
173 197 0
174 197 0
173 197 0
174 197 0
174 197 0
174 198 0
175 197 0
173 197 0
175 198 0
172 196 0
175 198 0
173 197 0
174 197 0
174 198 0
174 197 0
176 198 0
174 198 0
175 198 0
173 197 0
173 197 0
175 198 0
174 198 0
173 197 0
174 197 0
175 198 0
174 197 0
173 197 0
173 197 0
173 197 0
174 197 0
174 197 0
173 196 0
174 197 0
173 197 0
175 198 0
176 198 0
173 197 0
171 194 0
176 199 0
173 197 0
175 198 0
173 197 0
175 198 0
174 198 0
174 198 0
175 197 0
172 196 0
176 199 0
173 197 0
173 197 0
174 197 0
175 197 0
175 198 0
176 198 0
174 197 0
174 197 0
173 197 0
174 198 0
173 197 0
173 197 0
173 197 0
174 197 0
177 199 0
173 197 0
174 198 0
175 198 0
175 198 0
176 198 0
175 198 0
174 198 0
175 198 0
175 198 0
174 198 0
173 197 0
175 198 0
174 198 0
175 198 0
175 198 0
176 198 0
175 198 0
174 197 0
175 198 0
173 197 0
173 197 0
173 197 0
173 197 0
174 198 0
174 198 0
175 198 0
175 198 0
175 198 0
174 198 0
175 198 0
173 197 0
174 198 0
173 197 0
174 198 0
174 198 0
173 197 0
175 198 0
175 198 0
173 197 0
174 197 0
174 197 0
175 198 0
175 198 0
175 198 0
173 197 0
174 198 0
175 198 0
174 197 0
175 198 0
174 197 0
173 197 0
174 197 0
176 198 0
175 198 0
175 198 0
174 197 0
173 197 0
177 199 116
181 201 184
182 202 221
183 202 228
184 203 228
183 202 228
185 203 228
183 202 228
183 202 228
184 203 228
184 203 228
183 202 228
184 203 228
183 203 228
183 202 228
183 203 228
183 202 228
184 203 228
184 203 228
183 203 228
184 203 228
183 202 228
184 203 228
183 202 228
184 203 228
183 202 228
184 203 228
183 202 228
183 202 228
183 203 228
183 202 228
183 202 228
183 202 228
184 203 228
182 202 228
183 203 228
183 203 228
183 202 228
183 202 228
184 203 228
183 203 228
182 202 228
183 202 228
184 203 228
183 202 228
183 202 228
183 202 228
183 202 228
183 203 228
183 202 228
184 203 228
183 203 228
183 203 228
183 202 228
183 203 228
183 203 228
184 203 228
184 203 228
183 203 228
182 202 228
183 202 228
183 203 228
183 203 228
183 202 228
183 203 228
183 202 228
183 202 228
183 203 228
183 202 228
184 203 228
183 203 228
183 203 228
183 203 228
183 202 228
183 202 228
183 203 228
183 202 228
183 202 228
183 202 228
183 203 228
183 203 228
184 203 228
183 202 228
184 203 228
183 202 228
183 203 228
183 203 228
184 203 228
183 202 228
182 202 228
183 202 228
183 202 228
183 202 228
183 202 228
183 202 228
183 202 228
183 203 228
183 202 228
183 203 228
183 203 228
183 203 228
183 203 228
183 202 228
183 203 228
183 202 228
183 202 228
183 202 228
183 202 228
183 203 228
183 202 228
182 202 228
184 203 228
182 202 228
183 203 228
183 202 228
183 202 228
183 202 228
184 203 228
183 203 228
183 202 228
183 203 226
180 200 195
174 197 99
175 198 0
174 198 0
173 197 0
173 197 0
173 197 0
174 198 0
175 198 0
174 197 0
174 197 0
175 198 0
173 197 0
174 197 0
176 198 0
173 197 0
174 198 0
173 196 0
173 197 0
174 197 0
172 195 0
175 198 0
176 198 0
173 196 0
173 197 0
175 198 0
174 197 0
174 197 0
174 198 0
172 196 0
174 197 0
172 197 0
173 197 0
173 196 0
173 196 0
174 197 0
173 197 0
174 198 0
174 197 0
173 196 0
173 197 0
174 198 0
175 198 0
174 198 0
174 198 0
173 196 0
173 197 0
173 197 0
173 197 0
172 195 0
174 197 0
174 197 0
175 198 0
174 197 0
174 197 0
173 197 0
175 198 0
175 198 0
174 197 0
175 198 0
173 196 0
173 196 0
174 197 0
173 197 0
174 196 0
175 198 0
174 197 0
173 197 0
173 197 0
174 197 0
175 198 0
174 197 0
174 197 0
174 198 0
174 197 0
173 197 0
173 196 0
173 197 0
175 198 0
175 198 0
173 197 0
174 198 0
174 198 0
175 198 0
172 196 0
175 198 0
173 197 0
175 198 0
173 197 0
175 198 0
175 197 0
174 197 0
174 197 0
173 196 0
173 197 0
175 198 0
174 197 0
174 197 0
173 197 0
174 197 0
174 197 0
173 196 0
176 198 0
174 198 0
174 198 0
175 198 0
173 196 0
174 197 0
173 196 0
174 197 0
174 197 0
175 198 0
173 197 0
173 196 0
172 196 0
174 197 0
174 197 0
173 197 0
173 197 0
174 197 0
174 198 0
173 197 0
173 197 0
174 197 0
175 197 0
173 196 0
176 198 0
174 197 0
175 198 0
174 197 0
173 197 0
173 197 0
173 196 0
174 197 0
174 198 0
173 197 0
172 197 0
174 197 0
175 197 0
175 198 0
174 197 0
173 197 0
174 198 0
173 197 0
174 197 0
174 197 0
175 198 0
173 197 0
176 199 0
173 196 0
174 197 0
175 198 0
173 196 0
175 198 0
174 197 0
173 196 0
174 197 0
174 197 0
173 197 0
172 197 0
174 198 0
173 196 0
174 197 0
175 198 0
175 198 0
175 198 0
175 198 0
174 198 0
172 196 0
175 198 0
175 198 0
174 197 0
173 196 0
175 198 0
173 197 0
175 198 0
174 197 0
174 197 0
174 198 0
174 198 0
174 197 0
175 198 0
173 197 0
174 198 0
175 198 0
173 196 0
174 198 0
174 197 0
173 197 0
175 198 0
174 197 0
174 198 0
174 197 0
173 197 0
175 198 0
174 197 0
175 198 0
174 197 0
174 198 0
173 196 0
175 198 0
173 196 0
174 197 0
175 198 0
175 198 0
173 197 0
174 197 0
175 198 0
174 198 0
176 199 0
174 197 0
173 197 0
174 197 0
174 197 0
172 196 0
175 198 0
173 197 0
174 198 0
175 198 0
175 197 0
173 197 0
174 197 0
175 198 0
173 197 0
176 199 0
173 197 0
175 198 0
173 197 0
173 197 0
173 197 0
175 198 0
175 198 0
176 198 0
174 197 0
173 197 0
173 197 0
174 198 0
175 198 0
173 197 0
173 197 0
173 196 0
174 198 0
174 197 0
175 198 0
174 197 0
174 198 0
174 197 0
174 197 0
173 197 0
173 197 0
174 198 0
174 197 0
174 197 0
173 197 0
174 197 0
174 197 0
176 199 0
174 197 0
174 197 0
174 197 0
174 197 0
174 197 0
173 197 0
176 199 0
176 198 0
173 197 0
175 198 0
174 197 0
175 198 0
175 198 0
175 198 0
173 197 0
175 198 0
175 198 0
174 197 0
174 197 0
175 198 72
179 200 158
182 202 211
184 203 228
183 203 228
184 203 228
183 203 228
184 203 228
184 203 228
184 203 228
184 203 228
184 203 228
183 202 228
184 203 228
183 203 228
183 202 228
183 202 228
183 202 228
184 203 228
184 203 228
183 202 228
183 203 228
183 203 228
183 202 228
183 202 228
184 203 228
183 202 228
184 203 228
184 203 228
183 202 228
183 203 228
183 203 228
184 203 228
183 202 228
183 203 228
183 203 228
183 202 228
183 203 228
183 202 228
183 202 228
183 203 228
183 202 228
183 203 228
183 202 228
184 203 228
182 202 228
183 203 228
183 203 228
183 203 228
183 202 228
182 202 228
183 202 228
182 202 228
183 202 228
183 203 228
183 202 228
183 202 228
183 203 228
183 202 228
183 202 228
183 203 228
183 203 228
183 203 228
182 202 228
183 202 228
183 202 228
183 202 228
183 202 228
183 202 228
183 202 228
182 202 228
183 202 228
183 203 228
183 202 228
183 202 228
184 203 228
183 202 228
183 202 228
183 202 228
183 203 228
183 202 228
183 202 228
184 203 228
182 202 228
183 202 228
183 202 228
183 203 228
184 203 228
183 202 228
183 202 228
183 202 228
183 202 228
183 203 228
183 202 228
183 202 228
183 202 228
182 202 228
182 202 228
183 202 228
183 202 228
183 202 228
183 202 228
183 203 228
183 203 228
182 202 228
183 203 228
183 202 228
183 202 228
183 202 228
183 202 228
183 203 228
183 203 228
183 202 228
183 202 228
183 202 228
183 203 228
183 202 228
183 202 228
183 202 228
183 202 228
183 202 228
183 202 228
183 202 228
183 202 228
183 202 228
183 202 228
179 200 190
176 198 125
172 196 0
174 197 0
174 197 0
173 196 0
174 197 0
174 197 0
173 197 0
175 197 0
174 197 0
176 198 0
174 198 0
175 198 0
173 197 0
174 197 0
172 196 0
174 198 0
171 195 0
173 196 0
175 198 0
174 196 0
174 198 0
173 197 0
173 197 0
174 197 0
174 197 0
174 197 0
174 197 0
172 195 0
174 198 0
173 196 0
173 196 0
175 198 0
174 197 0
174 197 0
173 197 0
173 197 0
174 198 0
174 198 0
173 197 0
173 197 0
174 197 0
173 196 0
173 197 0
175 197 0
173 197 0
173 197 0
174 197 0
174 197 0
174 197 0
175 198 0
173 196 0
174 197 0
175 198 0
172 197 0
173 197 0
173 196 0
173 197 0
174 197 0
172 196 0
175 197 0
175 197 0
173 197 0
173 196 0
173 196 0
175 198 0
173 196 0
172 196 0
173 196 0
175 197 0
174 197 0
174 197 0
173 196 0
172 196 0
174 197 0
174 197 0
173 197 0
175 198 0
174 197 0
174 197 0
174 197 0
175 198 0
173 195 0
172 196 0
173 196 0
174 197 0
174 197 0
173 197 0
173 197 0
173 196 0
173 197 0
174 197 0
174 197 0
174 197 0
174 197 0
174 197 0
173 196 0
174 198 0
174 197 0
174 197 0
173 197 0
176 198 0
175 198 0
173 197 0
174 197 0
173 196 0
173 197 0
174 198 0
173 196 0
174 197 0
173 197 0
173 197 0
173 196 0
174 197 0
173 197 0
173 197 0
173 197 0
174 198 0
174 197 0
172 196 0
173 196 0
173 197 0
174 197 0
172 196 0
174 197 0
174 197 0
173 196 0
174 197 0
176 199 0
172 195 0
173 196 0
173 197 0
175 198 0
173 197 0
174 197 0
172 195 0
175 198 0
173 197 0
174 197 0
173 197 0
176 199 0
173 196 0
173 197 0
174 197 0
174 197 0
175 198 0
173 195 0
175 198 0
175 198 0
173 197 0
172 197 0
175 198 0
174 197 0
175 198 0
174 197 0
175 198 0
174 197 0
172 196 0
174 197 0
176 198 0
174 197 0
174 198 0
173 197 0
174 198 0
173 196 0
174 198 0
175 198 0
174 197 0
174 198 0
173 196 0
174 197 0
176 199 0
174 197 0
175 198 0
173 196 0
172 196 0
172 196 0
174 197 0
173 197 0
174 198 0
175 198 0
173 197 0
175 198 0
173 197 0
175 198 0
172 196 0
174 197 0
174 197 0
172 196 0
173 196 0
173 196 0
175 198 0
174 198 0
173 197 0
174 198 0
174 197 0
174 197 0
173 197 0
172 197 0
174 198 0
174 197 0
173 197 0
173 197 0
173 197 0
175 198 0
174 198 0
173 197 0
173 197 0
174 197 0
174 198 0
176 198 0
175 198 0
173 197 0
174 196 0
173 196 0
173 196 0
174 197 0
174 196 0
175 198 0
175 198 0
174 197 0
174 198 0
173 197 0
173 197 0
174 197 0
173 197 0
174 197 0
174 197 0
175 198 0
175 198 0
173 197 0
174 197 0
175 198 0
174 198 0
174 197 0
175 198 0
175 198 0
174 197 0
173 197 0
174 197 0
174 197 0
174 197 0
174 197 0
175 198 0
175 198 0
174 198 0
173 197 0
175 198 0
175 198 0
174 197 0
173 197 0
174 198 0
175 198 0
176 199 0
175 198 0
175 198 0
175 198 0
175 198 0
174 197 0
173 197 0
175 198 0
174 198 0
174 198 0
175 198 0
174 198 0
175 198 0
174 197 0
175 198 0
173 197 0
172 196 0
174 197 22
176 199 148
182 202 202
183 202 228
184 203 228
182 202 228
183 203 228
184 203 228
183 202 228
183 202 228
182 202 228
183 203 228
183 202 228
184 203 228
184 203 228
183 203 228
183 203 228
183 202 228
184 203 228
184 203 228
183 202 228
183 203 228
183 203 228
184 203 228
183 202 228
183 202 228
183 202 228
183 202 228
183 202 228
183 203 228
183 202 228
183 202 228
183 203 228
184 203 228
183 203 228
183 203 228
183 203 228
184 203 228
183 202 228
183 202 228
183 202 228
183 202 228
183 202 228
184 203 228
183 202 228
183 202 228
183 202 228
183 202 228
183 202 228
183 203 228
183 203 228
183 202 228
183 202 228
183 202 228
183 203 228
183 202 228
182 202 228
183 202 228
183 202 228
183 202 228
183 202 228
183 203 228
183 202 228
182 202 228
182 202 228
183 202 228
183 202 228
183 203 228
183 202 228
184 203 228
183 203 228
183 202 228
184 203 228
183 202 228
184 203 228
182 202 228
183 202 228
183 203 228
183 202 228
183 203 228
182 202 228
183 202 228
183 202 228
183 202 228
184 203 228
183 202 228
183 202 228
184 203 228
183 202 228
183 202 228
183 202 228
183 202 228
183 202 228
183 203 228
184 203 228
183 202 228
183 202 228
182 202 228
183 202 228
182 202 228
183 202 228
183 202 228
183 203 228
183 203 228
183 202 228
183 203 228
182 202 228
183 203 228
183 202 228
182 202 228
183 202 228
182 202 228
183 202 228
183 203 228
183 202 228
183 203 228
183 202 228
183 202 228
183 202 228
183 202 228
183 203 228
183 202 228
183 202 228
184 203 228
183 203 228
183 203 228
181 202 228
183 202 228
183 202 228
183 203 228
182 202 228
181 201 203
178 200 141
174 197 51
173 197 0
175 198 0
174 197 0
173 197 0
173 197 0
172 196 0
172 196 0
174 197 0
174 198 0
173 197 0
175 198 0
173 196 0
174 198 0
173 197 0
174 197 0
173 197 0
174 197 0
172 196 0
173 196 0
173 196 0
174 198 0
174 198 0
175 198 0
173 197 0
173 197 0
175 198 0
172 196 0
176 199 0
174 198 0
173 196 0
173 196 0
174 197 0
174 198 0
174 197 0
172 196 0
175 198 0
174 197 0
173 197 0
174 197 0
172 196 0
174 197 0
173 197 0
174 197 0
176 198 0
175 198 0
172 196 0
172 196 0
174 197 0
175 198 0
176 198 0
174 197 0
174 198 0
173 196 0
173 197 0
175 198 0
173 197 0
173 196 0
173 197 0
173 197 0
174 197 0
173 197 0
173 197 0
175 198 0
176 198 0
176 198 0
174 198 0
175 198 0
172 196 0
173 196 0
175 198 0
173 196 0
172 196 0
174 197 0
174 197 0
173 197 0
173 196 0
173 197 0
172 196 0
173 197 0
174 196 0
173 197 0
174 197 0
174 197 0
175 198 0
173 197 0
174 197 0
172 196 0
172 196 0
171 195 0
173 197 0
174 197 0
173 196 0
174 198 0
174 197 0
174 197 0
175 198 0
170 195 0
172 196 0
172 196 0
172 196 0
174 197 0
172 196 0
174 197 0
175 198 0
174 198 0
175 198 0
173 197 0
173 197 0
172 196 0
174 197 0
174 198 0
175 198 0
175 198 0
172 196 0
173 196 0
174 198 0
175 198 0
175 198 0
173 197 0
174 197 0
172 196 0
175 198 0
174 198 0
174 197 0
174 197 0
173 197 0
173 197 0
172 196 0
174 197 0
174 198 0
175 198 0
172 196 0
172 195 0
174 196 0
172 196 0
173 196 0
174 197 0
173 196 0
174 197 0
174 197 0
174 197 0
175 198 0
175 198 0
174 197 0
173 197 0
173 196 0
174 197 0
175 197 0
174 197 0
174 198 0
173 196 0
174 198 0
174 197 0
174 198 0
172 197 0
174 198 0
175 198 0
175 198 0
174 197 0
174 198 0
174 197 0
172 196 0
174 197 0
174 197 0
172 196 0
174 198 0
176 198 0
174 198 0
173 197 0
173 196 0
173 197 0
175 198 0
173 197 0
174 197 0
173 197 0
172 197 0
173 197 0
174 198 0
173 197 0
175 198 0
174 197 0
173 197 0
172 196 0
175 198 0
173 197 0
174 197 0
175 198 0
173 197 0
173 197 0
174 197 0
174 197 0
174 197 0
174 198 0
174 198 0
174 197 0
174 197 0
174 198 0
174 197 0
173 197 0
174 197 0
174 197 0
173 197 0
174 198 0
173 196 0
173 196 0
175 198 0
172 195 0
174 197 0
174 198 0
174 198 0
174 198 0
174 197 0
172 196 0
175 198 0
174 197 0
175 198 0
175 198 0
173 197 0
174 198 0
174 197 0
175 198 0
174 197 0
175 198 0
175 198 0
172 197 0
174 197 0
174 197 0
174 197 0
174 197 0
174 198 0
173 197 0
175 198 0
173 197 0
174 197 0
175 198 0
174 197 0
173 197 0
174 198 0
174 197 0
174 197 0
174 197 0
175 198 0
174 197 0
174 198 0
174 197 0
172 196 0
173 197 0
175 198 0
174 197 0
175 198 0
174 197 0
173 196 0
175 198 0
172 197 0
175 198 0
175 198 0
175 198 0
176 199 0
175 198 0
176 198 0
176 199 0
174 197 0
174 197 0
174 197 0
176 198 109
180 201 187
183 202 221
182 202 228
184 203 228
183 203 228
183 202 228
183 203 228
183 203 228
183 203 228
183 203 228
183 202 228
183 202 228
184 203 228
183 203 228
184 203 228
184 203 228
184 203 228
183 202 228
183 202 228
184 203 228
183 202 228
183 202 228
183 203 228
184 203 228
184 203 228
183 202 228
183 202 228
183 203 228
183 203 228
183 202 228
183 202 228
183 202 228
184 203 228
183 202 228
183 202 228
182 202 228
183 202 228
183 202 228
183 202 228
183 203 228
183 202 228
183 203 228
182 202 228
182 202 228
183 202 228
184 203 228
184 203 228
183 202 228
183 203 228
183 202 228
183 202 228
183 202 228
183 202 228
183 202 228
184 203 228
183 202 228
183 202 228
182 202 228
183 202 228
183 203 228
183 202 228
183 203 228
183 202 228
184 203 228
183 202 228
183 202 228
183 202 228
183 203 228
183 203 228
183 202 228
183 202 228
183 202 228
183 202 228
183 202 228
183 202 228
183 202 228
183 202 228
183 202 228
183 202 228
184 203 228
184 203 228
183 203 228
183 202 228
183 202 228
183 202 228
183 202 228
183 203 228
184 203 228
183 202 228
183 202 228
183 203 228
183 202 228
183 203 228
182 202 228
183 203 228
183 202 228
184 203 228
183 202 228
183 203 228
183 202 228
183 203 228
183 202 228
183 202 228
183 202 228
182 202 228
183 203 228
183 202 228
183 202 228
182 202 228
183 202 228
183 202 228
183 202 228
183 202 228
183 202 228
183 202 228
183 202 228
183 202 228
183 202 228
183 202 228
182 202 228
183 202 228
182 202 228
182 202 228
182 202 228
183 202 228
182 202 228
184 203 228
183 202 228
183 203 228
183 202 228
183 202 228
182 202 228
184 203 228
183 202 228
182 202 212
178 200 156
176 199 64
173 197 0
174 197 0
173 196 0
174 197 0
173 196 0
173 197 0
172 196 0
173 197 0
173 197 0
175 198 0
173 197 0
173 197 0
174 198 0
173 196 0
173 197 0
173 197 0
174 197 0
173 196 0
174 197 0
175 198 0
173 197 0
173 196 0
173 196 0
175 198 0
172 196 0
172 195 0
172 196 0
174 198 0
173 196 0
174 197 0
173 196 0
173 196 0
175 198 0
173 197 0
173 196 0
173 197 0
175 198 0
175 198 0
172 196 0
174 197 0
173 197 0
174 198 0
173 197 0
173 196 0
173 196 0
174 197 0
174 197 0
174 197 0
173 197 0
173 197 0
173 196 0
173 197 0
174 196 0
174 198 0
172 196 0
174 197 0
175 198 0
174 197 0
174 198 0
175 198 0
173 197 0
172 196 0
173 196 0
172 196 0
173 196 0
171 195 0
172 196 0
174 198 0
173 197 0
174 197 0
173 196 0
174 197 0
174 197 0
174 198 0
174 197 0
174 197 0
175 198 0
171 196 0
173 197 0
174 197 0
173 197 0
173 197 0
173 197 0
175 198 0
173 197 0
174 197 0
174 197 0
172 196 0
173 197 0
174 196 0
173 197 0
174 198 0
173 197 0
175 198 0
172 197 0
174 197 0
174 197 0
173 197 0
172 197 0
174 197 0
173 196 0
173 197 0
175 198 0
172 196 0
172 196 0
175 198 0
172 197 0
174 197 0
173 196 0
175 198 0
173 196 0
175 198 0
171 194 0
174 197 0
172 196 0
174 197 0
174 197 0
172 196 0
175 198 0
174 198 0
172 196 0
174 197 0
175 198 0
174 197 0
174 197 0
172 196 0
174 197 0
174 197 0
173 196 0
174 197 0
173 197 0
173 197 0
173 196 0
174 197 0
174 197 0
172 196 0
174 197 0
175 198 0
173 197 0
173 197 0
175 197 0
172 196 0
175 198 0
174 197 0
175 198 0
175 198 0
173 197 0
175 198 0
173 197 0
175 198 0
175 197 0
173 197 0
174 197 0
173 196 0
174 197 0
173 197 0
173 196 0
175 198 0
175 198 0
174 197 0
174 198 0
173 197 0
173 196 0
174 198 0
174 197 0
175 198 0
174 197 0
174 197 0
174 197 0
173 196 0
174 197 0
174 198 0
172 196 0
173 197 0
175 198 0
176 198 0
172 197 0
174 196 0
173 196 0
172 196 0
174 197 0
174 197 0
174 197 0
174 197 0
174 198 0
173 197 0
173 197 0
172 196 0
175 198 0
174 198 0
173 196 0
173 197 0
173 197 0
175 198 0
175 198 0
175 198 0
175 198 0
173 197 0
174 198 0
175 198 0
175 198 0
173 197 0
177 199 0
174 197 0
172 196 0
175 198 0
174 197 0
174 198 0
174 198 0
174 197 0
175 198 0
173 197 0
176 198 0
175 198 0
174 197 0
173 197 0
174 198 0
174 197 0
174 198 0
175 198 0
174 197 0
175 198 0
173 197 0
175 198 0
175 198 0
174 197 0
176 198 0
173 197 0
173 197 0
173 197 0
172 197 0
175 198 0
175 198 0
174 198 0
176 198 0
173 197 0
175 198 0
174 198 0
175 198 0
174 197 0
173 197 0
175 198 0
173 197 0
175 198 0
173 197 0
175 198 0
174 197 0
176 198 0
174 197 0
174 197 0
173 197 0
172 197 0
174 197 0
174 197 0
174 198 0
173 197 0
174 198 0
175 198 0
175 198 0
176 199 79
178 200 163
182 202 212
182 202 228
184 203 228
184 203 228
184 203 228
183 202 228
183 202 228
185 203 228
183 203 228
183 203 228
184 203 228
183 202 228
183 202 228
183 202 228
183 203 228
184 203 228
183 202 228
183 203 228
183 202 228
183 203 228
183 202 228
183 202 228
184 203 228
183 202 228
182 202 228
183 202 228
183 202 228
183 202 228
183 203 228
183 203 228
183 203 228
182 202 228
184 203 228
183 202 228
183 202 228
183 202 228
182 202 228
183 203 228
183 202 228
183 203 228
184 203 228
183 202 228
183 202 228
183 203 228
182 202 228
183 202 228
183 202 228
183 202 228
183 202 228
183 202 228
183 203 228
183 202 228
183 202 228
182 202 228
184 203 228
183 202 228
183 202 228
183 202 228
183 202 228
182 202 228
182 202 228
183 202 228
183 202 228
183 202 228
183 202 228
184 203 228
183 202 228
183 202 228
183 203 228
183 202 228
183 202 228
183 202 228
182 202 228
183 203 228
183 203 228
183 203 228
183 202 228
182 202 228
183 202 228
183 202 228
183 203 228
183 202 228
183 203 228
182 202 228
183 202 228
183 202 228
184 203 228
183 203 228
183 202 228
183 202 228
183 202 228
184 203 228
183 202 228
183 202 228
183 202 228
183 203 228
183 202 228
183 202 228
184 203 228
182 202 228
182 202 228
182 202 228
184 203 228
183 202 228
182 202 228
183 202 228
184 203 228
183 202 228
183 203 228
183 202 228
183 202 228
183 203 228
183 202 228
183 202 228
183 202 228
182 202 228
182 202 228
183 202 228
182 202 228
183 202 228
183 203 228
183 202 228
183 202 228
183 202 228
183 203 228
182 202 228
182 202 228
182 202 228
183 202 228
182 202 228
183 202 228
182 202 228
183 202 228
183 202 228
183 203 228
182 202 228
182 202 228
183 202 228
182 202 220
179 200 168
175 198 88
175 198 0
174 197 0
173 197 0
174 197 0
174 197 0
173 197 0
175 197 0
173 197 0
171 195 0
172 196 0
173 196 0
173 196 0
172 196 0
175 198 0
172 195 0
173 197 0
175 198 0
173 197 0
175 198 0
172 196 0
174 197 0
172 196 0
174 197 0
174 198 0
174 197 0
174 197 0
174 197 0
173 196 0
172 196 0
175 198 0
172 196 0
175 198 0
174 197 0
173 197 0
174 197 0
174 198 0
172 196 0
174 197 0
172 196 0
174 196 0
174 198 0
175 198 0
173 196 0
173 197 0
171 195 0
174 197 0
174 197 0
174 197 0
173 197 0
174 198 0
174 197 0
173 197 0
174 197 0
172 196 0
172 196 0
176 198 0
174 197 0
173 197 0
174 197 0
172 196 0
173 196 0
175 198 0
175 198 0
174 197 0
175 198 0
173 197 0
173 197 0
173 196 0
174 197 0
173 197 0
173 197 0
172 196 0
174 197 0
173 196 0
172 196 0
175 198 0
172 196 0
174 197 0
171 196 0
175 198 0
173 197 0
174 197 0
173 196 0
174 198 0
173 196 0
173 196 0
173 197 0
174 198 0
173 197 0
173 197 0
175 198 0
174 196 0
174 197 0
174 197 0
173 197 0
174 197 0
174 198 0
175 198 0
173 197 0
172 196 0
173 197 0
175 198 0
174 197 0
175 198 0
173 196 0
174 197 0
174 197 0
174 197 0
175 197 0
174 197 0
173 197 0
173 196 0
174 198 0
172 196 0
173 197 0
174 197 0
173 197 0
173 197 0
171 195 0
175 198 0
174 197 0
174 197 0
174 198 0
173 196 0
173 196 0
173 196 0
173 197 0
175 198 0
173 196 0
173 196 0
174 197 0
174 198 0
173 197 0
175 198 0
174 197 0
172 196 0
170 194 0
174 198 0
173 197 0
173 197 0
173 197 0
173 196 0
176 198 0
174 197 0
174 198 0
175 198 0
175 198 0
171 195 0
171 196 0
173 197 0
174 198 0
175 198 0
174 197 0
175 198 0
174 197 0
174 197 0
174 198 0
173 197 0
172 196 0
173 197 0
173 197 0
172 196 0
176 199 0
173 196 0
173 196 0
174 197 0
176 198 0
174 198 0
175 198 0
173 196 0
174 197 0
173 197 0
173 197 0
173 197 0
173 197 0
174 197 0
175 198 0
174 197 0
173 197 0
174 198 0
172 196 0
173 197 0
174 198 0
173 196 0
174 197 0
174 197 0
174 197 0
173 197 0
173 196 0
174 197 0
175 198 0
172 196 0
175 198 0
175 198 0
173 197 0
174 198 0
173 197 0
174 197 0
173 197 0
174 198 0
174 197 0
174 197 0
174 197 0
174 197 0
174 197 0
175 198 0
174 197 0
174 197 0
172 197 0
174 197 0
173 197 0
174 197 0
173 197 0
173 197 0
175 198 0
175 198 0
174 198 0
174 197 0
173 197 0
175 198 0
174 198 0
175 198 0
173 197 0
174 197 0
173 197 0
174 198 0
175 198 0
174 197 0
172 197 0
174 197 0
175 198 0
172 196 0
174 198 0
174 198 0
173 197 0
176 198 0
176 199 0
175 198 0
175 198 0
175 198 0
174 197 0
174 198 0
174 197 0
173 197 0
173 197 0
175 198 0
174 197 0
174 198 0
175 198 0
175 198 0
173 197 0
173 197 0
174 197 0
174 197 0
174 197 22
178 199 139
180 200 198
183 202 227
183 203 228
184 203 228
184 203 228
184 203 228
183 202 228
183 202 228
183 203 228
183 203 228
183 202 228
182 202 228
184 203 228
183 203 228
183 203 228
183 202 228
184 203 228
183 203 228
183 202 228
183 202 228
184 203 228
183 202 228
183 203 228
183 202 228
183 202 228
183 203 228
183 202 228
183 203 228
183 202 228
183 202 228
183 203 228
182 202 228
183 203 228
183 202 228
183 202 228
182 202 228
183 203 228
183 203 228
183 202 228
183 203 228
183 202 228
183 203 228
183 202 228
184 203 228
183 202 228
183 202 228
184 203 228
183 203 228
183 202 228
183 202 228
182 202 228
183 202 228
183 202 228
182 202 228
183 202 228
182 202 228
184 203 228
183 202 228
182 202 228
183 202 228
182 202 228
183 202 228
183 202 228
183 202 228
183 203 228
182 202 228
183 202 228
183 202 228
182 202 228
183 202 228
183 203 228
182 202 228
183 202 228
183 202 228
182 202 228
183 202 228
183 203 228
182 202 228
183 203 228
183 202 228
183 202 228
183 202 228
184 203 228
183 202 228
183 202 228
183 202 228
182 202 228
183 202 228
182 202 228
183 203 228
183 203 228
183 202 228
183 202 228
183 203 228
183 202 228
184 203 228
182 202 228
183 202 228
183 202 228
183 202 228
182 202 228
183 202 228
182 202 228
184 203 228
183 202 228
183 202 228
182 202 228
183 202 228
182 202 228
183 202 228
183 203 228
183 202 228
184 203 228
183 203 228
183 202 228
183 203 228
183 202 228
184 203 228
182 202 228
183 203 228
183 202 228
183 202 228
183 203 228
183 202 228
183 203 228
182 202 228
183 202 228
182 202 228
183 202 228
183 202 228
183 202 228
183 203 228
183 202 228
183 202 228
182 202 228
183 202 228
183 202 228
182 202 228
182 202 228
183 203 228
182 202 228
182 202 228
183 202 228
183 202 226
178 199 183
176 198 123
174 197 0
173 197 0
174 197 0
175 198 0
173 197 0
173 197 0
173 196 0
171 194 0
173 197 0
174 197 0
175 198 0
173 197 0
174 198 0
172 196 0
173 196 0
174 197 0
175 197 0
172 196 0
173 196 0
174 197 0
173 196 0
173 197 0
172 195 0
175 198 0
173 197 0
173 196 0
172 196 0
174 197 0
174 197 0
173 197 0
174 198 0
174 197 0
174 197 0
175 198 0
173 197 0
173 197 0
172 195 0
172 196 0
172 196 0
173 197 0
172 196 0
173 197 0
174 198 0
173 197 0
176 198 0
173 196 0
174 197 0
175 197 0
171 195 0
176 199 0
173 197 0
173 197 0
174 197 0
174 197 0
174 198 0
173 196 0
173 197 0
173 197 0
171 194 0
174 197 0
173 196 0
173 197 0
175 198 0
174 197 0
173 196 0
174 197 0
172 196 0
175 198 0
174 197 0
173 196 0
171 194 0
175 198 0
174 197 0
173 196 0
173 197 0
175 198 0
172 195 0
175 198 0
172 196 0
171 194 0
174 198 0
173 197 0
174 197 0
173 197 0
172 196 0
174 198 0
174 196 0
173 197 0
173 197 0
173 197 0
172 196 0
175 198 0
173 197 0
173 197 0
172 196 0
175 198 0
174 198 0
174 197 0
174 198 0
174 197 0
174 197 0
173 197 0
174 197 0
173 196 0
174 197 0
175 198 0
174 197 0
175 197 0
173 196 0
173 196 0
173 197 0
174 198 0
172 196 0
173 197 0
174 197 0
174 197 0
172 196 0
175 197 0
174 198 0
173 197 0
174 197 0
174 198 0
173 196 0
173 197 0
173 196 0
174 197 0
172 197 0
172 196 0
172 196 0
175 198 0
172 195 0
174 198 0
173 197 0
175 198 0
174 197 0
174 198 0
174 198 0
173 197 0
174 197 0
173 197 0
173 196 0
173 196 0
174 198 0
175 198 0
172 196 0
173 196 0
174 197 0
175 198 0
174 198 0
173 197 0
175 197 0
174 198 0
173 197 0
173 197 0
173 197 0
173 197 0
172 196 0
174 197 0
174 197 0
173 196 0
174 198 0
172 195 0
175 198 0
173 197 0
174 198 0
174 197 0
173 197 0
172 196 0
175 198 0
175 198 0
174 197 0
174 198 0
173 196 0
173 196 0
173 196 0
174 197 0
174 198 0
173 197 0
174 198 0
173 197 0
175 197 0
175 198 0
174 198 0
174 197 0
175 198 0
174 197 0
174 198 0
173 197 0
171 196 0
175 198 0
174 197 0
174 198 0
173 197 0
173 197 0
175 198 0
174 197 0
175 198 0
173 196 0
174 198 0
176 198 0
172 196 0
175 198 0
174 197 0
176 198 0
173 197 0
173 197 0
175 198 0
175 198 0
174 198 0
174 198 0
174 197 0
175 198 0
175 198 0
173 197 0
174 197 0
175 198 0
173 197 0
173 197 0
174 198 0
173 197 0
175 198 0
175 198 0
176 198 0
173 197 0
176 199 0
174 197 0
174 197 0
175 198 0
174 197 0
173 197 0
173 197 0
176 199 0
174 198 0
174 197 0
175 198 0
174 197 0
174 197 0
175 198 0
175 198 0
174 197 0
175 198 0
174 197 0
176 198 0
174 197 0
174 198 0
173 197 0
173 197 0
173 197 0
174 198 0
175 198 0
177 199 99
179 200 169
182 202 216
184 203 228
183 202 228
183 203 228
183 203 228
183 202 228
183 202 228
182 202 228
182 202 228
183 202 228
182 202 228
183 203 228
183 202 228
183 202 228
184 203 228
182 202 228
183 203 228
184 203 228
182 202 228
183 203 228
183 203 228
183 203 228
183 203 228
183 202 228
183 203 228
183 202 228
183 202 228
183 203 228
183 203 228
183 202 228
183 202 228
184 203 228
184 203 228
184 203 228
182 202 228
184 203 228
183 203 228
184 203 228
183 203 228
183 202 228
183 202 228
182 202 228
183 202 228
182 202 228
182 202 228
184 203 228
184 203 228
184 203 228
184 203 228
183 203 228
183 202 228
183 202 228
183 202 228
183 203 228
182 202 228
183 203 228
183 203 228
183 202 228
183 202 228
182 202 228
183 202 228
183 203 228
183 202 228
183 202 228
183 203 228
183 202 228
183 202 228
183 203 228
183 203 228
183 202 228
184 203 228
183 202 228
182 202 228
183 202 228
182 202 228
183 202 228
182 202 228
183 202 228
183 203 228
183 203 228
183 203 228
182 202 228
183 203 228
183 202 228
182 202 228
182 202 228
182 202 228
182 202 228
182 202 228
183 202 228
183 202 228
182 202 228
184 203 228
183 202 228
182 202 228
182 202 228
183 203 228
182 202 228
183 202 228
182 202 228
183 202 228
183 202 228
183 202 228
183 203 228
183 202 228
183 203 228
183 203 228
182 202 228
183 202 228
183 202 228
183 202 228
183 202 228
183 202 228
183 202 228
184 203 228
183 202 228
183 202 228
183 202 228
184 203 228
183 202 228
183 202 228
183 202 228
183 202 228
183 203 228
184 203 228
182 202 228
183 203 228
183 202 228
183 202 228
183 202 228
184 203 228
182 202 228
183 202 228
183 202 228
183 202 228
183 202 228
183 202 228
183 202 228
183 203 228
183 202 228
183 202 228
182 202 228
182 202 228
183 202 228
183 202 228
183 202 228
183 202 228
183 202 228
180 201 191
176 199 129
174 197 22
172 196 0
174 197 0
175 198 0
172 196 0
173 197 0
175 198 0
174 197 0
173 197 0
172 196 0
174 197 0
173 196 0
173 197 0
175 198 0
175 197 0
175 198 0
173 197 0
173 196 0
174 197 0
174 197 0
174 197 0
172 196 0
174 197 0
172 195 0
174 197 0
174 198 0
175 197 0
173 196 0
174 197 0
173 196 0
173 197 0
173 197 0
174 197 0
174 197 0
174 198 0
175 198 0
174 197 0
173 196 0
170 194 0
174 197 0
172 196 0
174 197 0
174 197 0
174 197 0
173 196 0
174 197 0
172 196 0
174 197 0
174 197 0
174 197 0
173 197 0
173 196 0
175 198 0
173 196 0
175 198 0
175 198 0
175 198 0
174 198 0
176 198 0
174 197 0
174 197 0
174 197 0
173 197 0
172 196 0
174 198 0
173 197 0
175 198 0
172 196 0
175 198 0
174 198 0
173 196 0
173 197 0
173 197 0
172 196 0
174 198 0
173 197 0
174 197 0
171 195 0
175 198 0
174 197 0
173 197 0
173 196 0
173 197 0
174 197 0
174 197 0
173 197 0
174 197 0
174 197 0
172 195 0
174 198 0
172 195 0
175 198 0
173 196 0
173 197 0
174 197 0
174 197 0
175 198 0
174 198 0
173 196 0
175 198 0
173 197 0
173 197 0
172 196 0
173 197 0
172 195 0
173 196 0
173 196 0
174 197 0
174 197 0
173 197 0
175 198 0
172 196 0
173 197 0
173 197 0
173 196 0
173 197 0
173 196 0
173 197 0
174 197 0
173 196 0
174 197 0
173 197 0
172 197 0
173 197 0
175 197 0
173 197 0
172 196 0
172 196 0
174 197 0
174 197 0
175 198 0
173 196 0
174 197 0
173 196 0
172 196 0
174 197 0
172 196 0
173 197 0
174 197 0
174 197 0
174 197 0
174 197 0
173 196 0
175 198 0
174 197 0
174 197 0
174 197 0
172 197 0
173 197 0
172 196 0
176 198 0
173 196 0
174 197 0
174 198 0
173 197 0
172 196 0
174 198 0
172 196 0
172 195 0
172 197 0
173 197 0
174 197 0
175 197 0
175 198 0
174 197 0
174 198 0
173 196 0
175 198 0
174 197 0
175 198 0
172 196 0
174 197 0
173 196 0
174 197 0
174 197 0
174 197 0
175 198 0
176 198 0
175 198 0
174 198 0
174 197 0
173 197 0
174 198 0
174 196 0
177 199 0
173 197 0
173 197 0
174 198 0
174 198 0
173 197 0
174 197 0
173 196 0
174 198 0
173 197 0
174 198 0
175 198 0
175 198 0
173 197 0
173 197 0
173 197 0
174 197 0
173 197 0
173 197 0
174 197 0
174 198 0
175 198 0
175 198 0
174 197 0
174 197 0
175 198 0
174 198 0
174 197 0
175 198 0
175 198 0
174 197 0
172 197 0
174 198 0
173 197 0
175 198 0
175 198 0
173 197 0
174 197 0
172 196 0
175 198 0
174 197 0
175 198 0
175 198 0
175 198 0
175 198 0
176 199 0
173 197 0
174 198 0
175 198 0
174 197 0
173 197 0
173 197 0
175 198 0
174 197 0
173 197 0
175 198 0
173 197 0
174 198 0
174 197 0
176 198 0
174 198 0
175 197 79
177 199 166
181 201 208
183 203 228
184 203 228
184 203 228
183 202 228
183 203 228
183 202 228
183 202 228
183 202 228
183 203 228
183 203 228
183 202 228
183 202 228
182 202 228
184 203 228
184 203 228
183 202 228
183 202 228
183 202 228
183 202 228
183 202 228
183 202 228
183 202 228
182 202 228
182 202 228
182 202 228
183 202 228
183 202 228
183 202 228
182 202 228
183 203 228
183 202 228
183 202 228
183 202 228
183 202 228
183 202 228
184 203 228
183 202 228
183 202 228
183 203 228
183 203 228
183 202 228
183 202 228
184 203 228
183 202 228
183 202 228
183 203 228
183 203 228
183 203 228
182 202 228
183 203 228
184 203 228
183 202 228
183 203 228
184 203 228
183 202 228
183 202 228
183 203 228
183 202 228
182 202 228
183 202 228
183 203 228
182 202 228
183 202 228
183 202 228
183 203 228
183 202 228
183 202 228
183 203 228
183 203 228
182 202 228
183 202 228
183 203 228
183 202 228
183 202 228
183 202 228
184 203 228
184 203 228
183 202 228
183 202 228
183 203 228
183 202 228
183 203 228
183 202 228
183 202 228
182 202 228
184 203 228
183 203 228
183 203 228
182 202 228
182 202 228
183 202 228
183 202 228
182 202 228
184 203 228
183 202 228
183 202 228
183 202 228
183 202 228
183 203 228
183 203 228
183 202 228
182 202 228
183 202 228
183 202 228
183 202 228
183 202 228
183 202 228
183 202 228
182 202 228
183 202 228
183 203 228
182 202 228
183 202 228
183 202 228
182 202 228
183 203 228
182 202 228
182 202 228
183 202 228
182 202 228
182 202 228
183 202 228
183 202 228
183 202 228
182 202 228
182 202 228
183 202 228
183 202 228
183 202 228
182 202 228
182 202 228
183 202 228
182 202 228
182 202 228
182 202 228
183 202 228
183 202 228
182 202 228
184 203 228
183 202 228
183 203 228
182 202 228
183 202 228
183 202 228
183 202 228
183 202 228
183 202 228
183 202 228
182 202 228
183 203 228
182 202 228
183 203 228
181 201 211
177 199 148
174 196 39
172 195 0
173 197 0
175 198 0
173 197 0
173 197 0
173 197 0
175 198 0
173 196 0
173 196 0
174 197 0
172 196 0
175 198 0
171 196 0
172 196 0
173 197 0
175 198 0
173 196 0
173 197 0
173 197 0
173 196 0
173 196 0
174 197 0
174 197 0
172 195 0
174 197 0
173 197 0
173 197 0
174 197 0
173 196 0
174 197 0
173 196 0
173 197 0
175 198 0
173 196 0
172 196 0
173 196 0
173 197 0
174 197 0
174 197 0
174 197 0
172 196 0
174 197 0
175 198 0
173 196 0
170 194 0
175 198 0
175 198 0
174 198 0
176 198 0
174 197 0
174 198 0
173 197 0
174 197 0
173 197 0
174 197 0
173 197 0
174 198 0
175 197 0
171 196 0
173 196 0
174 198 0
171 194 0
174 198 0
175 197 0
176 198 0
171 195 0
173 197 0
173 196 0
173 197 0
174 197 0
173 196 0
174 197 0
174 197 0
173 197 0
173 197 0
175 198 0
176 198 0
174 197 0
173 196 0
173 197 0
174 197 0
175 198 0
172 196 0
175 198 0
172 196 0
173 197 0
171 195 0
174 197 0
173 197 0
173 197 0
173 197 0
174 198 0
173 197 0
174 197 0
173 197 0
175 198 0
172 195 0
175 198 0
174 197 0
175 198 0
172 195 0
175 198 0
174 197 0
174 197 0
174 197 0
174 197 0
175 198 0
175 198 0
173 197 0
173 196 0
174 197 0
175 197 0
174 198 0
175 198 0
174 197 0
174 197 0
173 197 0
174 198 0
173 197 0
174 197 0
174 197 0
175 198 0
173 197 0
172 195 0
173 196 0
174 197 0
175 198 0
174 198 0
173 197 0
173 197 0
174 197 0
174 197 0
175 198 0
174 198 0
174 197 0
173 196 0
175 198 0
173 196 0
173 196 0
174 197 0
175 198 0
174 197 0
175 198 0
174 197 0
174 197 0
173 197 0
174 198 0
173 197 0
174 197 0
175 198 0
175 197 0
173 197 0
173 197 0
174 197 0
174 198 0
174 197 0
176 198 0
173 196 0
173 196 0
174 198 0
173 196 0
173 196 0
174 198 0
175 198 0
175 198 0
174 197 0
173 197 0
173 196 0
175 198 0
174 197 0
173 196 0
176 198 0
175 198 0
173 196 0
175 198 0
174 197 0
175 198 0
173 197 0
174 198 0
174 198 0
175 198 0
173 197 0
176 198 0
173 197 0
173 197 0
172 197 0
174 197 0
172 197 0
175 198 0
174 197 0
174 197 0
176 198 0
175 198 0
174 197 0
174 198 0
174 198 0
174 197 0
173 197 0
174 198 0
176 199 0
175 198 0
174 198 0
174 197 0
173 197 0
173 197 0
173 197 0
174 198 0
174 197 0
174 198 0
175 198 0
175 198 0
173 197 0
174 197 0
172 196 0
176 198 0
174 197 0
174 197 0
175 198 0
174 198 0
174 197 0
173 197 0
174 197 0
174 197 0
175 198 0
174 197 0
174 198 0
174 198 0
174 198 0
175 198 0
174 198 0
173 197 0
175 198 0
173 197 0
175 198 0
174 197 0
174 197 0
174 197 0
173 197 0
174 197 0
174 198 51
178 200 148
182 202 200
183 202 226
183 203 228
184 203 228
183 202 228
184 203 228
183 202 228
183 202 228
183 203 228
183 202 228
184 203 228
184 203 228
183 202 228
183 202 228
183 202 228
184 203 228
184 203 228
183 202 228
184 203 228
183 202 228
182 202 228
182 202 228
183 203 228
184 203 228
183 202 228
183 202 228
183 203 228
183 202 228
183 202 228
183 202 228
183 203 228
182 202 228
183 203 228
183 202 228
183 203 228
183 202 228
183 202 228
184 203 228
183 202 228
184 203 228
183 203 228
183 202 228
183 203 228
183 202 228
183 203 228
183 203 228
183 202 228
184 203 228
183 202 228
182 202 228
183 202 228
182 202 228
183 202 228
183 203 228
183 202 228
183 202 228
183 202 228
183 202 228
182 202 228
183 202 228
183 203 228
183 202 228
183 202 228
182 202 228
183 203 228
183 202 228
182 202 228
183 202 228
183 202 228
183 202 228
183 202 228
182 202 228
183 202 228
183 203 228
183 202 228
183 202 228
183 202 228
182 202 228
183 202 228
183 202 228
183 202 228
183 203 228
183 203 228
183 202 228
183 202 228
183 202 228
183 202 228
183 202 228
183 202 228
183 202 228
183 202 228
183 203 228
181 202 228
182 202 228
183 202 228
182 202 228
183 202 228
183 202 228
183 202 228
182 202 228
182 202 228
183 202 228
183 202 228
183 203 228
183 202 228
183 202 228
183 202 228
183 202 228
182 202 228
183 202 228
182 202 228
182 202 228
183 203 228
182 202 228
182 202 228
183 203 228
182 202 228
183 202 228
183 202 228
183 202 228
183 202 228
183 202 228
183 202 228
182 202 228
183 202 228
183 203 228
183 202 228
183 202 228
182 202 228
183 202 228
183 202 228
183 202 228
183 202 228
183 202 228
183 202 228
182 202 228
183 202 228
183 202 228
182 202 228
182 202 228
182 202 228
183 202 228
183 202 228
182 202 228
183 202 228
182 202 228
182 202 228
183 202 228
183 202 228
182 202 228
182 202 228
183 202 228
183 202 228
183 202 228
183 202 228
183 203 228
181 202 228
183 202 228
182 202 220
177 199 156
174 197 60
175 198 0
174 198 0
173 196 0
173 197 0
174 197 0
173 196 0
173 196 0
174 197 0
174 198 0
173 196 0
175 198 0
175 198 0
173 196 0
174 197 0
174 198 0
173 196 0
174 197 0
173 197 0
172 196 0
173 196 0
174 198 0
172 195 0
173 197 0
174 197 0
172 196 0
176 198 0
175 198 0
173 197 0
174 197 0
173 196 0
173 197 0
175 198 0
174 197 0
173 196 0
173 197 0
174 197 0
175 198 0
172 196 0
175 198 0
174 197 0
173 197 0
174 197 0
174 197 0
173 197 0
175 198 0
173 196 0
173 197 0
174 197 0
174 197 0
175 198 0
173 196 0
172 196 0
172 196 0
173 197 0
171 195 0
173 196 0
174 197 0
172 196 0
172 196 0
172 196 0
172 196 0
174 197 0
174 198 0
174 197 0
172 196 0
174 197 0
175 197 0
173 197 0
175 198 0
174 197 0
173 196 0
174 197 0
174 197 0
173 196 0
175 198 0
175 198 0
173 196 0
174 197 0
173 197 0
174 197 0
172 196 0
174 197 0
173 197 0
174 197 0
176 198 0
173 197 0
175 198 0
170 194 0
173 197 0
173 197 0
173 197 0
174 197 0
172 196 0
175 198 0
174 197 0
172 196 0
174 197 0
174 197 0
174 197 0
175 197 0
174 197 0
175 198 0
174 197 0
173 197 0
173 197 0
173 197 0
173 197 0
175 198 0
177 198 0
172 196 0
174 197 0
173 197 0
171 195 0
172 196 0
174 197 0
172 196 0
172 195 0
173 197 0
174 197 0
174 197 0
174 197 0
174 198 0
173 196 0
175 198 0
175 198 0
173 196 0
174 197 0
174 197 0
175 198 0
174 198 0
175 198 0
171 195 0
175 198 0
172 196 0
172 196 0
176 198 0
174 198 0
174 197 0
173 196 0
173 196 0
174 197 0
173 196 0
174 197 0
173 197 0
175 198 0
174 198 0
173 196 0
175 198 0
174 197 0
174 198 0
175 198 0
174 197 0
176 198 0
172 196 0
173 197 0
174 197 0
173 197 0
176 199 0
172 195 0
173 197 0
174 197 0
172 197 0
173 197 0
174 197 0
174 197 0
175 198 0
174 197 0
175 198 0
176 198 0
174 198 0
173 197 0
173 196 0
174 197 0
174 198 0
174 197 0
174 197 0
173 197 0
174 197 0
175 198 0
174 198 0
175 198 0
174 197 0
174 197 0
175 198 0
174 197 0
173 197 0
174 198 0
175 198 0
174 197 0
175 198 0
174 197 0
174 197 0
174 197 0
175 198 0
173 197 0
176 199 0
174 198 0
175 198 0
172 196 0
172 196 0
174 197 0
173 197 0
174 197 0
175 198 0
174 197 0
176 199 0
175 198 0
175 198 0
175 198 0
172 197 0
175 198 0
173 196 0
173 197 0
173 197 0
175 198 0
175 198 0
172 196 0
173 197 0
174 198 0
175 198 0
174 197 0
174 197 0
174 197 0
172 196 0
174 198 0
173 197 0
173 197 0
174 198 0
174 197 0
174 197 0
173 197 0
174 197 0
175 198 0
174 197 0
174 198 0
174 197 0
172 194 79
180 200 207
183 202 228
183 203 228
182 202 228
183 202 228
184 203 228
183 202 228
184 203 228
182 202 228
183 202 228
183 202 228
183 202 228
183 202 228
182 202 228
183 202 228
183 203 228
184 203 228
183 202 228
182 202 228
183 203 228
183 202 228
183 202 228
183 202 228
183 203 228
183 203 228
184 203 228
182 202 228
184 203 228
183 202 228
183 202 228
183 202 228
183 202 228
183 202 228
183 202 228
183 202 228
183 202 228
182 202 228
183 202 228
183 202 228
182 202 228
183 202 228
183 202 228
183 203 228
184 203 228
183 202 228
183 202 228
183 202 228
182 202 228
183 203 228
183 202 228
183 202 228
183 202 228
183 203 228
183 202 228
183 202 228
183 202 228
183 202 228
183 202 228
184 203 228
183 202 228
182 202 228
183 202 228
183 203 228
182 202 228
183 202 228
183 202 228
183 202 228
182 202 228
182 202 228
182 202 228
183 202 228
183 202 228
183 202 228
183 203 228
183 203 228
183 202 228
182 202 228
183 202 228
182 202 228
183 202 228
182 202 228
183 202 228
182 202 228
183 202 228
182 202 228
183 202 228
182 202 228
182 202 228
183 202 228
184 203 228
183 202 228
183 202 228
182 202 228
183 202 228
183 202 228
183 202 228
183 202 228
183 202 228
183 202 228
182 202 228
183 202 228
184 203 228
182 202 228
183 202 228
183 202 228
182 202 228
183 202 228
183 202 228
182 202 228
183 202 228
182 202 228
182 202 228
183 202 228
182 202 228
183 202 228
183 202 228
183 202 228
183 202 228
183 202 228
184 203 228
183 203 228
183 202 228
183 202 228
183 202 228
182 202 228
183 202 228
182 202 228
183 202 228
183 202 228
183 202 228
182 202 228
184 203 228
183 202 228
183 202 228
182 202 228
183 202 228
182 202 228
183 202 228
183 203 228
182 202 228
183 202 228
182 202 228
183 203 228
183 202 228
182 202 228
183 202 228
183 202 228
182 202 228
182 202 228
183 203 228
182 202 228
183 202 228
183 202 228
183 202 228
183 202 228
182 202 228
182 202 228
182 202 228
183 202 228
184 203 228
183 202 228
183 202 228
180 199 214
171 194 64
173 196 0
173 196 0
175 198 0
173 196 0
174 196 0
173 195 0
172 196 0
175 197 0
175 198 0
174 197 0
173 197 0
175 198 0
173 197 0
174 197 0
173 197 0
174 197 0
172 197 0
175 197 0
175 198 0
174 197 0
175 197 0
173 197 0
173 196 0
175 198 0
174 196 0
173 196 0
173 196 0
173 196 0
175 198 0
172 196 0
173 197 0
172 196 0
173 197 0
173 196 0
173 197 0
172 196 0
174 197 0
173 195 0
173 197 0
174 197 0
173 196 0
175 198 0
175 197 0
173 196 0
176 198 0
173 197 0
174 197 0
173 196 0
173 197 0
175 198 0
173 197 0
173 197 0
174 197 0
173 196 0
173 197 0
173 196 0
173 197 0
173 196 0
173 196 0
175 198 0
171 196 0
175 198 0
172 196 0
174 198 0
175 198 0
172 196 0
173 197 0
174 197 0
174 198 0
173 197 0
173 196 0
174 197 0
172 196 0
172 196 0
173 196 0
173 196 0
172 196 0
174 197 0
174 198 0
173 196 0
175 198 0
173 196 0
172 195 0
175 198 0
174 197 0
175 198 0
173 197 0
173 196 0
172 196 0
174 197 0
174 198 0
174 196 0
175 197 0
174 198 0
173 196 0
173 197 0
174 197 0
173 196 0
175 198 0
174 198 0
173 196 0
174 197 0
171 195 0
174 197 0
175 198 0
174 197 0
172 196 0
174 197 0
174 197 0
173 197 0
173 196 0
174 198 0
174 197 0
175 198 0
173 197 0
174 197 0
173 197 0
172 196 0
173 197 0
173 196 0
174 197 0
172 195 0
173 197 0
174 198 0
173 197 0
173 197 0
175 198 0
173 197 0
175 198 0
173 197 0
173 197 0
172 195 0
174 197 0
173 197 0
173 197 0
174 197 0
174 197 0
173 197 0
176 198 0
172 195 0
173 197 0
174 196 0
174 197 0
175 198 0
173 196 0
172 196 0
174 197 0
175 198 0
173 197 0
175 198 0
174 197 0
174 197 0
174 197 0
172 196 0
173 196 0
175 198 0
173 197 0
172 196 0
173 197 0
175 198 0
175 198 0
176 198 0
174 198 0
175 197 0
174 197 0
174 197 0
173 197 0
172 196 0
173 197 0
175 198 0
174 197 0
175 198 0
174 198 0
173 197 0
175 198 0
173 195 0
174 198 0
174 197 0
175 198 0
172 195 0
174 198 0
174 197 0
175 198 0
173 197 0
175 198 0
174 197 0
175 198 0
173 196 0
174 197 0
174 197 0
173 197 0
174 197 0
174 197 0
173 197 0
173 196 0
174 198 0
174 198 0
173 197 0
174 197 0
176 199 0
175 198 0
175 198 0
174 197 0
175 198 0
173 197 0
174 197 0
174 197 0
174 198 0
173 197 0
173 197 0
173 197 0
174 197 0
173 197 0
174 198 0
174 197 0
174 197 0
173 197 0
174 198 0
175 198 0
174 198 0
174 197 0
174 198 0
174 197 0
175 198 0
174 198 0
174 197 0
173 197 0
173 197 0
174 197 0
175 198 0
173 197 0
173 197 0
174 197 0
174 198 0
175 198 0
166 188 0
159 179 79
175 195 192
184 203 228
183 202 228
183 202 228
183 202 228
183 202 228
183 202 228
182 202 228
183 202 228
183 202 228
183 203 228
183 203 228
183 203 228
184 203 228
183 202 228
184 203 228
184 203 228
182 202 228
183 202 228
183 202 228
183 202 228
183 202 228
183 203 228
183 202 228
183 202 228
183 202 228
183 202 228
183 203 228
183 202 228
182 202 228
183 202 228
183 202 228
183 203 228
182 202 228
183 202 228
183 202 228
182 202 228
184 203 228
182 202 228
183 202 228
183 202 228
183 202 228
184 203 228
183 202 228
183 202 228
183 202 228
183 202 228
182 202 228
183 202 228
183 203 228
183 202 228
183 202 228
182 202 228
183 202 228
182 202 228
183 202 228
183 202 228
183 202 228
183 202 228
182 202 228
182 202 228
183 202 228
182 202 228
183 202 228
182 202 228
182 202 228
183 202 228
183 203 228
182 202 228
182 202 228
183 203 228
182 202 228
183 202 228
183 202 228
183 202 228
182 202 228
182 202 228
182 202 228
183 202 228
183 202 228
183 202 228
182 202 228
182 202 228
182 202 228
182 202 228
183 202 228
183 202 228
183 203 228
183 202 228
182 202 228
183 202 228
183 202 228
183 202 228
183 202 228
182 202 228
183 203 228
183 202 228
183 202 228
182 202 228
182 202 228
183 202 228
183 202 228
182 202 228
183 202 228
183 202 228
183 202 228
182 202 228
182 202 228
183 203 228
182 202 228
183 202 228
182 202 228
183 202 228
182 202 228
183 202 228
182 202 228
183 202 228
182 202 228
183 202 228
182 202 228
183 202 228
183 202 228
182 202 228
182 202 228
182 202 228
183 202 228
182 202 228
182 202 228
183 202 228
182 202 228
183 202 228
182 202 228
182 202 228
182 202 228
182 202 228
183 202 228
182 202 228
183 202 228
183 202 228
182 202 228
182 202 228
183 202 228
182 202 228
182 202 228
183 202 228
182 202 228
182 202 228
183 202 228
182 202 228
182 202 228
183 202 228
183 202 228
183 203 228
182 202 228
182 202 228
182 202 228
183 203 228
183 203 228
183 202 228
179 198 209
164 185 133
154 175 22
164 186 0
174 197 0
173 197 0
173 196 0
173 196 0
173 197 0
173 196 0
174 197 0
173 197 0
175 198 0
176 198 0
173 197 0
173 197 0
173 196 0
176 198 0
173 195 0
174 197 0
173 197 0
175 197 0
173 197 0
175 198 0
173 196 0
172 196 0
173 197 0
175 198 0
175 198 0
173 196 0
174 197 0
176 198 0
173 196 0
173 197 0
173 197 0
172 196 0
172 195 0
174 197 0
173 196 0
175 198 0
173 197 0
173 197 0
174 197 0
174 198 0
173 196 0
172 196 0
174 197 0
171 195 0
172 196 0
174 197 0
174 198 0
172 195 0
175 198 0
174 197 0
173 197 0
172 195 0
171 195 0
172 196 0
173 197 0
175 198 0
174 198 0
174 198 0
173 197 0
173 196 0
172 196 0
174 197 0
175 198 0
172 196 0
174 197 0
174 197 0
173 197 0
174 197 0
172 196 0
172 196 0
177 199 0
173 196 0
173 196 0
174 197 0
173 197 0
174 198 0
173 197 0
174 197 0
173 196 0
176 198 0
174 197 0
175 197 0
173 196 0
173 197 0
173 197 0
173 197 0
174 197 0
173 197 0
173 197 0
176 198 0
174 197 0
173 196 0
173 196 0
174 198 0
174 197 0
175 197 0
173 196 0
172 195 0
175 198 0
175 198 0
173 196 0
174 197 0
173 197 0
174 197 0
173 197 0
174 197 0
175 198 0
173 197 0
172 195 0
174 198 0
173 197 0
174 197 0
173 196 0
173 196 0
173 196 0
174 197 0
173 197 0
173 197 0
172 195 0
174 197 0
174 197 0
172 196 0
173 197 0
176 198 0
173 197 0
175 198 0
174 197 0
173 196 0
173 196 0
174 197 0
174 197 0
175 198 0
175 198 0
175 198 0
173 196 0
173 196 0
171 196 0
173 197 0
175 198 0
175 197 0
175 198 0
174 198 0
177 199 0
174 198 0
172 195 0
173 197 0
174 197 0
173 197 0
174 198 0
174 197 0
173 197 0
172 196 0
175 198 0
174 197 0
174 198 0
175 198 0
173 197 0
173 197 0
173 196 0
174 197 0
173 197 0
173 197 0
174 197 0
175 198 0
175 198 0
175 198 0
174 197 0
173 196 0
175 198 0
174 197 0
173 196 0
173 196 0
173 196 0
175 198 0
173 197 0
173 197 0
173 197 0
173 196 0
173 197 0
172 196 0
173 197 0
175 198 0
175 198 0
173 197 0
173 196 0
175 198 0
173 197 0
174 198 0
174 197 0
172 196 0
174 197 0
174 197 0
173 197 0
175 198 0
173 197 0
174 198 0
174 198 0
174 197 0
174 198 0
175 198 0
174 197 0
174 197 0
174 197 0
174 198 0
175 198 0
174 198 0
173 197 0
174 198 0
174 198 0
175 198 0
173 197 0
174 198 0
173 197 0
173 197 0
174 198 0
175 198 0
176 198 0
174 198 0
173 197 0
173 197 0
175 198 0
173 197 0
175 198 0
172 196 0
174 197 0
175 198 0
176 199 0
174 197 0
173 197 0
173 197 0
174 198 0
174 197 0
175 198 0
173 197 0
175 198 0
170 192 0
156 177 0
156 177 0
162 182 107
178 197 203
183 202 228
183 203 228
184 203 228
183 202 228
183 202 228
183 202 228
183 202 228
183 202 228
183 202 228
183 202 228
182 202 228
182 202 228
183 202 228
183 202 228
183 202 228
183 203 228
183 202 228
184 203 228
183 202 228
183 203 228
183 202 228
182 202 228
183 202 228
183 202 228
182 202 228
182 202 228
183 202 228
183 202 228
183 202 228
182 202 228
183 202 228
182 202 228
183 202 228
182 202 228
183 202 228
182 202 228
183 202 228
183 202 228
183 202 228
182 202 228
183 202 228
183 202 228
182 202 228
182 202 228
183 202 228
183 202 228
182 202 228
184 203 228
183 202 228
183 203 228
183 202 228
183 202 228
182 202 228
183 202 228
183 202 228
182 202 228
183 202 228
183 202 228
183 203 228
183 202 228
183 202 228
183 202 228
182 202 228
182 202 228
183 202 228
182 202 228
183 203 228
183 202 228
183 202 228
183 202 228
183 203 228
183 203 228
184 203 228
183 203 228
182 202 228
182 202 228
183 202 228
183 202 228
182 202 228
182 202 228
183 202 228
182 202 228
183 202 228
183 203 228
182 202 228
182 202 228
183 202 228
182 202 228
183 202 228
183 202 228
183 202 228
183 202 228
182 202 228
183 202 228
183 202 228
182 202 228
183 203 228
183 202 228
183 203 228
183 203 228
183 202 228
182 202 228
183 202 228
184 203 228
183 202 228
183 202 228
183 202 228
183 202 228
183 202 228
182 202 228
182 202 228
183 202 228
183 202 228
182 202 228
182 202 228
181 202 228
183 202 228
182 202 228
183 202 228
183 202 228
183 202 228
183 202 228
183 202 228
183 202 228
183 203 228
183 203 228
182 202 228
183 202 228
182 202 228
183 202 228
182 202 228
182 202 228
182 202 228
183 202 228
182 202 228
183 202 228
183 202 228
183 202 228
182 202 228
182 202 228
182 202 228
182 202 228
183 203 228
182 202 228
182 202 228
182 202 228
182 202 228
182 202 228
181 201 228
182 202 228
182 202 228
183 202 228
182 202 228
182 202 228
174 194 190
164 183 125
152 173 0
153 174 0
155 175 0
161 183 0
174 197 0
173 197 0
171 195 0
174 197 0
171 196 0
175 198 0
172 196 0
173 197 0
173 197 0
174 197 0
175 198 0
174 197 0
174 196 0
172 196 0
172 196 0
173 197 0
173 197 0
172 197 0
173 196 0
173 196 0
174 197 0
174 197 0
173 197 0
174 197 0
172 195 0
171 195 0
173 197 0
171 195 0
174 197 0
173 196 0
171 195 0
172 196 0
173 197 0
175 198 0
175 198 0
173 197 0
173 196 0
172 196 0
176 198 0
172 196 0
174 197 0
172 196 0
172 196 0
171 195 0
173 197 0
174 197 0
174 197 0
173 196 0
173 197 0
174 197 0
173 197 0
175 198 0
173 197 0
173 197 0
171 195 0
174 197 0
174 197 0
173 197 0
173 197 0
173 197 0
174 197 0
172 196 0
174 197 0
174 198 0
173 196 0
173 196 0
175 197 0
173 197 0
173 197 0
173 196 0
173 197 0
174 197 0
176 198 0
175 198 0
175 198 0
176 199 0
173 197 0
175 198 0
174 197 0
172 196 0
174 197 0
173 197 0
175 198 0
175 198 0
172 196 0
173 197 0
173 197 0
174 197 0
174 197 0
173 197 0
175 198 0
174 197 0
172 195 0
172 196 0
172 196 0
172 196 0
172 196 0
174 198 0
174 197 0
174 197 0
174 198 0
173 197 0
173 197 0
174 198 0
172 196 0
174 197 0
173 196 0
174 197 0
174 197 0
174 197 0
174 197 0
172 196 0
174 197 0
173 196 0
173 196 0
172 195 0
175 198 0
175 197 0
175 198 0
174 198 0
175 198 0
172 196 0
175 197 0
173 196 0
172 195 0
173 196 0
173 197 0
173 197 0
173 197 0
175 198 0
174 198 0
174 197 0
173 197 0
174 197 0
173 197 0
173 196 0
176 198 0
173 197 0
175 198 0
173 197 0
173 197 0
174 197 0
175 198 0
174 197 0
173 197 0
173 197 0
173 197 0
173 196 0
175 198 0
174 197 0
172 196 0
174 197 0
172 196 0
175 198 0
174 197 0
173 197 0
170 194 0
174 198 0
174 197 0
174 197 0
174 197 0
175 198 0
174 197 0
175 198 0
173 197 0
174 196 0
174 197 0
176 199 0
175 198 0
175 198 0
175 198 0
174 197 0
174 197 0
175 198 0
173 197 0
174 198 0
174 197 0
174 197 0
173 197 0
174 197 0
173 197 0
174 197 0
174 198 0
174 198 0
173 197 0
174 197 0
174 197 0
174 197 0
175 198 0
171 196 0
173 197 0
174 197 0
174 197 0
174 197 0
173 197 0
174 198 0
174 197 0
175 198 0
176 198 0
175 198 0
174 198 0
174 197 0
175 198 0
173 197 0
175 198 0
172 196 0
174 198 0
174 198 0
176 199 0
174 197 0
173 197 0
175 198 0
176 199 0
175 198 0
175 198 0
173 197 0
173 197 0
174 198 0
174 197 0
175 198 0
174 197 0
175 197 0
174 198 0
172 196 0
173 197 0
173 197 0
173 197 0
175 198 0
173 197 0
176 198 0
174 197 0
174 198 0
174 197 0
175 198 0
175 198 0
173 196 0
155 176 0
156 177 0
155 176 0
156 177 32
168 188 151
179 199 213
182 202 228
183 202 228
183 203 228
183 203 228
183 202 228
183 202 228
182 202 228
183 203 228
182 202 228
183 202 228
183 202 228
183 202 228
182 202 228
183 202 228
182 202 228
183 203 228
182 202 228
182 202 228
183 202 228
182 202 228
182 202 228
182 202 228
183 202 228
184 203 228
183 203 228
182 202 228
183 202 228
184 203 228
183 202 228
183 202 228
182 202 228
183 203 228
182 202 228
183 202 228
183 203 228
182 202 228
183 202 228
183 203 228
182 202 228
183 202 228
182 202 228
182 202 228
183 203 228
183 202 228
182 202 228
183 202 228
183 202 228
183 202 228
182 202 228
182 202 228
182 202 228
182 202 228
183 202 228
182 202 228
183 203 228
183 202 228
182 202 228
182 202 228
183 202 228
182 202 228
183 202 228
183 202 228
182 202 228
183 202 228
183 202 228
182 202 228
183 202 228
183 202 228
182 202 228
183 202 228
183 202 228
182 202 228
183 202 228
183 203 228
182 202 228
183 202 228
183 202 228
183 202 228
183 202 228
182 202 228
182 202 228
183 202 228
182 202 228
182 202 228
183 202 228
182 202 228
182 202 228
182 202 228
183 202 228
183 202 228
183 202 228
183 202 228
183 203 228
183 202 228
181 202 228
182 202 228
183 202 228
182 202 228
182 202 228
183 203 228
182 202 228
183 202 228
182 202 228
183 202 228
183 202 228
182 202 228
182 202 228
182 202 228
183 202 228
181 202 228
182 202 228
182 202 228
182 202 228
182 202 228
182 202 228
182 202 228
182 202 228
183 202 228
183 202 228
182 202 228
182 202 228
182 202 228
183 203 228
183 202 228
183 202 228
182 202 228
182 202 228
182 202 228
182 202 228
183 202 228
183 202 228
183 202 228
183 202 228
182 202 228
183 202 228
182 202 228
183 202 228
183 202 228
182 202 228
182 202 228
182 202 228
182 202 228
183 202 228
183 202 228
183 202 228
183 202 228
182 202 228
182 202 228
183 202 228
183 202 228
171 190 175
160 180 99
153 175 0
153 174 0
152 172 0
154 174 0
151 172 0
162 185 0
173 196 0
173 196 0
173 196 0
174 197 0
175 198 0
174 197 0
175 198 0
173 197 0
172 196 0
175 198 0
175 198 0
170 194 0
173 197 0
173 197 0
172 195 0
173 196 0
173 197 0
175 198 0
174 197 0
173 196 0
174 198 0
173 197 0
176 198 0
174 197 0
172 195 0
173 196 0
171 194 0
174 197 0
173 197 0
174 197 0
173 197 0
173 196 0
171 195 0
174 197 0
175 198 0
174 197 0
174 197 0
173 196 0
173 197 0
172 196 0
173 196 0
174 196 0
172 196 0
174 197 0
174 197 0
172 196 0
173 196 0
175 197 0
173 196 0
174 197 0
174 198 0
174 197 0
174 197 0
173 196 0
172 195 0
176 198 0
173 197 0
171 196 0
172 197 0
172 196 0
174 198 0
175 198 0
174 197 0
170 195 0
172 195 0
175 197 0
173 197 0
173 197 0
174 197 0
173 197 0
173 197 0
174 198 0
174 197 0
173 196 0
174 197 0
173 197 0
171 195 0
171 196 0
172 196 0
173 196 0
172 196 0
174 197 0
173 197 0
175 198 0
172 196 0
174 197 0
172 196 0
175 198 0
176 198 0
174 197 0
173 197 0
173 197 0
174 197 0
176 198 0
173 197 0
172 196 0
171 196 0
173 197 0
173 197 0
172 195 0
173 197 0
174 198 0
174 197 0
174 198 0
175 198 0
174 197 0
173 196 0
174 197 0
175 198 0
173 197 0
173 197 0
173 197 0
174 197 0
173 196 0
174 197 0
175 197 0
173 197 0
172 196 0
171 196 0
172 195 0
174 198 0
172 196 0
174 197 0
173 197 0
176 198 0
175 198 0
173 197 0
172 196 0
172 196 0
173 197 0
173 197 0
175 198 0
172 196 0
173 197 0
175 198 0
175 198 0
173 197 0
174 198 0
174 198 0
176 199 0
174 198 0
174 197 0
174 198 0
174 197 0
171 195 0
171 195 0
172 196 0
174 197 0
173 196 0
175 198 0
173 197 0
174 197 0
174 197 0
175 198 0
175 198 0
174 197 0
174 198 0
174 197 0
173 197 0
174 197 0
173 197 0
172 195 0
172 195 0
175 197 0
173 197 0
174 197 0
175 198 0
173 197 0
174 197 0
175 198 0
174 197 0
172 196 0
175 198 0
176 198 0
173 197 0
173 196 0
174 196 0
173 197 0
174 198 0
173 197 0
174 197 0
174 198 0
174 198 0
175 198 0
174 198 0
175 198 0
175 198 0
175 198 0
174 198 0
173 197 0
173 196 0
173 197 0
172 196 0
174 198 0
175 198 0
173 196 0
174 197 0
173 196 0
175 198 0
175 198 0
174 198 0
174 197 0
174 197 0
175 198 0
175 198 0
173 197 0
174 197 0
174 198 0
176 199 0
174 197 0
173 196 0
174 198 0
174 197 0
175 198 0
173 197 0
174 197 0
174 197 0
176 198 0
175 198 0
174 198 0
174 197 0
173 197 0
175 198 0
174 197 0
174 197 0
174 197 0
176 198 0
174 197 0
176 198 0
175 197 0
174 197 0
174 197 0
174 197 0
175 198 0
173 197 0
174 197 0
155 177 0
155 176 0
156 176 0
155 176 0
155 176 0
158 178 45
170 190 165
183 202 227
183 202 228
184 203 228
183 202 228
183 202 228
183 203 228
183 202 228
182 202 228
183 202 228
183 202 228
183 203 228
183 203 228
183 202 228
183 202 228
183 203 228
182 202 228
182 202 228
183 202 228
183 203 228
184 203 228
183 202 228
183 202 228
183 202 228
182 202 228
183 202 228
183 202 228
183 202 228
184 203 228
182 202 228
183 202 228
183 202 228
182 202 228
183 203 228
183 202 228
182 202 228
182 202 228
182 202 228
183 203 228
183 202 228
183 202 228
183 203 228
183 202 228
182 202 228
182 202 228
182 202 228
182 202 228
183 202 228
182 202 228
183 202 228
183 202 228
183 202 228
183 202 228
183 202 228
183 202 228
183 202 228
183 203 228
182 202 228
183 202 228
183 202 228
183 202 228
182 202 228
183 203 228
183 202 228
183 202 228
182 202 228
183 202 228
182 202 228
182 202 228
183 202 228
183 202 228
182 202 228
183 202 228
182 202 228
182 202 228
182 202 228
183 202 228
183 202 228
182 202 228
183 202 228
182 202 228
183 203 228
183 202 228
182 202 228
183 202 228
183 202 228
182 202 228
183 202 228
182 202 228
183 202 228
182 202 228
182 202 228
182 202 228
182 202 228
183 202 228
182 202 228
183 202 228
183 203 228
182 202 228
183 202 228
183 202 228
183 202 228
183 202 228
183 203 228
182 202 228
183 202 228
182 202 228
182 202 228
182 202 228
183 202 228
182 202 228
183 202 228
182 202 228
183 203 228
183 202 228
183 202 228
183 202 228
183 202 228
182 202 228
182 202 228
183 202 228
183 202 228
182 202 228
182 202 228
183 202 228
182 202 228
182 202 228
183 202 228
182 202 228
182 202 228
183 202 228
183 202 228
182 202 228
183 202 228
182 202 228
182 202 228
183 202 228
183 202 228
182 202 228
182 202 228
182 202 228
182 202 228
182 202 228
182 202 228
182 202 228
183 202 228
182 202 228
181 201 223
171 190 172
153 173 75
153 173 0
155 176 0
152 173 0
154 174 0
153 173 0
150 170 0
154 175 0
165 186 0
174 197 0
173 197 0
172 195 0
173 196 0
173 196 0
175 198 0
174 197 0
174 197 0
173 197 0
172 196 0
172 196 0
175 198 0
174 196 0
174 196 0
176 198 0
172 196 0
175 198 0
173 197 0
172 196 0
171 195 0
174 197 0
173 196 0
173 197 0
175 198 0
173 197 0
173 196 0
173 197 0
173 197 0
175 198 0
175 198 0
173 196 0
171 195 0
174 197 0
174 197 0
172 196 0
175 198 0
175 198 0
174 197 0
174 197 0
174 197 0
173 197 0
173 197 0
175 198 0
173 197 0
175 198 0
173 197 0
173 196 0
172 196 0
174 197 0
173 196 0
173 197 0
174 198 0
172 195 0
172 197 0
174 196 0
172 197 0
174 197 0
174 198 0
172 197 0
174 197 0
174 197 0
173 197 0
175 197 0
175 198 0
173 197 0
173 197 0
173 196 0
174 197 0
174 197 0
173 197 0
172 195 0
174 197 0
175 197 0
174 197 0
173 197 0
173 196 0
175 198 0
173 197 0
173 196 0
174 197 0
172 196 0
173 197 0
175 197 0
173 196 0
172 196 0
173 197 0
173 197 0
174 197 0
172 195 0
174 197 0
173 196 0
173 196 0
173 196 0
172 197 0
172 195 0
173 196 0
175 198 0
174 197 0
172 196 0
174 197 0
173 197 0
172 196 0
173 196 0
173 196 0
173 197 0
174 197 0
174 198 0
173 197 0
175 198 0
172 196 0
175 197 0
173 196 0
173 197 0
177 199 0
174 198 0
172 196 0
174 198 0
171 195 0
176 198 0
174 197 0
174 197 0
175 198 0
174 196 0
174 197 0
175 197 0
175 198 0
175 198 0
175 198 0
172 196 0
172 196 0
174 197 0
173 196 0
174 197 0
175 198 0
173 196 0
173 197 0
174 198 0
173 197 0
170 193 0
174 197 0
174 197 0
176 198 0
175 198 0
174 197 0
174 197 0
174 197 0
173 197 0
173 196 0
173 197 0
174 197 0
174 198 0
172 196 0
174 198 0
174 197 0
174 197 0
172 196 0
173 196 0
174 197 0
175 198 0
173 197 0
173 197 0
172 196 0
176 198 0
173 197 0
173 196 0
172 195 0
176 199 0
176 198 0
174 197 0
174 198 0
174 197 0
174 197 0
175 198 0
174 198 0
175 198 0
175 198 0
174 197 0
173 196 0
174 198 0
173 197 0
173 197 0
173 196 0
173 196 0
173 197 0
173 197 0
173 197 0
175 198 0
174 197 0
175 198 0
173 196 0
174 197 0
173 196 0
175 198 0
175 198 0
172 197 0
175 198 0
172 196 0
174 197 0
175 198 0
175 198 0
175 198 0
174 198 0
175 198 0
175 198 0
174 198 0
173 197 0
174 197 0
173 197 0
173 197 0
176 198 0
174 197 0
174 197 0
174 197 0
172 196 0
174 197 0
175 198 0
176 199 0
174 198 0
174 197 0
173 197 0
175 198 0
171 196 0
174 197 0
174 198 0
174 197 0
174 198 0
174 197 0
175 198 0
173 197 0
175 198 0
173 197 0
174 198 0
173 197 0
175 198 0
173 197 0
175 198 0
158 181 0
155 177 0
156 177 0
154 176 0
155 176 0
155 176 0
155 176 0
162 182 107
175 195 192
183 202 228
183 202 228
184 203 228
183 202 228
183 202 228
182 202 228
183 202 228
183 203 228
184 203 228
182 202 228
182 202 228
183 202 228
183 203 228
183 202 228
183 202 228
182 202 228
182 202 228
183 202 228
183 203 228
183 202 228
183 202 228
183 202 228
181 201 228
183 202 228
183 202 228
182 202 228
182 202 228
183 202 228
182 202 228
183 202 228
183 202 228
183 202 228
183 202 228
182 202 228
183 202 228
183 202 228
183 202 228
182 202 228
182 202 228
183 202 228
183 202 228
183 202 228
182 202 228
182 202 228
182 202 228
182 202 228
183 202 228
182 202 228
183 202 228
182 202 228
183 202 228
182 202 228
183 202 228
183 203 228
183 202 228
183 202 228
183 202 228
183 202 228
183 203 228
183 202 228
183 202 228
183 202 228
183 202 228
182 202 228
182 202 228
182 202 228
182 202 228
183 202 228
182 202 228
182 202 228
183 202 228
182 202 228
182 202 228
182 202 228
183 202 228
182 202 228
183 202 228
183 202 228
182 202 228
182 202 228
183 202 228
182 202 228
182 202 228
183 202 228
182 202 228
183 202 228
182 202 228
182 202 228
183 202 228
182 202 228
182 202 228
182 202 228
182 202 228
183 202 228
183 202 228
182 202 228
183 202 228
182 202 228
183 202 228
182 202 228
183 202 228
182 202 228
182 202 228
182 202 228
183 202 228
182 202 228
182 202 228
182 202 228
182 202 228
183 202 228
182 202 228
182 202 228
182 202 228
182 202 228
183 202 228
183 202 228
182 202 228
183 202 228
182 202 228
182 202 228
182 202 228
183 202 228
182 202 228
182 202 228
182 202 228
182 202 228
182 202 228
182 202 228
182 202 228
183 202 228
182 202 228
183 202 228
183 203 228
181 202 228
183 203 228
182 202 228
182 202 228
182 202 228
182 202 228
182 202 228
182 202 228
182 202 228
179 199 214
168 188 156
156 176 72
151 172 0
152 172 0
154 175 0
153 172 0
154 174 0
155 176 0
153 173 0
151 171 0
154 175 0
164 187 0
175 198 0
173 196 0
172 195 0
171 196 0
172 195 0
174 197 0
173 197 0
173 196 0
173 197 0
171 195 0
174 197 0
173 197 0
172 195 0
173 196 0
172 195 0
174 197 0
172 196 0
173 197 0
173 196 0
174 197 0
173 196 0
173 196 0
175 198 0
173 196 0
174 196 0
172 196 0
173 196 0
175 198 0
173 195 0
170 194 0
173 197 0
173 196 0
175 197 0
172 196 0
173 196 0
170 195 0
174 197 0
174 198 0
171 195 0
172 196 0
172 196 0
171 195 0
175 197 0
174 197 0
174 197 0
173 196 0
173 196 0
173 197 0
172 195 0
174 197 0
174 197 0
173 196 0
172 195 0
172 195 0
174 197 0
175 198 0
176 199 0
172 195 0
174 197 0
173 197 0
173 197 0
175 198 0
173 197 0
171 194 0
174 197 0
173 197 0
173 196 0
170 194 0
172 196 0
175 198 0
173 196 0
174 197 0
173 197 0
170 194 0
173 196 0
173 197 0
171 195 0
174 197 0
173 197 0
172 196 0
173 196 0
177 199 0
174 197 0
174 197 0
174 196 0
171 195 0
173 197 0
174 198 0
173 197 0
172 196 0
174 197 0
173 196 0
175 198 0
173 196 0
174 197 0
172 195 0
173 197 0
173 197 0
173 197 0
175 197 0
175 197 0
173 197 0
174 197 0
171 196 0
173 197 0
174 197 0
173 197 0
174 197 0
176 198 0
175 198 0
173 196 0
172 196 0
172 196 0
173 196 0
173 196 0
172 196 0
175 198 0
174 197 0
173 197 0
173 196 0
171 195 0
174 197 0
173 197 0
175 197 0
174 197 0
173 197 0
172 196 0
175 198 0
175 198 0
173 197 0
174 197 0
174 197 0
173 197 0
173 197 0
173 197 0
174 197 0
174 197 0
173 196 0
170 194 0
174 196 0
172 196 0
174 198 0
174 197 0
174 197 0
173 197 0
172 196 0
176 198 0
173 196 0
174 197 0
173 197 0
173 196 0
174 197 0
175 198 0
174 197 0
175 197 0
173 197 0
172 196 0
173 197 0
174 197 0
175 198 0
175 198 0
173 197 0
173 196 0
175 198 0
174 197 0
173 197 0
173 197 0
176 198 0
172 196 0
172 196 0
173 197 0
174 197 0
173 195 0
174 197 0
173 197 0
173 196 0
174 198 0
173 197 0
172 196 0
174 197 0
175 198 0
174 197 0
173 196 0
173 197 0
174 198 0
174 198 0
173 196 0
173 197 0
174 198 0
175 198 0
174 198 0
174 198 0
173 197 0
174 197 0
174 198 0
176 199 0
175 198 0
171 195 0
174 196 0
173 197 0
173 197 0
173 196 0
173 197 0
174 198 0
175 198 0
174 197 0
174 198 0
174 197 0
175 198 0
174 197 0
174 198 0
174 198 0
174 197 0
174 197 0
173 197 0
174 197 0
174 198 0
174 197 0
173 197 0
172 197 0
174 197 0
173 197 0
174 197 0
175 198 0
176 199 0
174 197 0
173 197 0
173 197 0
174 198 0
172 196 0
173 197 0
172 196 0
174 197 0
173 197 0
173 197 0
173 197 0
163 186 0
156 177 0
156 177 0
156 177 0
154 175 0
155 176 0
157 177 0
156 177 0
156 177 0
161 181 102
179 199 214
183 202 228
182 202 228
183 202 228
183 203 228
182 202 228
182 202 228
182 202 228
182 202 228
182 202 228
183 202 228
182 202 228
182 202 228
182 202 228
183 202 228
182 202 228
182 202 228
182 202 228
183 202 228
182 202 228
183 202 228
182 202 228
182 202 228
182 202 228
183 202 228
183 202 228
183 202 228
183 202 228
183 202 228
183 202 228
183 202 228
183 202 228
183 202 228
182 202 228
182 202 228
183 203 228
182 202 228
182 202 228
183 202 228
182 202 228
182 202 228
181 201 228
183 202 228
182 202 228
182 202 228
183 202 228
182 202 228
182 202 228
183 203 228
182 202 228
183 202 228
182 202 228
182 202 228
182 202 228
183 202 228
183 202 228
183 203 228
183 202 228
183 202 228
182 202 228
183 202 228
183 202 228
182 202 228
183 202 228
182 202 228
182 202 228
182 202 228
183 202 228
183 202 228
183 202 228
182 202 228
182 202 228
182 202 228
182 202 228
182 202 228
183 202 228
183 202 228
182 202 228
182 202 228
182 202 228
181 201 228
182 202 228
182 202 228
183 202 228
182 202 228
182 202 228
182 202 228
183 202 228
183 202 228
182 202 228
182 202 228
182 202 228
182 202 228
182 202 228
182 202 228
182 202 228
182 202 228
183 202 228
183 202 228
183 202 228
182 202 228
183 202 228
182 202 228
182 202 228
182 202 228
182 202 228
182 202 228
182 202 228
182 202 228
182 202 228
182 202 228
183 202 228
182 202 228
182 202 228
184 203 228
182 202 228
182 202 228
182 202 228
183 202 228
182 202 228
182 202 228
183 202 228
182 202 228
181 202 228
182 202 228
182 202 228
182 202 228
183 202 228
182 202 228
182 202 228
182 202 228
182 202 228
183 202 228
183 202 228
182 202 228
183 202 228
183 202 228
183 202 228
182 202 228
177 197 209
164 184 129
152 173 22
151 172 0
154 175 0
154 174 0
154 173 0
151 171 0
152 173 0
153 173 0
154 175 0
151 172 0
155 175 0
153 173 0
163 185 0
174 196 0
173 197 0
173 197 0
172 196 0
174 197 0
176 198 0
173 196 0
174 197 0
173 197 0
171 195 0
172 195 0
175 198 0
174 198 0
173 196 0
174 197 0
173 196 0
173 196 0
171 195 0
172 196 0
172 196 0
174 197 0
173 197 0
174 197 0
173 197 0
174 197 0
172 196 0
175 198 0
173 197 0
172 195 0
173 197 0
173 196 0
175 198 0
173 197 0
173 196 0
173 197 0
173 196 0
175 198 0
175 198 0
173 197 0
173 196 0
174 197 0
173 196 0
173 196 0
173 196 0
170 194 0
174 197 0
173 196 0
173 197 0
173 196 0
174 197 0
174 197 0
173 197 0
172 196 0
174 197 0
173 196 0
172 195 0
173 196 0
173 197 0
172 195 0
173 197 0
172 196 0
172 196 0
173 197 0
174 197 0
172 196 0
171 196 0
174 197 0
173 196 0
170 195 0
174 197 0
173 197 0
172 196 0
173 197 0
172 196 0
174 197 0
174 197 0
172 196 0
173 196 0
174 197 0
172 196 0
174 197 0
173 196 0
176 198 0
171 195 0
174 197 0
176 198 0
173 197 0
173 196 0
173 196 0
172 196 0
173 197 0
174 197 0
174 197 0
173 197 0
173 197 0
175 198 0
174 198 0
172 196 0
174 197 0
174 197 0
171 195 0
173 196 0
173 197 0
173 197 0
174 197 0
172 195 0
173 196 0
173 196 0
173 197 0
174 197 0
173 197 0
173 197 0
173 196 0
172 195 0
174 197 0
172 196 0
173 197 0
175 198 0
173 196 0
174 197 0
174 197 0
172 196 0
171 195 0
175 197 0
173 197 0
174 197 0
175 198 0
173 196 0
175 198 0
172 195 0
172 197 0
174 197 0
173 197 0
173 196 0
175 198 0
175 198 0
175 198 0
175 198 0
173 196 0
175 198 0
174 197 0
174 197 0
175 198 0
174 197 0
173 196 0
172 195 0
173 197 0
175 198 0
172 196 0
174 198 0
175 197 0
175 197 0
172 195 0
174 197 0
173 197 0
174 197 0
173 197 0
174 197 0
174 197 0
173 197 0
172 196 0
172 195 0
175 198 0
175 198 0
174 198 0
173 197 0
175 198 0
175 198 0
175 198 0
174 197 0
174 197 0
174 197 0
172 196 0
174 197 0
174 197 0
174 198 0
175 198 0
174 197 0
176 199 0
173 197 0
173 196 0
172 197 0
173 196 0
174 198 0
175 198 0
173 197 0
174 198 0
173 197 0
175 198 0
174 197 0
174 196 0
174 198 0
173 196 0
173 196 0
175 198 0
174 197 0
174 198 0
173 197 0
173 197 0
175 197 0
174 197 0
174 198 0
174 197 0
174 198 0
172 197 0
174 197 0
176 198 0
173 197 0
175 198 0
175 198 0
174 197 0
175 198 0
175 198 0
175 198 0
174 197 0
174 197 0
175 198 0
174 197 0
173 197 0
173 197 0
173 197 0
174 197 0
172 196 0
174 197 0
173 197 0
172 197 0
173 197 0
174 197 0
175 198 0
174 197 0
172 196 0
174 198 0
173 197 0
173 197 0
174 197 0
175 198 0
166 188 0
157 178 0
156 176 0
155 176 0
156 177 0
156 177 0
155 176 0
156 177 0
155 176 0
156 177 0
155 176 0
166 186 139
182 201 220
183 202 228
183 203 228
182 202 228
182 202 228
183 202 228
182 202 228
183 202 228
183 202 228
183 202 228
182 202 228
182 202 228
183 202 228
183 203 228
183 202 228
183 202 228
182 202 228
182 202 228
182 202 228
183 202 228
182 202 228
183 203 228
182 202 228
183 202 228
182 202 228
183 202 228
183 202 228
182 202 228
183 202 228
183 202 228
183 202 228
183 202 228
182 202 228
183 202 228
183 202 228
182 202 228
183 202 228
183 202 228
183 202 228
182 202 228
183 202 228
183 202 228
182 202 228
182 202 228
182 202 228
182 202 228
182 202 228
183 202 228
183 202 228
183 203 228
182 202 228
182 202 228
183 202 228
182 202 228
183 202 228
182 202 228
182 202 228
182 202 228
183 202 228
182 202 228
183 202 228
182 202 228
182 202 228
182 202 228
183 202 228
182 202 228
182 202 228
182 202 228
182 202 228
182 202 228
182 202 228
182 202 228
183 202 228
183 202 228
183 202 228
183 202 228
182 202 228
182 202 228
183 202 228
183 202 228
183 202 228
182 202 228
183 202 228
182 202 228
183 202 228
183 202 228
182 202 228
182 202 228
181 202 228
182 202 228
183 202 228
181 201 228
182 202 228
182 202 228
182 202 228
182 202 228
182 202 228
182 202 228
182 202 228
183 202 228
182 202 228
183 202 228
182 202 228
182 202 228
182 202 228
182 202 228
182 202 228
183 202 228
182 202 228
183 202 228
182 202 228
182 202 228
183 202 228
182 202 228
182 202 228
183 202 228
182 202 228
183 202 228
183 202 228
182 202 228
183 202 228
182 202 228
182 202 228
183 203 228
182 202 228
183 202 228
182 202 228
182 202 228
182 202 228
182 202 228
182 202 228
182 202 228
182 202 228
182 202 228
182 202 228
174 194 190
160 180 112
151 171 0
152 172 0
150 171 0
153 173 0
152 172 0
152 173 0
152 172 0
153 173 0
152 173 0
151 172 0
154 175 0
152 172 0
153 173 0
152 173 0
163 185 0
173 197 0
174 197 0
173 196 0
174 197 0
173 197 0
176 199 0
172 196 0
173 197 0
172 195 0
173 197 0
173 196 0
172 195 0
173 196 0
172 196 0
174 198 0
174 197 0
173 197 0
175 197 0
171 195 0
174 197 0
172 195 0
173 197 0
172 196 0
174 197 0
173 197 0
173 197 0
171 196 0
172 196 0
174 197 0
171 194 0
174 197 0
175 197 0
173 197 0
173 196 0
174 197 0
174 197 0
173 196 0
172 196 0
173 197 0
173 196 0
174 197 0
174 196 0
174 196 0
172 196 0
173 197 0
174 197 0
174 197 0
173 197 0
174 198 0
173 196 0
173 197 0
173 197 0
174 197 0
174 197 0
174 197 0
170 193 0
174 197 0
172 195 0
174 197 0
174 196 0
173 197 0
172 196 0
173 197 0
171 195 0
175 198 0
173 196 0
172 196 0
174 197 0
173 196 0
173 197 0
173 196 0
175 198 0
173 196 0
172 196 0
172 196 0
174 197 0
173 196 0
174 197 0
173 196 0
173 197 0
175 198 0
173 197 0
172 195 0
172 196 0
171 194 0
173 196 0
175 198 0
174 197 0
173 196 0
173 196 0
173 197 0
174 197 0
174 198 0
174 197 0
174 197 0
172 196 0
175 198 0
173 196 0
174 197 0
172 196 0
173 196 0
174 198 0
171 195 0
175 197 0
174 197 0
173 196 0
174 198 0
174 197 0
174 197 0
173 195 0
175 198 0
173 197 0
172 194 0
175 198 0
173 197 0
173 197 0
172 196 0
174 197 0
174 197 0
174 197 0
174 197 0
175 198 0
173 196 0
174 196 0
171 194 0
174 197 0
174 197 0
172 196 0
173 197 0
173 196 0
173 196 0
175 198 0
172 196 0
174 197 0
172 196 0
172 195 0
173 197 0
175 198 0
173 197 0
175 198 0
174 197 0
173 196 0
172 196 0
171 195 0
175 198 0
174 197 0
176 199 0
175 197 0
173 197 0
176 199 0
174 197 0
174 197 0
174 197 0
174 198 0
174 196 0
174 197 0
172 195 0
172 196 0
173 196 0
174 197 0
174 197 0
175 198 0
174 197 0
173 196 0
173 197 0
174 197 0
175 198 0
175 198 0
175 198 0
172 196 0
172 196 0
172 196 0
174 197 0
173 197 0
174 197 0
174 198 0
173 197 0
173 197 0
172 196 0
173 197 0
173 197 0
174 197 0
173 197 0
175 198 0
173 197 0
175 198 0
175 198 0
173 197 0
172 196 0
175 198 0
174 198 0
174 197 0
175 198 0
175 198 0
174 197 0
175 198 0
174 198 0
173 197 0
171 195 0
174 197 0
175 198 0
174 197 0
176 198 0
174 198 0
174 198 0
175 198 0
174 198 0
173 197 0
173 197 0
174 198 0
173 197 0
174 197 0
175 198 0
175 198 0
174 197 0
174 197 0
175 198 0
173 197 0
175 198 0
175 197 0
174 197 0
174 198 0
174 198 0
174 197 0
173 197 0
174 197 0
173 197 0
174 197 0
173 197 0
175 198 0
175 198 0
174 197 0
174 197 0
174 197 0
174 197 0
174 197 0
167 191 0
156 177 0
157 178 0
155 176 0
155 176 0
156 177 0
155 176 0
157 177 0
155 176 0
156 177 0
156 177 0
154 176 0
157 178 60
171 191 172
183 202 227
182 202 228
183 202 228
183 202 228
182 202 228
183 202 228
182 202 228
182 202 228
182 202 228
183 202 228
182 202 228
183 202 228
183 202 228
183 202 228
182 202 228
183 202 228
182 202 228
182 202 228
182 202 228
182 202 228
183 202 228
183 202 228
183 202 228
182 202 228
183 202 228
183 203 228
182 202 228
182 202 228
182 202 228
183 202 228
181 202 228
183 202 228
182 202 228
183 202 228
183 202 228
182 202 228
182 202 228
183 203 228
182 202 228
182 202 228
182 202 228
182 202 228
183 202 228
183 202 228
182 202 228
182 202 228
183 202 228
183 202 228
181 202 228
182 202 228
183 202 228
183 202 228
182 202 228
182 202 228
182 202 228
182 202 228
181 202 228
183 202 228
182 202 228
182 202 228
182 202 228
182 202 228
182 202 228
182 202 228
183 202 228
182 202 228
182 202 228
183 202 228
182 202 228
182 202 228
182 202 228
182 202 228
182 202 228
183 202 228
182 202 228
182 202 228
183 202 228
182 202 228
183 202 228
183 202 228
183 202 228
183 202 228
182 202 228
183 202 228
182 202 228
183 202 228
182 202 228
182 202 228
183 202 228
183 202 228
182 202 228
182 202 228
183 202 228
182 202 228
183 202 228
182 202 228
182 202 228
183 202 228
182 202 228
183 202 228
182 202 228
182 202 228
182 202 228
183 202 228
183 202 228
182 202 228
182 202 228
183 202 228
182 202 228
183 202 228
182 202 228
182 202 228
182 202 228
182 202 228
183 202 228
182 202 228
182 202 228
182 202 228
182 202 228
183 202 228
182 202 228
183 202 228
182 202 228
182 202 228
182 202 228
182 202 228
182 202 228
183 202 228
182 202 228
182 202 228
180 200 223
172 192 187
156 176 94
153 173 0
150 170 0
152 172 0
149 170 0
152 173 0
154 174 0
150 171 0
153 173 0
154 174 0
156 175 0
153 174 0
151 171 0
152 173 0
150 171 0
151 172 0
152 173 0
161 183 0
174 197 0
174 197 0
174 197 0
174 197 0
174 197 0
174 197 0
173 197 0
173 197 0
173 196 0
174 197 0
173 197 0
175 198 0
173 196 0
172 195 0
174 197 0
174 197 0
175 198 0
171 195 0
172 195 0
173 196 0
174 197 0
173 196 0
173 197 0
174 198 0
172 196 0
172 195 0
170 194 0
173 197 0
174 198 0
172 196 0
171 195 0
174 197 0
173 197 0
174 197 0
173 197 0
172 195 0
176 198 0
172 196 0
171 195 0
174 197 0
172 196 0
171 195 0
172 195 0
173 195 0
171 195 0
174 197 0
173 197 0
173 196 0
173 196 0
174 197 0
171 195 0
175 197 0
173 197 0
174 197 0
175 198 0
172 196 0
172 197 0
174 197 0
173 197 0
172 197 0
175 198 0
174 198 0
173 197 0
174 197 0
173 196 0
174 197 0
173 196 0
174 197 0
174 196 0
173 196 0
175 198 0
172 196 0
174 197 0
174 197 0
173 196 0
175 198 0
171 195 0
171 195 0
172 196 0
173 197 0
174 198 0
174 198 0
173 197 0
173 196 0
172 195 0
174 197 0
173 196 0
174 197 0
173 197 0
173 197 0
174 197 0
172 195 0
172 196 0
172 196 0
173 197 0
173 197 0
174 197 0
174 197 0
172 196 0
174 197 0
172 195 0
172 196 0
173 197 0
172 196 0
174 197 0
171 195 0
173 196 0
174 198 0
172 196 0
175 198 0
175 197 0
172 195 0
175 197 0
170 194 0
174 197 0
175 198 0
174 197 0
173 196 0
173 197 0
173 197 0
174 197 0
174 198 0
175 198 0
174 197 0
172 196 0
171 195 0
172 196 0
175 197 0
174 197 0
173 197 0
173 197 0
171 195 0
174 197 0
173 197 0
171 195 0
174 197 0
172 195 0
174 197 0
174 197 0
172 196 0
173 195 0
173 197 0
173 197 0
174 197 0
174 196 0
174 198 0
175 197 0
176 199 0
172 197 0
174 197 0
175 198 0
173 196 0
173 196 0
174 197 0
175 198 0
173 196 0
174 198 0
173 197 0
172 195 0
174 198 0
175 198 0
176 199 0
175 198 0
173 197 0
174 197 0
173 197 0
172 195 0
173 197 0
174 197 0
174 197 0
173 196 0
174 197 0
173 196 0
173 196 0
174 198 0
173 197 0
174 197 0
173 197 0
173 197 0
173 197 0
173 197 0
175 198 0
171 195 0
174 196 0
173 197 0
171 194 0
173 197 0
173 197 0
173 197 0
173 197 0
173 197 0
176 199 0
174 197 0
174 198 0
172 196 0
175 198 0
173 197 0
174 198 0
174 197 0
174 198 0
174 197 0
174 197 0
173 197 0
176 199 0
175 198 0
175 198 0
175 198 0
175 198 0
175 198 0
175 198 0
173 197 0
173 197 0
175 198 0
174 197 0
173 197 0
176 199 0
173 197 0
172 197 0
174 197 0
173 197 0
173 197 0
173 197 0
175 198 0
174 197 0
174 197 0
174 197 0
175 198 0
175 198 0
174 197 0
174 197 0
173 197 0
174 197 0
173 197 0
174 197 0
173 197 0
173 197 0
172 195 0
156 177 0
156 177 0
156 177 0
154 175 0
156 177 0
156 177 0
156 177 0
156 177 0
156 177 0
156 176 0
155 176 0
156 176 0
156 177 0
159 180 85
176 196 194
183 202 228
182 202 228
182 202 228
182 202 228
183 202 228
183 202 228
183 202 228
182 202 228
182 202 228
182 202 228
183 203 228
183 202 228
183 202 228
183 202 228
183 202 228
183 202 228
182 202 228
182 202 228
183 202 228
182 202 228
182 202 228
182 202 228
182 202 228
182 202 228
182 202 228
182 202 228
183 202 228
182 202 228
183 202 228
183 202 228
183 202 228
183 202 228
183 202 228
182 202 228
183 202 228
182 202 228
181 202 228
182 202 228
183 202 228
183 202 228
183 203 228
183 202 228
183 202 228
182 202 228
183 202 228
183 203 228
182 202 228
182 202 228
182 202 228
183 202 228
182 202 228
182 202 228
183 202 228
183 202 228
182 202 228
183 202 228
182 202 228
182 202 228
183 202 228
182 202 228
183 202 228
182 202 228
182 202 228
182 202 228
183 202 228
182 202 228
182 202 228
182 202 228
181 201 228
181 202 228
182 202 228
182 202 228
182 202 228
182 202 228
182 202 228
181 201 228
183 202 228
182 202 228
183 202 228
183 202 228
181 202 228
183 202 228
182 202 228
182 202 228
182 202 228
182 202 228
182 202 228
182 202 228
182 202 228
182 202 228
182 202 228
181 201 228
183 202 228
182 202 228
183 202 228
183 202 228
182 202 228
183 202 228
182 202 228
181 201 228
182 202 228
182 202 228
182 202 228
182 202 228
182 202 228
182 202 228
182 202 228
182 202 228
182 202 228
183 202 228
183 202 228
183 202 228
182 202 228
182 202 228
182 202 228
181 201 228
183 202 228
182 202 228
182 202 228
183 202 228
182 202 228
182 202 228
182 202 228
182 202 228
182 202 228
182 202 228
179 199 216
170 190 174
156 177 94
150 171 0
152 172 0
150 169 0
153 173 0
153 173 0
152 171 0
153 174 0
154 174 0
152 172 0
152 173 0
152 172 0
151 172 0
152 173 0
151 171 0
153 174 0
153 173 0
153 174 0
152 172 0
165 187 0
174 197 0
175 197 0
175 197 0
174 197 0
174 197 0
170 193 0
172 196 0
173 196 0
171 195 0
172 196 0
175 198 0
173 197 0
174 197 0
173 197 0
174 197 0
173 197 0
173 197 0
173 196 0
173 197 0
173 196 0
174 197 0
171 194 0
173 197 0
173 197 0
174 197 0
173 196 0
172 196 0
172 196 0
173 196 0
174 197 0
173 197 0
171 194 0
175 197 0
172 196 0
174 197 0
171 195 0
173 196 0
171 195 0
175 198 0
172 196 0
175 198 0
171 195 0
172 196 0
174 197 0
173 196 0
173 196 0
172 196 0
175 198 0
173 196 0
173 196 0
174 197 0
174 197 0
174 197 0
173 196 0
175 198 0
174 197 0
174 197 0
173 197 0
172 196 0
174 198 0
172 196 0
173 197 0
174 197 0
173 197 0
171 194 0
173 196 0
173 196 0
174 197 0
174 197 0
174 197 0
171 196 0
173 197 0
173 197 0
172 195 0
173 196 0
174 198 0
173 197 0
172 195 0
172 196 0
174 197 0
173 196 0
173 196 0
175 198 0
173 197 0
174 197 0
173 197 0
174 197 0
171 195 0
173 197 0
174 197 0
173 197 0
172 196 0
172 196 0
174 197 0
175 198 0
172 196 0
170 195 0
172 195 0
173 196 0
174 198 0
173 196 0
174 197 0
174 197 0
173 197 0
171 194 0
172 195 0
172 196 0
172 195 0
172 195 0
173 197 0
173 196 0
173 197 0
173 197 0
174 198 0
173 196 0
174 198 0
173 196 0
175 198 0
173 195 0
174 197 0
174 197 0
172 196 0
172 196 0
171 194 0
172 196 0
174 198 0
173 196 0
173 196 0
172 196 0
173 197 0
173 196 0
174 197 0
174 197 0
173 197 0
173 197 0
174 197 0
174 198 0
174 197 0
175 198 0
174 198 0
174 198 0
172 195 0
176 199 0
174 197 0
174 197 0
170 194 0
175 198 0
173 196 0
174 197 0
174 197 0
172 196 0
174 197 0
174 197 0
174 197 0
174 197 0
175 198 0
174 198 0
174 197 0
172 195 0
172 196 0
174 197 0
174 197 0
174 197 0
173 197 0
176 198 0
175 198 0
174 197 0
172 195 0
174 197 0
173 196 0
174 197 0
174 197 0
173 197 0
174 197 0
175 198 0
172 197 0
176 198 0
174 197 0
174 197 0
175 197 0
174 198 0
174 197 0
174 197 0
174 198 0
173 197 0
174 197 0
172 196 0
172 197 0
174 198 0
172 195 0
173 197 0
175 198 0
174 197 0
172 196 0
173 197 0
172 196 0
175 198 0
173 196 0
174 198 0
173 196 0
175 198 0
175 198 0
175 198 0
175 198 0
174 197 0
173 197 0
172 197 0
175 198 0
175 198 0
173 197 0
172 196 0
175 198 0
175 198 0
174 197 0
173 197 0
173 197 0
174 197 0
173 197 0
172 196 0
173 197 0
175 198 0
174 197 0
174 197 0
174 198 0
173 197 0
173 197 0
173 197 0
174 197 0
173 197 0
174 198 0
174 197 0
174 197 0
174 197 0
174 197 0
175 198 0
173 197 0
173 197 0
156 177 0
154 176 0
156 176 0
155 176 0
155 176 0
155 176 0
157 177 0
156 176 0
156 176 0
154 176 0
155 176 0
156 177 0
155 176 0
155 176 0
155 176 0
166 186 135
179 198 208
183 202 228
183 202 228
183 202 228
182 202 228
183 202 228
183 202 228
183 202 228
182 202 228
183 202 228
183 202 228
182 202 228
182 202 228
182 202 228
182 202 228
182 202 228
182 202 228
184 203 228
182 202 228
182 202 228
183 202 228
182 202 228
181 202 228
182 202 228
182 202 228
183 202 228
182 202 228
182 202 228
182 202 228
183 202 228
183 202 228
183 202 228
183 202 228
182 202 228
182 202 228
181 202 228
182 202 228
183 202 228
182 202 228
183 202 228
183 202 228
182 202 228
182 202 228
182 202 228
183 202 228
182 202 228
182 202 228
182 202 228
182 202 228
183 202 228
182 202 228
182 202 228
182 202 228
182 202 228
182 202 228
183 202 228
182 202 228
182 202 228
182 202 228
183 202 228
182 202 228
182 202 228
183 202 228
181 202 228
182 202 228
183 202 228
182 202 228
182 202 228
182 202 228
183 202 228
182 202 228
182 202 228
183 202 228
182 202 228
182 202 228
182 202 228
183 202 228
182 202 228
183 202 228
182 202 228
182 202 228
182 202 228
182 202 228
183 202 228
182 202 228
182 202 228
182 202 228
182 202 228
182 202 228
183 203 228
182 202 228
182 202 228
183 202 228
182 202 228
182 202 228
182 202 228
183 202 228
182 202 228
183 202 228
182 202 228
183 202 228
183 202 228
182 202 228
182 202 228
183 202 228
182 202 228
182 202 228
182 202 228
182 202 228
183 202 228
182 202 228
182 202 228
182 202 228
182 202 228
182 202 228
182 202 228
182 202 228
182 202 228
181 201 228
182 202 228
182 202 228
182 202 228
182 202 228
178 198 216
166 187 153
152 173 45
153 175 0
149 170 0
152 172 0
150 170 0
152 173 0
154 174 0
151 171 0
155 175 0
149 168 0
153 174 0
153 174 0
152 172 0
154 174 0
154 174 0
153 174 0
152 172 0
149 170 0
152 173 0
154 174 0
152 172 0
166 188 0
176 198 0
174 197 0
173 196 0
172 196 0
173 196 0
173 196 0
170 194 0
173 196 0
173 196 0
174 197 0
172 195 0
172 195 0
174 197 0
171 195 0
174 197 0
171 195 0
172 196 0
174 197 0
173 196 0
174 197 0
173 197 0
173 196 0
172 195 0
173 197 0
173 197 0
173 196 0
173 197 0
172 195 0
173 196 0
174 197 0
173 197 0
174 197 0
172 195 0
173 196 0
174 197 0
174 197 0
173 196 0
171 195 0
172 196 0
174 197 0
173 197 0
173 196 0
175 198 0
173 197 0
173 197 0
175 198 0
175 198 0
173 196 0
173 197 0
174 196 0
173 197 0
172 197 0
172 195 0
174 197 0
174 197 0
173 197 0
173 196 0
174 198 0
174 197 0
174 197 0
170 194 0
173 197 0
173 196 0
173 196 0
173 197 0
173 196 0
170 194 0
173 196 0
171 195 0
173 197 0
174 197 0
173 197 0
174 197 0
174 197 0
174 197 0
174 197 0
176 199 0
174 197 0
173 197 0
174 197 0
173 197 0
174 197 0
175 197 0
174 198 0
171 195 0
173 196 0
176 198 0
174 197 0
173 196 0
173 196 0
172 195 0
173 196 0
174 198 0
173 196 0
171 194 0
174 197 0
171 195 0
173 196 0
173 197 0
174 198 0
174 197 0
175 198 0
173 197 0
172 196 0
175 198 0
174 198 0
175 198 0
173 196 0
171 194 0
172 195 0
174 197 0
173 196 0
173 197 0
172 195 0
174 198 0
174 196 0
172 196 0
174 197 0
173 197 0
172 196 0
174 197 0
174 197 0
176 199 0
174 198 0
174 197 0
173 197 0
174 197 0
173 196 0
174 197 0
175 198 0
173 197 0
171 195 0
175 197 0
174 196 0
175 198 0
173 197 0
173 196 0
175 197 0
173 196 0
172 195 0
176 199 0
173 196 0
174 196 0
173 197 0
172 197 0
173 196 0
172 195 0
172 196 0
174 196 0
173 196 0
173 197 0
173 196 0
174 197 0
173 197 0
174 198 0
174 197 0
173 197 0
173 197 0
174 197 0
173 197 0
175 198 0
173 197 0
174 197 0
175 197 0
173 196 0
174 197 0
175 198 0
174 198 0
174 197 0
174 197 0
174 197 0
174 197 0
173 197 0
174 197 0
172 196 0
176 199 0
174 197 0
172 196 0
175 198 0
173 197 0
172 196 0
175 198 0
172 196 0
174 197 0
172 196 0
174 197 0
174 197 0
176 198 0
176 198 0
174 197 0
174 197 0
171 195 0
174 198 0
174 197 0
172 196 0
175 198 0
174 198 0
172 196 0
174 198 0
173 197 0
173 197 0
174 198 0
173 197 0
174 197 0
174 198 0
173 196 0
175 197 0
173 197 0
175 198 0
172 196 0
174 197 0
174 197 0
174 197 0
174 197 0
174 197 0
173 197 0
175 198 0
174 197 0
173 197 0
176 198 0
175 197 0
175 198 0
174 197 0
174 197 0
173 197 0
175 198 0
174 197 0
173 197 0
174 197 0
173 197 0
173 197 0
174 197 0
174 198 0
174 197 0
174 197 0
173 197 0
173 197 0
161 183 0
155 176 0
154 176 0
156 177 0
157 177 0
157 177 0
157 177 0
156 177 0
156 176 0
154 175 0
157 178 0
156 177 0
155 176 0
155 176 0
156 177 0
155 176 0
155 177 45
168 188 148
181 200 219
183 202 228
182 202 228
183 202 228
182 202 228
183 202 228
183 202 228
182 202 228
182 202 228
183 202 228
183 202 228
183 202 228
183 202 228
183 202 228
182 202 228
182 202 228
182 202 228
182 202 228
183 202 228
183 202 228
182 202 228
183 203 228
183 202 228
183 202 228
182 202 228
182 202 228
183 202 228
183 202 228
182 202 228
182 202 228
183 203 228
182 202 228
182 202 228
182 202 228
182 202 228
181 201 228
183 202 228
183 202 228
183 202 228
183 202 228
183 202 228
182 202 228
182 202 228
181 201 228
181 202 228
182 202 228
182 202 228
183 202 228
182 202 228
182 202 228
183 202 228
183 202 228
182 202 228
182 202 228
182 202 228
183 202 228
183 202 228
182 202 228
182 202 228
183 202 228
183 202 228
182 202 228
182 202 228
182 202 228
182 202 228
182 202 228
183 202 228
182 202 228
182 202 228
182 202 228
182 202 228
183 202 228
182 202 228
182 202 228
182 202 228
182 202 228
182 202 228
182 202 228
182 202 228
182 202 228
182 202 228
183 202 228
181 202 228
182 202 228
182 202 228
182 202 228
182 202 228
182 202 228
182 202 228
182 202 228
182 202 228
182 202 228
182 202 228
182 202 228
182 202 228
183 202 228
183 202 228
182 202 228
182 202 228
182 202 228
182 202 228
182 202 228
182 202 228
183 202 228
182 202 228
182 202 228
182 202 228
182 202 228
182 202 228
181 202 228
182 202 228
182 202 228
182 202 228
182 202 228
182 202 228
182 202 228
181 202 228
183 202 228
182 202 228
177 197 204
163 183 135
151 171 48
148 169 0
149 169 16
151 170 16
153 173 0
154 173 0
152 172 0
152 172 0
152 173 0
152 172 0
153 172 0
153 173 0
154 175 0
150 171 0
152 172 0
152 171 0
152 173 0
152 173 0
150 171 0
151 172 0
154 175 0
152 173 0
156 175 0
164 187 0
173 196 0
173 196 0
174 196 0
173 196 0
172 196 0
173 197 0
172 195 0
173 197 0
172 196 0
172 196 0
174 197 0
172 196 0
173 196 0
173 196 0
173 196 0
173 197 0
173 197 0
173 197 0
173 197 0
172 195 0
173 197 0
174 197 0
173 196 0
174 197 0
173 197 0
173 197 0
171 194 0
171 196 0
170 194 0
174 197 0
172 196 0
171 195 0
172 195 0
172 195 0
172 196 0
175 198 0
173 197 0
171 195 0
174 198 0
174 197 0
174 197 0
174 197 0
174 197 0
173 197 0
171 194 0
173 196 0
173 197 0
173 196 0
171 194 0
174 197 0
173 197 0
173 197 0
173 196 0
172 196 0
173 197 0
174 197 0
172 195 0
174 197 0
172 196 0
174 197 0
173 196 0
172 195 0
171 194 0
174 197 0
172 196 0
174 197 0
172 196 0
172 195 0
172 194 0
173 196 0
175 197 0
174 197 0
174 197 0
173 197 0
173 197 0
175 198 0
171 195 0
171 196 0
170 194 0
173 197 0
171 195 0
173 196 0
172 196 0
173 196 0
174 197 0
173 197 0
172 196 0
173 197 0
172 196 0
172 196 0
175 198 0
172 196 0
173 196 0
172 195 0
174 197 0
172 196 0
174 197 0
175 198 0
172 195 0
175 198 0
173 197 0
173 197 0
175 198 0
173 197 0
173 197 0
172 195 0
173 196 0
173 197 0
173 197 0
173 196 0
172 195 0
172 195 0
173 197 0
173 197 0
173 196 0
173 197 0
173 197 0
176 198 0
174 197 0
173 197 0
174 197 0
175 198 0
173 197 0
175 197 0
173 197 0
173 196 0
174 197 0
174 198 0
173 197 0
174 197 0
174 198 0
173 196 0
175 198 0
174 197 0
174 197 0
171 194 0
175 198 0
174 197 0
175 198 0
174 197 0
173 196 0
173 197 0
173 197 0
175 198 0
173 196 0
172 196 0
175 198 0
173 196 0
173 197 0
171 194 0
172 196 0
172 196 0
174 197 0
174 197 0
174 197 0
174 196 0
173 196 0
174 197 0
172 196 0
175 197 0
175 198 0
171 194 0
174 197 0
173 197 0
175 198 0
172 196 0
172 196 0
173 197 0
173 197 0
175 198 0
174 197 0
171 194 0
177 198 0
173 196 0
174 198 0
173 197 0
172 196 0
174 197 0
175 198 0
175 198 0
174 198 0
174 197 0
174 197 0
174 197 0
173 197 0
173 197 0
173 197 0
174 197 0
174 197 0
173 196 0
174 197 0
175 197 0
174 198 0
173 197 0
173 197 0
175 198 0
173 197 0
174 198 0
176 198 0
173 197 0
174 197 0
173 197 0
174 197 0
175 198 0
174 197 0
175 198 0
174 198 0
175 198 0
174 197 0
174 197 0
174 197 0
175 198 0
172 196 0
173 197 0
174 197 0
174 197 0
173 197 0
174 198 0
174 197 0
173 197 0
174 198 0
176 199 0
175 198 0
174 198 0
175 198 0
173 196 0
174 197 0
174 197 0
174 197 0
173 197 0
174 197 0
175 198 0
173 197 0
174 197 0
173 197 0
175 198 0
174 197 0
162 184 0
156 176 0
157 177 0
154 176 0
156 177 0
155 176 0
154 176 0
156 177 0
156 176 0
155 176 0
155 176 0
155 176 0
157 177 0
156 176 0
155 176 0
156 177 0
155 177 0
156 177 0
159 180 85
172 193 183
182 202 228
183 202 228
183 202 228
183 202 228
182 202 228
182 202 228
182 202 228
182 202 228
183 202 228
183 202 228
182 202 228
182 202 228
182 202 228
183 202 228
183 202 228
182 202 228
182 202 228
182 202 228
183 202 228
183 202 228
182 202 228
182 202 228
183 202 228
183 202 228
182 202 228
182 202 228
183 202 228
183 202 228
182 202 228
182 202 228
182 202 228
182 202 228
182 202 228
182 202 228
182 202 228
182 202 228
182 202 228
183 202 228
182 202 228
182 202 228
182 202 228
182 202 228
182 202 228
182 202 228
182 202 228
183 202 228
182 202 228
181 201 228
182 202 228
182 202 228
181 202 228
183 202 228
183 202 228
182 202 228
182 202 228
182 202 228
182 202 228
183 202 228
182 202 228
182 202 228
182 202 228
182 202 228
183 202 228
182 202 228
182 202 228
182 202 228
182 202 228
183 202 228
182 202 228
183 202 228
183 202 228
182 202 228
183 202 228
182 202 228
182 202 228
182 202 228
182 202 228
182 202 228
181 201 228
182 202 228
182 202 228
182 202 228
182 202 228
182 202 228
182 202 228
182 202 228
182 202 228
183 202 228
182 202 228
182 202 228
182 202 228
182 202 228
183 202 228
183 202 228
182 202 228
183 202 228
181 202 228
183 202 228
182 202 228
183 202 228
182 202 228
181 202 228
182 202 228
182 202 228
182 202 228
182 202 228
182 202 228
182 202 228
182 202 228
182 202 228
182 202 228
182 202 228
182 202 228
182 202 228
182 202 228
174 194 195
154 175 122
148 169 35
145 166 42
153 173 32
148 169 28
154 174 16
153 173 0
147 166 0
149 168 0
152 173 0
152 174 0
152 171 0
151 172 0
153 173 0
154 175 0
152 173 0
153 174 0
154 175 0
154 174 0
153 173 0
153 173 0
152 172 0
151 171 0
154 175 0
154 174 0
151 171 0
159 181 0
172 196 0
172 195 0
174 196 0
173 197 0
172 195 0
174 197 0
172 196 0
172 195 0
174 197 0
172 196 0
174 197 0
173 197 0
173 197 0
171 195 0
172 196 0
173 196 0
173 196 0
173 196 0
173 197 0
171 195 0
173 196 0
174 197 0
174 197 0
174 198 0
172 196 0
172 196 0
171 195 0
174 197 0
175 198 0
171 193 0
173 197 0
172 195 0
174 197 0
175 198 0
172 196 0
174 197 0
173 197 0
172 195 0
176 199 0
173 197 0
170 194 0
175 198 0
176 198 0
173 196 0
173 196 0
173 197 0
171 196 0
173 197 0
173 196 0
171 194 0
174 197 0
174 197 0
172 196 0
173 197 0
172 196 0
174 197 0
174 197 0
172 195 0
172 196 0
173 197 0
174 197 0
175 198 0
172 196 0
174 197 0
170 195 0
173 196 0
173 196 0
172 196 0
174 198 0
173 197 0
172 196 0
174 197 0
172 196 0
175 198 0
173 196 0
173 196 0
173 197 0
171 195 0
173 196 0
173 196 0
171 195 0
174 197 0
173 196 0
175 198 0
173 197 0
173 197 0
175 197 0
172 196 0
177 199 0
174 197 0
173 196 0
173 196 0
175 197 0
174 197 0
173 197 0
171 195 0
174 197 0
174 198 0
173 196 0
173 196 0
173 197 0
173 196 0
173 197 0
173 196 0
171 195 0
174 197 0
172 196 0
174 197 0
175 198 0
173 197 0
172 196 0
173 197 0
172 196 0
173 196 0
173 197 0
173 197 0
172 196 0
172 196 0
172 195 0
173 196 0
174 197 0
174 197 0
174 196 0
174 197 0
173 196 0
173 197 0
173 197 0
173 196 0
173 197 0
174 198 0
173 196 0
174 197 0
173 197 0
172 196 0
173 197 0
173 196 0
173 197 0
174 197 0
173 196 0
174 197 0
174 198 0
175 198 0
175 198 0
174 197 0
175 197 0
175 197 0
173 196 0
173 197 0
172 195 0
171 195 0
173 197 0
175 198 0
173 196 0
174 198 0
174 197 0
173 197 0
173 196 0
173 197 0
173 197 0
174 197 0
173 196 0
171 195 0
173 196 0
172 196 0
173 196 0
175 198 0
174 197 0
173 197 0
173 196 0
174 197 0
174 197 0
174 197 0
174 198 0
172 196 0
174 198 0
173 197 0
175 198 0
175 198 0
175 198 0
172 196 0
172 196 0
174 198 0
174 197 0
176 198 0
174 198 0
172 196 0
175 198 0
173 197 0
172 196 0
172 196 0
173 196 0
174 197 0
174 198 0
176 198 0
173 197 0
173 197 0
172 196 0
173 197 0
174 197 0
173 197 0
174 197 0
173 197 0
176 199 0
175 198 0
172 196 0
172 196 0
173 197 0
174 198 0
174 197 0
173 197 0
175 197 0
174 197 0
174 197 0
175 197 0
174 197 0
172 196 0
174 198 0
173 197 0
174 198 0
175 198 0
174 197 0
173 197 0
175 198 0
175 198 0
175 198 0
173 197 0
173 196 0
175 197 0
173 197 0
173 197 0
175 197 0
173 196 0
173 196 0
173 197 0
174 197 0
174 198 0
173 197 0
168 191 0
156 176 0
156 176 0
157 177 0
155 176 0
155 176 0
155 176 0
155 176 0
156 176 0
156 177 0
155 176 0
155 176 0
156 176 0
156 176 0
155 177 0
155 176 0
155 176 0
154 176 0
155 176 0
156 177 0
161 181 91
178 197 200
183 202 228
182 202 228
182 202 228
182 202 228
182 202 228
183 202 228
182 202 228
181 202 228
182 202 228
183 202 228
182 202 228
182 202 228
182 202 228
183 202 228
182 202 228
182 202 228
183 202 228
182 202 228
182 202 228
182 202 228
183 202 228
183 202 228
182 202 228
182 202 228
182 202 228
182 202 228
182 202 228
183 202 228
182 202 228
182 202 228
182 202 228
182 202 228
182 202 228
181 202 228
182 202 228
182 202 228
182 202 228
182 202 228
182 202 228
182 202 228
182 202 228
182 202 228
182 202 228
182 202 228
182 202 228
182 202 228
183 202 228
182 202 228
182 202 228
182 202 228
183 202 228
182 202 228
181 202 228
182 202 228
182 202 228
182 202 228
182 202 228
182 202 228
183 202 228
182 202 228
182 202 228
182 202 228
182 202 228
182 202 228
182 202 228
182 202 228
182 202 228
182 202 228
182 202 228
182 202 228
182 202 228
182 202 228
182 202 228
182 202 228
182 202 228
182 202 228
182 202 228
182 202 228
182 202 228
181 202 228
183 202 228
182 202 228
183 202 228
181 201 228
182 202 228
182 202 228
182 202 228
181 202 228
182 202 228
181 201 228
182 202 228
183 202 228
182 202 228
182 202 228
182 202 228
182 202 228
182 202 228
181 201 228
182 202 228
182 202 228
183 202 228
181 201 228
181 202 228
182 202 228
182 202 228
181 202 228
181 202 228
181 201 228
182 202 228
181 201 228
182 202 227
170 189 181
152 172 112
140 161 57
141 161 61
138 159 60
144 165 52
144 164 45
149 170 21
150 170 22
153 173 16
152 172 0
150 169 0
151 171 0
151 171 0
149 171 0
151 170 0
153 172 0
152 173 0
150 171 0
150 170 0
149 170 0
151 171 0
153 175 0
153 174 0
153 174 0
152 172 0
154 174 0
153 173 0
153 174 0
159 181 0
174 197 0
173 197 0
173 196 0
174 197 0
173 197 0
173 197 0
174 197 0
172 195 0
173 196 0
172 196 0
174 197 0
172 196 0
173 196 0
172 195 0
173 196 0
172 197 0
174 197 0
173 197 0
171 195 0
172 196 0
174 196 0
172 195 0
172 196 0
174 197 0
175 198 0
174 197 0
172 196 0
171 194 0
174 197 0
173 197 0
172 196 0
173 197 0
173 196 0
172 196 0
174 197 0
173 196 0
172 196 0
173 197 0
174 197 0
173 197 0
173 196 0
173 197 0
174 197 0
175 198 0
172 196 0
176 198 0
172 196 0
173 196 0
172 196 0
169 192 0
174 197 0
171 195 0
172 195 0
174 197 0
173 196 0
173 196 0
175 198 0
173 197 0
173 197 0
174 197 0
172 196 0
173 196 0
173 196 0
172 195 0
174 198 0
173 197 0
174 198 0
173 196 0
172 195 0
174 197 0
172 196 0
174 197 0
172 196 0
174 197 0
172 195 0
172 196 0
174 197 0
173 197 0
172 196 0
173 197 0
174 198 0
171 195 0
173 197 0
172 195 0
174 197 0
172 196 0
172 195 0
175 198 0
173 197 0
175 198 0
174 198 0
173 196 0
170 194 0
172 196 0
173 196 0
175 198 0
173 197 0
173 196 0
174 197 0
174 197 0
172 194 0
173 197 0
174 197 0
172 196 0
173 197 0
174 198 0
174 197 0
174 197 0
172 196 0
172 196 0
171 195 0
173 197 0
173 197 0
174 197 0
173 197 0
173 197 0
173 196 0
174 198 0
174 198 0
176 198 0
173 196 0
173 197 0
174 197 0
173 196 0
174 197 0
173 196 0
173 196 0
173 197 0
174 197 0
174 197 0
173 196 0
174 198 0
172 195 0
173 196 0
171 195 0
173 196 0
172 196 0
174 197 0
172 195 0
176 198 0
174 197 0
174 197 0
173 197 0
172 196 0
174 197 0
174 197 0
174 197 0
172 197 0
173 196 0
173 197 0
174 197 0
176 198 0
173 197 0
173 197 0
175 197 0
175 197 0
174 197 0
171 196 0
172 196 0
173 195 0
173 196 0
173 196 0
175 198 0
172 196 0
175 197 0
175 198 0
175 198 0
171 195 0
172 196 0
174 197 0
173 196 0
171 195 0
173 197 0
176 199 0
175 197 0
173 197 0
174 197 0
174 198 0
171 194 0
173 196 0
173 196 0
172 197 0
173 196 0
174 197 0
174 197 0
174 197 0
173 197 0
174 197 0
173 197 0
174 197 0
176 198 0
174 197 0
174 197 0
173 197 0
175 198 0
172 195 0
175 198 0
174 198 0
175 198 0
174 197 0
174 197 0
173 196 0
175 198 0
175 198 0
174 197 0
175 198 0
172 197 0
174 197 0
174 197 0
174 198 0
175 197 0
174 197 0
172 196 0
174 198 0
174 197 0
173 197 0
175 198 0
174 197 0
173 197 0
174 197 0
174 197 0
175 198 0
173 197 0
172 196 0
174 197 0
173 197 0
173 197 0
175 198 0
174 197 0
175 198 0
173 197 0
173 197 0
174 197 0
175 198 0
173 197 0
174 197 0
174 197 0
169 192 0
155 176 0
156 177 0
157 177 0
155 176 0
154 175 0
154 176 0
155 176 0
156 177 0
156 177 0
157 177 0
156 177 0
156 177 0
155 176 0
154 176 0
156 176 0
156 176 0
155 176 0
155 176 0
156 176 0
156 177 0
155 176 0
165 185 129
178 198 211
182 202 228
182 202 228
182 202 228
183 202 228
182 202 228
182 202 228
182 202 228
182 202 228
182 202 228
183 202 228
182 202 228
182 202 228
182 202 228
182 202 228
182 202 228
181 202 228
182 202 228
182 202 228
182 202 228
182 202 228
182 202 228
182 202 228
181 202 228
182 202 228
182 202 228
183 202 228
182 202 228
182 202 228
181 202 228
182 202 228
182 202 228
183 202 228
182 202 228
182 202 228
182 202 228
182 202 228
182 202 228
182 202 228
182 202 228
183 202 228
183 202 228
181 201 228
182 202 228
182 202 228
182 202 228
182 202 228
182 202 228
182 202 228
183 202 228
182 202 228
182 202 228
182 202 228
182 202 228
181 201 228
182 202 228
182 202 228
182 202 228
182 202 228
182 202 228
182 202 228
183 202 228
182 202 228
182 202 228
183 202 228
182 202 228
182 202 228
182 202 228
182 202 228
182 202 228
181 201 228
182 202 228
181 201 228
182 202 228
182 202 228
182 202 228
181 202 228
182 202 228
182 202 228
182 202 228
182 202 228
182 202 228
182 202 228
182 202 228
182 202 228
182 202 228
182 202 228
182 202 228
182 202 228
181 202 228
182 202 228
181 202 228
182 202 228
181 202 228
182 202 228
182 202 228
182 202 228
182 202 228
182 202 228
183 202 228
182 202 228
182 202 228
182 202 228
181 202 228
182 202 228
181 202 228
182 202 228
180 200 224
165 185 184
143 163 94
140 160 55
138 158 59
146 166 39
142 163 56
142 161 45
148 168 32
147 167 27
151 171 21
150 172 29
150 171 22
150 171 14
154 175 0
150 170 0
150 171 0
151 172 0
150 169 0
152 173 0
153 173 0
150 170 0
154 173 0
153 174 0
152 171 0
152 172 0
151 171 0
152 171 0
153 174 0
151 171 0
153 174 0
154 175 0
164 186 0
172 196 0
174 197 0
172 196 0
173 197 0
173 196 0
171 195 0
171 195 0
172 195 0
174 197 0
172 196 0
171 195 0
173 196 0
172 196 0
173 196 0
174 196 0
174 197 0
173 197 0
173 196 0
174 197 0
172 196 0
172 196 0
173 196 0
172 196 0
171 195 0
173 197 0
174 197 0
175 198 0
174 197 0
171 194 0
174 197 0
173 197 0
172 196 0
172 195 0
173 196 0
172 195 0
173 197 0
174 197 0
174 196 0
174 197 0
173 196 0
173 196 0
174 197 0
173 197 0
170 194 0
174 197 0
171 195 0
173 196 0
175 198 0
172 195 0
172 196 0
172 196 0
173 197 0
172 196 0
171 195 0
175 197 0
173 197 0
172 196 0
172 196 0
175 197 0
174 197 0
175 197 0
173 197 0
174 197 0
172 196 0
173 197 0
172 196 0
174 197 0
174 197 0
172 195 0
173 196 0
172 195 0
174 197 0
174 197 0
173 196 0
173 197 0
172 195 0
172 195 0
173 196 0
173 196 0
173 197 0
174 197 0
173 197 0
174 197 0
173 197 0
174 197 0
173 196 0
175 197 0
173 196 0
173 196 0
175 197 0
172 196 0
173 195 0
172 196 0
173 196 0
174 197 0
175 198 0
174 197 0
173 197 0
175 198 0
174 197 0
174 197 0
175 198 0
173 196 0
173 196 0
173 195 0
173 197 0
172 196 0
174 197 0
174 198 0
174 198 0
175 198 0
173 196 0
173 196 0
174 197 0
171 195 0
172 196 0
174 197 0
173 196 0
173 197 0
174 197 0
173 197 0
175 197 0
176 199 0
174 197 0
172 195 0
175 197 0
173 196 0
173 197 0
175 198 0
172 196 0
173 196 0
174 197 0
171 194 0
172 196 0
174 198 0
175 197 0
174 197 0
175 198 0
174 196 0
174 197 0
173 197 0
173 197 0
174 197 0
173 196 0
175 198 0
172 195 0
173 196 0
173 196 0
175 198 0
173 197 0
174 197 0
174 197 0
172 196 0
173 197 0
176 199 0
173 197 0
174 197 0
174 197 0
173 197 0
173 197 0
173 196 0
174 198 0
173 197 0
172 196 0
172 196 0
174 197 0
171 195 0
174 197 0
173 197 0
171 196 0
171 195 0
173 197 0
171 195 0
174 198 0
174 198 0
175 198 0
174 197 0
174 197 0
173 197 0
174 198 0
172 196 0
173 197 0
173 196 0
172 196 0
174 198 0
172 196 0
173 196 0
175 198 0
175 198 0
172 196 0
173 197 0
173 196 0
173 196 0
175 198 0
173 197 0
174 197 0
174 197 0
172 196 0
175 198 0
172 196 0
176 198 0
174 197 0
175 198 0
174 197 0
173 197 0
176 199 0
174 197 0
174 197 0
173 197 0
175 198 0
175 198 0
173 197 0
173 197 0
172 196 0
173 197 0
174 197 0
174 198 0
175 198 0
175 198 0
174 197 0
173 197 0
174 197 0
173 196 0
175 197 0
174 197 0
174 197 0
174 198 0
174 197 0
174 197 0
174 197 0
173 197 0
174 197 0
174 197 0
175 198 0
176 199 0
173 197 0
175 198 0
172 196 0
157 177 0
155 176 0
155 176 0
153 175 0
156 176 0
156 177 0
155 176 0
155 176 0
155 176 0
156 177 0
155 176 0
155 176 0
156 177 0
154 175 0
156 177 0
155 176 0
154 175 0
156 176 0
157 177 0
156 177 0
155 176 0
156 176 0
156 177 39
168 188 151
182 201 225
181 202 228
182 202 228
183 202 228
183 202 228
182 202 228
182 202 228
182 202 228
182 202 228
182 202 228
181 202 228
183 202 228
182 202 228
181 202 228
182 202 228
183 202 228
182 202 228
182 202 228
182 202 228
183 202 228
182 202 228
183 202 228
182 202 228
182 202 228
182 202 228
182 202 228
182 202 228
182 202 228
182 202 228
183 202 228
182 202 228
182 202 228
182 202 228
182 202 228
182 202 228
182 202 228
182 202 228
183 202 228
182 202 228
182 202 228
182 202 228
182 202 228
182 202 228
182 202 228
182 202 228
182 202 228
183 202 228
182 202 228
182 202 228
182 202 228
182 202 228
183 202 228
182 202 228
182 202 228
182 202 228
182 202 228
182 202 228
182 202 228
181 202 228
182 202 228
182 202 228
182 202 228
182 202 228
181 202 228
182 202 228
182 202 228
182 202 228
182 202 228
182 202 228
181 202 228
182 202 228
182 202 228
182 202 228
182 202 228
182 202 228
182 202 228
182 202 228
183 202 228
181 201 228
182 202 228
182 202 228
182 202 228
182 202 228
183 202 228
182 202 228
182 202 228
182 202 228
182 202 228
182 202 228
182 202 228
182 202 228
182 202 228
181 201 228
182 202 228
182 202 228
182 202 228
182 202 228
181 202 228
182 202 228
182 202 228
182 202 228
182 202 228
182 202 228
178 198 217
152 172 158
127 148 107
134 155 69
141 161 58
134 156 68
140 160 58
139 159 58
143 163 57
148 168 48
147 166 38
147 168 35
146 167 39
147 169 28
150 171 16
152 173 16
152 172 0
152 171 0
150 170 0
149 168 0
153 173 0
153 173 0
150 170 0
152 172 0
151 171 0
151 171 0
150 171 0
152 173 0
151 172 0
150 171 0
155 175 0
152 172 0
149 169 0
153 173 0
164 185 0
174 197 0
173 197 0
171 195 0
172 196 0
173 196 0
172 195 0
171 194 0
172 196 0
175 197 0
174 197 0
175 198 0
173 197 0
172 195 0
174 197 0
175 198 0
173 196 0
173 197 0
170 192 0
172 197 0
173 196 0
172 197 0
171 195 0
173 197 0
173 196 0
172 197 0
173 197 0
173 196 0
174 197 0
172 196 0
173 196 0
173 196 0
172 195 0
173 196 0
173 196 0
172 196 0
173 196 0
172 195 0
173 197 0
172 196 0
172 196 0
173 196 0
174 197 0
173 196 0
171 195 0
172 195 0
174 197 0
173 196 0
174 197 0
175 198 0
174 197 0
173 196 0
174 197 0
173 197 0
174 197 0
171 194 0
173 197 0
172 195 0
175 198 0
172 195 0
173 196 0
174 198 0
172 195 0
174 197 0
173 196 0
172 195 0
172 196 0
174 196 0
174 197 0
173 197 0
171 195 0
173 196 0
172 197 0
174 197 0
172 196 0
172 195 0
174 197 0
173 196 0
172 196 0
172 196 0
173 196 0
174 197 0
172 196 0
172 195 0
173 196 0
175 198 0
172 196 0
172 196 0
173 197 0
174 197 0
174 197 0
173 196 0
173 196 0
174 198 0
175 198 0
171 194 0
173 196 0
174 198 0
175 198 0
171 195 0
172 195 0
174 197 0
174 197 0
173 196 0
173 197 0
174 197 0
173 196 0
174 197 0
175 198 0
174 197 0
173 196 0
175 198 0
173 196 0
173 196 0
173 197 0
174 197 0
175 197 0
173 197 0
174 197 0
172 196 0
172 196 0
173 197 0
173 197 0
174 197 0
173 196 0
174 197 0
174 197 0
174 197 0
174 197 0
173 196 0
174 198 0
173 196 0
172 195 0
174 197 0
173 197 0
172 196 0
174 198 0
172 196 0
172 196 0
174 198 0
173 196 0
173 196 0
174 198 0
173 196 0
176 198 0
175 198 0
170 194 0
172 196 0
173 197 0
172 196 0
173 196 0
175 198 0
173 197 0
173 196 0
173 196 0
172 196 0
174 197 0
174 197 0
172 197 0
171 196 0
173 196 0
174 198 0
173 197 0
174 197 0
174 197 0
172 196 0
173 196 0
172 195 0
173 197 0
175 198 0
172 196 0
174 197 0
174 197 0
173 197 0
174 197 0
173 196 0
173 197 0
173 197 0
172 196 0
175 198 0
174 197 0
174 197 0
173 196 0
175 198 0
171 196 0
173 197 0
173 197 0
176 198 0
173 196 0
174 197 0
174 197 0
172 196 0
174 197 0
174 198 0
173 196 0
175 198 0
173 197 0
174 197 0
172 195 0
174 197 0
174 197 0
174 197 0
174 197 0
173 197 0
174 197 0
173 197 0
175 198 0
175 198 0
173 197 0
173 197 0
174 197 0
173 196 0
174 197 0
175 198 0
175 198 0
173 197 0
174 197 0
174 197 0
174 197 0
174 197 0
173 197 0
174 197 0
173 197 0
173 197 0
174 198 0
174 197 0
173 197 0
173 197 0
174 197 0
174 197 0
173 197 0
174 197 0
173 197 0
172 196 0
174 197 0
174 198 0
175 198 0
174 197 0
173 197 0
156 178 0
155 176 0
154 175 0
156 176 0
155 176 0
155 177 0
155 176 0
156 177 0
156 177 0
156 177 0
156 177 0
156 177 0
156 177 0
157 177 0
154 175 0
155 176 0
156 177 0
155 176 0
152 174 0
155 177 0
155 176 0
155 176 0
155 176 0
155 176 0
158 179 72
175 195 192
182 202 228
182 202 228
182 202 228
182 202 228
182 202 228
182 202 228
182 202 228
182 202 228
182 202 228
182 202 228
183 202 228
182 202 228
182 202 228
183 202 228
182 202 228
183 202 228
182 202 228
183 202 228
182 202 228
182 202 228
182 202 228
182 202 228
181 202 228
182 202 228
182 202 228
182 202 228
182 202 228
183 202 228
182 202 228
182 202 228
183 202 228
182 202 228
182 202 228
182 202 228
182 202 228
182 202 228
183 203 228
181 202 228
183 202 228
182 202 228
182 202 228
182 202 228
182 202 228
181 202 228
183 202 228
183 202 228
182 202 228
182 202 228
182 202 228
182 202 228
183 202 228
183 202 228
182 202 228
182 202 228
182 202 228
182 202 228
181 202 228
182 202 228
182 202 228
182 202 228
182 202 228
183 202 228
182 202 228
182 202 228
182 202 228
181 201 228
183 202 228
182 202 228
182 202 228
182 202 228
182 202 228
181 201 228
181 201 228
182 202 228
181 202 228
182 202 228
182 202 228
182 202 228
182 202 228
183 202 228
183 202 228
181 201 228
181 202 228
182 202 228
182 202 228
182 202 228
182 202 228
182 202 228
181 202 228
182 202 228
181 201 228
182 202 228
182 202 228
181 201 228
182 202 228
182 202 228
182 202 228
183 202 228
183 202 228
165 185 206
143 163 163
122 142 109
119 140 89
125 147 87
132 153 76
137 158 70
136 157 67
136 156 64
136 157 66
136 157 61
140 161 52
147 167 39
152 172 31
144 165 42
148 167 22
147 167 22
152 172 16
153 172 0
149 169 0
152 173 0
151 172 0
152 173 0
152 171 0
152 172 0
151 171 0
150 171 0
153 173 0
150 170 0
152 172 0
150 170 0
150 171 0
153 174 0
155 176 0
153 173 0
151 171 0
160 183 0
175 198 0
171 195 0
173 196 0
172 196 0
173 197 0
174 196 0
172 194 0
173 197 0
173 197 0
173 197 0
173 197 0
172 195 0
171 194 0
173 196 0
171 195 0
175 198 0
173 196 0
172 195 0
171 195 0
172 196 0
173 196 0
174 198 0
172 196 0
173 196 0
173 196 0
173 197 0
173 196 0
170 194 0
171 195 0
172 196 0
175 197 0
173 196 0
173 197 0
173 197 0
171 195 0
171 194 0
173 196 0
175 198 0
172 195 0
172 195 0
173 197 0
173 197 0
176 198 0
172 196 0
172 196 0
173 196 0
172 196 0
174 197 0
172 196 0
175 197 0
174 196 0
174 197 0
172 196 0
173 196 0
175 197 0
173 197 0
170 195 0
173 197 0
173 197 0
172 196 0
172 196 0
173 196 0
172 196 0
172 196 0
174 197 0
174 197 0
173 197 0
172 196 0
173 196 0
171 195 0
173 195 0
172 196 0
174 196 0
173 197 0
174 197 0
172 196 0
173 197 0
172 196 0
174 198 0
173 196 0
174 197 0
173 197 0
172 196 0
174 198 0
174 197 0
173 196 0
173 196 0
172 195 0
173 196 0
170 195 0
175 198 0
170 194 0
173 196 0
171 196 0
173 196 0
172 196 0
172 195 0
174 197 0
175 198 0
173 196 0
172 195 0
171 195 0
174 197 0
174 197 0
175 198 0
174 197 0
173 196 0
175 198 0
173 196 0
173 196 0
171 195 0
174 197 0
173 195 0
172 196 0
173 197 0
172 195 0
173 197 0
173 197 0
172 196 0
173 196 0
173 196 0
173 197 0
173 196 0
174 197 0
174 197 0
172 197 0
174 197 0
174 197 0
173 196 0
175 197 0
173 197 0
172 195 0
175 198 0
174 198 0
173 197 0
175 197 0
174 197 0
173 197 0
172 196 0
174 198 0
173 196 0
174 197 0
173 196 0
173 196 0
174 197 0
173 196 0
173 197 0
174 198 0
175 198 0
175 198 0
173 196 0
174 197 0
173 196 0
174 197 0
173 196 0
173 197 0
174 197 0
174 197 0
175 198 0
173 196 0
174 197 0
173 197 0
174 197 0
174 196 0
174 197 0
172 196 0
174 198 0
173 197 0
172 196 0
173 197 0
172 196 0
174 198 0
174 197 0
174 197 0
173 196 0
174 197 0
174 198 0
173 197 0
175 198 0
175 197 0
172 195 0
174 198 0
173 197 0
174 197 0
172 196 0
174 197 0
173 196 0
172 196 0
174 197 0
174 197 0
173 197 0
174 197 0
173 197 0
172 196 0
175 198 0
174 198 0
174 197 0
174 196 0
174 197 0
174 198 0
173 197 0
174 197 0
174 197 0
172 197 0
174 198 0
175 198 0
173 197 0
173 197 0
173 197 0
174 197 0
174 197 0
173 197 0
173 197 0
172 196 0
173 197 0
174 198 0
174 197 0
173 197 0
174 197 0
174 197 0
173 197 0
174 197 0
175 198 0
173 197 0
173 197 0
173 197 0
173 197 0
173 196 0
174 198 0
174 197 0
174 197 0
173 197 0
172 196 0
173 197 0
175 197 0
174 197 0
174 198 0
174 197 0
159 180 0
154 175 0
155 176 0
155 176 0
154 175 0
156 177 0
156 176 0
156 176 0
158 178 0
155 176 0
155 176 0
158 177 0
156 177 0
155 176 0
156 176 0
157 177 0
155 175 0
156 177 0
154 176 0
156 177 0
156 177 0
154 176 0
156 177 0
156 177 0
155 176 0
156 177 0
160 181 94
178 198 204
182 202 228
182 202 228
183 202 228
182 202 228
183 202 228
182 202 228
182 202 228
182 202 228
183 202 228
182 202 228
182 202 228
182 202 228
183 202 228
183 202 228
182 202 228
182 202 228
182 202 228
182 202 228
182 202 228
182 202 228
182 202 228
182 202 228
182 202 228
182 202 228
182 202 228
182 202 228
182 202 228
182 202 228
182 202 228
182 202 228
182 202 228
183 202 228
182 202 228
182 202 228
182 202 228
182 202 228
182 202 228
182 202 228
182 202 228
182 202 228
182 202 228
182 202 228
182 202 228
182 202 228
182 202 228
183 202 228
182 202 228
181 202 228
182 202 228
181 202 228
182 202 228
182 202 228
181 201 228
182 202 228
182 202 228
181 202 228
181 202 228
182 202 228
182 202 228
182 202 228
182 202 228
182 202 228
183 202 228
182 202 228
182 202 228
182 202 228
181 202 228
182 202 228
182 202 228
182 202 228
182 202 228
183 202 228
182 202 228
182 202 228
183 202 228
182 202 228
183 202 228
182 202 228
182 202 228
182 202 228
182 202 228
182 202 228
182 202 228
182 202 228
182 202 228
182 202 228
182 202 228
182 202 228
182 202 228
181 201 228
182 202 228
182 202 228
182 202 228
182 202 228
181 202 228
167 187 203
134 154 158
111 132 111
116 137 100
111 133 101
118 139 98
117 139 94
130 152 77
132 152 66
128 148 79
133 154 72
138 158 57
135 156 61
141 162 46
147 167 44
144 164 45
150 170 32
142 161 42
145 165 28
148 168 0
150 170 16
151 170 0
152 172 0
150 169 0
148 168 0
152 173 0
151 171 0
153 173 0
149 169 0
150 171 0
150 170 0
149 170 0
152 172 0
153 173 0
151 172 0
152 170 0
153 173 0
150 170 0
165 186 0
171 195 0
173 197 0
173 196 0
173 196 0
171 194 0
173 197 0
173 196 0
174 197 0
171 194 0
172 196 0
174 197 0
173 196 0
172 196 0
174 196 0
173 196 0
173 197 0
174 197 0
172 194 0
174 197 0
173 197 0
174 197 0
172 196 0
175 198 0
171 195 0
172 196 0
173 196 0
174 197 0
173 196 0
172 196 0
174 197 0
173 196 0
171 195 0
172 195 0
173 195 0
171 195 0
173 196 0
173 196 0
173 196 0
173 196 0
173 197 0
172 195 0
172 196 0
172 195 0
174 197 0
172 196 0
171 195 0
174 197 0
172 195 0
172 196 0
174 197 0
172 196 0
173 197 0
174 196 0
173 196 0
173 196 0
171 195 0
172 195 0
174 197 0
174 197 0
173 197 0
173 197 0
173 197 0
173 197 0
173 196 0
173 197 0
174 197 0
174 197 0
174 197 0
173 196 0
174 197 0
174 197 0
173 196 0
174 197 0
174 197 0
172 195 0
175 198 0
173 196 0
174 197 0
172 196 0
175 198 0
174 197 0
174 197 0
175 198 0
171 194 0
174 198 0
173 197 0
174 196 0
173 196 0
173 197 0
171 195 0
171 195 0
172 194 0
173 195 0
172 196 0
173 197 0
175 198 0
175 197 0
174 197 0
173 197 0
173 197 0
172 195 0
173 197 0
174 197 0
171 195 0
173 196 0
172 195 0
174 197 0
173 197 0
173 195 0
173 196 0
173 196 0
175 198 0
173 197 0
172 196 0
172 196 0
173 196 0
173 196 0
172 195 0
173 196 0
174 198 0
174 197 0
175 198 0
173 196 0
174 197 0
174 198 0
174 197 0
171 195 0
174 197 0
171 195 0
174 197 0
174 197 0
173 197 0
172 196 0
175 197 0
174 197 0
173 197 0
173 196 0
174 197 0
171 194 0
172 195 0
174 197 0
175 198 0
174 197 0
174 197 0
172 195 0
176 198 0
173 197 0
172 195 0
173 197 0
173 197 0
174 196 0
175 198 0
174 196 0
175 197 0
172 196 0
173 197 0
175 197 0
174 197 0
172 197 0
174 197 0
174 198 0
172 196 0
172 196 0
175 198 0
174 196 0
174 197 0
173 197 0
173 196 0
175 197 0
173 197 0
175 198 0
175 198 0
174 197 0
175 198 0
173 196 0
175 197 0
173 196 0
174 197 0
175 197 0
173 196 0
173 197 0
175 198 0
172 196 0
174 197 0
176 199 0
175 198 0
172 195 0
172 196 0
174 197 0
173 197 0
174 197 0
173 197 0
175 197 0
176 198 0
174 197 0
173 197 0
175 198 0
176 199 0
175 197 0
174 197 0
174 198 0
174 198 0
174 197 0
174 197 0
175 198 0
175 198 0
173 197 0
175 198 0
173 197 0
173 197 0
175 198 0
174 198 0
173 197 0
173 197 0
174 197 0
174 197 0
173 197 0
173 197 0
174 197 0
175 197 0
174 197 0
175 198 0
176 198 0
175 198 0
174 198 0
174 197 0
173 197 0
173 197 0
174 197 0
175 198 0
174 197 0
174 197 0
175 198 0
175 198 0
174 197 0
175 198 0
175 198 0
173 197 0
165 186 0
154 176 0
155 176 0
155 176 0
157 177 0
155 176 0
155 176 0
155 176 0
156 177 0
155 176 0
154 176 0
155 176 0
157 177 0
155 176 0
154 176 0
154 176 0
155 176 0
155 176 0
156 177 0
155 176 0
156 177 0
156 177 0
157 177 0
155 177 0
155 176 0
155 176 0
155 176 0
156 177 22
165 186 137
180 200 219
182 202 228
182 202 228
182 202 228
182 202 228
181 202 228
182 202 228
182 202 228
182 202 228
182 202 228
182 202 228
182 202 228
182 202 228
181 202 228
182 202 228
181 201 228
182 202 228
183 202 228
182 202 228
183 202 228
183 203 228
182 202 228
182 202 228
182 202 228
182 202 228
183 202 228
182 202 228
182 202 228
182 202 228
183 202 228
183 202 228
182 202 228
181 202 228
181 202 228
181 201 228
182 202 228
182 202 228
182 202 228
182 202 228
182 202 228
182 202 228
182 202 228
181 202 228
182 202 228
181 201 228
182 202 228
181 201 228
181 201 228
182 202 228
182 202 228
182 202 228
182 202 228
183 202 228
182 202 228
182 202 228
182 202 228
182 202 228
182 202 228
182 202 228
182 202 228
182 202 228
182 202 228
182 202 228
182 202 228
182 202 228
182 202 228
181 202 228
181 201 228
182 202 228
182 202 228
181 202 228
181 201 228
181 202 228
182 202 228
181 201 228
183 202 228
182 202 228
181 202 228
182 202 228
182 202 228
182 202 228
182 202 228
182 202 228
182 202 228
182 202 228
181 201 228
182 202 228
182 202 228
182 202 228
182 202 228
182 202 228
179 199 225
161 181 197
115 136 144
96 118 121
104 126 112
108 130 110
108 129 102
106 127 107
118 139 99
113 134 92
126 146 86
132 153 75
125 145 83
134 154 67
136 156 56
139 160 56
144 164 50
149 169 40
147 167 42
149 168 32
148 168 22
151 171 16
152 172 16
152 172 0
151 170 16
149 168 0
151 171 0
155 174 0
148 168 0
154 174 0
151 171 0
151 171 0
154 173 0
151 170 0
149 169 0
150 171 0
150 169 0
151 172 0
150 171 0
153 173 0
151 172 0
163 185 0
173 197 0
172 196 0
170 194 0
173 196 0
172 195 0
174 197 0
175 198 0
173 197 0
174 197 0
173 196 0
172 196 0
174 197 0
172 196 0
173 196 0
172 195 0
172 195 0
173 196 0
173 196 0
175 198 0
173 196 0
173 196 0
174 197 0
172 195 0
170 194 0
173 196 0
171 195 0
171 194 0
173 196 0
172 195 0
173 196 0
171 196 0
171 195 0
172 196 0
173 195 0
174 197 0
172 196 0
172 196 0
173 196 0
174 197 0
172 195 0
174 197 0
173 196 0
172 196 0
175 197 0
172 196 0
172 195 0
172 195 0
173 196 0
173 196 0
172 196 0
171 195 0
173 197 0
173 197 0
172 195 0
173 197 0
173 196 0
174 197 0
173 197 0
173 196 0
172 196 0
172 195 0
175 198 0
173 196 0
173 196 0
173 196 0
174 197 0
174 197 0
173 196 0
172 195 0
174 197 0
173 197 0
173 196 0
174 196 0
172 195 0
173 196 0
174 196 0
173 197 0
175 197 0
174 197 0
174 197 0
172 195 0
174 197 0
172 196 0
174 198 0
174 198 0
173 196 0
173 196 0
174 197 0
173 196 0
172 196 0
173 196 0
173 196 0
172 195 0
174 197 0
174 197 0
172 195 0
171 195 0
173 196 0
175 198 0
172 196 0
173 196 0
172 195 0
171 194 0
174 197 0
172 196 0
172 197 0
174 198 0
172 196 0
171 195 0
171 195 0
173 196 0
174 197 0
173 197 0
173 196 0
171 195 0
173 196 0
173 196 0
172 196 0
173 197 0
171 195 0
174 197 0
170 194 0
171 195 0
173 197 0
171 195 0
173 196 0
172 196 0
173 196 0
173 196 0
172 196 0
173 196 0
172 196 0
174 197 0
174 197 0
173 197 0
173 197 0
175 198 0
173 196 0
174 197 0
170 193 0
173 197 0
173 197 0
173 196 0
172 195 0
174 198 0
173 196 0
173 196 0
173 196 0
173 197 0
173 197 0
175 198 0
173 196 0
174 197 0
172 196 0
174 197 0
174 198 0
174 197 0
174 198 0
171 195 0
176 199 0
172 194 0
173 197 0
174 197 0
170 193 0
173 196 0
172 196 0
173 197 0
172 196 0
174 198 0
174 197 0
174 197 0
174 198 0
173 196 0
173 197 0
175 198 0
172 196 0
173 196 0
173 196 0
173 196 0
174 197 0
174 197 0
174 197 0
172 195 0
174 197 0
172 196 0
172 196 0
174 197 0
174 197 0
173 196 0
172 196 0
174 198 0
174 197 0
175 198 0
173 197 0
175 198 0
174 197 0
175 198 0
173 197 0
172 196 0
173 197 0
174 197 0
174 197 0
174 197 0
173 197 0
174 197 0
173 197 0
175 198 0
172 196 0
174 197 0
173 197 0
174 198 0
174 197 0
176 198 0
175 198 0
174 197 0
175 197 0
173 197 0
172 195 0
173 197 0
174 197 0
174 197 0
173 197 0
174 197 0
174 197 0
173 197 0
174 197 0
174 197 0
174 197 0
177 199 0
174 198 0
175 198 0
174 197 0
174 197 0
172 196 0
173 197 0
172 196 0
174 197 0
174 197 0
165 188 0
155 176 0
156 177 0
156 177 0
156 176 0
156 176 0
155 176 0
156 177 0
156 177 0
154 176 0
154 176 0
155 176 0
157 177 0
156 177 0
155 176 0
154 176 0
156 177 0
154 175 0
155 176 0
157 177 0
156 177 0
156 177 0
155 176 0
155 176 0
156 176 0
155 176 0
155 176 0
156 176 0
155 176 0
157 177 51
170 190 165
182 202 227
181 201 228
183 202 228
183 202 228
182 202 228
181 202 228
182 202 228
182 202 228
182 202 228
182 202 228
182 202 228
182 202 228
183 202 228
182 202 228
182 202 228
182 202 228
182 202 228
182 202 228
182 202 228
182 202 228
182 202 228
182 202 228
182 202 228
181 202 228
181 202 228
183 202 228
182 202 228
182 202 228
182 202 228
181 201 228
182 202 228
182 202 228
182 202 228
182 202 228
182 202 228
182 202 228
182 202 228
182 202 228
182 202 228
182 202 228
182 202 228
182 202 228
182 202 228
182 202 228
182 202 228
182 202 228
181 202 228
181 201 228
182 202 228
182 202 228
182 202 228
183 202 228
181 202 228
182 202 228
182 202 228
181 201 228
182 202 228
182 202 228
181 202 228
182 202 228
182 202 228
182 202 228
180 201 228
182 202 228
182 202 228
182 202 228
182 202 228
182 202 228
182 202 228
182 202 228
182 202 228
182 202 228
182 202 228
182 202 228
182 202 228
181 202 228
182 202 228
182 202 228
182 202 228
182 202 228
182 202 228
181 201 228
181 201 228
182 202 228
181 202 228
181 201 228
182 202 228
176 196 221
138 159 183
100 123 132
91 114 122
94 117 120
101 123 113
100 123 117
103 125 115
105 127 106
108 130 106
113 134 100
114 134 93
121 143 93
124 145 82
134 153 77
130 150 73
136 156 60
130 151 75
141 161 47
140 161 58
140 159 50
148 168 33
148 168 36
148 168 22
151 171 0
153 173 16
151 172 0
152 172 0
153 173 0
151 171 0
152 172 0
151 171 0
151 171 0
150 169 0
148 169 0
148 169 0
155 174 0
152 173 0
151 171 0
151 171 0
153 174 0
152 172 0
155 175 0
162 184 0
174 197 0
173 196 0
173 197 0
172 196 0
172 196 0
174 197 0
173 196 0
172 196 0
172 195 0
173 196 0
172 196 0
172 196 0
171 195 0
174 196 0
171 195 0
170 194 0
174 197 0
173 196 0
174 197 0
172 196 0
171 194 0
173 196 0
174 197 0
173 196 0
172 196 0
175 198 0
172 196 0
172 195 0
173 197 0
172 196 0
172 195 0
171 195 0
173 196 0
171 195 0
174 197 0
175 197 0
174 196 0
175 197 0
173 197 0
174 197 0
173 196 0
173 196 0
174 197 0
171 193 0
172 195 0
172 194 0
174 197 0
171 194 0
173 197 0
173 197 0
174 197 0
173 196 0
173 197 0
174 197 0
173 196 0
172 196 0
174 197 0
172 196 0
173 196 0
173 196 0
173 196 0
171 195 0
171 194 0
172 195 0
173 196 0
173 197 0
172 196 0
172 196 0
171 195 0
172 196 0
173 196 0
174 197 0
172 195 0
173 197 0
173 195 0
171 195 0
174 197 0
173 196 0
171 194 0
175 198 0
172 196 0
172 196 0
174 197 0
173 196 0
173 197 0
172 196 0
175 198 0
173 196 0
173 197 0
173 196 0
173 196 0
172 196 0
172 196 0
174 197 0
172 196 0
172 196 0
173 197 0
173 197 0
175 198 0
174 197 0
172 195 0
172 195 0
175 197 0
173 197 0
172 196 0
173 196 0
171 195 0
173 197 0
173 196 0
173 197 0
173 196 0
174 198 0
172 196 0
173 196 0
173 197 0
174 197 0
172 196 0
172 196 0
174 197 0
171 195 0
173 195 0
171 195 0
174 198 0
173 196 0
175 198 0
173 197 0
174 197 0
173 196 0
174 197 0
173 196 0
172 196 0
172 195 0
173 197 0
174 197 0
174 197 0
173 196 0
173 196 0
172 196 0
174 198 0
174 197 0
174 197 0
173 196 0
172 196 0
172 196 0
174 197 0
174 197 0
173 197 0
172 196 0
173 197 0
174 197 0
173 196 0
173 197 0
173 197 0
173 197 0
175 197 0
172 194 0
173 196 0
172 196 0
173 197 0
175 197 0
174 197 0
172 196 0
173 196 0
175 197 0
175 198 0
171 195 0
175 197 0
171 196 0
173 197 0
174 197 0
173 196 0
176 197 0
173 197 0
173 197 0
171 195 0
174 197 0
172 195 0
173 196 0
173 196 0
176 198 0
173 197 0
173 197 0
174 197 0
174 197 0
175 198 0
174 197 0
175 198 0
174 197 0
174 198 0
173 197 0
174 198 0
175 198 0
172 196 0
174 197 0
175 198 0
175 198 0
174 198 0
174 197 0
174 197 0
173 197 0
174 197 0
175 198 0
174 197 0
174 198 0
173 196 0
175 198 0
173 197 0
175 198 0
173 197 0
174 197 0
175 198 0
175 198 0
173 197 0
173 197 0
173 197 0
175 198 0
174 197 0
172 196 0
173 196 0
174 197 0
173 197 0
175 198 0
174 197 0
175 198 0
173 197 0
173 197 0
175 198 0
173 196 0
175 198 0
174 197 0
173 196 0
173 197 0
173 196 0
175 197 0
174 197 0
172 196 0
173 197 0
175 198 0
167 191 0
155 176 0
157 177 0
156 177 0
155 176 0
155 176 0
154 174 0
156 177 0
156 176 0
155 176 0
156 177 0
157 177 0
157 177 0
155 177 0
157 177 0
157 177 0
155 176 0
156 176 0
156 176 0
154 175 0
157 177 0
154 176 0
156 176 0
154 176 0
155 176 0
156 176 0
154 176 0
155 176 0
156 176 0
155 177 0
155 176 0
157 178 75
174 194 191
182 202 228
182 202 228
182 202 228
182 202 228
182 202 228
182 202 228
181 201 228
183 202 228
182 202 228
182 202 228
182 202 228
181 201 228
182 202 228
182 202 228
182 202 228
181 202 228
182 202 228
182 202 228
182 202 228
181 201 228
183 202 228
182 202 228
182 202 228
182 202 228
182 202 228
182 202 228
181 201 228
182 202 228
182 202 228
181 201 228
182 202 228
181 201 228
182 202 228
181 201 228
181 202 228
181 202 228
181 202 228
182 202 228
182 202 228
182 202 228
182 202 228
182 202 228
182 202 228
182 202 228
182 202 228
182 202 228
182 202 228
182 202 228
182 202 228
182 202 228
182 202 228
182 202 228
182 202 228
181 202 228
181 202 228
182 202 228
181 202 228
182 202 228
181 201 228
182 202 228
182 202 228
181 201 228
183 202 228
181 201 228
182 202 228
182 202 228
182 202 228
182 202 228
182 202 228
183 202 228
181 201 228
181 202 228
181 202 228
182 202 228
181 201 228
182 202 228
182 202 228
182 202 228
182 202 228
182 202 228
182 202 228
181 201 228
182 202 228
173 193 220
129 150 183
89 112 134
85 110 133
87 110 126
90 114 125
93 116 121
91 115 124
94 117 115
102 124 104
103 125 103
112 133 106
107 129 109
125 146 84
110 132 103
126 148 79
134 154 68
136 156 62
130 150 70
130 149 72
136 158 67
136 157 57
139 159 48
144 165 44
146 168 42
149 168 28
148 168 28
150 171 16
148 168 16
150 170 0
151 171 0
149 167 0
150 170 0
149 168 0
152 171 0
154 175 0
151 172 0
151 171 0
149 170 0
149 169 0
152 172 0
149 169 0
152 171 0
150 170 0
154 174 0
159 181 0
173 196 0
173 196 0
172 195 0
173 196 0
170 194 0
173 197 0
174 197 0
174 196 0
174 196 0
173 196 0
173 197 0
173 197 0
173 196 0
173 196 0
171 195 0
171 195 0
173 195 0
173 196 0
172 196 0
172 195 0
174 197 0
174 197 0
173 196 0
172 195 0
172 195 0
171 195 0
176 198 0
172 195 0
174 197 0
171 195 0
175 198 0
170 194 0
173 197 0
173 196 0
171 195 0
173 197 0
172 195 0
174 197 0
172 196 0
175 197 0
173 196 0
172 196 0
172 195 0
173 196 0
172 196 0
172 195 0
172 196 0
172 196 0
170 195 0
170 193 0
172 196 0
173 196 0
173 196 0
173 197 0
174 197 0
173 197 0
171 194 0
173 196 0
171 195 0
173 197 0
173 196 0
172 196 0
172 196 0
174 197 0
174 197 0
173 196 0
173 195 0
172 195 0
174 198 0
172 196 0
171 195 0
172 196 0
170 194 0
174 197 0
175 197 0
173 196 0
173 196 0
174 197 0
171 194 0
173 196 0
173 196 0
173 197 0
172 197 0
172 196 0
172 196 0
174 197 0
174 197 0
174 197 0
172 195 0
173 197 0
173 197 0
172 195 0
174 197 0
170 193 0
175 197 0
174 197 0
174 197 0
173 197 0
175 197 0
174 197 0
173 197 0
172 196 0
173 197 0
176 198 0
173 196 0
173 197 0
174 197 0
174 197 0
174 197 0
174 197 0
171 194 0
172 195 0
171 194 0
175 198 0
173 196 0
174 198 0
173 197 0
174 197 0
173 196 0
173 196 0
172 196 0
176 198 0
173 196 0
174 197 0
173 196 0
171 195 0
172 196 0
174 197 0
173 197 0
174 197 0
174 197 0
173 197 0
173 197 0
172 195 0
173 197 0
173 196 0
171 194 0
175 198 0
174 197 0
172 195 0
174 197 0
174 197 0
174 197 0
174 197 0
173 197 0
173 197 0
172 196 0
172 196 0
174 198 0
173 196 0
172 195 0
173 196 0
171 196 0
173 196 0
173 196 0
174 198 0
173 197 0
174 197 0
174 197 0
173 196 0
173 196 0
174 197 0
174 197 0
174 198 0
172 196 0
174 197 0
174 198 0
173 197 0
172 195 0
174 197 0
173 196 0
173 197 0
174 197 0
173 197 0
174 197 0
172 196 0
175 198 0
174 197 0
175 198 0
174 197 0
173 196 0
175 198 0
174 198 0
174 197 0
175 198 0
173 197 0
174 197 0
173 197 0
175 198 0
173 197 0
174 198 0
173 197 0
173 197 0
175 198 0
173 197 0
174 197 0
173 196 0
174 197 0
174 198 0
173 197 0
175 198 0
172 196 0
173 197 0
174 198 0
173 197 0
173 197 0
175 198 0
174 197 0
176 198 0
174 197 0
173 197 0
173 197 0
173 197 0
174 197 0
173 197 0
174 197 0
175 198 0
173 197 0
174 197 0
175 198 0
173 197 0
174 197 0
175 197 0
174 198 0
173 196 0
173 197 0
174 197 0
174 198 0
174 197 0
173 197 0
173 197 0
173 197 0
173 197 0
173 197 0
175 198 0
174 197 0
175 198 0
174 197 0
173 196 0
156 177 0
156 177 0
156 177 0
156 177 0
157 177 0
155 176 0
156 177 0
154 175 0
155 177 0
155 176 0
155 176 0
155 176 0
154 176 0
154 175 0
156 177 0
155 176 0
155 176 0
155 176 0
154 175 0
156 177 0
154 175 0
155 176 0
156 177 0
156 177 0
155 176 0
155 176 0
155 176 0
155 176 0
155 176 0
155 176 0
155 177 0
155 176 0
164 184 125
178 197 206
182 202 228
183 202 228
181 202 228
182 202 228
181 201 228
182 202 228
182 202 228
182 202 228
183 202 228
182 202 228
181 201 228
182 202 228
182 202 228
182 202 228
182 202 228
182 202 228
182 202 228
182 202 228
182 202 228
182 202 228
181 201 228
182 202 228
181 202 228
182 202 228
183 202 228
182 202 228
182 202 228
181 201 228
182 202 228
182 202 228
182 202 228
182 202 228
182 202 228
181 202 228
181 201 228
182 202 228
182 202 228
181 202 228
182 202 228
181 202 228
182 202 228
181 201 228
182 202 228
181 201 228
181 201 228
181 202 228
182 202 228
181 201 228
182 202 228
182 202 228
181 201 228
181 202 228
182 202 228
181 201 228
181 202 228
182 202 228
181 202 228
182 202 228
181 202 228
181 201 228
182 202 228
182 202 228
182 202 228
181 202 228
182 202 228
182 202 228
182 202 228
182 202 228
181 201 228
182 202 228
182 202 228
182 202 228
181 202 228
181 202 228
182 202 228
182 202 228
182 202 228
182 202 228
182 202 228
169 189 215
115 136 176
67 94 136
68 94 138
72 98 139
82 106 132
81 105 131
76 101 132
81 104 123
81 106 125
93 117 120
98 120 109
103 125 112
108 129 100
116 137 95
113 137 104
114 135 94
116 138 89
125 145 80
129 149 72
127 148 84
129 149 77
130 151 70
136 157 66
140 160 42
146 167 34
144 165 42
143 163 22
148 168 22
145 166 0
152 172 16
151 172 0
146 166 0
151 172 0
151 171 0
147 168 0
150 171 0
151 171 0
153 172 0
155 176 0
153 174 0
151 171 0
149 169 0
151 171 0
148 169 0
151 171 0
151 171 0
166 188 0
173 195 0
173 197 0
171 195 0
172 196 0
172 195 0
171 194 0
173 197 0
173 195 0
173 196 0
172 196 0
174 197 0
173 196 0
174 196 0
171 194 0
173 196 0
174 197 0
173 197 0
174 197 0
175 198 0
174 197 0
172 196 0
173 195 0
174 197 0
172 196 0
172 196 0
173 197 0
173 196 0
173 196 0
175 197 0
173 196 0
170 193 0
170 193 0
172 196 0
174 197 0
172 194 0
171 193 0
174 197 0
172 196 0
173 196 0
172 196 0
174 197 0
173 196 0
174 197 0
174 196 0
173 197 0
173 196 0
174 198 0
173 196 0
171 195 0
173 196 0
172 195 0
173 196 0
172 194 0
172 195 0
175 197 0
171 195 0
172 195 0
174 197 0
173 196 0
171 194 0
174 197 0
174 197 0
174 198 0
173 196 0
174 196 0
172 196 0
173 197 0
173 196 0
175 197 0
173 196 0
173 196 0
173 196 0
174 198 0
173 197 0
173 195 0
172 196 0
173 196 0
173 196 0
174 197 0
173 195 0
175 198 0
173 196 0
169 193 0
172 195 0
173 196 0
174 198 0
174 197 0
174 197 0
175 198 0
174 197 0
171 194 0
174 197 0
173 197 0
174 197 0
174 197 0
172 196 0
172 196 0
174 196 0
174 197 0
172 195 0
172 195 0
173 196 0
174 197 0
172 195 0
174 196 0
172 195 0
172 196 0
174 197 0
173 196 0
170 194 0
171 195 0
173 196 0
175 198 0
173 196 0
172 196 0
172 196 0
171 195 0
170 194 0
173 197 0
172 196 0
172 196 0
173 196 0
173 197 0
174 197 0
173 196 0
173 197 0
171 195 0
173 197 0
173 197 0
172 196 0
174 197 0
173 197 0
174 197 0
174 197 0
174 198 0
173 196 0
173 197 0
174 197 0
174 197 0
172 196 0
174 197 0
172 195 0
173 197 0
174 197 0
175 198 0
173 196 0
173 197 0
172 196 0
173 197 0
173 196 0
174 197 0
173 196 0
173 197 0
173 197 0
173 196 0
174 197 0
175 198 0
173 196 0
174 197 0
173 196 0
174 197 0
172 196 0
172 196 0
171 193 0
174 197 0
172 196 0
171 194 0
174 197 0
171 194 0
174 197 0
172 196 0
173 197 0
174 197 0
175 198 0
174 197 0
174 198 0
174 197 0
174 197 0
173 196 0
174 197 0
173 197 0
171 195 0
173 197 0
173 197 0
174 197 0
174 197 0
175 197 0
174 197 0
173 197 0
172 196 0
175 197 0
172 196 0
175 197 0
174 198 0
172 196 0
172 196 0
173 197 0
173 197 0
174 197 0
173 196 0
174 197 0
174 197 0
174 197 0
174 197 0
173 197 0
175 198 0
173 197 0
174 197 0
173 197 0
173 197 0
173 196 0
175 198 0
174 197 0
173 197 0
173 197 0
172 196 0
175 198 0
174 197 0
174 197 0
173 197 0
174 197 0
173 197 0
175 198 0
174 197 0
173 196 0
173 196 0
172 196 0
172 196 0
173 196 0
174 197 0
173 197 0
175 198 0
174 197 0
173 197 0
174 197 0
174 198 0
172 196 0
173 197 0
173 196 0
155 177 0
155 176 0
155 176 0
156 177 0
154 175 0
156 177 0
157 177 0
156 177 0
155 176 0
155 176 0
155 176 0
154 176 0
154 175 0
155 176 0
155 176 0
155 176 0
156 177 0
155 176 0
154 175 0
157 177 0
156 177 0
156 177 0
154 176 0
156 176 0
156 176 0
154 176 0
156 177 0
155 176 0
155 176 0
157 177 0
157 177 0
155 176 0
156 177 0
156 177 22
165 185 133
179 199 217
182 202 228
181 202 228
182 202 228
182 202 228
182 202 228
182 202 228
182 202 228
182 202 228
181 201 228
182 202 228
182 202 228
182 202 228
182 202 228
182 202 228
182 202 228
182 202 228
182 202 228
182 202 228
182 202 228
182 202 228
182 202 228
182 202 228
182 202 228
182 202 228
181 201 228
182 202 228
182 202 228
182 202 228
182 202 228
182 202 228
181 201 228
182 202 228
182 202 228
181 201 228
181 201 228
181 202 228
181 202 228
182 202 228
182 202 228
181 201 228
182 202 228
181 202 228
182 202 228
182 202 228
182 202 228
181 202 228
181 201 228
182 202 228
182 202 228
182 202 228
182 202 228
182 202 228
182 202 228
181 201 228
182 202 228
182 202 228
182 202 228
182 202 228
182 202 228
181 202 228
182 202 228
182 202 228
181 202 228
182 202 228
182 202 228
182 202 228
181 201 228
181 202 228
182 202 228
181 202 228
182 202 228
182 202 228
182 202 228
181 202 228
182 202 228
164 184 215
117 138 180
61 89 146
57 86 144
60 88 139
68 95 140
67 93 134
72 98 137
82 105 121
85 109 129
85 108 124
80 103 122
89 112 124
91 114 115
95 118 119
99 121 119
102 125 105
111 133 94
115 136 100
115 136 96
126 146 88
116 137 86
129 149 69
131 152 71
135 155 67
136 157 58
138 159 58
143 163 42
143 163 45
145 165 32
150 171 22
146 166 16
151 172 16
147 168 0
149 169 0
155 175 0
150 170 0
150 172 0
150 169 0
149 169 0
151 170 0
151 171 0
150 170 0
150 170 0
153 172 0
151 170 0
151 172 0
152 172 0
151 170 0
162 184 0
172 195 0
173 196 0
173 196 0
172 196 0
173 196 0
170 193 0
169 193 0
172 196 0
174 197 0
171 194 0
174 197 0
173 196 0
173 196 0
173 196 0
172 196 0
169 192 0
172 196 0
171 194 0
174 197 0
173 196 0
172 194 0
174 197 0
172 195 0
171 195 0
173 196 0
175 197 0
173 196 0
172 196 0
172 195 0
172 195 0
173 196 0
174 197 0
172 195 0
172 196 0
174 198 0
173 197 0
171 195 0
174 196 0
173 196 0
172 196 0
170 195 0
172 196 0
173 195 0
171 194 0
173 197 0
173 196 0
173 196 0
173 196 0
174 197 0
172 196 0
172 195 0
173 196 0
174 197 0
172 195 0
170 194 0
174 196 0
173 196 0
174 197 0
175 198 0
172 196 0
174 197 0
172 196 0
173 197 0
173 196 0
174 197 0
172 196 0
171 195 0
174 197 0
172 196 0
173 197 0
172 196 0
173 197 0
174 197 0
173 196 0
172 195 0
175 198 0
172 196 0
174 197 0
173 196 0
171 195 0
174 197 0
173 196 0
172 195 0
172 195 0
172 195 0
175 197 0
174 198 0
174 197 0
173 196 0
172 196 0
173 196 0
172 195 0
173 196 0
174 197 0
173 196 0
174 197 0
173 197 0
172 196 0
174 197 0
172 195 0
172 195 0
173 196 0
172 196 0
174 197 0
174 197 0
172 195 0
173 196 0
173 196 0
174 197 0
174 198 0
174 196 0
174 197 0
172 196 0
173 197 0
175 198 0
173 196 0
174 197 0
172 196 0
175 198 0
175 198 0
173 196 0
172 195 0
174 197 0
173 197 0
174 197 0
173 197 0
173 197 0
172 195 0
173 196 0
172 196 0
173 197 0
171 196 0
172 195 0
173 196 0
174 197 0
173 196 0
173 196 0
175 198 0
171 196 0
172 195 0
174 197 0
173 196 0
172 196 0
173 196 0
172 196 0
172 195 0
175 198 0
175 198 0
172 195 0
175 198 0
175 198 0
173 196 0
175 198 0
174 197 0
172 196 0
173 196 0
173 196 0
173 197 0
175 198 0
175 197 0
175 198 0
172 195 0
172 195 0
172 196 0
173 196 0
173 197 0
173 197 0
176 198 0
174 197 0
174 196 0
173 196 0
172 196 0
175 198 0
173 197 0
173 197 0
174 198 0
174 197 0
173 197 0
174 198 0
172 196 0
172 195 0
174 197 0
174 198 0
175 198 0
174 197 0
173 196 0
176 198 0
174 198 0
174 198 0
174 197 0
175 198 0
173 197 0
173 196 0
173 197 0
173 197 0
174 198 0
172 196 0
173 197 0
174 198 0
174 197 0
174 197 0
173 197 0
174 197 0
173 196 0
174 197 0
174 197 0
174 198 0
173 197 0
174 197 0
174 197 0
175 198 0
174 198 0
174 197 0
173 197 0
174 197 0
173 197 0
176 198 0
173 197 0
175 197 0
174 197 0
173 196 0
174 197 0
173 197 0
173 197 0
174 197 0
175 197 0
174 197 0
173 196 0
174 197 0
173 197 0
174 197 0
173 197 0
174 197 0
173 196 0
174 197 0
173 196 0
175 198 0
172 196 0
174 198 0
162 183 0
155 176 0
154 176 0
155 176 0
155 177 0
155 176 0
155 176 0
156 177 0
155 176 0
156 176 0
154 175 0
155 176 0
156 177 0
155 176 0
155 176 0
155 176 0
155 176 0
155 176 0
155 176 0
157 177 0
156 177 0
154 175 0
155 176 0
156 177 0
156 176 0
154 176 0
155 176 0
155 176 0
155 176 0
156 176 0
154 176 0
156 177 0
156 177 0
158 178 0
153 174 0
158 179 68
170 190 161
181 201 225
182 202 228
182 202 228
181 201 228
182 202 228
182 202 228
182 202 228
182 202 228
182 202 228
182 202 228
182 202 228
181 202 228
181 201 228
182 202 228
182 202 228
182 202 228
182 202 228
182 202 228
181 202 228
181 202 228
182 202 228
182 202 228
181 201 228
182 202 228
181 201 228
181 201 228
182 202 228
181 201 228
182 202 228
181 202 228
182 202 228
181 202 228
182 202 228
181 202 228
182 202 228
182 202 228
181 201 228
181 202 228
182 202 228
181 202 228
182 202 228
182 202 228
182 202 228
182 202 228
181 201 228
182 202 228
183 202 228
182 202 228
182 202 228
181 201 228
181 201 228
182 202 228
181 202 228
182 202 228
181 201 228
181 202 228
182 202 228
181 201 228
181 201 228
181 201 228
181 201 228
181 201 228
181 201 228
181 201 228
181 202 228
182 202 228
182 202 228
182 202 228
182 202 228
181 201 228
181 201 228
178 198 225
144 165 201
86 109 160
52 82 146
55 84 148
56 86 145
61 89 139
68 94 136
68 94 135
59 89 142
68 94 140
75 100 132
80 104 127
77 102 137
77 101 131
88 112 127
91 113 120
94 117 120
99 121 113
107 129 105
109 131 105
112 134 94
111 132 92
121 143 96
121 143 90
129 150 72
130 151 80
133 154 56
133 154 60
138 159 48
146 165 42
141 160 45
144 164 38
150 171 22
149 168 16
145 166 19
151 172 0
151 171 0
151 172 0
151 171 0
150 170 0
150 170 0
153 174 0
149 169 0
150 170 0
150 171 0
147 168 0
149 169 0
151 172 0
151 172 0
153 174 0
150 169 0
161 182 0
174 196 0
171 195 0
170 193 0
171 195 0
171 194 0
173 197 0
171 195 0
173 196 0
173 196 0
173 196 0
172 195 0
172 195 0
171 195 0
172 196 0
174 197 0
174 197 0
170 193 0
173 196 0
172 196 0
176 198 0
172 195 0
172 195 0
172 195 0
173 196 0
172 196 0
172 195 0
171 195 0
173 196 0
171 195 0
172 196 0
172 195 0
174 196 0
173 196 0
175 197 0
175 197 0
172 196 0
174 197 0
173 197 0
173 197 0
171 195 0
172 195 0
173 196 0
173 197 0
172 196 0
173 197 0
173 196 0
173 196 0
173 197 0
171 193 0
171 195 0
172 195 0
172 196 0
171 195 0
174 197 0
171 195 0
171 195 0
175 197 0
173 195 0
173 197 0
173 196 0
174 197 0
171 194 0
175 198 0
172 195 0
174 197 0
173 196 0
173 197 0
170 194 0
174 197 0
173 196 0
173 196 0
174 196 0
171 194 0
172 196 0
174 197 0
173 197 0
172 196 0
172 195 0
174 197 0
173 196 0
172 196 0
172 195 0
173 196 0
172 195 0
173 197 0
172 196 0
173 197 0
174 197 0
172 195 0
172 196 0
174 197 0
172 196 0
174 197 0
175 198 0
174 197 0
174 196 0
173 195 0
173 197 0
173 196 0
170 194 0
174 197 0
171 194 0
173 196 0
174 198 0
173 196 0
173 197 0
169 193 0
173 197 0
174 197 0
173 196 0
174 197 0
174 197 0
172 194 0
176 198 0
173 197 0
172 195 0
174 197 0
174 197 0
174 197 0
174 197 0
172 196 0
175 198 0
171 195 0
173 196 0
171 193 0
173 197 0
175 198 0
174 196 0
174 197 0
174 197 0
171 195 0
173 197 0
176 198 0
172 196 0
171 195 0
174 197 0
173 196 0
174 197 0
172 196 0
172 196 0
175 198 0
173 196 0
175 198 0
172 196 0
171 195 0
172 196 0
173 197 0
173 195 0
171 196 0
174 197 0
172 196 0
173 197 0
174 197 0
173 196 0
174 197 0
174 198 0
173 196 0
174 197 0
172 196 0
172 196 0
174 197 0
174 198 0
172 194 0
172 195 0
173 196 0
174 198 0
174 197 0
174 197 0
173 196 0
175 198 0
175 198 0
173 197 0
173 196 0
174 197 0
175 198 0
173 196 0
174 197 0
173 197 0
172 196 0
174 197 0
173 197 0
173 197 0
175 198 0
173 197 0
173 196 0
173 197 0
172 195 0
174 197 0
174 197 0
173 197 0
173 197 0
175 198 0
173 196 0
173 197 0
173 197 0
173 197 0
174 196 0
174 196 0
174 197 0
174 197 0
173 196 0
173 197 0
175 198 0
174 198 0
174 197 0
172 196 0
175 198 0
175 197 0
172 196 0
173 197 0
175 198 0
173 196 0
173 197 0
174 197 0
173 197 0
172 196 0
173 196 0
173 197 0
174 197 0
172 196 0
173 197 0
174 197 0
173 197 0
172 196 0
174 197 0
173 196 0
173 197 0
173 197 0
174 197 0
174 197 0
174 197 0
172 196 0
174 197 0
172 197 0
174 197 0
174 197 0
175 198 0
174 197 0
175 198 0
163 185 0
155 176 0
155 176 0
157 177 0
156 177 0
158 178 0
156 176 0
155 176 0
154 175 0
155 176 0
155 176 0
154 176 0
157 177 0
154 175 0
155 176 0
156 177 0
154 175 0
155 175 0
157 177 0
156 177 0
157 177 0
157 177 0
155 176 0
156 176 0
156 177 0
155 176 0
154 176 0
155 176 0
156 176 0
155 176 0
155 176 0
156 176 0
155 176 0
154 175 0
156 176 0
156 177 0
156 177 0
158 179 68
174 194 192
181 202 228
182 202 228
181 201 228
181 201 228
181 201 228
182 202 228
181 202 228
181 201 228
182 202 228
182 202 228
181 202 228
181 201 228
182 202 228
182 202 228
182 202 228
181 202 228
182 202 228
182 202 228
182 202 228
182 202 228
181 202 228
182 202 228
183 202 228
182 202 228
181 202 228
182 202 228
182 202 228
181 201 228
182 202 228
182 202 228
182 202 228
181 202 228
181 201 228
182 202 228
182 202 228
181 202 228
182 202 228
182 202 228
182 202 228
181 202 228
181 201 228
181 201 228
182 202 228
182 202 228
182 202 228
181 201 228
181 202 228
182 202 228
181 202 228
181 201 228
182 202 228
182 202 228
182 202 228
182 202 228
181 201 228
182 202 228
181 201 228
182 202 228
181 201 228
181 201 228
181 201 228
182 202 228
182 202 228
182 202 228
181 201 228
181 201 228
182 202 228
179 200 227
139 159 196
79 104 160
49 79 146
49 79 145
52 82 144
51 80 144
54 83 142
58 87 143
58 85 136
58 87 141
62 89 134
62 88 134
67 94 136
68 95 137
62 88 135
75 100 130
79 103 125
82 106 120
91 112 109
102 123 106
111 133 102
100 122 107
110 130 102
116 138 96
105 127 102
116 137 89
120 141 74
132 152 78
131 152 72
128 149 82
136 157 55
138 158 52
148 169 38
144 164 42
146 166 36
145 165 32
147 166 16
150 171 0
151 170 0
149 169 0
151 172 0
149 167 0
152 171 0
150 169 0
150 170 0
150 171 0
151 171 0
149 169 0
151 170 0
151 171 0
148 168 0
151 170 0
150 170 0
163 185 0
175 198 0
173 196 0
172 195 0
173 197 0
172 196 0
172 195 0
173 196 0
170 193 0
173 196 0
173 196 0
173 196 0
174 197 0
173 196 0
172 195 0
172 195 0
173 197 0
173 195 0
170 194 0
173 197 0
172 195 0
173 196 0
172 196 0
174 197 0
172 195 0
174 197 0
173 196 0
172 195 0
171 194 0
172 195 0
173 196 0
174 197 0
171 194 0
171 195 0
171 194 0
173 197 0
172 195 0
172 196 0
173 196 0
172 195 0
174 197 0
173 196 0
173 196 0
172 196 0
175 198 0
172 194 0
173 195 0
173 196 0
172 195 0
174 196 0
171 194 0
173 196 0
173 197 0
173 197 0
171 195 0
171 194 0
172 196 0
172 195 0
173 197 0
171 195 0
173 196 0
174 197 0
173 196 0
173 197 0
173 197 0
173 196 0
173 196 0
174 196 0
173 196 0
175 198 0
173 196 0
171 194 0
173 197 0
173 197 0
172 195 0
173 196 0
171 194 0
173 196 0
171 194 0
173 196 0
173 196 0
174 197 0
174 196 0
169 194 0
174 197 0
171 195 0
173 197 0
172 196 0
172 196 0
173 197 0
173 196 0
173 196 0
173 196 0
173 196 0
173 197 0
173 196 0
173 196 0
173 197 0
175 198 0
172 195 0
171 195 0
171 194 0
173 197 0
174 197 0
174 197 0
173 197 0
174 197 0
172 195 0
171 195 0
171 195 0
173 196 0
172 196 0
173 196 0
175 198 0
173 197 0
172 196 0
172 196 0
174 198 0
173 197 0
173 197 0
174 197 0
175 198 0
170 194 0
173 196 0
172 196 0
173 197 0
174 197 0
175 198 0
175 198 0
174 197 0
173 197 0
173 196 0
170 194 0
173 196 0
175 197 0
172 196 0
174 197 0
173 196 0
173 197 0
172 195 0
175 198 0
172 196 0
174 197 0
173 197 0
172 195 0
174 197 0
174 197 0
172 196 0
173 197 0
172 196 0
171 195 0
172 195 0
174 197 0
172 195 0
174 197 0
174 196 0
171 195 0
173 196 0
172 196 0
174 197 0
174 197 0
175 197 0
174 197 0
173 197 0
172 195 0
173 196 0
175 198 0
171 195 0
175 198 0
172 196 0
172 196 0
173 196 0
174 197 0
175 197 0
173 196 0
174 198 0
175 198 0
174 197 0
173 196 0
175 198 0
172 196 0
172 196 0
174 197 0
174 197 0
175 198 0
172 196 0
172 196 0
174 197 0
173 196 0
174 197 0
173 197 0
174 197 0
171 194 0
173 197 0
174 198 0
172 195 0
174 197 0
174 198 0
173 197 0
172 196 0
172 196 0
172 196 0
174 197 0
175 198 0
173 197 0
174 197 0
173 197 0
173 197 0
176 198 0
173 197 0
176 198 0
174 198 0
173 197 0
173 197 0
173 197 0
175 198 0
174 197 0
172 197 0
173 197 0
174 197 0
173 197 0
173 196 0
173 197 0
173 197 0
173 197 0
174 197 0
173 197 0
173 197 0
174 197 0
174 197 0
174 197 0
174 197 0
174 198 0
172 196 0
173 196 0
174 197 0
172 196 0
173 197 0
171 196 0
175 198 0
165 187 0
156 176 0
155 176 0
156 177 0
157 177 0
156 177 0
155 176 0
156 177 0
156 176 0
156 177 0
156 176 0
155 176 0
154 175 0
156 177 0
155 176 0
156 177 0
156 176 0
155 176 0
156 176 0
155 176 0
155 176 0
155 176 0
156 176 0
155 176 0
156 176 0
156 176 0
155 176 0
155 176 0
156 176 0
154 175 0
155 176 0
155 176 0
154 176 0
155 176 0
155 176 0
157 178 0
153 175 0
156 176 0
156 177 0
161 182 112
177 197 206
182 202 228
182 202 228
181 201 228
182 202 228
182 202 228
181 201 228
181 201 228
182 202 228
182 202 228
183 202 228
181 202 228
181 202 228
181 201 228
182 202 228
181 201 228
182 202 228
182 202 228
181 201 228
182 202 228
182 202 228
181 201 228
181 201 228
182 202 228
182 202 228
182 202 228
182 202 228
181 201 228
181 201 228
181 202 228
181 201 228
181 201 228
182 202 228
181 201 228
182 202 228
182 202 228
181 201 228
182 202 228
181 201 228
182 202 228
181 202 228
181 202 228
181 201 228
181 201 228
181 202 228
181 202 228
182 202 228
181 201 228
181 201 228
181 201 228
182 202 228
182 202 228
181 201 228
181 201 228
182 202 228
182 202 228
182 202 228
181 201 228
181 201 228
181 201 228
181 202 228
182 202 228
181 202 228
182 202 228
173 193 222
127 148 190
56 86 150
49 79 146
50 80 146
49 79 143
49 79 144
49 79 143
50 81 147
49 79 141
52 81 143
49 77 136
54 83 144
57 85 138
62 88 137
64 90 136
68 93 125
78 103 126
77 101 130
87 110 123
83 106 119
85 109 123
103 124 104
92 115 117
101 124 107
113 134 100
121 141 82
111 132 85
116 137 89
131 151 73
127 148 81
131 153 77
124 145 73
133 153 62
140 161 46
143 163 44
142 162 22
144 163 22
151 172 22
146 166 16
149 170 0
152 172 0
151 171 0
151 171 0
150 172 0
149 169 0
154 174 0
153 172 0
150 170 0
147 167 0
151 171 0
150 170 0
153 173 0
152 173 0
152 173 0
152 172 0
165 187 0
173 196 0
172 195 0
172 195 0
174 196 0
172 196 0
171 195 0
173 196 0
175 197 0
173 197 0
172 196 0
170 193 0
172 196 0
171 194 0
172 195 0
175 197 0
173 196 0
173 196 0
172 196 0
172 196 0
173 197 0
172 195 0
172 195 0
174 196 0
172 196 0
172 196 0
173 197 0
172 196 0
172 195 0
173 197 0
174 197 0
173 196 0
174 197 0
170 193 0
172 196 0
173 196 0
174 197 0
172 195 0
171 196 0
173 197 0
172 195 0
173 196 0
174 197 0
172 195 0
172 196 0
172 196 0
172 196 0
173 196 0
174 197 0
173 197 0
171 194 0
172 195 0
171 194 0
170 194 0
171 194 0
171 193 0
173 196 0
173 196 0
173 196 0
174 197 0
173 195 0
173 196 0
172 195 0
172 195 0
175 197 0
171 194 0
174 197 0
174 197 0
172 196 0
170 193 0
173 196 0
173 196 0
174 197 0
172 194 0
171 194 0
171 194 0
172 196 0
174 197 0
173 197 0
173 196 0
173 197 0
172 196 0
173 196 0
175 198 0
170 194 0
171 194 0
173 196 0
171 195 0
175 197 0
172 195 0
173 197 0
174 198 0
173 197 0
170 194 0
173 196 0
173 196 0
172 195 0
173 196 0
174 197 0
173 197 0
171 195 0
173 196 0
172 196 0
175 198 0
174 197 0
173 196 0
174 197 0
173 197 0
172 196 0
174 197 0
173 196 0
173 197 0
174 197 0
172 196 0
173 196 0
172 196 0
171 194 0
173 196 0
173 196 0
173 196 0
173 196 0
173 197 0
174 196 0
174 196 0
173 196 0
173 196 0
172 195 0
173 197 0
174 198 0
173 197 0
171 195 0
172 196 0
173 196 0
172 196 0
174 196 0
174 196 0
172 195 0
174 197 0
172 195 0
173 196 0
172 196 0
173 196 0
174 197 0
172 196 0
175 198 0
172 196 0
173 196 0
174 197 0
172 195 0
175 198 0
174 197 0
171 194 0
176 198 0
172 196 0
173 196 0
171 195 0
171 194 0
172 194 0
171 195 0
173 196 0
173 197 0
174 197 0
172 196 0
172 195 0
175 198 0
173 197 0
173 196 0
175 198 0
174 197 0
172 194 0
172 196 0
174 197 0
169 193 0
174 197 0
173 196 0
173 196 0
174 197 0
173 197 0
174 197 0
175 198 0
175 198 0
173 196 0
173 196 0
173 197 0
174 197 0
172 196 0
174 197 0
173 196 0
174 197 0
171 196 0
172 196 0
173 196 0
173 197 0
175 198 0
171 195 0
173 196 0
174 197 0
173 197 0
173 197 0
174 197 0
173 196 0
174 197 0
176 199 0
174 197 0
174 197 0
173 197 0
174 197 0
175 198 0
173 197 0
172 196 0
174 197 0
173 197 0
173 197 0
173 197 0
172 196 0
174 198 0
174 198 0
174 198 0
174 197 0
171 196 0
173 197 0
174 197 0
173 197 0
173 197 0
174 197 0
172 196 0
175 198 0
174 197 0
172 196 0
173 196 0
175 198 0
173 197 0
174 197 0
173 197 0
174 197 0
174 197 0
172 197 0
173 196 0
175 197 0
174 197 0
170 192 0
155 176 0
155 176 0
156 176 0
155 176 0
157 177 0
156 177 0
155 176 0
155 176 0
155 176 0
156 177 0
153 175 0
155 176 0
156 177 0
155 176 0
156 176 0
156 177 0
156 176 0
154 175 0
156 176 0
155 176 0
155 176 0
154 176 0
156 176 0
155 176 0
155 176 0
156 177 0
155 176 0
155 176 0
154 175 0
156 176 0
155 176 0
156 177 0
155 177 0
156 177 0
156 177 0
155 176 0
154 175 0
155 175 0
155 176 0
156 177 32
165 186 146
181 201 223
181 202 228
182 202 228
182 202 228
182 202 228
182 202 228
182 202 228
183 202 228
182 202 228
182 202 228
182 202 228
181 201 228
181 202 228
181 201 228
181 202 228
182 202 228
181 201 228
182 202 228
181 201 228
181 201 228
181 201 228
181 201 228
182 202 228
181 201 228
181 202 228
181 202 228
181 202 228
182 202 228
181 201 228
182 202 228
182 202 228
182 202 228
181 202 228
182 202 228
181 201 228
181 201 228
182 202 228
182 202 228
182 202 228
181 202 228
181 202 228
181 201 228
182 202 228
181 201 228
182 202 228
182 202 228
182 202 228
182 202 228
181 201 228
181 202 228
182 202 228
181 201 228
181 201 228
181 201 228
182 202 228
181 201 228
181 201 228
181 201 228
182 202 228
182 202 228
168 188 218
125 145 184
56 85 149
48 78 138
49 79 144
49 79 143
48 78 140
50 81 146
50 81 148
48 78 144
48 78 142
48 78 143
51 80 143
49 80 144
57 85 136
59 85 131
52 80 134
67 92 133
66 91 130
69 95 134
77 101 123
73 98 123
78 102 127
85 108 117
89 112 120
94 115 105
94 115 92
103 125 113
112 133 96
119 140 76
108 130 94
122 142 82
121 142 86
127 148 79
134 154 74
132 152 64
137 158 56
147 168 38
143 164 58
146 166 39
150 170 16
146 166 22
149 168 0
151 172 0
150 171 0
151 171 0
148 168 0
150 169 0
150 171 0
147 167 0
150 170 0
151 172 0
149 169 0
152 171 0
151 171 0
147 167 0
147 166 0
155 174 0
160 182 0
174 197 0
173 196 0
172 196 0
172 195 0
171 195 0
174 196 0
175 198 0
170 194 0
172 196 0
173 196 0
174 197 0
170 193 0
173 197 0
173 196 0
173 197 0
171 195 0
173 197 0
173 196 0
172 195 0
172 196 0
172 195 0
172 196 0
174 197 0
173 196 0
173 196 0
174 197 0
172 197 0
172 196 0
171 194 0
173 196 0
172 195 0
172 195 0
172 196 0
172 196 0
174 196 0
174 196 0
173 196 0
172 196 0
173 197 0
169 192 0
172 195 0
173 196 0
173 196 0
173 196 0
174 197 0
172 196 0
173 196 0
173 196 0
175 197 0
171 194 0
173 197 0
172 194 0
173 197 0
173 195 0
171 195 0
170 194 0
174 196 0
169 193 0
173 196 0
169 192 0
171 194 0
175 197 0
174 196 0
171 195 0
174 197 0
171 196 0
174 197 0
172 196 0
174 197 0
171 195 0
172 194 0
173 195 0
174 196 0
170 194 0
173 196 0
171 194 0
171 194 0
175 198 0
172 196 0
172 196 0
174 196 0
173 196 0
172 195 0
171 194 0
171 195 0
172 195 0
171 195 0
172 195 0
173 196 0
172 196 0
173 196 0
171 195 0
170 194 0
174 197 0
173 197 0
172 195 0
173 196 0
171 195 0
172 195 0
172 196 0
173 197 0
173 197 0
171 195 0
172 195 0
173 196 0
172 196 0
173 196 0
172 196 0
173 197 0
173 196 0
172 195 0
173 196 0
174 197 0
171 194 0
172 196 0
170 194 0
172 195 0
172 197 0
174 197 0
171 195 0
172 195 0
173 196 0
173 196 0
171 195 0
174 196 0
173 196 0
173 195 0
173 197 0
173 196 0
173 196 0
172 196 0
173 197 0
174 197 0
172 195 0
172 196 0
173 197 0
171 195 0
172 196 0
172 195 0
173 196 0
174 197 0
175 198 0
174 197 0
173 197 0
172 195 0
173 197 0
172 196 0
174 197 0
172 195 0
174 197 0
175 198 0
173 195 0
174 197 0
174 197 0
172 196 0
172 195 0
174 197 0
175 197 0
175 197 0
171 195 0
175 198 0
173 197 0
173 197 0
174 197 0
173 196 0
173 196 0
174 197 0
172 196 0
172 195 0
174 197 0
174 197 0
173 197 0
173 197 0
174 197 0
173 197 0
173 197 0
174 197 0
174 197 0
175 197 0
175 197 0
175 197 0
174 198 0
174 197 0
173 197 0
174 198 0
173 196 0
173 197 0
175 198 0
174 197 0
173 196 0
173 197 0
174 197 0
173 197 0
173 196 0
173 196 0
174 197 0
173 197 0
174 197 0
173 197 0
173 197 0
173 197 0
173 197 0
174 197 0
172 196 0
173 197 0
174 197 0
175 198 0
174 197 0
173 197 0
174 198 0
173 196 0
174 197 0
172 196 0
176 198 0
173 197 0
174 197 0
173 197 0
174 197 0
174 197 0
173 196 0
172 196 0
175 197 0
172 196 0
174 197 0
175 198 0
172 196 0
173 197 0
173 197 0
173 197 0
173 197 0
174 197 0
171 195 0
173 196 0
174 197 0
173 196 0
172 196 0
173 197 0
174 197 0
173 197 0
172 195 0
156 177 0
155 176 0
155 176 0
156 177 0
155 176 0
156 176 0
155 176 0
156 177 0
156 177 0
157 177 0
154 175 0
155 177 0
156 177 0
155 176 0
155 176 0
157 177 0
155 176 0
154 176 0
155 176 0
156 176 0
155 176 0
155 176 0
155 176 0
156 176 0
155 176 0
154 175 0
154 175 0
156 177 0
157 178 0
154 175 0
156 177 0
156 177 0
156 176 0
154 176 0
156 177 0
156 177 0
155 175 0
154 175 0
156 176 0
157 177 0
155 176 0
158 178 60
170 191 174
181 201 226
182 202 228
182 202 228
182 202 228
181 201 228
181 202 228
182 202 228
182 202 228
182 202 228
181 201 228
182 202 228
182 202 228
182 202 228
181 202 228
182 202 228
181 201 228
181 201 228
182 202 228
182 202 228
182 202 228
181 201 228
182 202 228
181 202 228
181 201 228
181 202 228
181 201 228
182 202 228
181 201 228
182 202 228
183 202 228
181 202 228
182 202 228
180 201 228
182 202 228
181 201 228
181 201 228
182 202 228
182 202 228
181 202 228
182 202 228
181 201 228
181 201 228
182 202 228
181 201 228
181 201 228
182 202 228
181 201 228
180 201 228
181 202 228
181 201 228
181 201 228
182 202 228
182 202 228
182 202 228
181 202 228
180 201 228
158 179 211
108 129 176
47 76 139
49 79 144
48 78 142
47 77 140
49 78 141
48 78 145
48 77 141
49 79 144
49 79 145
48 78 142
48 78 142
49 80 143
47 74 132
52 82 145
52 80 141
58 86 139
50 80 140
58 84 134
64 89 129
59 86 129
63 89 135
74 98 126
82 105 121
79 103 119
83 105 112
86 108 109
92 115 111
95 117 112
100 122 106
112 133 96
114 135 95
118 139 82
124 144 79
126 146 75
125 144 79
135 156 63
136 157 68
134 153 62
137 158 50
148 168 28
146 166 27
147 167 28
150 170 0
150 171 0
151 171 0
149 170 0
151 171 0
151 173 0
152 171 0
149 169 0
150 171 0
148 168 0
151 171 0
147 166 0
149 169 0
152 172 0
149 170 0
150 170 0
161 183 0
173 197 0
172 196 0
173 196 0
173 196 0
173 196 0
172 195 0
173 197 0
172 195 0
173 196 0
174 197 0
171 194 0
173 196 0
173 196 0
171 194 0
171 195 0
172 196 0
174 197 0
171 194 0
171 195 0
172 196 0
173 197 0
174 197 0
174 197 0
173 196 0
172 195 0
173 196 0
170 194 0
172 195 0
172 195 0
171 194 0
172 195 0
174 197 0
172 195 0
173 196 0
172 196 0
171 194 0
175 198 0
172 195 0
173 196 0
174 198 0
173 195 0
172 196 0
173 196 0
172 196 0
172 197 0
172 195 0
172 195 0
172 195 0
171 194 0
172 196 0
172 194 0
171 195 0
174 197 0
171 195 0
172 196 0
172 195 0
173 196 0
173 196 0
174 196 0
174 197 0
170 194 0
173 196 0
172 195 0
171 195 0
172 195 0
173 196 0
175 198 0
174 197 0
175 197 0
175 198 0
171 195 0
171 195 0
173 196 0
174 196 0
172 195 0
174 197 0
173 196 0
171 194 0
171 195 0
173 197 0
172 195 0
173 196 0
174 197 0
171 196 0
173 196 0
171 194 0
173 197 0
172 195 0
174 197 0
172 196 0
173 197 0
171 195 0
174 197 0
172 196 0
173 196 0
174 197 0
174 197 0
172 195 0
173 196 0
173 194 0
172 195 0
174 197 0
173 197 0
172 195 0
173 196 0
174 197 0
173 196 0
172 197 0
174 197 0
171 195 0
174 198 0
173 197 0
172 195 0
174 197 0
171 194 0
173 197 0
173 197 0
174 197 0
172 196 0
173 196 0
172 196 0
173 196 0
172 195 0
174 197 0
170 193 0
173 196 0
173 197 0
173 197 0
173 197 0
175 198 0
172 195 0
171 195 0
175 198 0
173 196 0
171 195 0
174 197 0
173 196 0
174 198 0
173 196 0
171 194 0
173 197 0
172 195 0
174 197 0
174 196 0
172 196 0
172 195 0
173 196 0
174 197 0
173 196 0
172 195 0
173 196 0
174 197 0
173 196 0
174 198 0
170 195 0
172 196 0
173 197 0
173 196 0
173 196 0
175 198 0
173 196 0
173 196 0
173 197 0
173 196 0
173 196 0
174 197 0
175 197 0
173 196 0
174 197 0
173 196 0
172 196 0
173 197 0
173 197 0
173 197 0
176 199 0
175 198 0
174 198 0
172 196 0
175 198 0
173 196 0
174 197 0
172 195 0
173 196 0
173 197 0
174 197 0
173 196 0
173 197 0
173 197 0
171 195 0
173 196 0
174 197 0
172 195 0
174 196 0
171 195 0
174 197 0
174 197 0
174 197 0
175 198 0
174 197 0
174 198 0
173 197 0
174 198 0
174 197 0
174 197 0
174 197 0
172 196 0
173 196 0
176 198 0
173 197 0
174 197 0
171 196 0
173 197 0
175 198 0
173 197 0
173 197 0
174 197 0
174 198 0
173 197 0
173 197 0
172 196 0
174 197 0
173 196 0
175 197 0
173 197 0
174 197 0
175 197 0
173 196 0
174 197 0
175 198 0
175 198 0
174 197 0
173 197 0
174 197 0
173 196 0
172 196 0
172 196 0
175 197 0
172 196 0
172 195 0
172 195 0
155 176 0
156 177 0
155 176 0
155 176 0
155 176 0
157 177 0
156 176 0
154 176 0
155 176 0
154 176 0
155 176 0
155 176 0
156 177 0
155 176 0
155 176 0
155 176 0
156 177 0
155 176 0
156 177 0
154 175 0
155 175 0
156 176 0
155 176 0
155 176 0
156 176 0
155 176 0
154 175 0
155 176 0
156 177 0
156 177 0
155 176 0
154 176 0
154 175 0
155 176 0
155 175 0
155 176 0
158 178 0
156 177 0
156 176 0
156 177 0
155 176 0
156 176 0
155 176 0
162 183 114
173 193 183
181 202 228
182 202 228
182 202 228
181 202 228
181 201 228
181 201 228
181 201 228
181 201 228
181 201 228
181 201 228
180 201 228
182 202 228
181 201 228
181 201 228
182 202 228
181 201 228
182 202 228
181 201 228
182 202 228
180 201 228
181 201 228
181 202 228
181 201 228
182 202 228
181 201 228
181 201 228
181 201 228
181 201 228
182 202 228
181 202 228
182 202 228
181 202 228
181 201 228
181 201 228
181 201 228
182 202 228
181 201 228
181 201 228
182 202 228
181 201 228
182 202 228
182 202 228
180 201 228
181 201 228
181 201 228
181 201 228
181 201 228
181 201 228
181 202 228
181 202 228
181 202 228
181 201 228
151 170 203
98 120 170
50 81 146
51 82 149
48 78 143
51 82 150
50 81 147
49 79 144
49 80 148
50 81 148
47 76 141
49 80 145
48 77 137
48 77 141
47 76 138
49 79 143
50 80 144
49 79 143
47 77 140
50 79 138
54 83 140
56 83 137
63 88 130
68 92 131
69 94 127
70 96 132
63 89 133
73 96 117
84 107 120
87 110 112
93 116 106
94 115 110
92 114 107
107 128 91
104 125 107
116 137 94
123 144 76
122 141 76
133 154 59
132 153 67
133 153 56
135 156 53
145 164 45
145 166 24
143 162 29
149 168 0
151 171 16
144 164 0
150 169 0
150 170 0
153 173 0
149 168 0
150 169 0
151 171 0
150 171 0
151 171 0
149 169 0
152 172 0
152 172 0
150 170 0
148 168 0
148 168 0
162 185 0
172 195 0
172 195 0
172 196 0
171 195 0
173 197 0
172 196 0
172 195 0
174 197 0
172 196 0
172 196 0
173 196 0
171 195 0
170 193 0
172 195 0
172 196 0
170 193 0
172 196 0
173 196 0
174 198 0
173 196 0
173 196 0
172 195 0
172 196 0
173 197 0
172 195 0
170 193 0
171 195 0
172 195 0
172 195 0
175 197 0
172 195 0
170 194 0
171 194 0
172 195 0
170 194 0
173 197 0
173 196 0
171 194 0
174 196 0
172 195 0
172 195 0
171 194 0
173 196 0
172 195 0
173 196 0
172 195 0
173 197 0
172 195 0
172 196 0
173 196 0
171 194 0
173 197 0
168 192 0
173 196 0
172 195 0
174 196 0
171 195 0
173 196 0
170 193 0
171 194 0
174 197 0
173 196 0
172 196 0
173 196 0
170 194 0
172 195 0
171 195 0
172 195 0
172 195 0
172 195 0
173 196 0
173 196 0
171 194 0
174 197 0
171 194 0
172 195 0
171 196 0
172 195 0
169 193 0
171 194 0
173 197 0
174 197 0
172 196 0
171 195 0
176 198 0
172 196 0
173 196 0
174 197 0
174 197 0
173 196 0
170 194 0
172 195 0
172 195 0
173 197 0
174 197 0
174 197 0
173 196 0
170 194 0
172 196 0
174 197 0
172 196 0
172 196 0
173 196 0
172 195 0
174 198 0
175 198 0
174 197 0
172 195 0
168 191 0
172 196 0
172 196 0
175 198 0
171 195 0
173 196 0
173 196 0
172 195 0
173 196 0
171 195 0
174 197 0
173 196 0
171 194 0
175 198 0
174 197 0
172 196 0
172 195 0
167 189 0
174 197 0
174 197 0
172 195 0
171 194 0
174 196 0
173 196 0
173 196 0
174 197 0
173 197 0
173 196 0
173 196 0
174 198 0
173 197 0
173 197 0
172 196 0
172 196 0
173 196 0
172 197 0
173 196 0
175 198 0
171 196 0
173 196 0
175 198 0
173 196 0
174 197 0
173 197 0
173 197 0
172 195 0
173 197 0
176 198 0
172 195 0
172 196 0
172 197 0
173 196 0
173 196 0
174 198 0
174 198 0
174 197 0
173 196 0
174 197 0
174 198 0
173 197 0
174 197 0
173 197 0
173 197 0
174 197 0
174 197 0
172 196 0
172 195 0
172 196 0
172 196 0
173 197 0
173 197 0
172 195 0
172 195 0
174 197 0
174 197 0
175 197 0
174 198 0
173 196 0
174 197 0
173 196 0
171 195 0
174 197 0
173 196 0
175 198 0
174 197 0
173 196 0
174 197 0
173 197 0
174 198 0
174 196 0
174 198 0
174 196 0
174 197 0
174 197 0
175 198 0
173 197 0
173 197 0
173 197 0
174 197 0
173 196 0
175 198 0
172 196 0
174 197 0
172 196 0
174 197 0
173 197 0
173 196 0
174 197 0
174 197 0
173 197 0
172 197 0
172 196 0
173 197 0
173 196 0
172 196 0
173 197 0
174 197 0
173 197 0
174 197 0
173 196 0
173 197 0
174 196 0
173 197 0
172 196 0
175 198 0
173 196 0
173 196 0
173 196 0
173 196 0
173 197 0
173 196 0
174 197 0
159 180 0
157 177 0
155 176 0
155 176 0
155 176 0
154 176 0
155 176 0
155 176 0
154 175 0
154 175 0
156 177 0
155 176 0
156 177 0
154 175 0
155 176 0
155 176 0
155 176 0
155 176 0
156 177 0
155 176 0
155 176 0
155 176 0
156 176 0
156 177 0
154 176 0
156 176 0
154 175 0
155 176 0
155 176 0
154 176 0
155 176 0
156 177 0
155 176 0
154 176 0
155 176 0
155 176 0
154 176 0
155 176 0
156 177 0
154 175 0
154 175 0
155 175 0
155 176 0
153 174 0
153 174 0
161 183 121
178 199 214
181 202 228
182 202 228
181 202 228
181 201 228
181 202 228
181 201 228
181 201 228
182 202 228
181 201 228
182 202 228
182 202 228
181 201 228
182 202 228
181 201 228
182 202 228
182 202 228
182 202 228
181 201 228
181 202 228
182 202 228
180 201 228
181 201 228
181 202 228
182 202 228
181 202 228
181 202 228
181 202 228
182 202 228
181 201 228
182 202 228
181 201 228
181 201 228
181 201 228
181 201 228
181 201 228
182 202 228
180 201 228
181 201 228
181 201 228
181 202 228
181 201 228
181 201 228
181 201 228
182 202 228
181 201 228
181 201 228
181 201 228
177 197 225
139 160 195
80 103 157
51 82 147
50 81 146
50 80 148
48 78 142
51 81 148
50 81 147
50 80 147
48 78 139
48 78 143
48 78 142
49 80 145
47 76 135
50 80 144
48 77 141
49 78 145
48 77 139
48 76 138
47 76 139
48 78 141
47 75 136
46 73 128
54 81 132
51 79 132
57 85 136
62 86 119
69 95 128
71 96 124
86 108 116
76 98 118
86 109 121
79 101 115
92 114 109
105 125 103
105 125 94
113 135 92
106 127 102
113 134 86
126 147 79
127 148 68
130 151 58
136 156 59
138 157 42
139 159 50
139 158 28
149 169 28
149 169 16
148 167 0
152 171 0
152 172 0
152 172 0
148 168 0
148 169 0
151 172 0
144 164 0
149 169 0
150 170 0
151 170 0
152 172 0
149 170 0
150 170 0
148 167 0
150 169 0
164 185 0
171 195 0
171 194 0
173 196 0
170 194 0
171 195 0
173 196 0
172 194 0
172 195 0
171 194 0
172 195 0
172 195 0
172 195 0
171 195 0
173 196 0
170 193 0
173 196 0
172 196 0
170 193 0
171 195 0
172 195 0
173 197 0
171 194 0
169 193 0
174 197 0
174 197 0
173 195 0
172 194 0
171 193 0
171 195 0
172 196 0
172 195 0
173 197 0
172 196 0
173 196 0
172 195 0
173 196 0
173 197 0
173 196 0
170 193 0
174 197 0
170 194 0
173 197 0
173 197 0
173 196 0
172 196 0
172 195 0
173 196 0
172 195 0
173 196 0
173 196 0
168 192 0
174 197 0
174 197 0
174 197 0
173 196 0
172 195 0
173 196 0
173 196 0
173 195 0
171 194 0
172 195 0
173 196 0
172 196 0
173 196 0
174 197 0
173 196 0
173 195 0
173 196 0
174 197 0
175 197 0
170 194 0
169 193 0
173 197 0
173 196 0
172 196 0
173 196 0
172 195 0
173 197 0
172 195 0
173 197 0
172 195 0
173 196 0
173 197 0
174 197 0
172 195 0
174 197 0
170 194 0
173 196 0
172 195 0
174 197 0
173 196 0
172 196 0
172 195 0
173 196 0
173 197 0
171 194 0
174 197 0
172 195 0
172 195 0
173 197 0
173 196 0
171 194 0
173 197 0
173 196 0
173 196 0
171 195 0
174 197 0
172 196 0
172 197 0
175 197 0
171 194 0
173 197 0
173 197 0
173 195 0
174 197 0
174 198 0
172 196 0
173 196 0
173 197 0
174 197 0
174 197 0
172 195 0
171 195 0
173 197 0
172 196 0
172 196 0
172 195 0
174 197 0
172 195 0
172 196 0
173 197 0
172 196 0
174 197 0
173 197 0
174 197 0
173 195 0
174 197 0
173 197 0
172 196 0
173 197 0
172 196 0
173 196 0
173 196 0
173 196 0
173 196 0
174 197 0
175 198 0
172 195 0
174 197 0
174 197 0
173 197 0
174 197 0
175 198 0
172 195 0
174 197 0
173 197 0
173 197 0
173 197 0
174 197 0
172 196 0
174 196 0
172 195 0
173 197 0
175 198 0
173 197 0
172 195 0
174 196 0
172 196 0
173 197 0
172 195 0
173 196 0
174 197 0
174 198 0
175 197 0
174 198 0
170 194 0
174 197 0
173 197 0
173 197 0
175 198 0
172 196 0
174 197 0
173 195 0
173 197 0
173 196 0
173 196 0
173 197 0
173 196 0
173 196 0
173 197 0
173 197 0
173 196 0
174 197 0
173 196 0
173 197 0
175 197 0
173 197 0
172 197 0
174 196 0
173 197 0
173 196 0
174 197 0
174 197 0
174 197 0
174 197 0
173 196 0
175 198 0
174 197 0
174 197 0
173 197 0
172 196 0
172 196 0
172 196 0
173 197 0
173 196 0
173 196 0
173 197 0
175 198 0
173 197 0
174 197 0
174 197 0
174 197 0
173 197 0
173 197 0
174 198 0
173 197 0
173 197 0
173 196 0
173 197 0
175 198 0
174 197 0
174 197 0
172 196 0
172 196 0
173 197 0
174 197 0
173 196 0
172 196 0
173 196 0
173 196 0
162 184 0
155 176 0
155 176 0
155 176 0
155 176 0
156 176 0
155 175 0
156 176 0
156 177 0
156 177 0
156 177 0
156 176 0
156 176 0
155 176 0
155 176 0
155 176 0
155 176 0
154 175 0
155 176 0
156 177 0
156 177 0
156 176 0
154 175 0
155 176 0
155 176 0
156 177 0
156 177 0
155 176 0
155 176 0
155 176 0
155 176 0
157 177 0
156 176 0
156 176 0
157 177 0
156 176 0
155 176 0
154 175 0
155 176 0
156 177 0
155 175 0
154 176 0
154 175 0
156 176 0
157 177 0
156 177 0
156 177 22
170 190 171
180 200 219
181 201 228
182 202 228
181 201 228
181 201 228
181 202 228
181 202 228
181 202 228
181 201 228
181 201 228
181 201 228
181 202 228
182 202 228
181 201 228
181 201 228
182 202 228
182 202 228
182 202 228
182 202 228
182 202 228
182 202 228
181 201 228
181 202 228
181 201 228
182 202 228
182 202 228
180 201 228
181 201 228
181 201 228
181 201 228
181 201 228
181 201 228
181 202 228
182 202 228
181 202 228
182 202 228
181 202 228
181 201 228
181 201 228
181 201 228
182 202 228
182 202 228
180 201 228
181 201 228
172 192 220
120 140 179
64 92 153
50 80 145
50 81 147
50 81 148
51 82 148
50 81 149
50 80 145
50 81 148
50 80 148
46 75 142
48 78 145
48 77 140
48 77 139
47 76 137
47 76 141
47 76 140
47 76 137
46 75 137
47 76 139
45 72 134
49 79 145
44 72 132
47 75 137
50 79 144
52 78 127
57 83 133
55 81 134
56 83 131
61 87 130
67 91 113
72 97 130
82 104 118
81 103 112
96 117 105
92 114 104
96 117 107
97 119 102
109 130 94
110 130 94
110 131 89
119 140 87
117 137 81
125 146 71
134 155 66
140 160 52
143 164 46
152 172 32
143 164 44
146 166 22
147 168 16
149 170 0
150 171 0
147 166 0
147 167 0
149 167 0
150 170 0
153 173 0
151 170 0
150 171 0
152 171 0
147 167 0
147 167 0
150 169 0
153 173 0
151 171 0
158 180 0
171 195 0
173 196 0
173 197 0
174 197 0
170 193 0
171 195 0
170 193 0
172 193 0
172 195 0
171 194 0
171 194 0
172 195 0
173 195 0
172 196 0
171 194 0
171 194 0
173 196 0
173 196 0
175 197 0
171 194 0
173 196 0
172 196 0
172 195 0
171 193 0
173 196 0
171 194 0
171 195 0
170 193 0
170 194 0
173 196 0
172 196 0
171 194 0
173 197 0
172 195 0
170 193 0
172 195 0
173 196 0
172 195 0
170 194 0
172 195 0
171 194 0
173 196 0
173 196 0
172 196 0
173 196 0
170 194 0
173 196 0
173 196 0
171 195 0
173 196 0
169 192 0
173 196 0
172 195 0
172 195 0
171 195 0
172 195 0
172 196 0
174 197 0
173 196 0
173 196 0
175 197 0
171 195 0
173 196 0
175 198 0
171 194 0
171 195 0
173 197 0
173 196 0
173 197 0
171 195 0
173 196 0
171 195 0
172 196 0
173 196 0
174 197 0
172 196 0
173 196 0
171 195 0
172 195 0
171 194 0
173 197 0
172 195 0
172 196 0
172 194 0
170 194 0
171 194 0
172 195 0
169 192 0
170 194 0
173 197 0
174 197 0
173 196 0
174 197 0
173 196 0
173 196 0
171 194 0
172 196 0
171 194 0
172 195 0
171 195 0
169 193 0
172 196 0
173 197 0
174 197 0
173 196 0
173 196 0
172 196 0
171 194 0
171 195 0
173 197 0
173 197 0
173 196 0
173 196 0
172 196 0
173 196 0
172 195 0
174 197 0
171 195 0
172 195 0
172 195 0
173 197 0
173 195 0
173 197 0
174 197 0
173 197 0
174 197 0
170 194 0
172 196 0
174 197 0
174 197 0
172 195 0
173 197 0
173 197 0
173 196 0
172 195 0
173 196 0
172 196 0
172 195 0
174 196 0
174 196 0
175 198 0
175 198 0
175 198 0
173 197 0
170 193 0
174 197 0
173 197 0
174 197 0
174 197 0
173 196 0
173 196 0
175 198 0
173 195 0
174 197 0
174 198 0
172 196 0
173 197 0
173 196 0
172 196 0
173 196 0
172 196 0
175 198 0
176 198 0
174 197 0
172 195 0
173 196 0
174 197 0
172 195 0
172 195 0
172 196 0
173 197 0
173 197 0
174 197 0
175 198 0
173 197 0
174 197 0
176 198 0
173 196 0
174 197 0
173 197 0
175 198 0
174 197 0
173 196 0
175 197 0
173 196 0
172 195 0
172 196 0
172 196 0
173 196 0
174 197 0
176 198 0
174 197 0
172 196 0
173 196 0
172 196 0
175 198 0
173 197 0
174 198 0
174 197 0
175 197 0
175 198 0
173 197 0
175 198 0
173 197 0
172 196 0
173 197 0
175 198 0
172 196 0
174 197 0
174 197 0
171 196 0
173 197 0
174 197 0
174 197 0
173 196 0
172 196 0
172 196 0
175 197 0
172 196 0
174 197 0
175 198 0
174 197 0
174 196 0
173 197 0
173 196 0
175 198 0
173 196 0
174 197 0
175 197 0
174 197 0
174 197 0
172 196 0
174 197 0
172 196 0
173 196 0
175 198 0
173 196 0
175 197 0
175 197 0
173 197 0
166 188 0
155 176 0
155 176 0
155 176 0
152 174 0
154 175 0
156 177 0
154 175 0
155 176 0
155 176 0
155 176 0
157 177 0
155 176 0
154 175 0
155 176 0
156 176 0
156 177 0
154 175 0
155 176 0
156 176 0
154 176 0
155 176 0
155 176 0
155 176 0
154 175 0
154 175 0
155 176 0
156 176 0
155 176 0
155 176 0
155 176 0
156 176 0
155 177 0
155 176 0
153 174 0
156 176 0
156 176 0
156 176 0
156 176 0
156 176 0
155 176 0
156 176 0
155 176 0
155 176 0
154 175 0
156 176 0
154 175 0
155 176 0
158 179 72
169 189 161
182 202 228
182 202 228
182 202 228
182 202 228
182 202 228
181 202 228
181 201 228
182 202 228
181 201 228
181 201 228
182 202 228
181 202 228
180 201 228
181 201 228
181 201 228
182 202 228
181 201 228
180 201 228
181 201 228
181 201 228
181 201 228
181 201 228
181 201 228
181 201 228
181 201 228
181 201 228
181 201 228
181 201 228
181 201 228
181 201 228
182 202 228
181 202 228
181 201 228
181 201 228
181 201 228
181 201 228
181 202 228
181 202 228
181 201 228
181 201 228
168 188 218
116 138 182
56 85 147
49 80 143
50 82 149
48 79 145
47 76 139
50 81 146
49 79 146
49 79 145
50 81 142
50 81 145
47 76 139
48 77 141
50 81 146
48 78 142
47 76 138
49 79 144
45 74 135
47 77 142
47 77 144
49 79 144
46 74 136
46 74 135
45 73 134
45 74 135
45 74 137
46 75 136
46 75 137
52 79 130
50 75 125
54 81 135
57 82 124
72 96 127
63 89 128
74 97 121
72 97 127
71 93 117
97 118 105
81 104 109
83 103 110
106 128 101
103 123 101
124 144 77
115 136 81
124 143 76
127 148 77
130 150 60
136 156 54
141 161 43
143 163 25
140 160 41
143 163 32
145 165 0
146 166 0
145 164 0
150 170 0
149 170 0
150 170 0
146 165 0
148 167 0
149 168 0
150 171 0
152 172 0
150 171 0
147 167 0
152 172 0
150 170 0
150 168 0
160 182 0
172 195 0
172 195 0
171 194 0
172 195 0
169 191 0
170 194 0
171 195 0
172 194 0
169 193 0
173 196 0
172 196 0
171 194 0
173 196 0
174 197 0
172 196 0
171 195 0
170 194 0
170 193 0
173 197 0
174 197 0
170 194 0
172 195 0
173 196 0
172 196 0
170 194 0
170 194 0
172 195 0
170 194 0
173 196 0
171 194 0
169 193 0
173 196 0
173 196 0
172 196 0
173 196 0
171 194 0
173 196 0
173 196 0
172 195 0
172 195 0
171 195 0
172 196 0
171 194 0
174 197 0
173 196 0
174 197 0
172 195 0
170 194 0
172 196 0
172 196 0
170 193 0
173 196 0
171 195 0
173 196 0
173 196 0
174 197 0
171 194 0
171 193 0
173 197 0
169 193 0
172 195 0
172 195 0
173 196 0
171 193 0
172 195 0
172 195 0
171 195 0
173 197 0
171 196 0
172 196 0
171 195 0
172 196 0
172 195 0
173 196 0
175 198 0
172 194 0
173 196 0
173 196 0
170 194 0
171 195 0
174 197 0
170 194 0
173 196 0
173 197 0
174 197 0
170 194 0
172 195 0
172 195 0
172 195 0
172 195 0
173 196 0
174 197 0
173 197 0
173 196 0
172 195 0
172 196 0
172 195 0
172 195 0
175 198 0
171 195 0
171 194 0
173 196 0
174 197 0
171 194 0
171 194 0
173 197 0
173 196 0
172 196 0
172 196 0
175 198 0
173 196 0
173 196 0
172 196 0
172 195 0
172 195 0
172 194 0
171 194 0
172 195 0
173 196 0
171 194 0
170 194 0
173 195 0
173 197 0
172 195 0
175 198 0
173 196 0
172 195 0
172 196 0
171 194 0
173 196 0
172 196 0
169 193 0
174 196 0
171 195 0
173 197 0
174 198 0
172 195 0
173 197 0
175 198 0
172 196 0
172 196 0
174 197 0
173 196 0
173 196 0
173 196 0
172 196 0
170 194 0
172 196 0
175 198 0
172 196 0
171 195 0
172 196 0
174 197 0
172 196 0
171 195 0
173 196 0
174 197 0
172 196 0
174 196 0
174 197 0
175 198 0
174 197 0
173 196 0
173 196 0
174 196 0
173 197 0
174 197 0
174 197 0
174 197 0
172 196 0
173 197 0
174 197 0
174 197 0
175 198 0
174 197 0
173 197 0
172 195 0
174 197 0
174 197 0
173 196 0
173 197 0
173 197 0
174 198 0
172 196 0
175 198 0
174 197 0
175 197 0
173 196 0
174 197 0
176 198 0
174 197 0
173 196 0
172 196 0
174 197 0
174 197 0
172 195 0
172 196 0
174 197 0
173 197 0
174 197 0
174 197 0
175 197 0
174 197 0
174 197 0
174 197 0
173 196 0
174 197 0
174 197 0
174 197 0
174 197 0
173 197 0
173 196 0
174 197 0
174 198 0
173 197 0
174 197 0
173 197 0
173 197 0
174 197 0
173 196 0
174 197 0
174 197 0
176 198 0
174 197 0
172 196 0
173 196 0
174 197 0
173 196 0
174 197 0
174 196 0
173 197 0
174 197 0
173 196 0
173 197 0
175 198 0
173 196 0
172 196 0
173 196 0
174 197 0
173 197 0
169 192 0
156 177 0
156 176 0
156 177 0
154 176 0
155 176 0
154 175 0
156 176 0
154 176 0
154 176 0
154 175 0
156 177 0
154 176 0
154 175 0
155 176 0
155 176 0
154 175 0
157 177 0
154 175 0
155 176 0
155 176 0
156 176 0
156 176 0
154 176 0
155 175 0
156 177 0
155 176 0
156 177 0
155 176 0
155 176 0
156 176 0
155 175 0
156 176 0
155 176 0
155 176 0
156 176 0
155 176 0
154 175 0
154 176 0
156 176 0
156 177 0
156 176 0
153 175 0
156 176 0
155 176 0
155 176 0
155 176 0
156 176 0
155 176 0
153 175 0
162 183 109
176 196 200
181 201 228
181 201 228
181 202 228
181 201 228
181 201 228
181 202 228
182 202 228
181 201 228
181 201 228
181 202 228
181 202 228
181 202 228
181 201 228
180 201 228
181 201 228
182 202 228
181 201 228
182 202 228
182 202 228
181 201 228
182 202 228
181 201 228
181 201 228
181 201 228
181 202 228
181 201 228
181 201 228
181 201 228
181 201 228
181 201 228
181 201 228
182 202 228
181 201 228
181 202 228
181 201 228
181 201 228
150 171 204
108 130 173
50 80 144
50 81 147
50 80 146
50 80 146
50 81 146
51 82 148
49 79 143
49 79 144
48 78 143
47 77 142
48 77 138
47 77 142
49 78 142
48 77 140
47 76 141
46 74 138
47 76 141
47 76 141
46 74 137
49 78 141
47 75 139
45 74 138
46 74 133
45 73 136
45 74 135
44 72 132
46 75 138
44 72 133
44 72 128
43 71 128
48 76 132
54 80 128
57 83 131
61 86 120
59 85 127
63 86 118
69 93 124
83 105 115
86 109 114
97 117 104
94 116 105
102 122 106
106 127 98
107 128 86
123 143 73
127 147 65
122 143 75
136 156 57
137 157 53
140 160 47
146 167 23
142 161 24
149 169 21
149 169 16
147 165 0
148 168 0
149 169 0
147 166 0
148 168 0
149 170 0
148 167 0
150 169 0
148 167 0
149 169 0
150 170 0
152 173 0
148 168 0
149 170 0
149 170 0
161 182 0
172 196 0
172 195 0
172 195 0
173 196 0
174 197 0
170 195 0
171 194 0
172 196 0
172 195 0
171 194 0
171 194 0
173 196 0
173 196 0
172 195 0
171 195 0
172 196 0
172 195 0
172 193 0
171 193 0
170 193 0
171 194 0
173 196 0
172 196 0
172 196 0
172 195 0
173 196 0
172 195 0
174 196 0
172 196 0
173 196 0
170 194 0
172 195 0
170 194 0
172 195 0
173 196 0
171 195 0
170 193 0
173 196 0
171 194 0
171 194 0
172 196 0
171 196 0
172 195 0
172 195 0
172 195 0
173 196 0
172 195 0
173 196 0
172 195 0
171 195 0
172 195 0
171 194 0
172 195 0
175 197 0
173 197 0
171 195 0
172 196 0
173 196 0
173 197 0
170 195 0
173 196 0
174 198 0
173 197 0
172 196 0
172 195 0
170 194 0
170 193 0
174 197 0
174 197 0
171 194 0
173 196 0
173 196 0
172 196 0
173 196 0
171 194 0
171 194 0
172 195 0
172 196 0
171 195 0
173 195 0
174 197 0
170 194 0
172 195 0
173 196 0
174 196 0
173 196 0
174 197 0
171 194 0
170 194 0
171 194 0
172 195 0
171 194 0
174 197 0
170 193 0
173 196 0
173 196 0
171 195 0
173 197 0
173 196 0
171 194 0
174 197 0
173 196 0
173 196 0
171 195 0
170 194 0
173 197 0
174 197 0
172 195 0
173 196 0
174 197 0
174 197 0
171 195 0
172 195 0
175 198 0
171 194 0
171 195 0
173 197 0
173 197 0
174 197 0
172 195 0
173 196 0
171 194 0
174 196 0
174 198 0
174 197 0
172 196 0
172 195 0
170 194 0
174 197 0
173 196 0
172 196 0
174 197 0
172 195 0
173 196 0
171 195 0
172 194 0
173 197 0
172 196 0
174 197 0
173 196 0
172 195 0
174 196 0
175 197 0
172 196 0
172 197 0
172 195 0
171 195 0
172 195 0
173 196 0
174 197 0
172 195 0
172 196 0
172 195 0
173 196 0
174 197 0
173 197 0
173 197 0
174 197 0
173 196 0
173 196 0
173 196 0
173 196 0
174 197 0
172 195 0
172 196 0
173 197 0
174 197 0
173 197 0
173 196 0
174 197 0
173 196 0
176 198 0
173 197 0
172 195 0
171 196 0
173 196 0
173 197 0
173 197 0
173 196 0
174 198 0
175 197 0
173 197 0
172 196 0
174 196 0
173 196 0
173 197 0
173 196 0
173 196 0
174 198 0
173 196 0
172 195 0
173 196 0
173 197 0
174 197 0
174 196 0
173 196 0
174 198 0
173 196 0
173 196 0
174 197 0
174 197 0
175 198 0
174 197 0
173 196 0
174 197 0
173 197 0
173 197 0
174 197 0
173 197 0
172 195 0
173 197 0
173 197 0
171 195 0
173 197 0
174 197 0
173 196 0
173 197 0
173 196 0
173 196 0
173 197 0
175 197 0
173 197 0
174 197 0
176 198 0
172 196 0
174 197 0
175 197 0
174 197 0
173 197 0
173 196 0
174 198 0
175 198 0
172 196 0
172 196 0
174 197 0
174 197 0
173 197 0
173 197 0
172 196 0
173 197 0
171 194 0
156 177 0
156 177 0
154 176 0
156 176 0
155 176 0
155 176 0
157 177 0
154 176 0
154 175 0
156 176 0
155 176 0
155 176 0
155 176 0
156 177 0
156 177 0
154 175 0
156 177 0
157 177 0
155 175 0
155 176 0
155 176 0
155 176 0
156 177 0
155 176 0
155 176 0
155 176 0
155 176 0
155 176 0
155 176 0
155 176 0
154 175 0
156 176 0
153 174 0
156 177 0
155 176 0
155 176 0
155 176 0
155 176 0
154 176 0
156 177 0
156 177 0
153 175 0
157 177 0
156 176 0
157 177 0
154 176 0
154 176 0
156 177 0
155 176 0
154 175 0
155 176 0
161 182 123
179 199 218
181 201 228
180 201 228
181 201 228
181 201 228
181 201 228
181 201 228
181 201 228
181 201 228
181 201 228
181 202 228
182 202 228
181 202 228
181 201 228
182 202 228
181 201 228
181 201 228
181 201 228
181 201 228
181 201 228
180 201 228
181 201 228
182 202 228
181 201 228
182 202 228
181 201 228
181 201 228
182 202 228
181 201 228
181 201 228
180 201 228
181 201 228
180 200 228
142 162 199
84 108 160
50 81 148
51 82 147
51 82 145
51 82 145
49 80 144
49 79 144
49 79 140
49 80 144
49 79 144
47 77 142
50 80 146
49 80 145
48 77 143
47 76 138
47 76 139
46 75 136
47 76 141
47 76 139
48 78 144
47 76 139
48 77 142
46 74 137
46 75 138
47 75 138
47 76 139
48 78 143
45 73 135
44 72 132
44 71 128
46 74 132
44 72 132
44 71 128
45 71 124
56 81 121
56 82 131
52 79 131
61 85 117
68 93 121
72 95 113
82 106 123
98 119 106
89 110 100
89 110 109
97 119 105
102 123 101
102 123 101
118 139 83
109 129 73
126 146 68
127 148 68
127 148 65
140 159 44
143 163 33
141 161 36
147 167 16
144 164 24
147 167 16
144 165 0
149 169 0
149 168 0
148 168 0
150 171 0
152 172 0
148 168 0
147 167 36
141 163 65
135 156 84
129 151 87
129 150 94
129 151 102
123 146 109
128 153 121
130 156 121
150 174 95
140 165 107
151 175 84
160 185 62
158 181 69
170 193 18
172 195 0
173 196 0
173 197 0
172 196 0
171 194 0
172 195 0
174 197 0
173 196 0
173 196 0
173 195 0
171 195 0
174 197 0
169 191 0
173 196 0
171 194 0
173 196 0
171 194 0
172 195 0
172 195 0
168 191 0
173 196 0
171 194 0
170 193 0
172 195 0
172 195 0
172 195 0
171 194 0
169 193 0
172 195 0
173 197 0
174 197 0
172 195 0
174 196 0
170 193 0
172 196 0
174 197 0
171 194 0
174 197 0
171 194 0
171 195 0
171 193 0
171 196 0
171 193 0
171 194 0
171 194 0
170 194 0
172 195 0
172 195 0
172 195 0
171 195 0
169 193 0
171 195 0
171 194 0
171 193 0
171 194 0
173 196 0
172 196 0
173 197 0
175 198 0
173 196 0
174 197 0
171 195 0
172 195 0
171 195 0
173 197 0
170 194 0
172 195 0
172 196 0
172 195 0
173 197 0
173 196 0
172 194 0
171 194 0
171 195 0
174 197 0
172 196 0
173 196 0
172 196 0
173 197 0
172 195 0
172 196 0
175 198 0
172 195 0
171 195 0
172 195 0
173 197 0
170 193 0
171 195 0
173 196 0
172 196 0
172 196 0
174 196 0
172 196 0
174 197 0
172 195 0
174 197 0
172 195 0
173 196 0
172 195 0
174 198 0
173 197 0
170 194 0
175 198 0
173 196 0
172 195 0
173 196 0
171 194 0
172 196 0
174 197 0
174 197 0
173 197 0
171 194 0
173 197 0
171 195 0
172 195 0
173 196 0
171 193 0
172 195 0
174 197 0
170 194 0
173 197 0
173 197 0
173 196 0
172 196 0
174 197 0
174 197 0
173 196 0
174 198 0
171 195 0
172 196 0
172 196 0
173 197 0
174 197 0
171 194 0
173 197 0
172 195 0
174 197 0
173 196 0
171 195 0
173 196 0
173 196 0
174 197 0
173 196 0
174 197 0
174 197 0
174 198 0
173 196 0
175 198 0
174 196 0
174 198 0
173 197 0
174 197 0
171 195 0
172 196 0
173 196 0
173 196 0
173 196 0
173 197 0
173 197 0
171 194 0
174 197 0
172 196 0
173 195 0
173 197 0
174 197 0
173 197 0
173 197 0
173 197 0
173 197 0
172 197 0
173 197 0
173 197 0
174 197 0
172 196 0
175 197 0
171 195 0
173 197 0
174 197 0
173 196 0
173 196 0
173 196 0
174 197 0
172 195 0
176 199 0
174 198 0
172 196 0
174 198 0
174 197 0
175 198 0
173 197 0
174 197 0
173 196 0
175 197 0
173 196 0
173 196 0
174 197 0
174 197 0
173 197 0
175 198 0
174 197 0
174 197 0
173 197 0
174 197 0
174 197 0
174 197 0
174 197 0
173 197 0
174 197 0
173 197 0
174 197 0
173 197 0
174 197 0
174 197 0
174 197 0
173 197 0
174 197 0
174 197 0
173 197 0
174 197 0
174 197 0
173 196 0
173 196 0
173 197 0
174 197 0
175 197 0
175 197 0
171 195 0
174 197 0
173 196 0
174 197 0
173 196 0
173 196 0
175 197 0
174 197 0
155 176 0
155 176 0
154 175 0
155 176 0
155 176 0
155 176 0
155 177 0
155 176 0
156 177 0
156 177 0
155 176 0
156 176 0
154 176 0
154 176 0
156 176 0
155 176 0
155 176 0
154 175 0
156 176 0
154 175 0
154 176 0
154 175 0
155 176 0
156 176 0
157 177 0
155 176 0
156 176 0
155 176 0
156 176 0
153 174 0
155 176 0
154 175 0
157 177 0
154 176 0
155 176 0
155 176 0
154 175 0
154 175 0
155 176 0
155 176 0
156 177 0
153 174 0
155 176 0
156 177 0
153 174 0
156 177 0
154 175 0
154 175 0
156 176 0
154 176 0
154 176 0
155 175 0
158 178 56
168 188 153
182 201 226
180 201 228
181 201 228
181 201 228
181 201 228
181 201 228
181 201 228
182 202 228
181 202 228
181 201 228
182 202 228
181 201 228
181 201 228
181 201 228
181 201 228
181 201 228
181 202 228
181 201 228
181 202 228
181 201 228
182 202 228
181 201 228
182 202 228
182 202 228
182 202 228
181 201 228
180 201 228
180 201 228
174 194 221
138 158 192
86 109 161
50 80 146
51 82 143
51 81 144
51 81 143
50 81 144
50 80 145
50 80 144
50 80 144
49 79 140
50 81 147
50 81 144
48 77 140
45 74 136
47 77 141
46 75 138
47 75 134
48 78 139
45 74 137
48 78 143
47 76 136
45 74 136
48 77 140
45 73 136
46 75 136
44 72 132
46 75 139
47 75 136
44 71 131
46 75 139
44 72 134
45 73 135
45 73 133
45 72 131
45 72 132
50 77 132
46 72 125
47 74 132
53 78 126
54 81 124
58 82 126
60 85 126
66 89 123
78 100 109
85 106 104
90 111 109
98 120 96
108 128 93
112 133 85
116 137 82
118 139 76
121 142 74
122 142 68
133 153 53
137 158 54
136 156 49
142 163 35
145 164 28
149 168 0
149 169 0
146 165 0
147 167 25
131 153 86
122 145 108
107 133 138
87 116 155
77 109 167
64 99 173
61 98 179
61 98 180
61 98 175
60 97 177
62 99 178
61 99 181
61 98 179
61 99 178
61 99 179
61 98 177
62 99 180
61 98 179
61 98 176
61 98 175
80 112 165
105 133 148
120 146 133
135 160 118
155 178 75
170 194 25
171 194 0
170 194 0
172 195 0
172 195 0
170 192 0
170 194 0
171 193 0
173 196 0
173 196 0
169 192 0
172 195 0
171 194 0
173 196 0
170 193 0
172 196 0
169 192 0
171 195 0
172 195 0
171 194 0
172 196 0
173 196 0
172 195 0
171 195 0
172 194 0
170 194 0
172 195 0
172 196 0
173 196 0
172 195 0
173 196 0
173 197 0
173 196 0
174 197 0
172 195 0
173 197 0
171 193 0
173 196 0
172 195 0
171 194 0
171 195 0
172 195 0
173 195 0
170 193 0
172 195 0
174 196 0
171 194 0
171 195 0
172 195 0
169 192 0
170 194 0
172 194 0
172 195 0
171 194 0
171 194 0
174 197 0
172 195 0
173 196 0
173 197 0
172 196 0
173 196 0
173 196 0
172 196 0
173 197 0
172 195 0
170 194 0
173 196 0
171 194 0
173 196 0
173 195 0
172 194 0
174 197 0
170 193 0
173 196 0
173 197 0
171 194 0
174 198 0
172 195 0
170 194 0
170 193 0
173 196 0
170 194 0
170 193 0
172 196 0
174 196 0
171 195 0
173 196 0
173 195 0
172 196 0
173 196 0
174 197 0
173 197 0
171 194 0
172 194 0
174 196 0
171 195 0
171 195 0
171 194 0
173 196 0
171 195 0
171 194 0
172 196 0
173 197 0
173 196 0
175 198 0
171 195 0
171 195 0
174 196 0
170 194 0
170 194 0
173 195 0
173 197 0
175 197 0
168 192 0
173 196 0
172 195 0
173 196 0
172 194 0
172 195 0
173 196 0
171 194 0
171 194 0
173 196 0
172 195 0
173 196 0
173 197 0
171 194 0
174 197 0
174 196 0
175 198 0
171 195 0
172 196 0
174 198 0
173 197 0
172 196 0
172 196 0
173 197 0
172 196 0
172 196 0
173 196 0
174 196 0
175 197 0
174 197 0
171 194 0
174 197 0
172 196 0
172 195 0
173 196 0
174 197 0
174 197 0
174 198 0
173 197 0
173 197 0
173 197 0
175 198 0
173 197 0
173 196 0
175 198 0
170 193 0
173 197 0
173 196 0
175 198 0
174 197 0
170 194 0
174 196 0
173 196 0
172 195 0
173 197 0
173 195 0
173 197 0
174 198 0
172 196 0
173 197 0
171 194 0
174 197 0
173 197 0
174 197 0
175 198 0
173 197 0
173 196 0
175 197 0
173 196 0
173 197 0
174 197 0
172 196 0
172 195 0
173 196 0
173 196 0
173 197 0
174 197 0
174 197 0
172 196 0
174 197 0
174 197 0
174 197 0
173 197 0
174 197 0
173 196 0
173 197 0
174 197 0
172 196 0
175 197 0
174 197 0
175 198 0
174 197 0
173 196 0
174 197 0
173 197 0
174 197 0
173 196 0
173 196 0
175 197 0
174 197 0
172 196 0
172 196 0
173 196 0
173 197 0
174 197 0
173 196 0
174 197 0
173 197 0
174 197 0
173 197 0
173 196 0
172 196 0
173 197 0
173 197 0
172 196 0
173 197 0
157 179 0
156 177 0
156 176 0
155 177 0
155 175 0
156 177 0
154 176 0
156 177 0
156 176 0
154 175 0
154 174 0
154 176 0
156 177 0
155 175 0
156 177 0
154 176 0
155 176 0
156 176 0
156 176 0
155 176 0
157 177 0
155 176 0
156 176 0
154 176 0
156 177 0
156 177 0
154 175 0
155 176 0
156 177 0
155 176 0
155 176 0
154 175 0
155 176 0
156 176 0
154 176 0
154 176 0
154 175 0
155 176 0
153 175 0
154 175 0
154 176 0
154 175 0
155 176 0
155 175 0
156 176 0
155 175 0
154 175 0
154 176 0
155 176 0
154 175 0
155 176 0
155 176 0
154 176 0
155 177 0
160 181 85
172 193 188
181 201 228
180 201 228
180 201 228
181 201 228
182 202 228
182 202 228
181 202 228
181 201 228
180 201 228
181 201 228
182 202 228
181 201 228
180 201 228
182 202 228
181 201 228
181 201 228
181 202 228
181 201 228
181 201 228
181 201 228
182 202 228
182 202 228
180 201 228
182 202 228
169 190 219
133 154 192
70 96 150
50 80 142
50 81 149
51 82 144
49 79 144
51 82 147
49 79 140
50 80 144
50 80 143
51 81 146
48 77 143
48 77 142
49 79 144
48 77 139
47 77 138
50 80 145
48 78 141
45 74 136
48 78 144
46 75 138
46 74 138
46 74 133
46 74 138
46 75 139
46 76 141
47 76 137
45 72 132
44 71 129
45 74 137
43 70 130
43 69 130
44 72 134
43 71 130
44 72 135
44 72 130
43 70 127
43 70 129
43 70 124
42 68 125
45 70 116
49 76 126
49 76 125
53 79 127
63 87 126
60 84 118
69 91 116
82 105 110
88 110 109
96 117 102
100 122 99
97 119 98
117 138 79
104 124 98
126 147 74
129 148 65
124 144 53
137 158 44
138 158 48
143 163 38
140 160 37
125 149 101
104 130 139
79 109 160
60 97 174
61 97 175
61 98 177
61 98 177
61 98 180
61 98 176
61 97 176
61 99 181
61 98 179
61 99 179
62 99 179
61 98 180
61 99 181
61 98 179
61 98 180
61 98 177
61 98 176
61 98 178
62 98 176
61 99 179
61 98 180
62 99 178
61 98 177
62 99 181
61 98 177
61 98 176
64 100 178
103 132 149
123 149 134
158 182 76
168 191 40
172 195 0
172 195 0
171 194 0
173 196 0
172 195 0
172 196 0
172 196 0
171 195 0
172 196 0
170 193 0
175 197 0
170 194 0
172 196 0
172 196 0
172 195 0
170 193 0
172 195 0
172 195 0
171 194 0
171 194 0
169 193 0
173 196 0
170 192 0
168 192 0
170 195 0
170 194 0
171 194 0
176 197 0
171 195 0
172 194 0
173 195 0
170 193 0
171 194 0
173 196 0
170 194 0
172 195 0
172 196 0
171 194 0
170 193 0
172 195 0
174 197 0
171 194 0
171 194 0
171 194 0
172 195 0
169 192 0
172 196 0
169 193 0
175 197 0
172 195 0
172 195 0
171 193 0
171 195 0
171 195 0
171 195 0
170 194 0
172 194 0
169 192 0
170 194 0
174 196 0
173 196 0
172 195 0
172 195 0
175 197 0
174 197 0
172 195 0
173 196 0
171 195 0
174 196 0
173 196 0
174 197 0
170 195 0
174 197 0
172 196 0
172 195 0
173 196 0
173 196 0
172 195 0
169 193 0
169 194 0
175 196 0
172 195 0
172 195 0
173 197 0
174 197 0
172 195 0
172 195 0
171 194 0
173 196 0
172 195 0
170 193 0
172 195 0
174 196 0
174 197 0
174 197 0
174 197 0
174 197 0
174 197 0
171 194 0
173 196 0
172 196 0
174 197 0
172 196 0
173 196 0
172 196 0
173 196 0
172 196 0
174 197 0
172 196 0
172 196 0
172 195 0
175 198 0
174 196 0
174 197 0
174 197 0
172 195 0
170 195 0
173 197 0
172 196 0
174 198 0
173 196 0
172 196 0
174 197 0
173 196 0
174 197 0
173 196 0
172 195 0
173 197 0
175 198 0
174 197 0
173 196 0
174 198 0
172 196 0
169 193 0
172 196 0
173 197 0
173 197 0
173 197 0
174 197 0
174 197 0
171 195 0
173 197 0
173 196 0
174 197 0
174 197 0
171 195 0
172 195 0
171 195 0
174 197 0
174 197 0
173 197 0
172 195 0
172 196 0
173 197 0
173 196 0
173 197 0
175 198 0
175 197 0
173 196 0
172 196 0
176 198 0
174 198 0
172 196 0
175 198 0
173 196 0
174 197 0
173 197 0
169 193 0
172 196 0
174 196 0
174 197 0
174 197 0
173 196 0
174 197 0
173 197 0
173 196 0
171 194 0
174 198 0
170 194 0
170 194 0
173 196 0
174 196 0
174 197 0
173 197 0
175 198 0
173 196 0
176 198 0
174 197 0
173 196 0
174 197 0
173 196 0
175 198 0
172 196 0
174 197 0
175 197 0
174 197 0
174 197 0
173 197 0
173 197 0
174 197 0
174 197 0
175 198 0
175 198 0
173 197 0
174 197 0
173 197 0
172 196 0
175 198 0
174 197 0
174 197 0
174 197 0
172 196 0
173 196 0
173 197 0
172 195 0
173 196 0
173 196 0
174 197 0
173 197 0
174 197 0
173 197 0
172 195 0
172 196 0
172 196 0
160 182 0
154 176 0
156 177 0
156 177 0
156 176 0
154 175 0
156 177 0
155 176 0
155 176 0
154 175 0
154 175 0
155 175 0
154 175 0
156 176 0
156 177 0
155 176 0
155 176 0
156 176 0
155 176 0
154 176 0
155 176 0
155 176 0
156 177 0
156 176 0
155 176 0
156 177 0
156 176 0
156 177 0
155 176 0
157 177 0
155 176 0
154 176 0
154 176 0
153 175 0
155 175 0
155 176 0
156 176 0
155 176 0
153 175 0
155 176 0
156 177 0
155 176 0
156 176 0
155 176 0
155 176 0
156 176 0
155 176 0
154 175 0
155 176 0
155 176 0
156 176 0
157 177 0
155 176 0
154 175 0
155 176 0
154 175 0
162 183 118
174 195 198
181 201 228
181 201 228
182 202 228
181 202 228
181 201 228
181 201 228
181 201 228
181 202 228
182 202 228
180 201 228
181 201 228
181 201 228
181 201 228
181 201 228
182 202 228
181 201 228
181 201 228
181 201 228
181 201 228
181 201 228
169 190 219
105 127 171
58 86 143
50 81 146
51 82 140
51 82 148
51 82 143
52 83 145
48 79 143
49 80 141
50 80 141
51 82 145
49 79 139
47 77 135
49 79 141
48 77 141
48 77 138
50 80 143
48 78 142
48 78 144
47 76 141
47 76 139
46 74 136
47 76 138
48 77 140
48 77 141
45 73 134
44 72 133
43 70 130
45 72 133
45 73 134
45 73 136
46 75 138
44 71 132
43 70 130
42 69 129
44 71 131
45 73 134
45 72 132
45 73 131
44 71 133
45 73 135
44 72 132
46 74 125
54 78 123
44 71 128
55 80 121
58 81 122
62 87 125
65 88 113
74 95 103
79 101 103
84 105 108
102 123 96
104 124 87
109 129 88
127 148 74
120 140 76
118 139 78
134 154 50
124 145 78
118 141 110
85 113 147
63 99 173
61 98 179
60 97 176
61 97 176
61 98 177
61 98 178
61 99 181
61 98 179
61 98 180
61 98 180
61 99 180
62 99 180
61 98 179
61 98 179
61 99 179
61 98 179
61 98 179
61 98 179
62 99 181
61 98 180
62 99 181
61 99 180
61 98 178
61 99 179
61 98 179
62 99 178
62 99 179
61 98 179
62 99 180
61 98 178
61 98 177
62 99 177
62 99 180
61 98 176
64 100 175
105 133 150
135 160 102
163 187 47
172 196 0
173 196 0
173 196 0
172 196 0
173 195 0
171 193 0
173 196 0
172 195 0
170 193 0
171 194 0
171 194 0
172 196 0
172 195 0
170 193 0
168 191 0
174 197 0
174 197 0
172 195 0
172 196 0
170 194 0
171 194 0
171 195 0
171 195 0
171 195 0
171 194 0
173 196 0
172 195 0
171 195 0
172 195 0
171 194 0
172 194 0
172 195 0
172 196 0
169 192 0
173 196 0
170 193 0
173 196 0
171 195 0
170 193 0
172 195 0
173 197 0
170 194 0
172 196 0
170 193 0
170 193 0
171 195 0
172 195 0
172 195 0
173 196 0
171 195 0
172 195 0
172 196 0
174 196 0
173 197 0
173 197 0
173 196 0
171 195 0
171 193 0
171 194 0
172 196 0
172 195 0
172 194 0
173 196 0
171 193 0
173 196 0
171 195 0
173 196 0
173 196 0
174 197 0
174 196 0
170 194 0
171 194 0
171 195 0
172 194 0
174 197 0
176 198 0
171 194 0
174 197 0
173 196 0
172 195 0
172 195 0
173 196 0
173 196 0
171 195 0
171 194 0
171 195 0
173 196 0
171 196 0
172 196 0
173 197 0
172 195 0
172 195 0
173 197 0
171 195 0
172 196 0
173 195 0
174 197 0
171 195 0
171 194 0
170 193 0
172 195 0
171 195 0
171 194 0
170 194 0
172 196 0
173 196 0
172 194 0
173 196 0
174 197 0
171 195 0
172 195 0
173 196 0
174 197 0
173 196 0
172 196 0
174 197 0
173 195 0
173 197 0
173 195 0
170 194 0
172 195 0
173 197 0
174 197 0
173 196 0
172 196 0
174 197 0
173 196 0
173 196 0
173 196 0
172 196 0
174 197 0
172 195 0
172 196 0
172 195 0
172 196 0
173 196 0
174 197 0
174 197 0
173 196 0
171 195 0
174 198 0
174 197 0
174 197 0
173 196 0
171 193 0
173 196 0
174 198 0
174 197 0
175 198 0
173 197 0
171 195 0
174 198 0
173 197 0
174 197 0
173 196 0
174 197 0
175 198 0
174 197 0
173 197 0
172 196 0
174 197 0
174 197 0
173 197 0
173 196 0
173 196 0
175 197 0
172 196 0
174 197 0
171 194 0
175 198 0
174 197 0
173 197 0
174 196 0
175 197 0
174 196 0
175 198 0
174 197 0
172 197 0
175 198 0
171 195 0
174 197 0
172 196 0
174 197 0
174 197 0
174 197 0
175 198 0
173 197 0
174 197 0
175 198 0
174 197 0
172 195 0
173 196 0
173 196 0
174 197 0
174 197 0
172 196 0
173 197 0
173 197 0
174 197 0
175 198 0
174 197 0
172 196 0
173 197 0
172 196 0
173 197 0
173 197 0
174 197 0
172 196 0
174 197 0
171 195 0
172 196 0
173 196 0
174 197 0
172 196 0
175 198 0
173 197 0
173 196 0
173 196 0
173 197 0
173 197 0
172 195 0
167 189 0
154 176 0
155 176 0
154 175 0
157 177 0
157 177 0
156 177 0
153 175 0
155 176 0
155 176 0
156 177 0
156 177 0
155 176 0
155 176 0
155 176 0
154 176 0
156 176 0
155 176 0
156 176 0
156 176 0
154 175 0
155 176 0
156 177 0
155 176 0
155 176 0
157 177 0
155 176 0
153 175 0
154 176 0
154 175 0
156 176 0
154 175 0
154 175 0
155 176 0
154 175 0
154 175 0
156 177 0
157 177 0
155 176 0
155 176 0
154 176 0
155 176 0
156 176 0
155 176 0
154 175 0
156 177 0
155 176 0
155 176 0
155 176 0
155 176 0
156 176 0
153 174 0
154 175 0
156 177 0
156 176 0
155 176 0
154 176 0
156 176 0
166 186 146
179 199 218
181 202 228
182 202 228
182 202 228
181 201 228
181 201 228
182 202 228
182 202 228
180 201 228
181 201 228
180 201 228
181 201 228
181 201 228
181 201 228
181 201 228
181 202 228
181 201 228
162 182 215
118 140 182
51 83 149
51 82 141
51 83 144
50 81 144
50 81 144
50 81 143
50 80 137
50 80 142
51 82 150
49 80 144
48 78 137
49 80 143
49 79 141
48 78 138
48 78 140
47 76 140
48 77 137
48 78 142
49 79 141
47 76 140
47 76 141
46 75 139
46 74 136
45 73 134
46 74 136
47 77 142
44 71 131
43 70 128
44 72 134
44 71 132
45 73 135
43 70 132
46 75 138
45 72 132
42 68 126
42 69 128
40 66 124
44 70 131
40 65 119
42 69 129
45 73 137
40 66 125
43 70 125
42 68 121
45 72 127
49 73 119
59 82 116
49 75 124
65 87 117
67 90 118
74 96 112
88 109 102
96 118 101
91 111 95
97 117 89
101 122 98
115 135 72
113 133 88
113 135 106
83 112 158
60 96 176
61 97 176
61 97 176
60 97 177
61 98 179
61 98 179
61 98 178
61 98 178
61 98 180
61 98 180
61 98 179
61 99 180
61 98 179
61 99 181
61 99 180
61 98 179
61 98 179
61 98 180
61 98 180
62 99 180
62 99 180
62 99 181
61 98 180
62 99 181
61 99 181
62 99 181
62 99 180
61 99 180
61 99 180
61 98 178
62 99 179
62 99 179
61 99 180
61 99 179
61 98 175
62 99 179
62 99 179
61 98 177
61 98 178
61 98 176
64 100 177
99 127 146
139 163 108
170 193 31
169 193 0
172 195 0
169 193 0
171 194 0
173 196 0
172 195 0
171 194 0
170 194 0
172 194 0
173 196 0
171 195 0
170 193 0
170 193 0
172 195 0
173 197 0
173 196 0
172 196 0
172 195 0
172 195 0
170 193 0
171 195 0
173 196 0
169 192 0
173 196 0
174 197 0
172 196 0
167 190 0
170 193 0
170 195 0
170 193 0
170 193 0
173 196 0
170 193 0
170 193 0
171 196 0
174 196 0
173 196 0
172 195 0
173 196 0
173 196 0
168 191 0
173 197 0
170 193 0
171 195 0
170 194 0
172 196 0
172 194 0
172 194 0
173 197 0
171 195 0
171 195 0
170 194 0
170 193 0
172 195 0
172 196 0
170 193 0
174 196 0
170 194 0
171 195 0
172 195 0
172 196 0
172 195 0
168 191 0
171 195 0
168 191 0
172 195 0
173 196 0
173 195 0
174 197 0
172 196 0
172 195 0
173 196 0
173 196 0
173 196 0
173 196 0
175 198 0
173 196 0
174 197 0
174 197 0
173 195 0
172 195 0
174 196 0
173 196 0
174 197 0
172 196 0
171 195 0
174 197 0
171 194 0
173 196 0
170 194 0
174 197 0
174 197 0
174 196 0
171 194 0
174 197 0
171 195 0
173 195 0
172 195 0
170 194 0
171 194 0
174 197 0
172 196 0
173 196 0
173 196 0
173 197 0
173 196 0
171 195 0
172 195 0
174 197 0
173 196 0
173 196 0
173 196 0
172 195 0
173 196 0
174 197 0
171 195 0
171 194 0
172 196 0
172 195 0
173 196 0
171 194 0
174 197 0
172 194 0
174 197 0
175 197 0
173 197 0
173 197 0
172 195 0
173 197 0
173 196 0
173 197 0
172 194 0
172 196 0
172 196 0
171 194 0
172 196 0
171 194 0
172 195 0
173 196 0
171 195 0
170 193 0
174 197 0
172 195 0
173 196 0
172 195 0
173 196 0
173 196 0
174 198 0
173 197 0
173 197 0
172 196 0
173 196 0
173 196 0
173 196 0
174 196 0
174 197 0
174 197 0
176 198 0
173 197 0
174 196 0
174 197 0
174 197 0
172 196 0
173 197 0
174 197 0
174 197 0
174 197 0
172 196 0
173 197 0
172 196 0
174 198 0
172 196 0
173 197 0
171 195 0
175 198 0
173 197 0
174 197 0
174 198 0
172 196 0
173 196 0
175 198 0
175 198 0
173 197 0
173 197 0
172 196 0
174 197 0
173 196 0
173 196 0
173 196 0
173 197 0
174 197 0
172 196 0
174 197 0
173 196 0
172 196 0
173 197 0
175 198 0
174 197 0
175 197 0
173 196 0
174 197 0
173 196 0
175 198 0
172 196 0
171 195 0
173 196 0
173 196 0
173 196 0
173 197 0
172 196 0
172 196 0
173 196 0
174 197 0
173 196 0
172 196 0
173 196 0
173 196 0
174 196 0
168 191 0
154 175 0
153 175 0
155 176 0
154 176 0
155 176 0
155 176 0
153 175 0
155 175 0
156 176 0
156 177 0
156 177 0
155 176 0
156 176 0
155 176 0
155 176 0
155 176 0
156 176 0
155 176 0
155 176 0
153 175 0
154 175 0
155 176 0
154 175 0
155 176 0
154 175 0
154 176 0
155 175 0
154 175 0
154 175 0
155 176 0
154 176 0
155 176 0
155 176 0
154 175 0
155 176 0
154 174 0
155 176 0
155 175 0
154 175 0
156 176 0
156 176 0
156 176 0
156 176 0
155 176 0
156 177 0
155 176 0
153 175 0
154 175 0
155 176 0
154 175 0
157 176 0
155 176 0
155 175 0
154 175 0
154 175 0
155 176 0
155 176 0
154 175 0
157 178 60
169 190 166
180 201 227
180 201 228
181 201 228
181 201 228
181 201 228
181 201 228
182 202 228
181 202 228
181 202 228
181 201 228
180 201 228
181 201 228
181 201 228
147 168 200
99 122 168
51 82 143
51 83 145
51 82 142
49 79 135
52 83 141
48 78 134
50 80 144
51 82 143
49 79 142
51 81 139
50 80 144
49 79 143
49 78 140
49 80 140
48 79 141
48 77 141
49 78 139
48 77 141
49 79 141
49 79 141
46 75 136
46 74 135
46 74 135
46 75 137
44 72 133
45 73 136
46 74 136
46 75 135
43 70 129
42 69 128
42 69 130
44 72 132
43 70 131
43 70 131
43 70 129
43 69 129
43 70 130
40 66 126
39 64 121
42 68 127
41 67 123
42 68 126
45 72 131
41 67 128
40 66 120
41 67 121
45 71 126
45 70 122
47 74 125
53 77 120
58 79 107
62 85 117
76 98 101
80 100 98
88 110 110
85 107 105
92 112 94
101 122 100
86 113 149
64 99 171
59 95 173
60 97 172
60 96 176
61 98 178
61 97 176
61 99 180
61 98 178
61 98 178
61 99 179
61 99 180
61 98 181
61 99 179
61 98 179
61 98 179
61 98 179
61 98 179
61 99 180
62 99 181
62 99 180
61 99 181
61 98 180
62 99 181
62 99 181
62 99 180
61 98 178
61 99 181
61 99 181
61 99 180
61 98 180
61 99 180
61 99 180
62 99 181
61 98 179
61 99 180
61 99 179
61 98 180
62 99 178
61 99 181
62 99 180
61 99 181
62 99 179
61 98 176
61 98 174
62 98 179
61 99 179
70 105 169
127 153 125
162 185 60
172 195 0
171 195 0
173 196 0
172 195 0
172 195 0
169 192 0
174 197 0
170 194 0
171 194 0
171 194 0
171 193 0
172 195 0
171 194 0
168 192 0
171 195 0
172 196 0
172 195 0
170 194 0
170 194 0
167 191 0
171 195 0
173 196 0
172 196 0
171 195 0
171 194 0
172 196 0
173 196 0
173 196 0
170 194 0
171 194 0
171 195 0
171 194 0
172 195 0
169 193 0
172 196 0
164 187 0
170 194 0
169 191 0
170 194 0
173 196 0
172 195 0
174 197 0
173 196 0
171 194 0
171 195 0
172 195 0
172 196 0
172 195 0
175 197 0
172 195 0
170 194 0
171 195 0
170 193 0
171 194 0
172 195 0
173 196 0
172 195 0
172 196 0
170 192 0
172 196 0
171 194 0
173 195 0
171 195 0
170 193 0
172 196 0
173 195 0
171 195 0
173 196 0
174 197 0
173 195 0
171 195 0
172 194 0
171 194 0
172 196 0
173 196 0
172 195 0
170 193 0
172 195 0
173 196 0
173 196 0
171 193 0
172 195 0
173 196 0
173 196 0
172 194 0
174 197 0
172 195 0
171 194 0
172 195 0
171 195 0
173 195 0
171 195 0
171 194 0
170 194 0
174 197 0
172 195 0
170 193 0
175 197 0
173 196 0
172 195 0
171 195 0
172 196 0
172 196 0
170 194 0
174 197 0
172 196 0
171 194 0
171 195 0
172 195 0
171 194 0
173 196 0
175 197 0
175 198 0
170 193 0
173 196 0
173 197 0
173 196 0
171 195 0
173 197 0
175 198 0
173 196 0
172 195 0
173 195 0
172 196 0
173 195 0
172 195 0
171 195 0
172 195 0
172 196 0
170 193 0
173 196 0
173 195 0
173 197 0
172 195 0
173 197 0
174 197 0
173 196 0
173 197 0
174 197 0
175 198 0
171 194 0
173 196 0
175 198 0
174 197 0
174 197 0
171 193 0
171 195 0
174 197 0
174 198 0
175 197 0
175 198 0
172 195 0
172 195 0
172 195 0
174 197 0
173 196 0
174 197 0
175 198 0
173 197 0
172 195 0
173 196 0
170 194 0
173 196 0
174 198 0
173 197 0
174 197 0
173 197 0
173 197 0
173 197 0
175 197 0
172 196 0
173 197 0
175 198 0
174 197 0
175 197 0
175 197 0
173 197 0
174 197 0
173 196 0
174 197 0
173 196 0
172 196 0
173 196 0
174 197 0
174 197 0
172 195 0
174 197 0
174 197 0
174 197 0
174 196 0
174 197 0
175 198 0
172 196 0
174 196 0
173 197 0
173 196 0
174 198 0
174 197 0
174 197 0
172 196 0
173 196 0
173 197 0
173 196 0
174 197 0
173 196 0
172 196 0
172 196 0
174 197 0
172 196 0
173 196 0
173 196 0
173 196 0
173 196 0
174 196 0
172 196 0
173 196 0
170 194 0
154 176 0
155 176 0
155 176 0
153 174 0
155 176 0
154 175 0
155 176 0
156 176 0
156 176 0
154 175 0
155 176 0
156 177 0
154 175 0
154 175 0
156 177 0
154 175 0
156 177 0
154 175 0
156 176 0
155 176 0
154 175 0
156 176 0
155 175 0
155 175 0
154 175 0
155 176 0
154 175 0
154 175 0
155 175 0
154 175 0
154 176 0
156 176 0
155 176 0
155 176 0
154 175 0
155 176 0
154 176 0
156 177 0
153 175 0
154 175 0
155 175 0
154 175 0
153 175 0
154 175 0
154 175 0
155 176 0
156 177 0
155 176 0
156 176 0
154 176 0
156 176 0
155 176 0
155 176 0
154 175 0
154 175 0
154 175 0
155 176 0
153 174 0
154 175 0
156 176 0
159 179 79
172 193 188
181 201 228
182 202 228
181 201 228
181 201 228
181 201 228
181 201 228
180 201 228
181 201 228
176 197 225
134 155 194
88 113 164
51 81 143
51 81 140
51 82 139
51 81 137
49 79 141
52 83 145
50 81 137
49 80 137
49 79 140
48 78 137
49 78 138
51 81 143
49 79 143
49 79 138
50 80 143
49 80 144
49 78 139
48 77 138
47 76 136
48 77 138
47 76 134
47 77 140
48 78 139
47 75 133
46 74 136
46 75 136
45 73 133
47 76 139
46 74 137
43 70 132
43 71 134
43 69 132
42 69 131
43 70 131
42 69 126
44 72 130
42 67 123
43 71 130
43 71 132
40 66 123
39 64 120
42 69 126
44 71 132
39 64 120
42 69 127
41 66 125
39 63 116
44 71 125
41 67 121
39 64 122
48 74 122
49 74 127
55 79 118
67 88 106
64 86 104
78 98 105
81 102 101
83 106 124
73 102 154
58 94 170
60 97 177
60 97 174
61 97 177
61 98 177
61 97 178
61 98 177
61 98 177
61 98 179
61 98 179
61 98 180
61 98 178
61 98 178
61 98 180
61 98 179
61 98 179
61 99 180
61 99 181
61 98 180
61 99 181
61 99 181
61 99 180
61 99 181
62 99 181
61 99 181
62 99 181
61 99 181
62 99 181
61 99 181
61 98 181
62 99 181
62 99 181
61 99 180
62 99 181
62 99 181
61 98 180
61 99 180
61 99 179
61 98 180
61 99 177
62 99 180
61 98 176
62 99 179
62 99 176
62 99 179
62 99 181
61 98 175
61 98 173
61 98 174
61 98 172
63 100 175
113 140 141
156 180 80
170 194 0
172 195 0
171 193 0
171 194 0
173 196 0
173 196 0
171 195 0
171 195 0
171 194 0
171 194 0
172 196 0
173 195 0
174 196 0
170 194 0
172 194 0
168 191 0
175 198 0
171 194 0
172 196 0
171 194 0
172 196 0
172 195 0
171 194 0
169 193 0
172 194 0
173 196 0
170 194 0
171 194 0
171 195 0
172 195 0
171 193 0
172 195 0
169 193 0
172 196 0
172 196 0
172 196 0
172 195 0
173 197 0
169 192 0
172 195 0
172 196 0
171 195 0
171 194 0
172 196 0
170 193 0
173 196 0
175 198 0
172 196 0
169 193 0
175 197 0
171 194 0
171 195 0
173 196 0
172 195 0
170 193 0
173 196 0
173 196 0
169 193 0
170 193 0
174 197 0
172 196 0
171 193 0
173 196 0
170 194 0
173 196 0
172 195 0
172 195 0
174 196 0
173 197 0
174 197 0
173 197 0
171 195 0
171 194 0
172 195 0
171 194 0
173 196 0
171 194 0
173 196 0
171 195 0
171 195 0
174 197 0
172 195 0
170 193 0
172 195 0
172 195 0
175 198 0
171 194 0
173 197 0
171 194 0
173 196 0
174 197 0
173 196 0
171 195 0
174 197 0
169 192 0
173 195 0
171 195 0
174 197 0
174 198 0
173 196 0
173 196 0
170 194 0
173 196 0
171 195 0
171 195 0
173 196 0
173 196 0
174 197 0
170 193 0
172 195 0
175 197 0
173 196 0
175 198 0
172 195 0
172 194 0
174 197 0
172 196 0
171 194 0
175 197 0
172 195 0
172 196 0
171 195 0
175 198 0
172 195 0
171 194 0
173 197 0
173 195 0
171 195 0
171 195 0
171 194 0
174 198 0
173 197 0
173 197 0
172 196 0
172 196 0
173 196 0
173 196 0
172 196 0
173 196 0
171 194 0
172 196 0
173 197 0
174 197 0
173 196 0
173 197 0
172 196 0
173 196 0
172 196 0
173 196 0
172 196 0
172 196 0
173 195 0
173 196 0
172 195 0
173 197 0
172 196 0
174 198 0
173 197 0
174 197 0
174 196 0
174 197 0
173 196 0
170 194 0
175 198 0
172 195 0
173 196 0
175 198 0
173 196 0
173 197 0
173 197 0
174 198 0
174 198 0
173 196 0
174 197 0
173 197 0
173 196 0
173 196 0
172 196 0
173 196 0
174 197 0
171 195 0
174 197 0
172 196 0
172 196 0
174 197 0
175 197 0
173 196 0
175 198 0
173 196 0
173 196 0
173 197 0
173 196 0
173 197 0
173 196 0
173 197 0
173 197 0
174 197 0
173 197 0
175 198 0
173 196 0
173 196 0
172 196 0
172 196 0
173 196 0
172 195 0
173 197 0
173 196 0
173 196 0
173 197 0
173 196 0
174 197 0
173 196 0
174 197 0
175 197 0
173 196 0
155 176 0
156 177 0
155 175 0
155 176 0
156 177 0
155 176 0
155 176 0
155 175 0
156 177 0
155 176 0
155 176 0
155 176 0
156 177 0
154 176 0
154 175 0
154 175 0
156 177 0
156 176 0
154 176 0
156 176 0
153 175 0
154 175 0
154 176 0
155 176 0
155 176 0
154 175 0
155 176 0
156 177 0
154 175 0
155 176 0
154 176 0
156 176 0
156 176 0
154 176 0
155 176 0
154 175 0
155 176 0
154 175 0
153 175 0
155 176 0
154 176 0
155 176 0
153 175 0
155 176 0
154 175 0
157 177 0
155 176 0
154 175 0
154 175 0
155 176 0
154 175 0
155 175 0
155 176 0
156 177 0
155 176 0
154 175 0
154 175 0
155 175 0
154 175 0
155 175 0
155 176 0
154 175 0
162 183 121
176 197 207
180 201 228
180 201 228
180 201 228
181 201 228
174 194 223
141 162 197
73 98 149
53 84 150
52 83 147
52 83 144
52 84 145
51 83 145
51 82 144
50 80 135
51 81 142
52 83 145
50 81 138
50 80 136
50 80 145
48 78 137
49 78 140
47 76 133
48 78 140
49 79 142
49 79 138
46 74 132
48 78 139
46 74 133
48 78 139
47 76 138
48 77 138
47 76 139
47 76 137
46 74 137
47 75 136
44 72 130
44 70 129
45 73 131
45 73 134
44 72 135
41 67 126
43 70 129
43 70 128
40 66 127
43 70 129
42 69 126
42 68 128
41 67 124
41 66 125
40 66 120
42 69 127
42 68 127
41 67 123
42 68 122
40 65 120
41 66 122
39 64 119
43 69 124
43 69 125
42 67 108
45 71 123
47 70 111
55 78 111
62 85 112
70 93 117
65 95 153
59 95 171
59 95 172
61 97 176
60 97 176
60 97 178
61 98 178
61 98 179
61 98 177
61 98 179
61 98 178
61 98 179
61 98 179
62 99 181
62 99 179
61 98 180
61 99 181
62 99 179
61 98 180
61 99 181
61 99 181
61 99 180
61 98 180
61 99 181
61 99 180
62 99 181
62 99 180
61 99 181
62 99 181
62 99 181
61 98 180
61 98 181
62 99 181
61 98 180
61 99 181
61 99 181
61 99 181
61 99 181
61 98 181
61 98 180
61 98 179
61 98 179
62 99 181
61 98 179
61 98 179
61 99 181
61 98 178
62 98 177
61 98 176
61 98 177
61 98 175
61 98 176
62 99 176
61 98 176
61 98 175
64 100 172
109 136 135
160 183 67
172 195 0
171 194 0
173 196 0
173 195 0
171 193 0
171 194 0
169 193 0
170 194 0
171 194 0
171 194 0
171 194 0
173 197 0
171 195 0
167 190 0
169 193 0
170 194 0
170 193 0
170 194 0
173 195 0
171 195 0
171 195 0
171 194 0
172 195 0
172 195 0
172 196 0
171 194 0
170 193 0
174 196 0
171 194 0
171 195 0
172 194 0
174 197 0
171 195 0
172 196 0
172 195 0
173 195 0
172 196 0
168 192 0
172 194 0
171 194 0
172 196 0
171 194 0
172 195 0
171 194 0
172 196 0
170 193 0
172 196 0
173 196 0
173 196 0
171 194 0
173 196 0
172 196 0
173 195 0
170 194 0
170 193 0
172 194 0
171 195 0
169 193 0
173 196 0
171 194 0
172 195 0
171 194 0
174 197 0
171 194 0
173 196 0
174 197 0
171 194 0
172 195 0
170 194 0
173 197 0
173 196 0
172 196 0
172 195 0
170 194 0
171 195 0
172 196 0
172 196 0
173 196 0
170 193 0
173 196 0
173 195 0
173 197 0
173 196 0
172 196 0
173 196 0
171 195 0
172 195 0
173 196 0
173 197 0
174 197 0
173 197 0
173 196 0
173 196 0
173 196 0
173 196 0
173 196 0
171 194 0
171 195 0
174 196 0
174 197 0
171 195 0
174 197 0
173 196 0
173 197 0
171 194 0
174 197 0
173 196 0
170 194 0
172 195 0
172 196 0
173 197 0
173 196 0
172 195 0
174 197 0
171 194 0
175 198 0
173 196 0
173 196 0
173 196 0
176 198 0
173 197 0
173 197 0
173 197 0
171 195 0
172 196 0
171 195 0
174 197 0
170 194 0
172 197 0
171 195 0
174 197 0
174 197 0
174 197 0
175 198 0
173 197 0
172 196 0
174 197 0
174 197 0
174 198 0
173 196 0
173 196 0
172 195 0
172 195 0
173 197 0
173 196 0
174 197 0
175 197 0
174 196 0
175 197 0
175 198 0
174 197 0
174 197 0
174 197 0
174 197 0
174 197 0
172 196 0
174 197 0
172 195 0
174 198 0
174 197 0
173 195 0
174 197 0
175 198 0
173 197 0
173 196 0
174 197 0
175 197 0
175 198 0
171 195 0
173 197 0
171 195 0
173 197 0
174 197 0
173 197 0
173 197 0
173 197 0
172 196 0
175 198 0
174 197 0
174 197 0
173 196 0
173 196 0
172 196 0
173 196 0
171 196 0
173 197 0
174 197 0
172 196 0
174 197 0
173 196 0
172 196 0
173 197 0
173 196 0
171 195 0
172 196 0
174 197 0
172 196 0
174 197 0
172 195 0
172 196 0
173 196 0
172 196 0
173 196 0
172 196 0
172 195 0
172 196 0
174 197 0
172 196 0
172 195 0
172 196 0
172 196 0
172 195 0
172 196 0
158 180 0
154 175 0
154 175 0
156 176 0
154 175 0
156 176 0
155 176 0
155 176 0
155 176 0
156 176 0
155 176 0
156 176 0
155 176 0
154 175 0
156 176 0
156 176 0
155 176 0
155 176 0
155 176 0
155 176 0
154 176 0
155 176 0
156 177 0
155 176 0
155 176 0
155 176 0
154 175 0
156 177 0
156 176 0
155 176 0
156 176 0
154 175 0
154 176 0
154 176 0
155 176 0
155 176 0
155 176 0
156 177 0
154 175 0
155 176 0
156 176 0
154 175 0
155 176 0
157 177 0
156 176 0
155 175 0
155 176 0
154 175 0
155 175 0
157 177 0
155 176 0
154 175 0
155 176 0
157 177 0
153 174 0
157 177 0
154 175 0
156 176 0
155 176 0
154 175 0
154 175 0
154 175 0
153 175 0
154 175 22
166 187 148
179 199 219
171 192 220
124 146 188
55 85 136
52 83 143
50 81 138
52 84 146
52 83 139
50 81 141
50 81 137
49 79 129
51 82 140
50 80 137
52 83 144
51 82 148
50 81 140
47 77 140
50 81 142
49 79 137
48 77 135
50 81 144
49 80 142
48 78 137
50 80 142
48 78 142
47 76 137
47 76 138
47 76 138
46 75 138
46 74 136
46 74 136
47 76 136
45 73 134
44 71 126
46 75 136
44 72 133
43 70 131
43 70 130
44 71 132
44 71 130
43 69 130
40 66 125
40 65 123
43 71 133
38 63 116
36 60 116
38 62 120
42 68 126
40 66 125
38 62 119
40 66 124
39 63 117
39 64 119
43 70 126
39 64 120
39 64 120
38 62 117
41 67 115
41 66 113
48 70 110
47 73 118
58 82 118
58 88 149
58 93 169
60 97 175
60 96 173
60 97 176
60 96 172
61 98 178
61 98 177
61 98 178
60 97 177
61 98 178
61 98 178
61 98 180
61 99 180
61 98 178
61 98 179
62 99 180
61 99 181
61 98 180
61 98 181
61 98 180
61 99 181
61 98 181
61 98 181
62 99 181
62 99 180
61 99 181
61 99 181
61 99 181
61 98 181
61 99 181
61 98 181
61 99 181
61 98 181
61 99 181
61 98 181
62 99 180
61 98 181
61 99 181
62 99 181
61 98 180
61 99 180
61 99 180
62 99 181
61 99 180
61 99 181
61 98 178
61 98 180
62 99 179
61 98 177
61 98 178
61 98 173
61 98 172
62 98 176
62 99 177
61 98 177
61 98 174
61 98 171
61 98 175
63 100 174
124 150 126
157 180 76
172 196 0
169 193 0
168 192 0
173 195 0
172 196 0
174 197 0
171 195 0
173 196 0
173 195 0
172 195 0
174 197 0
171 195 0
172 196 0
174 197 0
171 194 0
173 195 0
171 194 0
172 196 0
171 194 0
173 196 0
167 191 0
169 192 0
173 196 0
173 196 0
168 192 0
171 194 0
171 195 0
171 195 0
170 194 0
174 196 0
170 193 0
170 193 0
174 196 0
172 195 0
169 193 0
172 196 0
173 196 0
173 196 0
172 195 0
172 195 0
170 194 0
172 195 0
170 193 0
172 195 0
172 196 0
172 196 0
173 196 0
174 197 0
173 195 0
175 197 0
171 194 0
172 196 0
171 194 0
173 197 0
170 194 0
170 194 0
172 195 0
172 195 0
171 194 0
174 196 0
172 195 0
170 194 0
173 196 0
173 196 0
171 193 0
173 196 0
171 194 0
172 196 0
172 195 0
170 193 0
170 193 0
173 196 0
171 195 0
171 195 0
173 197 0
171 195 0
171 194 0
173 196 0
174 197 0
173 197 0
171 195 0
171 194 0
174 197 0
170 194 0
171 194 0
172 195 0
170 193 0
171 195 0
172 196 0
172 195 0
174 197 0
174 197 0
174 197 0
173 196 0
174 197 0
173 196 0
172 196 0
173 197 0
172 195 0
173 196 0
174 197 0
173 197 0
173 196 0
172 195 0
172 196 0
174 198 0
172 196 0
171 195 0
173 196 0
173 196 0
172 195 0
173 196 0
172 195 0
174 197 0
175 198 0
173 197 0
172 196 0
172 196 0
172 195 0
172 195 0
174 197 0
174 197 0
174 197 0
175 198 0
174 197 0
174 196 0
173 195 0
173 196 0
171 194 0
174 197 0
174 197 0
170 193 0
172 195 0
171 194 0
173 197 0
173 197 0
175 198 0
171 194 0
174 196 0
173 196 0
172 195 0
173 196 0
173 197 0
173 197 0
170 194 0
173 196 0
174 197 0
174 197 0
173 197 0
174 197 0
172 195 0
172 196 0
173 196 0
173 197 0
173 196 0
171 195 0
173 196 0
173 196 0
173 196 0
174 197 0
174 197 0
173 196 0
173 197 0
170 193 0
175 198 0
173 197 0
173 197 0
175 198 0
172 195 0
174 197 0
174 198 0
173 197 0
175 198 0
173 196 0
175 198 0
173 197 0
174 197 0
173 196 0
173 197 0
173 197 0
174 197 0
174 197 0
173 197 0
173 196 0
173 196 0
173 196 0
173 197 0
172 196 0
172 196 0
174 197 0
173 197 0
174 197 0
172 196 0
173 197 0
173 196 0
173 197 0
174 197 0
175 198 0
171 195 0
172 196 0
174 197 0
175 198 0
174 197 0
172 196 0
172 196 0
174 197 0
172 195 0
172 196 0
173 197 0
173 196 0
171 195 0
161 183 0
154 175 0
154 175 0
155 176 0
155 176 0
156 177 0
155 176 0
155 175 0
156 176 0
154 176 0
155 177 0
156 176 0
156 177 0
154 176 0
155 175 0
154 176 0
155 176 0
155 176 0
154 175 0
155 175 0
155 176 0
154 175 0
156 177 0
154 175 0
156 176 0
155 176 0
155 175 0
156 176 0
155 176 0
156 177 0
155 176 0
154 175 0
155 176 0
153 174 0
153 175 0
155 176 0
155 176 0
156 176 0
155 176 0
154 175 0
156 177 0
155 176 0
154 175 0
155 176 0
155 176 0
155 176 0
154 175 0
153 174 0
156 177 0
155 176 0
155 175 0
152 173 0
154 175 0
155 176 0
155 176 0
154 175 0
154 175 0
155 175 0
155 176 0
156 177 0
155 176 0
155 176 0
156 176 0
153 175 0
154 175 0
147 169 74
53 84 142
51 82 141
53 84 144
52 84 147
52 84 143
52 83 139
51 81 139
53 84 146
52 83 141
50 81 134
51 82 141
50 80 141
49 80 140
49 79 137
50 80 144
50 81 144
50 81 136
50 80 141
48 77 131
47 76 133
49 78 137
47 76 138
48 78 140
47 77 137
46 74 132
48 78 141
46 74 135
45 73 132
45 73 130
45 73 134
46 74 131
45 72 130
43 71 129
45 73 135
44 72 135
43 70 130
42 68 124
42 69 128
41 67 123
43 69 125
42 69 127
39 64 121
39 64 122
39 64 119
40 65 124
41 67 124
37 61 117
37 62 116
42 69 128
38 63 117
37 61 116
38 62 119
35 59 110
35 59 112
40 66 120
40 64 116
40 65 118
38 63 114
44 69 112
51 80 138
59 95 172
59 95 171
59 95 171
59 96 173
59 95 173
60 97 175
61 98 177
61 98 176
60 97 174
61 98 180
61 98 179
61 98 177
61 98 179
61 98 179
61 98 179
62 99 178
61 98 179
61 99 181
62 99 181
61 99 181
61 99 180
61 99 181
61 98 179
61 98 181
61 99 180
62 99 181
62 99 181
61 98 181
61 99 181
61 99 181
61 98 181
61 98 181
61 99 181
61 98 181
61 98 181
61 99 181
61 99 181
61 98 181
62 99 181
61 99 181
61 98 180
61 99 181
61 98 179
61 98 179
61 98 180
61 98 179
61 98 179
62 99 180
61 98 178
62 99 179
61 98 176
61 98 180
61 98 176
61 98 177
60 98 173
62 99 175
62 99 176
61 98 176
61 98 175
61 98 177
61 98 170
61 98 170
70 103 164
131 156 113
166 189 36
169 192 0
170 194 0
175 197 0
172 195 0
172 195 0
169 191 0
171 194 0
172 195 0
171 195 0
173 195 0
171 194 0
171 195 0
168 192 0
172 196 0
172 196 0
170 193 0
172 195 0
168 191 0
169 192 0
172 196 0
171 194 0
173 196 0
172 195 0
171 194 0
168 192 0
171 195 0
168 191 0
174 197 0
170 193 0
174 197 0
169 193 0
173 197 0
171 194 0
173 196 0
172 196 0
172 195 0
174 196 0
172 195 0
167 189 0
171 195 0
170 193 0
172 195 0
173 195 0
174 196 0
172 195 0
171 194 0
173 196 0
172 196 0
174 196 0
173 196 0
171 195 0
173 196 0
172 195 0
172 194 0
173 196 0
173 196 0
171 194 0
171 194 0
173 196 0
172 195 0
173 195 0
173 197 0
170 194 0
171 194 0
170 193 0
174 197 0
170 194 0
172 195 0
173 196 0
169 192 0
172 194 0
174 197 0
169 193 0
172 195 0
172 195 0
170 193 0
174 197 0
172 195 0
172 195 0
172 195 0
174 197 0
174 198 0
172 195 0
171 195 0
171 195 0
173 197 0
172 195 0
170 193 0
169 192 0
173 196 0
170 194 0
172 195 0
173 196 0
173 196 0
171 194 0
171 196 0
173 196 0
174 197 0
173 196 0
172 195 0
171 195 0
174 196 0
172 196 0
172 195 0
173 196 0
172 196 0
172 196 0
173 196 0
172 195 0
174 198 0
174 198 0
173 197 0
174 197 0
171 195 0
174 196 0
173 196 0
172 195 0
173 196 0
173 196 0
171 195 0
172 195 0
173 196 0
173 196 0
174 197 0
173 196 0
171 194 0
172 195 0
174 197 0
173 195 0
174 198 0
173 195 0
173 196 0
173 195 0
173 197 0
172 196 0
171 195 0
174 198 0
173 197 0
174 197 0
176 198 0
175 198 0
173 196 0
172 196 0
172 196 0
172 196 0
174 198 0
171 195 0
175 198 0
174 197 0
172 195 0
173 196 0
172 196 0
173 196 0
174 197 0
172 195 0
172 195 0
174 197 0
173 196 0
173 196 0
175 197 0
173 196 0
173 197 0
171 194 0
173 197 0
173 196 0
174 197 0
174 197 0
174 198 0
172 196 0
173 197 0
174 197 0
175 197 0
173 197 0
173 197 0
173 196 0
174 197 0
174 197 0
173 196 0
173 196 0
172 196 0
173 197 0
172 196 0
173 197 0
174 197 0
173 196 0
173 197 0
172 196 0
174 197 0
173 197 0
172 196 0
174 197 0
175 197 0
173 196 0
172 196 0
174 197 0
173 196 0
172 196 0
174 197 0
173 196 0
173 196 0
172 196 0
173 196 0
173 197 0
173 196 0
173 196 0
174 196 0
173 197 0
172 196 0
172 196 0
163 185 0
155 176 0
155 176 0
155 176 0
157 177 0
154 176 0
154 176 0
155 176 0
156 176 0
155 176 0
155 175 0
155 176 0
154 175 0
155 176 0
154 175 0
156 176 0
155 176 0
155 176 0
155 176 0
155 176 0
157 177 0
155 176 0
156 176 0
154 175 0
155 176 0
156 176 0
153 175 0
154 175 0
156 176 0
154 175 0
155 176 0
154 174 0
155 176 0
154 175 0
155 175 0
154 175 0
153 175 0
154 175 0
155 176 0
154 175 0
155 175 0
157 177 0
156 176 0
155 175 0
156 176 0
154 175 0
156 176 0
154 175 0
156 176 0
156 176 0
155 176 0
155 175 0
154 175 0
154 175 0
155 175 0
155 176 0
155 176 0
155 176 0
155 176 0
155 176 0
154 175 0
153 174 0
154 175 0
155 175 0
157 177 0
151 172 31
52 84 140
52 82 139
52 83 145
52 83 141
52 83 141
51 82 142
51 82 141
50 81 143
51 82 136
50 80 141
49 79 131
49 79 134
49 78 138
50 80 132
51 81 146
50 80 139
49 78 137
50 80 140
48 78 139
47 76 131
48 77 136
46 75 141
47 76 132
46 74 133
48 77 135
49 80 143
47 76 139
48 77 138
46 74 135
43 70 126
45 73 133
45 73 133
45 73 130
44 72 129
43 69 127
43 70 129
43 70 132
41 66 126
39 64 124
41 66 126
42 68 127
40 66 122
37 61 116
42 68 128
38 63 119
37 62 120
39 64 122
36 60 114
41 67 122
40 65 120
39 63 118
37 61 113
39 63 118
36 60 115
43 70 130
38 62 114
39 63 112
41 67 119
54 87 158
58 93 165
59 95 170
59 95 172
60 97 176
60 97 173
60 97 177
61 98 176
61 98 176
61 98 177
61 97 176
62 99 180
61 99 179
62 99 179
61 98 179
60 98 177
61 98 178
62 99 179
61 98 179
61 98 179
61 99 178
62 99 181
61 99 180
60 98 179
61 98 180
61 99 180
62 99 181
61 98 181
62 99 181
62 99 181
62 99 181
61 98 180
62 99 181
61 98 181
62 99 181
61 98 181
61 98 179
61 99 181
61 98 179
61 98 180
61 98 181
61 98 181
62 99 181
61 99 181
61 98 180
61 98 180
61 99 181
61 98 181
61 98 179
61 99 181
61 98 179
61 98 178
61 98 178
62 99 178
62 99 179
62 99 179
62 99 175
61 98 174
61 98 175
62 99 178
62 99 178
62 99 176
62 99 177
61 98 171
61 98 173
61 98 169
88 119 158
158 182 67
170 192 0
173 196 0
173 196 0
168 192 0
170 193 0
170 194 0
172 195 0
172 196 0
172 195 0
171 194 0
172 195 0
173 196 0
168 192 0
173 195 0
172 196 0
172 194 0
172 196 0
170 194 0
173 195 0
171 194 0
172 195 0
171 194 0
170 192 0
171 193 0
172 196 0
174 197 0
169 193 0
173 196 0
170 194 0
173 196 0
169 193 0
168 192 0
171 194 0
173 195 0
173 194 0
171 195 0
173 196 0
173 196 0
169 192 0
172 195 0
171 194 0
171 194 0
169 192 0
173 196 0
173 195 0
171 195 0
173 197 0
171 193 0
173 196 0
175 198 0
171 194 0
171 193 0
171 194 0
172 195 0
171 195 0
170 193 0
173 196 0
171 195 0
172 196 0
174 196 0
171 196 0
170 194 0
172 196 0
170 194 0
171 195 0
169 192 0
170 194 0
173 196 0
172 196 0
174 198 0
169 193 0
171 194 0
174 197 0
170 193 0
172 195 0
171 195 0
171 193 0
171 195 0
172 195 0
173 195 0
171 195 0
174 197 0
174 196 0
172 196 0
173 196 0
172 195 0
174 197 0
171 195 0
172 194 0
171 193 0
170 194 0
172 194 0
172 196 0
172 195 0
173 196 0
171 194 0
173 196 0
173 196 0
173 196 0
174 197 0
175 198 0
170 193 0
170 192 0
173 197 0
173 196 0
172 195 0
174 197 0
172 196 0
172 195 0
173 196 0
174 196 0
173 197 0
173 197 0
173 197 0
174 198 0
173 196 0
173 196 0
175 198 0
172 196 0
174 197 0
174 197 0
172 197 0
173 196 0
173 197 0
174 197 0
174 197 0
172 195 0
173 197 0
173 197 0
173 197 0
173 197 0
172 196 0
172 196 0
176 198 0
175 198 0
172 196 0
174 197 0
174 198 0
173 196 0
174 197 0
173 197 0
173 197 0
170 194 0
173 197 0
173 197 0
172 195 0
174 197 0
170 194 0
174 197 0
174 197 0
173 197 0
175 198 0
171 195 0
172 196 0
171 194 0
174 197 0
174 198 0
173 197 0
173 196 0
174 197 0
173 197 0
173 197 0
175 198 0
173 195 0
172 195 0
172 196 0
173 197 0
173 197 0
173 197 0
173 196 0
175 197 0
174 197 0
171 196 0
175 198 0
174 197 0
173 196 0
174 197 0
173 196 0
172 197 0
174 197 0
175 197 0
172 196 0
174 197 0
173 196 0
171 196 0
174 197 0
173 196 0
175 197 0
172 196 0
171 195 0
172 195 0
171 195 0
170 194 0
172 195 0
173 197 0
173 196 0
173 196 0
173 196 0
174 197 0
174 197 0
174 196 0
173 196 0
174 197 0
172 195 0
173 196 0
172 195 0
173 196 0
173 196 0
168 190 0
155 176 0
155 176 0
156 176 0
154 175 0
154 175 0
155 176 0
155 176 0
153 174 0
156 176 0
156 176 0
156 176 0
155 176 0
155 176 0
155 176 0
155 176 0
154 175 0
155 176 0
156 176 0
155 176 0
155 176 0
154 175 0
153 175 0
155 175 0
155 175 0
155 176 0
156 177 0
156 177 0
155 175 0
156 176 0
154 175 0
154 175 0
155 176 0
155 175 0
154 175 0
155 176 0
154 176 0
154 175 0
155 176 0
155 176 0
155 176 0
155 176 0
155 176 0
156 177 0
155 176 0
154 175 0
153 175 0
154 175 0
155 175 0
155 176 0
153 174 0
154 175 0
155 176 0
155 176 0
155 176 0
156 176 0
155 175 0
154 175 0
155 176 0
156 176 0
154 175 0
155 176 0
155 176 0
155 176 0
155 176 0
152 174 16
59 88 136
52 83 133
52 82 136
52 84 144
52 83 142
51 82 143
52 83 144
50 81 136
51 81 136
52 83 143
51 81 133
49 79 132
50 81 140
50 80 140
50 79 130
49 79 137
51 81 142
46 74 128
49 78 141
48 77 138
47 76 133
49 78 140
48 77 142
48 76 137
48 78 139
44 71 131
46 74 135
45 73 135
45 73 128
45 72 130
44 71 131
41 68 126
44 72 131
42 69 128
43 70 127
42 68 126
41 67 121
43 70 130
39 64 121
40 66 125
38 63 119
37 62 122
36 60 116
40 65 122
38 62 120
41 67 127
36 59 113
39 64 120
39 64 120
37 61 116
39 63 120
38 63 118
36 60 110
40 66 120
36 59 110
35 59 110
47 75 138
57 93 170
61 97 175
60 96 172
60 97 177
60 97 177
60 96 175
61 98 179
61 98 176
60 96 174
62 99 178
61 98 176
61 98 176
61 98 178
61 98 179
61 98 178
61 98 181
62 99 179
60 98 178
61 98 179
61 98 178
61 98 181
61 98 179
62 99 181
62 99 181
61 99 180
62 99 180
61 98 180
61 99 181
62 99 181
61 98 181
61 99 181
61 99 181
61 99 181
61 99 181
61 98 181
61 98 180
61 99 181
62 99 181
61 99 181
61 98 180
62 99 180
61 98 180
61 99 181
61 98 179
62 99 181
61 99 181
61 98 180
61 98 179
61 98 181
61 98 176
62 99 179
61 99 180
62 99 180
62 99 179
61 97 175
62 99 179
61 98 179
61 98 178
61 98 177
61 98 178
61 98 174
61 98 177
62 98 172
61 98 174
61 98 177
62 98 177
61 98 172
61 98 177
64 99 166
134 158 114
170 193 31
171 194 0
173 196 0
172 195 0
170 193 0
170 193 0
172 195 0
172 195 0
170 193 0
170 194 0
172 195 0
169 192 0
171 195 0
172 195 0
171 194 0
168 191 0
172 196 0
169 193 0
173 197 0
170 194 0
171 194 0
170 194 0
171 194 0
172 195 0
173 196 0
171 195 0
168 192 0
172 195 0
170 193 0
170 194 0
173 197 0
175 197 0
171 195 0
168 191 0
172 194 0
169 193 0
172 195 0
171 194 0
171 194 0
172 196 0
171 195 0
174 196 0
171 195 0
170 192 0
172 195 0
172 195 0
173 196 0
172 196 0
172 195 0
169 193 0
170 194 0
170 193 0
170 194 0
172 196 0
171 194 0
171 194 0
171 195 0
173 196 0
174 197 0
171 194 0
172 195 0
172 196 0
172 194 0
172 195 0
170 194 0
172 195 0
173 196 0
172 196 0
171 195 0
174 195 0
173 196 0
172 195 0
171 194 0
173 196 0
172 194 0
170 194 0
173 197 0
173 196 0
173 196 0
171 194 0
174 197 0
172 195 0
172 195 0
173 197 0
173 196 0
173 196 0
173 196 0
174 197 0
172 194 0
175 196 0
173 197 0
172 196 0
171 195 0
170 194 0
172 194 0
173 197 0
173 197 0
174 197 0
172 196 0
172 195 0
172 195 0
172 196 0
172 196 0
172 196 0
172 196 0
172 195 0
173 196 0
174 197 0
175 198 0
172 195 0
172 195 0
172 195 0
174 198 0
172 195 0
170 194 0
172 195 0
174 197 0
173 196 0
173 196 0
171 196 0
172 195 0
173 197 0
174 197 0
171 195 0
175 197 0
174 197 0
172 195 0
174 197 0
173 197 0
173 196 0
173 196 0
172 196 0
172 196 0
171 195 0
174 198 0
173 197 0
173 195 0
171 195 0
174 196 0
171 195 0
173 196 0
174 197 0
173 197 0
172 195 0
174 197 0
175 197 0
172 196 0
173 195 0
172 195 0
173 196 0
174 197 0
174 197 0
173 197 0
171 195 0
172 196 0
174 197 0
172 196 0
172 195 0
174 197 0
174 197 0
172 195 0
170 194 0
172 194 0
171 194 0
172 196 0
172 196 0
172 196 0
174 197 0
172 196 0
174 197 0
173 196 0
173 197 0
174 197 0
172 196 0
173 196 0
173 197 0
176 198 0
174 196 0
173 196 0
173 196 0
173 197 0
172 196 0
175 198 0
172 196 0
174 197 0
172 196 0
172 196 0
175 198 0
172 195 0
172 195 0
172 196 0
172 195 0
173 196 0
175 197 0
172 196 0
174 197 0
174 197 0
173 197 0
173 196 0
171 196 0
171 195 0
175 197 0
174 196 0
172 196 0
172 196 0
172 195 0
172 195 0
170 193 0
153 175 0
155 176 0
155 175 0
154 176 0
154 175 0
155 176 0
155 175 0
156 176 0
153 175 0
156 176 0
155 176 0
155 176 0
156 176 0
155 176 0
155 175 0
156 176 0
155 175 0
156 176 0
154 175 0
155 175 0
154 175 0
155 176 0
156 177 0
154 176 0
155 176 0
154 175 0
154 175 0
155 176 0
155 176 0
155 176 0
154 175 0
156 177 0
154 175 0
154 176 0
155 176 0
154 174 0
155 176 0
153 174 0
155 176 0
154 175 0
154 175 0
155 176 0
155 176 0
155 176 0
155 175 0
154 175 0
155 176 0
154 174 0
155 176 0
155 176 0
155 176 0
154 175 0
157 177 0
154 175 0
155 175 0
155 176 0
154 174 0
155 176 0
155 176 0
154 175 0
156 176 0
154 175 0
154 174 0
155 176 0
155 175 0
67 94 129
53 84 148
52 83 129
52 83 140
49 80 129
52 82 138
51 82 139
51 82 140
51 82 138
51 81 138
51 82 142
50 81 141
50 80 142
50 80 138
49 79 139
48 78 132
48 77 133
48 77 131
49 79 135
48 77 136
49 79 138
46 74 130
45 73 128
43 70 129
47 76 133
45 73 132
45 74 131
44 71 127
42 69 129
43 70 126
42 68 125
43 69 127
44 72 129
41 67 124
40 66 124
43 70 129
42 69 124
41 67 125
41 66 122
38 62 119
41 66 122
39 65 121
40 66 125
40 66 124
38 63 119
39 64 122
37 61 115
35 58 114
40 66 124
35 57 109
36 59 114
36 59 115
36 59 111
37 61 112
37 61 115
55 87 159
59 95 172
58 93 169
58 94 172
60 97 173
59 95 170
60 96 172
61 98 178
61 98 176
61 98 177
61 97 176
61 97 174
61 98 178
61 98 179
61 98 180
61 98 177
61 98 178
61 98 179
61 98 178
61 99 179
61 98 179
61 98 177
62 99 179
62 99 180
61 99 179
62 99 181
61 99 180
61 99 180
60 98 181
62 99 181
61 99 181
61 99 181
61 99 181
61 98 181
61 98 181
61 99 180
62 99 181
62 99 181
62 99 181
61 99 181
61 99 181
61 99 181
62 99 181
61 99 181
61 98 180
61 99 181
62 99 180
62 99 180
62 99 181
61 98 178
61 98 180
61 99 181
62 99 181
61 99 180
61 98 179
62 99 181
61 98 179
62 98 177
61 97 175
62 99 180
62 99 179
61 99 179
61 98 174
61 98 175
61 98 174
62 99 176
61 98 174
61 98 173
61 98 175
61 98 173
61 97 167
60 97 165
91 121 154
160 183 62
170 194 0
172 195 0
171 194 0
169 194 0
171 195 0
171 194 0
172 195 0
172 195 0
171 194 0
170 193 0
168 191 0
166 190 0
170 194 0
168 192 0
170 193 0
172 195 0
172 195 0
169 192 0
172 195 0
171 193 0
171 194 0
171 194 0
171 195 0
170 193 0
172 195 0
169 192 0
172 195 0
170 194 0
172 195 0
170 193 0
172 195 0
172 196 0
169 193 0
170 194 0
174 197 0
170 193 0
169 193 0
172 196 0
171 194 0
170 194 0
172 196 0
174 196 0
174 196 0
171 194 0
171 195 0
173 195 0
174 197 0
174 196 0
174 196 0
171 195 0
173 196 0
169 193 0
173 196 0
175 196 0
172 195 0
171 194 0
170 193 0
170 193 0
171 195 0
171 194 0
170 194 0
170 194 0
171 194 0
171 195 0
173 196 0
172 196 0
172 195 0
171 195 0
174 197 0
170 193 0
173 196 0
173 196 0
172 195 0
171 194 0
172 196 0
172 195 0
173 196 0
174 197 0
174 197 0
173 197 0
172 195 0
171 195 0
170 193 0
172 196 0
170 194 0
173 197 0
173 197 0
172 195 0
172 195 0
170 193 0
172 195 0
171 194 0
172 196 0
172 195 0
170 193 0
173 196 0
172 196 0
170 194 0
167 190 0
172 196 0
168 192 0
173 196 0
172 195 0
169 192 0
173 197 0
172 195 0
176 198 0
171 194 0
173 196 0
173 196 0
174 198 0
170 193 0
171 195 0
171 195 0
174 197 0
173 197 0
171 195 0
172 196 0
174 197 0
173 196 0
172 195 0
174 197 0
173 197 0
171 195 0
173 197 0
174 197 0
172 195 0
173 196 0
170 193 0
174 197 0
172 196 0
173 196 0
173 196 0
172 195 0
173 196 0
175 197 0
173 196 0
173 197 0
173 196 0
172 195 0
172 196 0
170 194 0
173 197 0
174 197 0
175 198 0
172 196 0
173 197 0
173 196 0
175 197 0
172 196 0
173 196 0
172 196 0
175 198 0
173 197 0
171 195 0
174 197 0
173 197 0
171 195 0
172 196 0
173 197 0
172 196 0
174 197 0
174 196 0
173 196 0
173 196 0
174 196 0
173 197 0
174 197 0
173 196 0
175 198 0
173 197 0
172 196 0
174 197 0
172 196 0
173 197 0
172 196 0
172 196 0
171 195 0
173 196 0
171 195 0
173 197 0
173 196 0
174 197 0
172 196 0
172 196 0
173 196 0
172 196 0
174 197 0
171 195 0
173 197 0
172 196 0
173 197 0
174 197 0
172 196 0
172 196 0
175 197 0
173 197 0
174 197 0
173 196 0
173 196 0
172 196 0
172 196 0
172 195 0
172 196 0
174 196 0
175 197 0
156 177 0
154 175 0
155 175 0
153 175 0
155 176 0
153 175 0
155 176 0
156 176 0
154 175 0
154 175 0
154 174 0
154 176 0
155 176 0
154 175 0
155 176 0
155 176 0
153 174 0
156 176 0
154 175 0
154 175 0
156 177 0
155 176 0
155 176 0
153 175 0
153 174 0
154 175 0
155 176 0
154 175 0
155 176 0
155 175 0
155 176 0
154 175 0
154 176 0
155 176 0
154 174 0
155 176 0
154 174 0
153 175 0
155 175 0
154 175 0
155 176 0
155 175 0
155 176 0
154 174 0
156 176 0
155 176 0
154 174 0
156 176 0
153 174 0
155 176 0
154 175 0
154 175 0
154 175 0
155 175 0
154 176 0
155 175 0
154 175 0
155 176 0
155 175 0
154 175 0
154 175 0
154 175 0
155 176 0
155 175 0
154 175 0
92 116 122
52 82 138
51 82 138
52 83 135
50 81 133
50 81 138
49 79 135
52 83 141
51 82 139
49 78 135
51 82 140
51 81 138
50 80 139
48 77 134
50 80 140
48 77 137
47 76 135
47 76 131
45 73 126
48 77 132
48 77 133
48 76 130
46 74 128
46 75 135
47 76 135
46 74 132
47 75 132
45 73 127
45 73 130
43 70 125
43 70 126
44 70 129
43 70 129
42 68 126
42 68 124
41 67 121
40 66 121
44 71 129
39 64 122
37 61 115
39 63 119
40 65 121
37 61 114
37 61 116
35 58 112
36 60 117
35 58 111
35 59 116
39 64 118
35 58 114
34 56 109
37 61 114
38 62 116
43 70 130
55 88 157
58 93 166
59 95 169
58 94 170
59 96 171
61 97 175
60 97 174
60 96 173
61 99 179
60 96 176
61 97 175
61 98 177
61 98 179
61 98 177
61 98 178
61 98 176
61 98 176
62 99 178
60 97 178
62 99 179
61 98 179
61 99 181
61 98 179
61 98 177
61 99 180
61 98 181
61 98 179
61 99 181
61 99 181
61 98 180
61 99 181
61 99 180
62 99 181
62 99 181
61 98 180
62 99 181
61 99 181
61 99 180
61 98 180
61 98 180
60 98 180
61 99 181
61 99 180
61 98 180
61 99 181
61 98 180
62 99 181
61 98 180
61 98 179
61 98 180
61 99 180
61 98 179
61 98 180
61 98 178
61 97 177
61 98 179
62 99 180
61 98 178
61 98 180
62 98 174
60 97 176
61 99 177
61 98 176
61 98 175
61 98 178
61 98 173
61 98 180
62 98 177
61 98 177
62 99 174
61 98 175
61 97 169
61 98 173
62 98 171
71 104 159
142 167 97
168 192 0
169 193 0
172 195 0
170 193 0
174 196 0
171 193 0
169 192 0
170 194 0
167 190 0
172 195 0
170 193 0
172 195 0
174 196 0
171 195 0
173 195 0
171 194 0
172 195 0
165 187 0
170 194 0
169 192 0
171 195 0
172 195 0
171 194 0
171 195 0
170 193 0
171 194 0
171 195 0
172 195 0
171 195 0
169 192 0
174 197 0
171 194 0
172 196 0
172 195 0
172 195 0
172 195 0
168 192 0
170 193 0
172 195 0
171 195 0
171 195 0
167 191 0
171 194 0
172 195 0
171 195 0
169 192 0
169 193 0
171 194 0
170 193 0
170 193 0
173 195 0
170 194 0
172 195 0
172 194 0
172 196 0
172 195 0
171 194 0
170 194 0
173 196 0
172 196 0
168 192 0
173 196 0
171 195 0
172 196 0
170 194 0
174 197 0
172 195 0
170 194 0
172 195 0
172 196 0
172 196 0
173 196 0
173 196 0
171 195 0
172 195 0
172 196 0
171 194 0
172 195 0
170 194 0
171 193 0
172 195 0
171 194 0
170 194 0
170 193 0
173 197 0
174 197 0
173 196 0
174 197 0
174 197 0
171 195 0
171 195 0
173 197 0
172 194 0
171 194 0
172 195 0
173 196 0
171 195 0
174 196 0
173 196 0
173 196 0
172 195 0
173 196 0
173 197 0
171 195 0
170 193 0
173 197 0
172 196 0
173 196 0
173 196 0
172 194 0
174 196 0
171 194 0
174 197 0
172 195 0
172 195 0
173 197 0
171 194 0
171 194 0
173 196 0
174 197 0
172 197 0
173 196 0
170 193 0
175 198 0
174 197 0
173 196 0
170 193 0
173 197 0
171 194 0
171 194 0
173 197 0
172 195 0
175 198 0
174 197 0
173 197 0
172 194 0
171 195 0
173 196 0
172 195 0
173 196 0
171 194 0
172 195 0
171 195 0
173 197 0
174 197 0
171 195 0
173 196 0
173 196 0
173 196 0
173 196 0
174 198 0
174 197 0
173 196 0
172 195 0
171 195 0
174 197 0
173 196 0
174 197 0
171 195 0
172 196 0
175 198 0
175 198 0
173 196 0
175 198 0
173 197 0
174 197 0
173 196 0
174 197 0
173 197 0
173 196 0
173 197 0
172 196 0
174 197 0
173 196 0
175 198 0
174 197 0
173 196 0
173 196 0
171 195 0
172 196 0
173 196 0
173 196 0
174 196 0
173 196 0
174 196 0
171 195 0
171 195 0
173 196 0
172 195 0
174 197 0
173 196 0
174 196 0
172 196 0
174 197 0
173 196 0
171 195 0
171 195 0
173 196 0
173 196 0
172 195 0
173 196 0
173 196 0
173 196 0
173 196 0
172 195 0
157 179 0
155 176 0
154 175 0
156 176 0
155 176 0
154 175 0
154 175 0
156 177 0
154 175 0
154 175 0
156 177 0
154 175 0
154 175 0
155 176 0
154 175 0
155 176 0
154 176 0
156 176 0
156 176 0
155 176 0
154 175 0
156 176 0
155 176 0
155 176 0
155 176 0
155 175 0
156 177 0
154 175 0
155 176 0
155 175 0
156 176 0
155 176 0
154 175 0
156 176 0
153 175 0
154 175 0
154 175 0
156 176 0
155 175 0
154 175 0
154 175 0
155 176 0
154 175 0
154 175 0
155 176 0
155 176 0
154 175 0
155 175 0
154 174 0
155 176 0
153 174 0
155 175 0
155 176 0
155 176 0
154 176 0
155 176 0
155 175 0
155 176 0
155 176 0
156 176 0
154 175 0
154 175 0
154 175 0
155 176 0
154 175 0
91 115 125
53 84 138
53 85 143
51 82 139
50 81 137
49 79 132
50 80 139
51 82 142
50 81 137
49 79 132
50 80 136
50 79 137
49 79 134
49 79 138
48 77 134
48 76 129
50 80 140
50 80 143
48 77 138
47 75 133
46 75 126
45 73 124
45 73 129
45 72 127
46 74 131
44 72 129
47 76 135
46 74 132
46 74 132
43 70 127
44 71 130
44 71 128
41 67 120
40 65 117
42 67 127
40 66 123
39 64 122
38 63 120
38 62 118
36 60 111
40 66 124
38 62 117
36 59 112
36 59 114
39 64 119
33 55 109
37 61 120
35 59 113
36 60 115
33 55 107
36 59 114
34 56 108
47 77 143
56 91 163
58 93 167
58 94 167
58 93 166
59 95 169
61 97 176
61 97 172
62 98 176
60 97 174
61 98 179
61 98 176
61 99 178
61 98 175
61 99 179
60 97 173
61 98 178
62 99 179
61 97 173
61 98 177
61 99 179
61 99 179
62 99 180
61 98 179
61 98 179
61 99 181
61 98 181
62 99 181
61 99 180
61 98 176
61 98 180
62 99 178
61 99 180
61 98 179
61 99 181
62 99 180
61 98 181
62 99 177
61 99 180
62 99 181
61 99 181
61 99 181
61 99 181
62 99 181
61 98 179
61 98 180
61 98 177
61 99 181
62 99 181
61 99 180
62 99 180
61 99 181
61 98 179
61 98 176
61 98 178
61 98 178
61 98 177
62 99 180
61 98 177
61 98 178
61 98 179
61 98 175
61 98 179
61 98 178
62 99 177
61 98 176
62 99 179
62 98 175
61 97 175
61 98 177
61 97 174
61 97 172
62 99 178
61 97 169
61 97 168
61 98 171
62 99 174
65 100 165
124 150 110
168 190 0
169 193 0
172 195 0
170 192 0
171 195 0
166 191 0
170 193 0
170 193 0
171 195 0
171 193 0
169 191 0
169 192 0
169 193 0
171 194 0
170 194 0
170 192 0
171 195 0
173 196 0
170 194 0
171 194 0
172 196 0
173 196 0
171 193 0
171 195 0
170 192 0
171 194 0
171 194 0
170 192 0
170 194 0
171 195 0
172 195 0
173 196 0
171 195 0
173 196 0
172 194 0
169 192 0
174 197 0
171 194 0
170 193 0
173 196 0
172 195 0
171 194 0
173 196 0
168 192 0
172 195 0
169 193 0
170 193 0
169 193 0
171 194 0
169 193 0
170 194 0
171 195 0
171 194 0
172 195 0
170 193 0
168 192 0
171 195 0
171 194 0
172 195 0
172 196 0
170 194 0
170 193 0
171 194 0
171 195 0
171 194 0
172 196 0
172 195 0
174 197 0
172 194 0
172 195 0
173 196 0
173 196 0
169 191 0
172 196 0
172 195 0
175 198 0
172 195 0
171 195 0
170 193 0
172 195 0
172 195 0
174 196 0
172 195 0
172 196 0
172 195 0
173 196 0
172 195 0
172 195 0
172 195 0
173 196 0
172 195 0
171 194 0
175 198 0
172 196 0
172 195 0
172 196 0
171 195 0
174 197 0
173 194 0
169 193 0
172 195 0
172 196 0
173 196 0
173 195 0
173 196 0
172 196 0
171 196 0
172 197 0
173 196 0
172 195 0
172 195 0
173 196 0
173 196 0
173 196 0
171 194 0
171 194 0
172 195 0
174 197 0
173 197 0
173 197 0
174 198 0
173 196 0
171 195 0
175 197 0
170 194 0
173 197 0
173 196 0
174 195 0
173 197 0
172 196 0
169 192 0
173 196 0
170 194 0
173 197 0
174 196 0
170 194 0
172 195 0
170 192 0
173 197 0
171 195 0
173 197 0
174 197 0
172 196 0
173 196 0
173 196 0
170 193 0
173 196 0
173 197 0
173 196 0
174 197 0
173 197 0
173 196 0
175 198 0
174 197 0
174 197 0
173 197 0
174 197 0
174 196 0
174 197 0
174 196 0
174 198 0
173 197 0
172 196 0
174 197 0
173 197 0
176 198 0
173 196 0
173 196 0
173 196 0
175 197 0
173 197 0
174 197 0
174 197 0
174 197 0
173 196 0
174 197 0
173 196 0
175 198 0
173 196 0
173 196 0
175 197 0
172 196 0
174 197 0
173 196 0
175 198 0
173 196 0
171 195 0
172 196 0
174 196 0
174 197 0
174 197 0
171 194 0
172 196 0
172 196 0
172 196 0
172 195 0
173 196 0
172 195 0
172 196 0
172 195 0
172 195 0
171 195 0
174 197 0
172 196 0
163 185 0
157 177 0
156 176 0
154 175 0
154 175 0
154 175 0
155 176 0
156 177 0
154 175 0
156 177 0
155 176 0
154 175 0
156 177 0
157 177 0
154 175 0
153 174 0
155 176 0
155 175 0
154 175 0
154 175 0
154 175 0
153 174 0
153 174 0
154 176 0
152 173 0
154 175 0
155 176 0
155 175 0
155 176 0
154 175 0
154 175 0
152 174 0
154 176 0
153 174 0
154 175 0
154 175 0
154 175 0
155 176 0
154 175 0
155 176 0
155 176 0
155 176 0
155 175 0
156 176 0
157 177 0
153 174 0
154 175 0
154 175 0
153 175 0
154 175 0
155 176 0
155 176 0
155 176 0
154 175 0
154 175 0
154 175 0
154 175 0
156 176 0
155 176 0
155 176 0
155 176 0
154 176 0
154 175 0
156 177 0
154 175 0
105 128 107
52 83 135
52 83 143
51 81 127
50 80 136
49 80 134
50 80 135
52 82 138
51 81 132
49 78 130
50 80 135
51 81 137
50 80 137
49 79 132
49 79 136
49 79 137
49 78 137
47 76 131
45 72 128
47 75 134
46 75 130
47 76 135
44 72 130
45 73 129
46 74 133
44 71 126
45 72 130
39 64 115
42 68 125
46 74 134
43 70 126
44 71 125
44 71 129
43 69 128
39 64 119
38 63 120
41 66 119
40 65 119
37 61 116
35 58 109
38 63 119
37 61 116
39 64 121
37 61 117
35 57 111
35 58 110
36 60 114
35 58 111
38 62 117
30 51 100
34 56 108
49 79 145
57 92 168
59 95 173
59 94 168
59 95 167
60 96 173
60 97 173
60 97 172
59 96 170
61 98 175
61 98 175
60 97 176
61 97 176
61 97 174
62 99 178
60 97 176
61 98 176
61 98 178
61 98 178
62 99 179
61 98 179
61 98 177
62 99 179
61 98 178
61 98 179
61 98 177
61 99 181
61 98 180
62 99 179
62 99 179
61 99 180
61 98 180
61 99 180
61 98 181
61 99 180
62 99 179
62 99 181
61 99 180
61 99 181
61 99 180
62 99 181
61 98 181
61 98 181
61 98 180
62 99 181
62 99 180
61 98 180
62 99 181
62 99 181
61 98 179
62 99 180
61 98 178
61 98 181
61 99 181
62 99 181
62 99 179
61 99 181
61 98 179
61 99 181
61 98 179
61 99 179
61 97 176
61 98 177
61 98 179
62 99 178
61 98 178
61 98 176
61 98 177
61 97 174
61 98 175
61 98 177
61 98 176
61 97 173
61 97 169
61 98 175
61 97 167
61 98 173
61 97 168
61 98 173
61 97 166
121 147 126
168 191 19
174 196 0
167 190 0
167 190 0
172 195 0
172 195 0
171 194 0
171 195 0
170 194 0
172 195 0
171 194 0
172 195 0
170 193 0
172 195 0
173 196 0
172 194 0
171 193 0
171 194 0
171 194 0
171 194 0
171 194 0
171 195 0
172 194 0
172 194 0
171 194 0
170 193 0
171 193 0
170 194 0
169 193 0
172 196 0
171 195 0
170 194 0
169 193 0
174 197 0
170 194 0
170 193 0
168 191 0
172 195 0
171 194 0
172 196 0
172 195 0
172 195 0
171 193 0
169 193 0
169 193 0
172 195 0
171 193 0
171 195 0
171 195 0
172 195 0
173 196 0
174 197 0
172 195 0
173 197 0
170 193 0
172 195 0
169 192 0
171 195 0
170 194 0
172 195 0
171 194 0
170 194 0
174 196 0
171 194 0
172 195 0
171 194 0
172 195 0
172 196 0
171 195 0
171 194 0
171 196 0
174 197 0
171 194 0
171 195 0
173 197 0
171 194 0
170 193 0
170 194 0
174 197 0
173 197 0
172 196 0
174 197 0
172 195 0
172 196 0
171 193 0
174 196 0
172 196 0
171 194 0
174 196 0
172 195 0
173 196 0
173 196 0
171 194 0
174 197 0
172 196 0
172 195 0
174 197 0
174 197 0
171 194 0
171 195 0
174 197 0
172 195 0
173 196 0
171 194 0
173 196 0
172 195 0
172 195 0
169 192 0
173 197 0
174 197 0
173 197 0
173 196 0
174 197 0
171 195 0
169 192 0
172 195 0
172 195 0
172 195 0
173 196 0
171 195 0
173 197 0
174 197 0
171 194 0
172 196 0
172 195 0
171 195 0
172 194 0
172 195 0
173 196 0
172 196 0
171 195 0
174 197 0
173 195 0
173 197 0
174 196 0
174 197 0
172 195 0
171 195 0
172 195 0
172 195 0
174 197 0
175 198 0
172 196 0
172 196 0
173 196 0
170 194 0
170 194 0
172 196 0
173 196 0
174 196 0
175 198 0
174 197 0
171 196 0
172 195 0
175 198 0
173 196 0
173 196 0
174 196 0
174 197 0
172 196 0
174 197 0
173 196 0
175 198 0
172 196 0
173 196 0
174 197 0
176 198 0
172 195 0
173 196 0
175 198 0
172 196 0
171 195 0
173 196 0
172 196 0
173 197 0
174 197 0
173 197 0
173 197 0
173 196 0
174 197 0
172 196 0
174 197 0
172 196 0
173 196 0
172 196 0
174 197 0
171 195 0
173 196 0
174 197 0
172 196 0
172 196 0
173 197 0
172 195 0
172 195 0
173 196 0
173 196 0
172 196 0
171 195 0
171 195 0
174 197 0
172 195 0
174 196 0
173 196 0
165 187 0
152 174 0
155 175 0
155 176 0
154 175 0
156 176 0
153 175 0
155 176 0
156 177 0
154 176 0
155 176 0
156 176 0
155 175 0
157 176 0
156 176 0
154 175 0
155 175 0
154 175 0
156 176 0
155 176 0
153 174 0
155 176 0
154 175 0
155 175 0
155 175 0
155 176 0
153 174 0
155 176 0
156 176 0
156 177 0
154 175 0
155 176 0
155 175 0
153 173 0
153 175 0
154 176 0
155 176 0
155 176 0
154 175 0
155 176 0
154 175 0
155 176 0
154 175 0
155 176 0
155 176 0
155 175 0
154 175 0
156 176 0
155 175 0
155 176 0
155 176 0
155 175 0
154 175 0
155 176 0
153 175 0
153 175 0
157 177 0
155 176 0
154 175 0
155 175 0
152 174 0
153 175 0
154 176 0
155 175 0
155 176 0
114 137 102
52 83 140
50 80 129
51 81 132
49 79 134
51 81 135
49 78 132
51 82 137
51 82 139
50 80 139
50 80 134
50 80 140
47 76 126
49 78 134
48 78 135
48 77 131
46 74 124
48 77 134
47 76 130
46 74 128
46 74 130
45 73 126
46 74 128
43 70 125
43 70 120
43 70 125
44 71 128
44 71 126
42 68 126
44 71 122
42 69 122
40 66 121
43 70 129
41 67 122
41 66 121
39 63 117
40 65 121
36 60 116
35 58 109
37 61 115
38 62 116
37 60 115
32 53 105
36 59 113
35 57 114
35 58 114
34 56 110
33 55 109
32 53 105
34 57 111
53 86 154
58 94 172
57 91 163
59 95 165
59 95 168
58 94 168
60 96 169
60 96 172
61 97 173
61 98 173
60 97 173
61 98 173
60 97 171
61 98 177
61 98 175
61 98 176
60 97 175
62 99 178
61 98 177
61 98 175
61 99 180
61 98 177
61 98 180
61 99 179
61 99 177
62 99 180
61 98 178
61 99 179
61 98 179
61 99 180
61 99 179
61 98 179
62 99 177
61 99 180
61 98 180
61 98 179
62 99 180
61 99 181
62 99 180
61 98 180
61 98 180
62 99 180
61 99 181
61 98 181
61 98 180
61 98 178
62 99 180
62 98 178
61 97 176
61 99 181
61 98 180
62 99 180
62 99 181
61 98 179
61 98 180
60 97 178
61 98 179
61 98 179
61 98 179
61 98 176
60 96 173
61 98 180
60 96 174
61 98 178
61 97 176
61 97 176
61 97 177
61 97 176
61 98 176
61 97 176
61 98 176
61 97 174
61 97 174
61 97 172
61 97 172
61 98 175
61 97 168
60 96 166
61 97 169
61 97 168
60 97 167
61 97 169
96 125 149
165 188 40
171 193 0
169 192 0
169 192 0
172 195 0
165 188 0
170 193 0
171 194 0
170 193 0
172 195 0
172 195 0
170 194 0
170 193 0
169 192 0
170 193 0
173 196 0
170 194 0
170 193 0
169 192 0
171 195 0
172 195 0
167 191 0
171 195 0
172 195 0
171 195 0
169 192 0
169 193 0
172 195 0
172 195 0
171 194 0
170 193 0
172 195 0
171 194 0
171 194 0
171 194 0
170 193 0
169 192 0
170 193 0
170 193 0
172 196 0
170 194 0
174 196 0
172 196 0
172 195 0
173 196 0
173 196 0
173 196 0
170 193 0
171 194 0
170 193 0
172 196 0
172 195 0
172 196 0
173 196 0
167 191 0
172 195 0
171 194 0
172 195 0
171 195 0
174 196 0
170 194 0
171 194 0
170 192 0
173 195 0
174 197 0
167 190 0
172 196 0
171 194 0
169 193 0
175 197 0
171 195 0
173 196 0
174 197 0
170 194 0
169 192 0
170 193 0
172 196 0
172 195 0
172 195 0
171 193 0
170 193 0
173 196 0
172 196 0
172 196 0
173 196 0
171 195 0
170 194 0
173 197 0
173 196 0
174 197 0
172 195 0
170 193 0
172 195 0
174 196 0
172 195 0
172 195 0
172 195 0
173 197 0
173 196 0
172 196 0
171 193 0
171 195 0
173 196 0
174 197 0
168 192 0
173 196 0
176 198 0
173 197 0
173 196 0
172 195 0
171 194 0
173 196 0
173 196 0
174 197 0
173 196 0
174 197 0
173 196 0
175 197 0
173 196 0
173 197 0
170 194 0
173 195 0
172 196 0
173 195 0
173 197 0
174 196 0
172 195 0
173 196 0
170 193 0
173 196 0
175 197 0
172 196 0
173 196 0
174 197 0
173 196 0
173 196 0
174 197 0
171 195 0
171 194 0
172 195 0
172 196 0
175 198 0
173 197 0
172 195 0
173 197 0
173 197 0
171 195 0
171 195 0
173 196 0
172 195 0
172 196 0
176 198 0
173 196 0
174 197 0
172 195 0
174 197 0
173 196 0
172 196 0
171 195 0
172 196 0
171 195 0
174 196 0
173 196 0
174 197 0
172 196 0
173 196 0
173 196 0
173 196 0
175 198 0
174 197 0
173 196 0
173 197 0
172 196 0
172 196 0
171 195 0
173 196 0
173 196 0
174 197 0
173 196 0
171 195 0
172 196 0
174 197 0
172 196 0
174 197 0
173 196 0
173 197 0
173 197 0
173 197 0
170 194 0
171 195 0
173 196 0
172 195 0
173 196 0
172 196 0
173 196 0
173 196 0
172 195 0
173 196 0
173 196 0
172 196 0
172 195 0
171 195 0
168 191 0
157 176 0
155 176 0
156 176 0
154 174 0
155 175 0
157 177 0
155 176 0
155 176 0
153 174 0
155 176 0
156 175 0
154 175 0
155 176 0
155 176 0
156 176 0
155 176 0
156 176 0
153 175 0
156 177 0
154 175 0
155 175 0
155 175 0
156 176 0
156 176 0
156 176 0
154 176 0
153 174 0
155 176 0
155 175 0
153 174 0
153 175 0
153 175 0
154 176 0
156 177 0
154 175 0
155 176 0
154 175 0
154 175 0
154 175 0
155 175 0
156 176 0
155 175 0
155 175 0
155 175 0
154 175 0
153 174 0
153 174 0
155 176 0
156 176 0
154 175 0
153 174 0
155 176 0
154 175 0
155 176 0
154 174 0
153 175 0
154 175 0
153 174 0
155 175 0
155 176 0
156 176 0
153 174 0
156 176 0
154 176 0
123 144 90
52 83 134
51 82 135
54 86 146
50 80 134
51 82 140
50 80 133
49 79 132
49 78 130
49 78 131
49 79 134
49 79 132
48 77 130
49 79 132
48 78 133
46 74 125
46 75 128
43 70 118
47 76 135
46 75 131
45 73 125
46 74 127
45 73 128
45 73 131
43 70 123
45 72 130
44 71 130
43 69 121
43 69 125
41 67 123
42 68 124
39 64 115
39 63 120
40 64 117
41 67 126
42 69 126
39 64 121
38 63 117
37 60 111
37 60 116
36 59 112
35 58 111
34 56 108
38 61 116
37 60 114
32 54 106
32 53 101
33 55 106
35 57 111
53 84 154
57 91 163
58 94 167
59 94 169
59 95 170
61 97 173
60 96 169
60 96 172
60 97 173
59 96 168
60 97 172
60 97 175
61 98 174
61 98 174
61 98 174
62 98 177
61 98 175
61 98 175
62 99 179
61 98 179
61 98 176
62 99 179
62 98 176
62 99 178
61 98 180
61 99 181
61 98 177
61 98 178
61 99 179
61 98 178
62 99 181
62 99 181
61 98 179
61 98 180
61 98 178
62 99 180
62 99 181
61 98 180
61 99 180
62 99 179
61 99 180
61 98 180
62 99 181
62 99 181
62 99 181
61 99 180
61 98 180
61 98 179
61 98 180
61 98 179
61 98 178
61 98 180
62 99 181
62 98 176
61 98 180
62 99 181
61 98 179
61 98 178
61 98 177
61 98 177
60 97 176
60 97 176
61 98 177
61 98 178
61 98 176
61 98 177
60 97 174
61 98 177
61 98 176
60 97 174
61 97 175
61 97 171
60 97 174
60 96 171
61 97 174
61 97 175
60 96 169
61 97 171
61 98 173
61 97 170
60 96 168
61 97 170
61 98 171
61 97 165
106 133 133
167 191 44
170 193 0
173 195 0
170 193 0
172 196 0
170 193 0
171 195 0
169 192 0
169 193 0
172 195 0
170 194 0
169 192 0
166 189 0
172 195 0
169 193 0
169 193 0
171 194 0
173 197 0
171 193 0
171 194 0
172 194 0
171 194 0
173 196 0
170 193 0
171 193 0
171 194 0
169 192 0
172 195 0
171 193 0
173 195 0
171 194 0
171 195 0
169 192 0
172 196 0
172 195 0
172 195 0
171 195 0
172 195 0
175 197 0
171 194 0
172 195 0
171 194 0
172 195 0
171 193 0
171 194 0
171 194 0
172 195 0
170 194 0
170 193 0
170 194 0
171 194 0
172 195 0
170 194 0
171 195 0
172 194 0
172 196 0
173 196 0
170 193 0
169 192 0
172 195 0
172 195 0
169 192 0
171 195 0
173 196 0
174 197 0
172 194 0
172 195 0
171 194 0
173 197 0
172 196 0
172 195 0
174 196 0
172 193 0
172 195 0
169 193 0
171 194 0
171 195 0
171 193 0
172 195 0
172 195 0
170 194 0
171 195 0
172 195 0
171 194 0
171 195 0
174 196 0
174 197 0
172 196 0
172 195 0
173 196 0
175 198 0
170 194 0
174 196 0
169 192 0
172 195 0
173 196 0
172 196 0
174 197 0
172 195 0
172 196 0
171 195 0
173 196 0
174 198 0
174 197 0
169 193 0
171 195 0
174 196 0
174 197 0
175 198 0
169 193 0
171 193 0
171 194 0
174 197 0
173 196 0
173 197 0
172 195 0
172 196 0
172 195 0
170 193 0
173 196 0
174 196 0
176 198 0
174 196 0
171 195 0
174 197 0
175 197 0
175 198 0
171 195 0
174 196 0
173 197 0
174 197 0
173 197 0
176 198 0
172 195 0
172 196 0
175 198 0
173 196 0
175 197 0
171 195 0
173 197 0
173 196 0
173 196 0
171 194 0
173 196 0
173 197 0
173 196 0
170 194 0
175 197 0
171 195 0
174 197 0
172 195 0
174 197 0
175 198 0
171 194 0
171 196 0
173 197 0
172 195 0
175 197 0
175 198 0
174 197 0
174 197 0
173 196 0
173 196 0
173 197 0
174 197 0
174 197 0
173 197 0
174 197 0
174 197 0
175 197 0
172 196 0
174 197 0
173 196 0
172 196 0
174 197 0
173 197 0
172 196 0
174 197 0
172 195 0
172 196 0
173 196 0
172 196 0
174 197 0
172 196 0
173 196 0
172 195 0
173 196 0
173 196 0
173 196 0
173 196 0
173 195 0
173 196 0
173 197 0
171 196 0
173 196 0
173 196 0
172 195 0
172 196 0
172 195 0
172 195 0
171 195 0
169 193 0
153 175 0
155 176 0
154 176 0
153 175 0
155 176 0
155 175 0
154 175 0
155 176 0
154 175 0
154 176 0
154 175 0
154 174 0
155 176 0
154 175 0
153 175 0
155 175 0
155 176 0
157 177 0
155 176 0
154 175 0
155 175 0
154 174 0
154 174 0
154 175 0
156 176 0
155 176 0
154 174 0
155 176 0
155 176 0
153 174 0
155 175 0
157 177 0
154 174 0
155 175 0
155 176 0
155 176 0
155 176 0
155 176 0
155 175 0
154 176 0
154 175 0
156 177 0
155 176 0
155 175 0
155 175 0
156 176 0
154 175 0
154 175 0
154 175 0
155 176 0
155 176 0
155 176 0
154 175 0
154 175 0
154 175 0
153 174 0
155 175 0
154 175 0
154 175 0
155 176 0
154 175 0
154 175 0
155 176 0
154 175 0
138 159 61
51 82 136
51 82 138
50 81 132
51 81 135
50 80 130
49 79 130
50 80 134
50 80 137
50 81 134
49 78 129
48 77 131
49 78 133
47 76 131
48 77 137
47 76 131
47 76 129
46 75 127
45 73 125
44 71 123
46 74 126
45 73 129
46 74 127
45 72 127
43 70 127
44 71 123
41 68 118
43 70 127
42 68 122
40 66 120
40 65 114
42 68 126
40 65 113
39 64 117
41 66 121
37 60 113
37 61 116
36 59 113
39 63 121
35 58 106
38 62 121
34 56 107
30 50 95
34 56 108
32 53 105
32 54 105
32 54 105
34 56 107
53 86 154
58 93 168
57 92 166
58 93 167
59 95 168
61 97 169
60 96 168
61 98 176
61 97 172
60 97 171
61 98 173
61 98 176
61 98 178
61 97 174
61 98 175
61 98 177
62 98 175
62 99 175
62 98 175
61 98 177
61 98 178
62 99 179
61 98 177
61 98 178
61 98 178
61 98 179
61 99 178
61 99 180
61 99 179
61 98 180
61 98 177
61 99 181
62 99 181
61 99 180
60 98 178
61 98 179
61 99 180
61 98 180
62 99 181
61 98 179
61 98 180
62 99 181
62 99 180
62 99 180
61 98 176
61 98 178
61 98 181
61 99 180
61 99 181
61 98 180
61 98 178
61 98 180
61 98 178
61 98 180
62 99 180
61 98 180
61 98 178
62 99 179
61 97 177
61 98 177
61 97 176
62 99 178
61 98 173
61 97 175
61 97 176
61 98 177
61 98 179
61 98 175
61 97 174
61 98 177
60 97 173
60 97 172
60 96 171
61 97 172
60 97 172
61 97 173
60 96 171
60 97 174
61 97 172
61 97 173
60 96 167
59 95 164
61 97 171
60 95 164
60 95 158
61 97 166
79 111 154
166 189 44
171 194 0
172 195 0
168 190 0
167 191 0
171 193 0
169 192 0
168 192 0
168 192 0
170 193 0
168 191 0
167 190 0
170 193 0
167 191 0
168 191 0
170 194 0
169 192 0
171 194 0
170 193 0
168 191 0
169 192 0
170 194 0
168 191 0
170 193 0
171 195 0
169 193 0
170 192 0
172 194 0
173 195 0
169 192 0
170 194 0
173 195 0
171 195 0
170 193 0
170 194 0
172 196 0
173 196 0
172 196 0
166 190 0
170 194 0
167 190 0
170 193 0
170 193 0
171 195 0
170 194 0
174 197 0
171 195 0
171 193 0
171 194 0
170 192 0
170 194 0
172 195 0
170 193 0
174 197 0
170 194 0
170 193 0
166 189 0
169 193 0
172 195 0
172 195 0
171 195 0
172 195 0
170 194 0
172 195 0
170 192 0
173 196 0
169 193 0
170 194 0
173 196 0
170 192 0
174 197 0
173 196 0
173 196 0
173 196 0
171 195 0
170 193 0
171 195 0
173 196 0
173 196 0
172 195 0
172 197 0
172 195 0
174 197 0
171 195 0
172 195 0
174 197 0
170 193 0
173 197 0
170 193 0
172 194 0
172 194 0
174 197 0
170 195 0
173 196 0
171 195 0
170 194 0
173 196 0
175 198 0
173 196 0
173 195 0
172 195 0
169 192 0
174 197 0
170 194 0
173 196 0
171 195 0
174 197 0
174 197 0
173 196 0
173 196 0
174 197 0
172 195 0
173 195 0
174 197 0
175 198 0
174 198 0
173 196 0
173 196 0
174 198 0
172 194 0
172 196 0
173 196 0
173 196 0
170 194 0
173 196 0
171 195 0
171 195 0
171 194 0
172 196 0
174 197 0
174 197 0
172 195 0
173 196 0
174 196 0
174 196 0
171 194 0
172 195 0
171 194 0
173 197 0
170 193 0
172 196 0
173 197 0
172 194 0
173 196 0
174 197 0
171 195 0
172 196 0
174 197 0
174 197 0
172 196 0
172 196 0
173 197 0
172 195 0
175 198 0
174 197 0
175 198 0
171 194 0
173 196 0
174 197 0
171 196 0
174 197 0
174 196 0
173 196 0
173 196 0
171 195 0
175 198 0
173 197 0
172 196 0
172 195 0
173 197 0
173 196 0
173 195 0
173 197 0
173 196 0
173 196 0
175 197 0
173 196 0
173 196 0
173 196 0
174 197 0
171 194 0
173 196 0
173 196 0
171 194 0
172 196 0
174 197 0
173 197 0
172 196 0
172 196 0
175 197 0
172 196 0
173 196 0
172 195 0
173 196 0
172 196 0
173 196 0
172 195 0
172 196 0
172 195 0
172 195 0
171 194 0
154 175 0
156 177 0
155 176 0
153 174 0
154 175 0
153 174 0
154 175 0
154 176 0
154 175 0
153 174 0
155 175 0
155 176 0
155 176 0
154 175 0
154 175 0
155 176 0
155 176 0
152 173 0
155 176 0
153 174 0
154 176 0
154 175 0
155 176 0
156 177 0
154 175 0
154 175 0
154 175 0
155 176 0
154 175 0
153 174 0
155 176 0
155 175 0
156 177 0
155 176 0
155 175 0
152 174 0
153 175 0
154 175 0
155 175 0
154 174 0
155 175 0
156 176 0
154 174 0
154 175 0
155 175 0
154 175 0
155 176 0
156 176 0
152 174 0
155 175 0
155 175 0
154 175 0
153 174 0
154 175 0
155 175 0
154 175 0
155 176 0
154 175 0
155 175 0
153 174 0
154 176 0
154 176 0
154 175 0
154 175 0
138 159 67
51 82 140
52 82 136
52 82 135
49 79 130
50 79 131
49 79 128
49 79 132
50 81 131
49 79 135
49 78 124
45 73 125
46 75 130
48 77 136
49 78 135
46 73 124
46 74 131
47 75 128
44 71 124
45 73 124
45 73 127
46 74 129
42 69 119
44 72 127
44 71 125
45 72 126
42 68 120
44 70 124
41 66 124
41 67 120
42 68 124
42 69 126
38 63 117
36 60 111
40 65 119
35 58 109
34 57 107
37 60 112
36 60 111
34 56 113
38 62 116
36 59 110
35 58 110
34 56 110
32 53 104
33 55 108
35 57 109
53 86 154
57 91 165
59 95 170
57 92 158
58 92 165
60 96 169
59 95 168
61 97 173
60 96 171
61 98 172
62 99 176
61 97 172
61 98 174
61 98 176
61 98 172
62 99 177
60 97 174
61 99 179
62 99 180
61 98 177
61 98 178
61 98 174
61 98 179
61 99 179
61 98 176
61 98 178
60 97 172
61 98 178
62 99 179
61 98 175
62 99 178
61 98 179
61 99 180
62 99 178
61 98 178
61 98 178
62 99 179
62 99 178
61 98 179
62 99 179
61 98 179
61 98 178
61 99 181
62 99 181
61 98 174
61 99 181
61 98 178
61 98 179
61 98 178
61 98 178
61 98 178
61 97 176
61 98 177
61 98 180
61 98 178
61 99 180
61 97 176
62 99 181
61 97 174
62 99 179
61 98 178
61 98 179
61 98 177
61 98 176
61 98 179
61 98 178
60 97 174
62 99 179
61 97 177
61 97 174
61 97 174
61 97 177
61 98 171
59 94 168
60 96 170
60 96 171
61 97 171
60 97 173
60 97 168
60 96 167
60 96 169
61 98 173
61 98 169
61 97 166
60 95 158
60 96 162
61 96 161
60 97 164
85 113 142
161 184 54
173 195 0
166 190 0
167 190 0
170 194 0
171 194 0
171 195 0
170 193 0
167 191 0
170 192 0
168 192 0
171 195 0
170 194 0
168 189 0
171 194 0
170 193 0
171 194 0
172 196 0
172 195 0
171 195 0
170 193 0
169 193 0
169 192 0
171 194 0
170 194 0
168 191 0
169 192 0
170 194 0
169 192 0
169 192 0
167 192 0
170 193 0
171 194 0
168 192 0
173 195 0
167 191 0
172 195 0
170 193 0
170 192 0
167 190 0
170 193 0
170 192 0
170 193 0
172 195 0
171 193 0
168 192 0
171 194 0
171 194 0
175 196 0
169 193 0
168 191 0
170 193 0
170 192 0
173 196 0
171 194 0
170 193 0
171 193 0
170 193 0
173 196 0
169 193 0
171 194 0
171 195 0
172 196 0
172 195 0
171 194 0
172 195 0
173 196 0
171 195 0
170 194 0
173 196 0
171 193 0
170 193 0
173 197 0
172 195 0
172 196 0
174 197 0
173 196 0
171 194 0
171 194 0
172 195 0
171 195 0
172 195 0
172 196 0
172 196 0
167 191 0
172 195 0
171 194 0
172 194 0
172 195 0
173 196 0
172 196 0
173 196 0
172 195 0
174 197 0
173 196 0
174 196 0
171 194 0
173 196 0
172 195 0
170 194 0
174 197 0
175 197 0
172 195 0
174 197 0
173 196 0
171 194 0
174 197 0
171 195 0
171 194 0
174 197 0
173 196 0
173 196 0
171 194 0
173 196 0
169 194 0
174 197 0
173 196 0
171 194 0
170 194 0
170 193 0
169 192 0
173 195 0
173 196 0
173 196 0
172 195 0
173 195 0
172 195 0
172 194 0
170 194 0
172 196 0
169 193 0
173 196 0
172 195 0
173 196 0
170 194 0
173 197 0
173 196 0
174 197 0
172 195 0
174 197 0
171 195 0
174 197 0
172 196 0
173 196 0
172 195 0
174 197 0
173 197 0
174 197 0
172 196 0
172 196 0
172 195 0
174 197 0
171 195 0
174 197 0
174 197 0
173 197 0
174 197 0
173 196 0
172 196 0
174 197 0
174 197 0
175 197 0
173 196 0
173 197 0
176 198 0
172 196 0
174 197 0
174 197 0
172 196 0
173 197 0
176 198 0
172 196 0
173 196 0
172 195 0
173 196 0
172 195 0
174 197 0
173 196 0
171 195 0
172 195 0
172 196 0
172 196 0
171 195 0
174 197 0
173 196 0
171 195 0
172 195 0
172 195 0
171 195 0
173 196 0
171 195 0
171 194 0
173 195 0
172 196 0
171 195 0
172 195 0
174 196 0
173 196 0
171 195 0
172 196 0
157 178 0
156 176 0
156 176 0
155 175 0
155 176 0
154 175 0
155 176 0
155 176 0
154 175 0
154 175 0
154 175 0
154 175 0
154 175 0
155 176 0
154 175 0
155 176 0
154 175 0
152 174 0
155 176 0
156 176 0
152 174 0
153 175 0
156 176 0
155 175 0
153 174 0
154 175 0
156 176 0
155 176 0
155 175 0
154 175 0
155 175 0
154 175 0
154 176 0
154 175 0
157 177 0
155 175 0
154 176 0
153 174 0
154 176 0
154 175 0
154 175 0
154 175 0
155 176 0
154 175 0
154 176 0
153 175 0
155 175 0
155 176 0
154 175 0
153 174 0
154 175 0
155 175 0
154 175 0
156 177 0
155 176 0
154 174 0
153 174 0
155 175 0
154 175 0
153 174 0
154 175 0
154 174 0
155 176 0
154 174 0
147 168 42
50 80 122
51 81 130
48 78 128
51 82 140
51 82 134
51 82 135
48 78 131
52 82 140
49 78 130
46 75 122
49 78 128
48 78 130
47 76 129
48 77 129
48 78 134
47 76 133
46 75 130
46 74 125
46 74 128
44 71 122
41 67 117
44 71 128
44 71 126
44 71 127
42 69 117
42 68 123
43 70 128
41 66 119
41 67 118
40 65 120
38 62 113
40 65 119
39 63 119
36 59 109
38 62 116
38 62 114
37 60 112
35 58 109
35 58 111
40 65 122
33 54 105
31 51 99
33 54 102
33 55 105
31 51 99
50 81 144
56 91 159
57 92 164
58 93 162
60 96 168
58 94 164
59 96 170
60 96 168
60 96 169
60 97 172
60 96 170
61 98 175
61 98 176
61 98 174
61 97 174
61 98 178
61 98 173
61 99 179
62 99 177
63 100 179
61 98 176
61 98 176
61 98 176
61 98 173
61 98 177
62 99 179
62 99 179
61 98 178
61 99 178
61 98 178
61 98 175
62 99 178
61 98 179
62 99 179
62 99 181
61 98 178
61 98 179
61 99 181
61 98 179
61 98 175
61 98 176
60 97 176
62 99 181
62 98 177
61 98 177
60 98 179
61 98 176
62 99 178
62 99 180
61 98 178
61 99 180
61 98 180
61 98 180
61 98 179
61 98 179
62 99 180
61 98 178
61 98 175
61 98 179
61 97 176
61 97 176
61 98 178
61 98 178
61 97 175
61 98 175
61 98 178
62 98 175
60 96 174
60 97 175
60 96 172
61 97 175
61 97 175
61 98 175
60 96 173
61 98 174
61 97 173
61 98 173
60 96 173
61 98 174
60 97 168
61 98 173
61 97 168
61 97 169
60 95 166
61 97 170
61 98 171
60 96 165
60 96 167
61 97 168
60 96 161
102 128 133
165 188 31
172 195 0
172 195 0
170 194 0
172 195 0
170 193 0
170 193 0
171 194 0
171 194 0
169 192 0
169 191 0
169 192 0
170 193 0
170 192 0
169 192 0
170 193 0
170 193 0
169 192 0
168 192 0
168 191 0
168 191 0
171 194 0
171 194 0
170 192 0
173 195 0
169 193 0
171 194 0
169 192 0
169 193 0
173 196 0
167 190 0
171 194 0
173 196 0
172 194 0
170 194 0
170 194 0
171 195 0
170 193 0
172 195 0
171 193 0
168 192 0
169 193 0
171 195 0
170 193 0
167 190 0
169 192 0
171 194 0
169 192 0
173 196 0
173 196 0
171 195 0
174 197 0
170 194 0
173 196 0
169 193 0
171 193 0
169 192 0
172 195 0
172 194 0
172 195 0
172 194 0
171 194 0
173 195 0
171 195 0
166 189 0
170 193 0
171 193 0
170 193 0
172 195 0
172 195 0
173 196 0
173 196 0
173 196 0
173 196 0
172 196 0
174 197 0
169 193 0
172 195 0
169 192 0
172 195 0
172 195 0
168 192 0
173 195 0
168 191 0
174 197 0
168 191 0
172 196 0
171 195 0
174 197 0
173 196 0
173 195 0
174 197 0
171 195 0
172 195 0
171 195 0
172 196 0
170 194 0
171 194 0
170 193 0
170 194 0
174 197 0
174 197 0
171 194 0
174 197 0
174 197 0
173 196 0
174 197 0
170 194 0
170 193 0
174 197 0
171 195 0
173 196 0
172 195 0
172 195 0
175 197 0
169 193 0
172 195 0
174 197 0
170 194 0
172 194 0
173 196 0
171 195 0
175 198 0
170 193 0
172 195 0
171 194 0
173 195 0
172 196 0
174 197 0
174 198 0
172 195 0
173 197 0
172 195 0
174 198 0
173 197 0
173 196 0
172 196 0
173 196 0
173 196 0
174 197 0
172 195 0
174 197 0
172 195 0
173 197 0
175 198 0
174 197 0
173 196 0
174 197 0
174 197 0
173 195 0
173 197 0
173 197 0
174 197 0
175 197 0
174 197 0
173 196 0
175 198 0
174 197 0
173 196 0
173 196 0
173 196 0
173 197 0
173 196 0
173 196 0
173 197 0
174 197 0
173 196 0
173 196 0
171 196 0
173 196 0
173 196 0
175 198 0
173 196 0
173 196 0
173 196 0
173 196 0
174 196 0
174 197 0
173 196 0
171 195 0
174 196 0
173 196 0
172 196 0
173 196 0
173 196 0
173 196 0
172 195 0
173 196 0
173 196 0
171 195 0
172 196 0
173 196 0
174 197 0
171 196 0
173 195 0
173 195 0
172 195 0
173 196 0
172 194 0
158 180 0
155 176 0
155 176 0
155 176 0
155 176 0
156 176 0
154 175 0
155 175 0
156 176 0
155 175 0
152 174 0
154 175 0
153 175 0
156 176 0
153 175 0
155 175 0
155 176 0
154 175 0
154 175 0
154 175 0
154 174 0
155 175 0
156 176 0
155 176 0
155 176 0
154 175 0
153 174 0
155 176 0
155 176 0
155 175 0
153 174 0
154 175 0
154 175 0
151 172 0
154 175 0
153 174 0
155 175 0
154 175 0
154 175 0
155 175 0
154 175 0
155 175 0
155 175 0
155 176 0
155 175 0
155 176 0
155 176 0
155 176 0
155 175 0
154 175 0
155 175 0
155 175 0
155 176 0
153 175 0
155 175 0
154 175 0
155 175 0
152 174 0
154 175 0
154 175 0
154 174 0
154 174 0
154 175 0
153 174 0
152 174 16
50 80 128
51 81 139
52 83 139
49 79 123
50 80 131
50 80 135
50 79 132
50 80 134
49 78 133
47 75 133
47 75 130
48 76 128
48 77 121
48 77 131
46 75 128
45 72 129
45 73 122
45 73 124
45 73 126
45 73 124
45 72 128
45 73 127
43 70 122
43 69 122
40 66 115
43 69 124
41 66 121
41 66 117
43 70 124
39 64 116
40 65 117
40 65 121
39 64 121
39 63 112
36 60 108
36 59 109
35 57 109
32 52 105
31 51 101
35 58 111
33 55 111
31 51 100
30 51 100
31 51 102
49 79 143
58 93 166
55 90 159
60 95 168
59 95 168
59 95 167
60 96 170
61 97 173
60 95 163
61 97 173
61 98 175
60 97 172
61 97 172
61 98 176
61 98 175
61 98 175
60 97 170
62 99 177
61 98 175
61 98 175
61 99 179
61 98 178
61 98 174
61 99 178
61 98 177
62 99 177
62 99 178
61 98 179
61 98 176
60 98 175
62 99 180
61 98 178
62 99 179
61 98 176
61 98 179
61 98 178
61 98 177
61 98 176
61 98 176
62 99 180
61 98 177
61 98 175
61 99 179
61 98 177
62 99 177
61 98 176
61 98 175
61 98 179
61 98 178
60 98 176
61 98 178
61 97 174
62 98 175
61 98 178
62 99 180
61 97 176
61 98 176
60 97 178
61 98 179
61 98 178
61 98 177
61 98 179
62 99 181
62 98 178
60 96 175
61 96 173
61 98 176
61 97 176
61 97 175
61 97 176
60 96 173
60 96 172
60 97 173
60 97 174
61 98 175
61 97 173
60 95 170
60 97 174
59 94 164
61 97 173
60 96 170
59 95 166
60 96 169
60 96 170
60 96 167
60 96 167
61 97 169
60 95 161
59 94 162
60 95 159
60 94 160
61 96 168
109 136 141
168 191 40
168 191 0
169 192 0
169 191 0
171 194 0
172 195 0
170 193 0
170 193 0
172 196 0
171 194 0
170 194 0
172 196 0
168 190 0
169 191 0
172 196 0
167 191 0
173 196 0
172 194 0
170 193 0
167 191 0
172 195 0
169 194 0
170 194 0
168 191 0
171 194 0
168 191 0
166 190 0
168 192 0
169 193 0
171 194 0
175 196 0
169 192 0
173 196 0
170 194 0
172 196 0
170 193 0
171 194 0
171 194 0
168 191 0
169 192 0
171 193 0
171 194 0
171 194 0
170 193 0
171 194 0
173 196 0
170 193 0
171 195 0
171 193 0
171 194 0
170 194 0
170 194 0
171 194 0
170 194 0
174 197 0
172 195 0
173 197 0
172 196 0
172 195 0
174 196 0
174 196 0
170 193 0
169 191 0
171 195 0
172 195 0
172 196 0
170 193 0
171 195 0
173 196 0
172 195 0
171 194 0
171 193 0
170 193 0
171 194 0
173 196 0
172 196 0
172 195 0
172 195 0
171 195 0
175 197 0
171 195 0
169 192 0
172 194 0
171 194 0
173 196 0
168 192 0
172 196 0
173 196 0
172 195 0
174 197 0
172 195 0
173 196 0
171 194 0
171 195 0
174 196 0
172 195 0
173 195 0
171 195 0
173 196 0
172 195 0
172 197 0
172 195 0
173 196 0
172 196 0
173 197 0
173 195 0
173 195 0
172 195 0
173 196 0
171 194 0
173 196 0
172 195 0
174 197 0
170 193 0
173 197 0
173 197 0
174 197 0
173 197 0
172 195 0
174 197 0
173 197 0
172 195 0
172 195 0
173 195 0
173 197 0
173 196 0
172 196 0
174 197 0
173 196 0
171 195 0
173 197 0
171 195 0
174 197 0
175 198 0
172 196 0
174 197 0
173 196 0
173 197 0
172 196 0
172 196 0
174 197 0
174 195 0
171 195 0
172 195 0
170 193 0
173 196 0
173 196 0
172 195 0
173 195 0
175 198 0
175 198 0
172 195 0
173 196 0
173 197 0
172 196 0
173 196 0
174 197 0
172 196 0
172 196 0
174 198 0
172 196 0
174 196 0
174 197 0
174 197 0
175 197 0
174 197 0
171 195 0
172 196 0
173 196 0
173 196 0
175 198 0
173 196 0
174 197 0
175 197 0
172 196 0
172 196 0
173 196 0
174 197 0
172 195 0
173 197 0
171 195 0
172 196 0
173 196 0
173 196 0
174 196 0
171 195 0
172 195 0
172 196 0
171 195 0
174 197 0
171 194 0
172 195 0
173 196 0
173 195 0
174 197 0
171 195 0
171 195 0
172 195 0
162 185 0
154 174 0
152 174 0
155 176 0
155 176 0
155 176 0
155 176 0
155 176 0
155 176 0
154 174 0
154 175 0
155 176 0
156 176 0
155 175 0
155 176 0
154 174 0
155 176 0
153 174 0
155 175 0
152 173 0
154 175 0
154 175 0
155 176 0
155 175 0
154 175 0
154 175 0
154 175 0
153 174 0
154 175 0
153 175 0
154 175 0
154 175 0
154 175 0
154 175 0
157 177 0
154 175 0
154 175 0
153 175 0
154 175 0
154 175 0
154 175 0
154 176 0
154 175 0
156 176 0
155 176 0
154 175 0
155 176 0
155 175 0
154 175 0
154 175 0
155 176 0
156 176 0
154 175 0
155 175 0
153 174 0
154 175 0
154 176 0
152 173 0
155 175 0
154 174 0
154 175 0
155 175 0
155 175 0
155 176 0
156 176 0
61 89 124
52 83 134
49 79 128
51 81 124
48 78 131
51 81 128
49 79 131
51 81 136
48 77 125
49 79 130
45 73 126
48 77 127
49 78 133
48 77 128
46 74 123
47 76 130
45 73 124
46 74 127
44 72 117
44 71 119
39 64 112
41 66 115
41 67 120
42 68 120
42 68 121
42 67 118
41 67 123
40 66 120
40 65 116
41 66 120
37 61 117
40 65 117
37 61 116
38 62 112
33 55 107
37 61 114
37 60 111
35 58 105
34 56 107
33 56 108
31 52 98
32 54 104
30 50 97
44 72 129
56 90 164
57 92 162
58 92 161
59 94 168
60 96 174
60 97 171
59 96 169
60 96 169
61 97 170
60 97 171
61 98 172
61 97 170
60 97 174
61 98 174
61 98 174
61 98 173
61 98 172
61 98 173
61 98 177
62 99 176
62 99 177
61 98 176
61 98 176
61 98 173
61 98 175
62 99 178
61 98 174
61 98 174
62 99 176
62 99 180
61 98 177
62 99 180
61 99 177
62 99 178
61 98 179
61 98 175
61 98 177
61 98 178
62 99 176
61 98 177
61 98 177
61 98 179
61 98 179
61 98 179
62 99 179
61 98 178
61 98 175
62 99 178
61 98 177
61 98 176
61 98 175
61 97 176
61 99 180
61 98 179
61 97 175
61 98 176
61 98 178
60 97 175
61 97 175
61 97 174
61 98 178
60 96 174
61 98 178
61 97 176
61 97 175
60 96 173
61 97 172
61 98 175
60 97 175
61 97 172
60 96 172
60 96 170
61 98 176
61 97 174
60 96 171
60 96 172
61 97 172
62 98 174
60 95 168
60 96 170
60 95 171
59 94 163
60 95 164
60 95 165
60 96 164
60 95 166
61 96 169
60 96 168
60 95 162
60 95 160
60 95 160
60 96 159
61 97 163
111 138 133
169 192 0
170 192 0
171 194 0
171 192 0
169 192 0
170 193 0
168 192 0
169 192 0
168 190 0
172 194 0
168 191 0
168 191 0
168 191 0
173 196 0
168 192 0
171 194 0
170 192 0
171 194 0
170 194 0
170 194 0
166 189 0
172 194 0
171 194 0
165 189 0
169 193 0
170 194 0
172 194 0
172 194 0
170 193 0
165 188 0
172 195 0
171 194 0
169 193 0
169 191 0
169 193 0
171 195 0
172 195 0
170 194 0
171 193 0
170 193 0
170 193 0
169 193 0
169 192 0
168 191 0
167 191 0
169 192 0
172 195 0
173 196 0
170 193 0
171 194 0
170 193 0
171 194 0
168 191 0
170 193 0
170 194 0
173 196 0
171 194 0
171 194 0
171 194 0
171 195 0
166 189 0
172 195 0
172 196 0
169 192 0
170 194 0
172 196 0
167 190 0
170 193 0
172 196 0
171 195 0
171 194 0
166 190 0
170 193 0
171 195 0
171 195 0
174 197 0
169 193 0
173 197 0
167 190 0
174 197 0
170 195 0
172 195 0
173 196 0
171 194 0
169 192 0
171 195 0
173 196 0
171 194 0
174 197 0
170 194 0
171 194 0
172 195 0
172 196 0
172 196 0
174 196 0
172 196 0
170 194 0
171 196 0
171 195 0
171 195 0
171 195 0
172 196 0
168 192 0
172 195 0
172 195 0
174 197 0
170 193 0
175 198 0
171 194 0
170 193 0
173 196 0
171 194 0
170 194 0
170 193 0
172 195 0
171 195 0
173 196 0
172 196 0
173 196 0
172 194 0
170 194 0
173 196 0
172 195 0
170 194 0
173 196 0
171 195 0
171 195 0
173 197 0
173 196 0
173 197 0
172 195 0
170 194 0
175 197 0
174 197 0
173 197 0
173 196 0
174 197 0
174 196 0
174 197 0
173 196 0
171 194 0
173 196 0
173 197 0
171 195 0
174 198 0
170 194 0
174 197 0
172 196 0
172 196 0
173 197 0
173 196 0
174 197 0
173 197 0
173 196 0
173 196 0
174 197 0
171 195 0
172 197 0
173 196 0
174 198 0
173 197 0
173 196 0
173 196 0
173 197 0
173 196 0
172 196 0
173 196 0
174 197 0
173 196 0
174 197 0
173 196 0
172 196 0
174 197 0
170 194 0
172 195 0
173 196 0
172 195 0
173 196 0
170 194 0
170 194 0
173 196 0
172 195 0
173 196 0
173 196 0
171 194 0
172 196 0
172 195 0
171 195 0
172 195 0
171 195 0
171 195 0
171 194 0
172 195 0
172 195 0
172 196 0
172 196 0
173 195 0
167 190 0
155 175 0
154 175 0
155 176 0
155 175 0
155 175 0
154 175 0
155 175 0
156 176 0
153 175 0
153 175 0
154 175 0
154 174 0
154 175 0
156 176 0
154 175 0
154 175 0
156 176 0
154 175 0
156 176 0
153 174 0
156 176 0
155 176 0
154 175 0
155 176 0
155 175 0
155 176 0
155 176 0
153 174 0
155 175 0
153 174 0
154 175 0
154 175 0
155 175 0
155 176 0
155 176 0
157 176 0
155 175 0
155 176 0
153 174 0
154 175 0
153 175 0
154 175 0
154 175 0
153 174 0
154 175 0
155 175 0
154 175 0
155 175 0
154 175 0
156 176 0
154 174 0
153 174 0
154 175 0
154 175 0
153 174 0
153 173 0
155 176 0
155 176 0
156 176 0
154 175 0
156 176 0
154 175 0
152 173 0
154 174 0
78 103 116
50 80 129
51 81 135
49 79 131
51 82 139
49 79 125
48 77 124
47 75 123
49 78 128
46 75 125
49 78 125
48 77 121
45 73 121
44 71 121
46 74 119
44 71 120
46 74 127
44 71 114
44 70 122
46 74 130
46 74 126
44 71 119
45 72 120
43 70 121
40 65 120
41 67 116
42 68 119
37 61 103
39 63 114
39 63 115
40 66 118
39 64 117
38 62 115
34 56 104
39 64 117
34 56 105
36 58 109
37 60 112
32 54 106
30 50 97
31 53 104
31 52 99
45 73 132
55 89 158
58 93 160
58 94 165
59 94 164
59 94 163
60 97 168
59 95 161
60 96 164
61 97 169
60 97 173
60 97 171
61 98 173
61 97 172
61 97 172
62 98 173
62 98 174
61 97 169
62 99 176
61 98 177
61 98 175
61 98 176
62 98 175
61 98 173
61 98 174
61 98 175
61 98 177
61 98 173
61 98 172
61 98 173
61 98 176
61 98 177
61 98 175
62 98 176
61 98 178
61 98 180
61 98 176
61 98 179
61 98 175
61 98 178
61 99 179
61 98 174
61 98 179
61 98 179
61 98 178
61 98 175
62 99 179
62 98 177
61 98 180
61 99 179
61 99 180
61 98 177
61 97 175
62 99 178
62 99 178
61 98 179
61 98 176
61 97 176
62 99 179
61 98 180
60 96 173
60 97 178
60 96 174
61 98 177
61 97 174
61 98 176
61 97 175
60 96 173
61 97 177
61 97 174
61 97 174
60 97 173
60 95 170
61 96 171
61 97 175
60 95 169
60 97 174
61 97 170
61 97 174
61 98 175
61 97 170
59 95 171
61 97 174
58 93 164
60 95 168
59 95 166
60 95 161
60 96 168
60 95 166
60 96 165
60 95 163
59 93 151
61 97 169
59 94 155
60 96 163
61 96 156
130 154 112
167 191 0
167 191 0
165 188 0
171 194 0
168 191 0
168 192 0
169 193 0
172 195 0
171 193 0
171 193 0
166 189 0
168 191 0
172 194 0
170 194 0
171 194 0
169 192 0
168 191 0
171 195 0
171 195 0
170 193 0
171 194 0
171 195 0
167 190 0
169 192 0
172 196 0
171 194 0
167 191 0
169 193 0
170 193 0
171 194 0
173 196 0
170 193 0
169 193 0
171 194 5
164 183 14
156 172 13
157 170 29
155 169 28
142 153 20
146 158 24
143 147 37
137 140 27
138 140 37
131 135 32
136 135 31
140 139 48
141 142 47
131 130 33
136 129 42
139 138 40
144 143 40
140 144 32
144 149 35
142 152 30
148 155 34
150 164 26
158 175 20
158 176 12
165 186 0
169 191 5
173 196 0
171 195 0
170 193 0
172 195 0
171 195 0
172 195 0
171 194 0
169 192 0
170 192 0
171 193 0
168 191 0
173 197 0
171 194 0
171 195 0
168 190 0
171 195 0
172 196 0
170 192 0
173 196 0
174 197 0
172 196 0
170 193 0
172 195 0
171 193 0
171 195 0
172 196 0
173 196 0
173 196 0
173 196 0
169 193 0
171 194 0
171 195 0
173 196 0
172 195 0
173 195 0
173 196 0
171 194 0
172 195 0
173 197 0
174 196 0
172 196 0
172 196 0
170 194 0
172 196 0
173 195 0
173 196 0
171 194 0
173 197 0
172 196 0
173 195 0
174 197 0
173 196 0
171 195 0
172 196 0
173 197 0
173 196 0
173 196 0
173 196 0
174 197 0
171 194 0
170 193 0
173 196 0
173 197 0
172 195 0
174 197 0
171 195 0
171 195 0
172 195 0
173 196 0
172 196 0
171 195 0
172 196 0
174 197 0
171 194 0
173 196 0
172 196 0
173 196 0
173 196 0
174 196 0
174 198 0
171 194 0
173 196 0
172 196 0
176 197 0
171 195 0
172 196 0
173 197 0
174 197 0
174 197 0
174 198 0
172 196 0
174 197 0
174 197 0
172 196 0
174 197 0
172 196 0
172 196 0
171 195 0
173 196 0
172 196 0
173 196 0
174 197 0
173 197 0
175 197 0
174 197 0
173 196 0
171 195 0
173 196 0
172 196 0
172 195 0
172 195 0
171 195 0
172 195 0
174 197 0
174 196 0
174 197 0
172 195 0
172 195 0
173 196 0
173 196 0
173 196 0
174 197 0
172 195 0
172 195 0
172 195 0
172 196 0
171 194 0
173 196 0
172 195 0
174 197 0
171 195 0
168 192 0
172 196 0
172 195 0
172 195 0
172 195 0
168 191 0
155 176 0
153 174 0
156 176 0
154 175 0
152 174 0
154 175 0
155 176 0
156 176 0
154 175 0
154 174 0
155 176 0
154 174 0
155 176 0
152 174 0
154 174 0
153 174 0
156 176 0
155 176 0
154 175 0
156 176 0
154 175 0
154 175 0
155 175 0
154 174 0
155 176 0
153 174 0
154 175 0
154 175 0
156 177 0
154 175 0
153 175 0
153 174 0
155 176 0
153 174 0
154 175 0
154 175 0
152 173 0
154 175 0
153 174 0
155 175 0
155 176 0
153 175 0
154 175 0
154 175 0
153 175 0
154 175 0
154 174 0
156 176 0
154 175 0
153 175 0
154 175 0
153 175 0
153 174 0
155 176 0
153 175 0
154 174 0
155 176 0
155 175 0
155 176 0
155 176 0
156 176 0
153 174 0
153 173 0
153 173 0
86 111 120
50 80 132
49 78 126
51 82 135
48 77 120
50 79 130
48 76 123
49 78 130
51 80 136
48 77 121
48 77 129
46 74 124
47 76 122
48 76 131
45 73 123
46 73 120
43 70 122
45 72 123
44 71 118
45 73 125
43 69 119
42 69 122
40 65 109
42 69 116
40 66 118
42 69 122
41 67 119
40 66 120
38 63 109
37 61 109
39 63 111
38 62 115
37 60 109
33 54 99
35 57 108
32 54 102
31 52 100
34 56 105
33 55 106
34 56 107
29 49 93
39 64 113
54 88 155
57 92 160
57 91 159
60 96 167
60 96 167
59 94 169
60 96 166
60 96 169
61 97 168
60 97 168
61 97 169
61 98 175
61 98 173
62 99 176
60 97 170
61 97 173
61 98 172
60 97 172
62 98 174
61 98 176
61 98 170
61 98 174
61 98 177
61 99 180
61 98 174
62 99 178
61 98 177
61 98 177
61 98 174
61 98 174
62 99 178
62 99 179
61 99 178
61 98 175
61 98 178
61 98 175
62 99 180
61 98 176
60 97 177
61 98 177
61 98 178
62 99 179
62 99 179
62 99 179
62 99 178
62 99 180
62 99 179
62 98 178
61 98 181
61 98 174
62 98 178
62 99 178
61 98 179
61 98 178
62 99 178
61 98 178
61 98 176
61 98 179
60 96 172
61 98 178
60 98 179
60 97 175
61 97 174
59 94 169
60 97 176
61 97 174
60 96 172
61 98 178
59 95 169
60 96 172
61 97 174
60 95 169
60 96 173
60 95 170
61 98 176
61 97 174
60 95 171
60 96 170
61 98 175
60 96 169
58 93 164
61 96 171
60 95 167
60 95 165
60 95 170
59 94 169
59 94 167
60 96 168
60 95 163
60 95 163
61 96 168
59 94 152
60 95 161
59 93 154
60 95 161
61 96 159
65 100 166
144 168 85
172 194 0
170 193 0
172 195 0
170 193 0
168 192 0
173 196 0
167 190 0
173 196 0
170 194 0
171 195 0
172 194 0
168 191 0
168 191 0
171 194 0
170 194 0
169 192 0
171 194 0
171 193 0
170 193 0
170 193 0
167 191 0
170 192 0
169 193 0
168 191 0
169 192 0
165 187 11
163 180 27
154 164 25
144 149 35
134 136 33
123 120 34
123 111 42
124 107 52
125 108 57
117 96 44
126 107 55
117 96 44
117 100 51
120 100 51
112 92 41
106 90 40
114 95 47
110 93 44
114 96 43
120 98 45
118 101 48
114 91 39
119 98 39
126 105 52
118 101 47
112 93 43
107 88 36
123 101 48
123 102 49
108 88 32
115 96 48
109 88 38
120 99 46
115 96 49
122 105 41
121 117 38
134 133 39
145 150 29
147 155 32
157 173 21
163 182 16
170 193 0
173 196 0
173 196 0
174 197 0
173 196 0
169 193 0
173 196 0
172 195 0
173 197 0
170 194 0
172 196 0
172 195 0
173 196 0
174 196 0
172 195 0
172 195 0
170 193 0
173 196 0
172 196 0
173 196 0
174 197 0
171 195 0
170 193 0
172 195 0
171 194 0
169 192 0
173 196 0
170 192 0
173 196 0
174 197 0
172 195 0
173 196 0
173 196 0
172 195 0
170 193 0
172 196 0
171 194 0
171 194 0
174 197 0
172 196 0
173 195 0
171 195 0
173 196 0
172 196 0
174 197 0
172 196 0
173 196 0
172 196 0
174 197 0
173 196 0
172 195 0
172 196 0
173 197 0
172 196 0
173 196 0
173 196 0
174 197 0
174 198 0
169 193 0
173 196 0
172 195 0
172 196 0
171 195 0
171 195 0
172 196 0
172 196 0
174 197 0
172 196 0
173 195 0
171 194 0
170 195 0
174 198 0
171 194 0
172 195 0
174 197 0
175 197 0
173 195 0
173 196 0
174 196 0
173 196 0
173 197 0
174 198 0
173 195 0
169 193 0
169 193 0
173 196 0
173 197 0
172 195 0
173 197 0
176 198 0
171 196 0
175 198 0
173 196 0
172 196 0
173 196 0
173 196 0
174 197 0
174 197 0
172 196 0
173 196 0
172 196 0
173 196 0
172 195 0
172 195 0
173 196 0
172 195 0
173 196 0
175 198 0
175 197 0
172 195 0
173 196 0
172 196 0
174 197 0
171 195 0
172 196 0
172 195 0
173 196 0
171 195 0
174 196 0
174 196 0
171 194 0
172 195 0
172 195 0
171 194 0
173 195 0
172 195 0
172 195 0
173 195 0
171 195 0
171 195 0
155 176 0
155 175 0
153 174 0
154 175 0
155 176 0
154 175 0
154 175 0
155 175 0
154 175 0
155 176 0
154 174 0
153 174 0
154 175 0
155 175 0
154 175 0
154 174 0
154 175 0
155 175 0
154 175 0
155 176 0
153 175 0
154 174 0
155 176 0
154 175 0
155 176 0
155 176 0
154 175 0
155 175 0
154 175 0
154 175 0
155 176 0
152 173 0
155 176 0
154 176 0
155 175 0
156 176 0
155 176 0
155 175 0
153 174 0
154 175 0
153 174 0
154 175 0
154 176 0
154 175 0
155 176 0
154 174 0
156 176 0
155 175 0
155 175 0
153 175 0
154 175 0
154 174 0
153 174 0
153 175 0
154 174 0
154 175 0
154 175 0
154 175 0
153 174 0
155 175 0
155 176 0
154 174 0
154 175 0
153 174 0
98 121 110
51 81 134
51 81 134
51 82 134
50 80 123
52 82 135
49 79 129
47 76 122
49 78 131
47 74 118
47 76 127
43 70 114
47 75 124
48 77 131
48 76 130
45 72 118
47 76 127
44 71 114
44 71 120
46 74 124
42 69 120
43 70 120
40 66 115
44 70 122
42 68 115
43 69 124
41 67 119
40 65 113
39 64 111
40 65 117
38 62 113
38 62 112
37 61 112
35 56 105
37 60 111
34 56 104
35 58 109
31 52 100
33 55 108
27 45 92
33 54 103
53 85 150
58 92 166
58 93 162
58 93 164
59 95 165
58 94 160
60 96 166
60 96 172
59 95 165
60 95 166
61 97 172
61 97 171
60 97 171
61 98 172
61 98 171
60 97 166
61 98 173
62 98 176
62 99 174
61 98 174
61 98 173
61 98 175
61 98 172
61 98 174
62 99 176
62 99 178
61 98 174
61 98 171
61 98 176
62 99 175
61 98 173
61 98 177
61 98 176
61 98 171
61 98 177
61 98 174
61 98 176
62 99 179
61 98 173
62 99 177
61 99 178
62 99 179
62 99 179
61 98 176
61 99 179
61 98 177
61 98 179
61 98 177
61 98 178
61 99 179
61 98 178
61 98 175
62 99 177
61 98 174
62 99 178
61 98 177
62 98 178
61 98 176
61 98 177
61 97 175
60 96 174
61 97 175
61 98 176
60 96 172
61 98 178
60 97 176
61 98 178
60 96 172
60 96 170
60 95 167
60 96 170
61 97 175
60 96 172
61 97 172
61 98 178
60 96 172
61 96 172
61 96 173
60 96 170
60 96 172
59 94 164
61 96 171
59 95 170
59 94 166
59 94 164
60 96 170
61 97 172
59 94 165
59 94 160
59 93 160
60 94 161
60 95 164
59 94 161
60 95 161
60 95 163
60 96 163
60 95 157
60 94 153
79 109 150
162 185 51
167 190 0
167 190 0
167 190 0
172 195 0
170 193 0
168 191 0
167 190 0
169 192 0
169 194 0
171 195 0
170 193 0
171 194 0
173 196 0
171 194 0
170 194 0
171 193 0
169 191 0
168 191 0
170 193 0
166 188 11
159 176 24
143 154 26
134 136 33
119 107 35
109 89 41
115 95 42
119 101 44
110 93 45
114 98 47
116 94 43
118 96 43
110 89 43
114 94 43
120 99 43
111 90 41
114 94 45
112 92 45
120 101 45
109 87 35
108 87 38
113 93 39
119 98 45
116 97 45
115 97 45
115 96 43
117 93 37
115 94 47
112 93 41
107 88 43
117 97 45
112 93 44
121 100 47
116 97 48
118 98 45
115 94 42
121 102 41
120 99 46
119 101 45
127 108 53
117 95 40
117 99 45
116 95 42
113 97 48
122 102 48
121 100 45
115 97 42
137 129 53
146 148 49
148 157 27
152 168 16
168 188 19
169 192 0
173 196 0
169 193 0
170 194 0
169 192 0
170 193 0
168 192 0
171 194 0
171 193 0
172 194 0
172 194 0
171 194 0
173 196 0
173 196 0
171 195 0
175 197 0
171 194 0
173 197 0
171 194 0
171 195 0
171 194 0
173 195 0
174 197 0
171 195 0
171 195 0
173 196 0
173 195 0
171 195 0
172 195 0
172 195 0
174 196 0
174 197 0
173 196 0
173 196 0
173 196 0
171 195 0
175 197 0
172 194 0
172 195 0
172 195 0
170 194 0
173 196 0
174 196 0
173 196 0
173 196 0
172 196 0
174 196 0
172 195 0
172 195 0
174 197 0
174 196 0
173 197 0
172 196 0
171 194 0
172 195 0
171 194 0
172 196 0
174 197 0
170 194 0
173 196 0
173 197 0
174 196 0
173 196 0
172 195 0
172 194 0
173 197 0
173 196 0
174 197 0
172 194 0
173 196 0
171 194 0
173 195 0
176 199 0
173 196 0
171 194 0
172 195 0
173 196 0
173 197 0
173 196 0
173 196 0
172 196 0
172 196 0
174 197 0
172 196 0
173 196 0
171 195 0
172 196 0
173 196 0
172 195 0
171 195 0
173 197 0
173 196 0
172 196 0
171 195 0
173 196 0
173 196 0
173 196 0
173 196 0
172 196 0
172 196 0
174 197 0
173 196 0
170 195 0
173 196 0
173 197 0
171 195 0
173 195 0
172 195 0
172 195 0
172 195 0
171 195 0
172 195 0
173 197 0
174 196 0
173 195 0
171 194 0
172 195 0
171 194 0
171 195 0
170 193 0
171 194 0
173 196 0
171 194 0
171 194 0
159 180 0
155 176 0
153 174 0
154 174 0
154 175 0
155 176 0
155 176 0
154 175 0
153 174 0
153 175 0
156 176 0
153 174 0
153 174 0
154 175 0
154 175 0
154 175 0
154 175 0
156 176 0
154 175 0
154 175 0
154 175 0
154 174 0
153 174 0
155 176 0
154 175 0
155 175 0
153 174 0
156 176 0
155 175 0
154 174 0
154 175 0
153 174 0
156 176 0
154 175 0
155 175 0
154 174 0
154 175 0
154 175 0
154 174 0
153 174 0
155 176 0
154 175 0
155 175 0
153 174 0
154 175 0
154 174 0
155 176 0
155 176 0
154 175 0
155 175 0
154 175 0
152 173 0
154 174 0
154 174 0
154 175 0
153 174 0
154 175 0
154 174 0
154 175 0
154 175 0
153 174 0
154 175 0
153 174 0
153 174 0
111 134 91
50 80 134
50 80 121
51 80 129
50 79 125
49 79 127
48 77 119
50 81 129
49 78 125
47 76 126
47 76 122
48 77 125
48 76 124
46 74 123
46 74 126
46 74 127
44 71 117
45 72 122
44 71 118
43 69 120
44 71 121
46 73 125
41 67 113
41 66 114
39 64 112
41 67 117
41 66 114
38 63 114
38 62 112
37 61 109
38 62 111
38 61 110
33 55 96
36 58 106
29 49 93
31 52 100
32 53 97
29 48 92
35 57 107
31 51 99
49 79 138
54 88 149
59 94 165
57 91 156
58 94 166
60 96 172
60 95 172
61 97 165
60 96 167
60 96 160
61 97 173
61 97 168
60 96 170
61 97 173
61 97 169
61 98 173
61 97 168
61 97 170
62 98 175
61 98 174
61 98 172
61 97 172
62 99 177
61 98 174
61 98 173
62 98 172
62 99 179
61 98 176
62 99 178
61 98 175
61 98 176
61 98 176
62 98 174
62 99 178
61 98 174
61 98 174
62 99 178
62 98 177
61 97 173
62 99 179
61 98 177
61 99 178
61 98 177
61 98 176
61 98 174
61 98 179
62 99 180
62 99 177
61 98 177
61 97 175
61 98 175
62 99 178
61 98 177
61 97 174
61 98 179
61 97 175
61 98 178
61 98 176
61 98 178
61 97 175
60 97 175
62 98 177
61 98 178
61 97 175
61 98 176
61 97 176
62 98 175
61 97 176
61 96 172
60 95 169
61 97 172
61 97 175
59 94 165
61 97 175
60 96 173
60 97 175
59 94 167
60 95 169
58 93 167
60 96 171
59 95 169
60 96 170
59 94 166
60 95 166
59 93 162
60 95 163
60 96 171
60 96 170
58 92 155
59 95 167
60 95 166
60 95 165
59 94 162
59 94 162
59 93 158
60 95 167
60 94 159
60 94 158
59 93 153
60 96 156
103 130 124
168 192 0
172 195 0
170 194 0
170 193 0
169 191 0
171 193 0
171 195 0
169 193 0
172 194 0
171 194 0
167 191 0
168 191 0
170 192 0
169 191 0
170 192 0
167 189 0
157 172 17
142 145 39
122 113 42
110 91 37
115 98 44
110 89 40
113 92 41
122 103 49
113 94 40
112 91 42
105 88 37
114 96 43
124 105 52
102 83 38
108 89 40
116 97 46
117 97 45
119 100 49
113 94 45
109 89 42
111 88 39
116 96 47
115 97 42
114 93 37
120 102 48
116 97 44
110 87 37
114 94 40
107 88 39
117 97 43
109 89 41
116 96 45
113 91 40
123 103 49
119 98 43
107 89 40
111 91 39
112 92 40
112 91 40
119 99 48
118 99 50
120 102 50
115 96 46
107 87 40
126 105 51
117 97 45
121 102 48
115 93 38
111 92 37
114 95 44
110 92 42
105 87 40
120 100 45
114 93 45
114 94 41
126 113 41
130 128 39
151 162 28
161 179 20
171 193 2
172 195 0
171 194 0
169 193 0
173 196 0
172 195 0
171 194 0
173 195 0
171 194 0
171 195 0
172 195 0
171 195 0
173 196 0
172 194 0
171 194 0
172 195 0
171 194 0
171 194 0
171 194 0
172 195 0
169 193 0
172 196 0
172 196 0
171 195 0
174 197 0
172 196 0
169 192 0
170 194 0
171 194 0
170 194 0
171 194 0
171 194 0
171 194 0
173 196 0
172 195 0
169 193 0
172 195 0
172 195 0
174 197 0
173 196 0
173 195 0
174 197 0
174 197 0
171 195 0
169 192 0
174 197 0
172 195 0
171 194 0
173 197 0
173 196 0
173 197 0
171 195 0
172 196 0
173 196 0
172 195 0
170 193 0
173 197 0
175 198 0
173 196 0
173 196 0
172 195 0
175 197 0
172 194 0
172 194 0
171 195 0
172 196 0
175 198 0
170 194 0
173 196 0
170 194 0
171 194 0
174 197 0
172 194 0
172 194 0
171 195 0
174 197 0
173 196 0
173 196 0
173 196 0
174 197 0
174 197 0
173 196 0
172 196 0
171 195 0
173 196 0
172 195 0
173 196 0
171 195 0
174 197 0
173 196 0
172 196 0
172 196 0
172 196 0
172 196 0
173 196 0
173 196 0
173 195 0
174 197 0
172 195 0
172 195 0
173 196 0
173 196 0
173 197 0
170 194 0
172 195 0
170 194 0
173 196 0
172 196 0
171 195 0
173 196 0
173 195 0
171 195 0
170 193 0
174 197 0
170 194 0
172 195 0
173 196 0
172 196 0
172 195 0
173 196 0
162 183 0
155 176 0
154 175 0
155 176 0
154 175 0
154 174 0
154 174 0
153 174 0
156 176 0
155 175 0
155 176 0
154 174 0
154 174 0
154 174 0
156 176 0
155 175 0
154 174 0
155 176 0
155 176 0
154 175 0
154 175 0
156 176 0
154 175 0
154 175 0
155 176 0
155 176 0
154 175 0
154 175 0
154 175 0
154 175 0
156 176 0
153 174 0
154 175 0
155 175 0
154 175 0
154 175 0
153 174 0
153 173 0
155 175 0
154 175 0
154 175 0
155 175 0
153 174 0
154 175 0
154 174 0
154 175 0
154 174 0
154 174 0
154 175 0
155 175 0
153 174 0
154 175 0
155 176 0
154 175 0
152 173 0
153 174 0
154 174 0
154 174 0
154 175 0
153 174 0
153 174 0
153 174 0
155 175 0
153 174 0
135 156 68
51 81 131
50 79 120
49 79 121
49 79 126
49 79 124
47 76 121
48 77 124
47 75 119
48 78 125
47 76 122
49 77 124
45 73 121
46 74 123
45 73 122
47 75 128
44 71 116
46 73 125
43 69 114
41 66 109
44 71 119
42 68 111
42 68 115
39 64 113
40 66 113
39 63 107
40 65 113
39 63 109
38 62 107
41 66 111
38 62 110
31 52 97
38 62 111
37 61 112
32 53 101
32 53 96
27 45 86
33 54 103
31 50 95
40 66 119
55 89 153
57 91 152
58 93 160
57 92 161
59 94 166
59 95 166
59 94 169
60 96 171
60 96 164
60 96 166
60 96 168
60 96 169
60 96 170
61 97 166
60 97 172
61 98 171
62 98 174
61 98 170
61 97 172
61 98 171
62 99 175
61 98 172
61 98 174
61 98 176
62 99 174
61 98 176
61 98 171
62 99 179
61 98 176
61 98 175
61 98 178
62 99 178
62 99 178
61 98 178
61 98 176
61 98 174
61 98 177
61 98 175
61 98 178
62 99 178
61 97 170
61 98 178
62 99 178
61 98 176
61 98 174
61 98 172
61 98 175
62 99 179
61 99 179
61 98 176
61 97 170
61 97 175
61 98 177
61 98 179
61 98 177
61 98 177
61 97 174
61 97 171
61 98 172
61 98 176
60 97 173
60 97 175
61 98 173
60 96 172
61 98 176
60 96 173
59 95 171
61 97 174
61 97 173
60 96 172
59 95 169
61 97 177
60 96 172
60 95 169
60 95 172
59 94 168
60 96 172
60 95 169
59 95 170
60 95 168
59 94 169
60 96 172
59 93 164
59 94 166
58 92 159
59 94 166
59 94 165
59 93 161
59 94 160
58 93 162
60 94 160
59 93 155
57 91 156
60 94 159
60 95 166
59 94 158
59 93 151
60 94 156
60 95 157
60 95 154
59 95 154
132 157 113
167 190 0
169 192 0
167 189 0
172 195 0
170 192 0
169 192 0
167 190 0
170 194 0
167 190 0
169 192 0
171 194 0
160 179 16
149 158 33
130 128 42
115 95 42
114 94 45
102 83 39
103 82 38
108 88 38
105 84 41
120 101 52
115 97 49
119 99 43
110 92 41
109 88 36
108 89 40
101 84 35
112 94 43
105 83 28
113 93 43
116 97 44
111 89 32
124 105 49
113 94 38
110 91 37
109 91 42
110 91 44
118 97 44
119 98 39
115 95 42
119 101 44
112 94 43
118 98 44
117 100 48
114 95 41
106 86 36
120 99 42
109 89 39
122 102 47
118 102 52
109 86 34
114 92 41
114 93 41
114 94 41
123 103 46
111 89 35
109 89 36
116 97 43
110 91 38
118 99 44
124 104 42
122 103 48
103 84 32
120 98 46
121 102 47
118 100 48
113 92 38
114 96 48
105 82 33
121 102 52
109 87 38
122 103 51
110 89 37
124 105 52
121 104 46
128 126 33
150 158 36
163 180 17
173 197 0
172 195 0
171 194 0
170 192 0
171 194 0
172 195 0
171 194 0
170 193 0
173 195 0
171 194 0
171 194 0
172 196 0
170 193 0
170 194 0
174 197 0
172 195 0
173 196 0
171 194 0
172 195 0
168 191 0
173 195 0
171 194 0
172 196 0
172 196 0
174 196 0
172 195 0
170 193 0
171 195 0
174 197 0
172 196 0
171 195 0
172 195 0
172 195 0
171 194 0
170 194 0
171 195 0
173 195 0
174 197 0
170 194 0
171 194 0
172 195 0
175 197 0
173 197 0
172 195 0
173 196 0
173 196 0
172 195 0
173 197 0
172 195 0
174 196 0
173 195 0
173 196 0
171 194 0
174 197 0
174 197 0
175 197 0
176 198 0
173 195 0
169 193 0
172 196 0
174 197 0
173 196 0
172 196 0
173 196 0
171 194 0
173 196 0
172 196 0
171 194 0
171 194 0
172 196 0
170 193 0
172 196 0
173 197 0
173 196 0
172 196 0
173 197 0
172 196 0
173 196 0
173 196 0
172 196 0
173 196 0
172 196 0
173 196 0
171 195 0
174 197 0
172 196 0
170 194 0
174 197 0
173 196 0
172 195 0
173 196 0
172 195 0
171 195 0
173 196 0
172 196 0
173 196 0
172 195 0
173 196 0
173 196 0
172 196 0
172 195 0
171 195 0
172 194 0
172 195 0
172 195 0
171 194 0
171 194 0
173 195 0
170 193 0
171 194 0
171 194 0
171 195 0
171 194 0
170 193 0
171 194 0
169 193 0
165 188 0
154 175 0
154 175 0
155 176 0
156 176 0
152 173 0
156 176 0
153 174 0
154 175 0
155 176 0
154 175 0
155 176 0
154 175 0
155 176 0
153 174 0
154 175 0
153 174 0
155 176 0
153 174 0
154 175 0
152 174 0
154 175 0
155 176 0
154 175 0
154 175 0
156 176 0
156 176 0
154 175 0
154 175 0
155 175 0
155 175 0
155 176 0
155 176 0
154 174 0
155 175 0
155 175 0
154 174 0
153 174 0
153 174 0
154 175 0
154 174 0
154 175 0
154 175 0
154 174 0
151 172 0
153 175 0
155 175 0
155 176 0
154 174 0
154 175 0
154 175 0
153 174 0
155 175 0
154 175 0
155 176 0
155 176 0
152 173 0
153 174 0
155 175 0
155 175 0
153 175 0
153 174 0
153 174 0
154 175 0
138 158 64
48 77 120
50 80 125
49 78 121
52 82 132
49 78 128
48 77 125
49 78 131
46 75 121
48 76 129
48 77 129
47 75 115
45 73 120
45 73 120
44 71 118
46 73 123
45 72 121
46 73 122
40 66 111
45 72 116
40 65 112
40 64 112
41 66 117
41 66 110
38 63 110
36 59 102
38 62 102
39 63 105
35 58 105
38 62 111
37 60 105
33 55 102
37 61 107
31 52 98
31 51 97
31 52 97
30 50 94
29 48 91
31 51 95
55 88 156
58 92 156
57 92 159
59 94 166
59 95 163
59 95 166
58 93 158
61 97 172
60 96 165
60 96 163
61 97 169
60 96 165
61 98 169
61 98 173
61 97 169
61 97 173
61 98 172
61 98 173
62 98 172
61 98 172
62 98 171
61 98 175
61 98 171
61 98 171
61 98 175
61 97 168
61 98 174
61 98 169
61 98 173
62 99 176
61 98 179
62 99 178
62 99 176
61 98 172
62 99 177
61 98 176
61 98 176
62 98 175
61 98 175
61 99 178
60 97 170
62 98 176
61 98 175
61 98 174
61 98 176
61 98 177
61 99 177
61 98 174
61 98 175
61 98 175
62 99 178
62 98 172
61 98 177
61 98 178
60 96 171
61 98 176
61 98 178
60 97 175
61 97 176
61 97 177
61 98 177
61 98 177
61 97 175
61 97 173
61 98 174
61 97 174
60 96 171
60 95 173
61 98 177
61 97 172
60 96 171
59 95 171
59 94 171
61 96 172
60 96 173
60 96 174
59 93 164
59 94 168
60 96 171
60 96 172
58 92 165
59 94 169
58 92 161
59 95 171
60 94 161
59 94 165
60 96 170
60 95 171
58 93 168
59 93 161
59 93 160
60 95 165
58 93 165
59 94 162
59 93 160
59 92 154
59 94 160
59 93 157
59 93 153
60 94 160
59 93 154
61 96 161
74 104 141
158 181 60
170 193 0
168 190 0
169 193 0
168 191 0
168 191 0
170 192 0
170 193 0
158 177 19
141 148 29
129 118 43
106 88 43
110 92 44
115 92 43
111 91 43
112 94 46
115 98 48
120 103 50
116 97 43
97 77 31
113 92 42
106 87 42
113 94 48
114 95 43
119 99 44
108 87 37
108 89 38
115 96 44
102 85 38
109 89 40
111 90 41
105 81 32
117 98 47
101 79 31
116 95 41
114 94 42
117 96 43
109 92 39
106 84 37
112 90 34
110 90 42
118 97 41
110 90 40
113 94 44
116 97 45
110 88 25
109 89 37
115 96 41
112 94 39
113 90 34
120 98 40
122 103 47
109 90 36
110 89 40
105 84 29
117 101 47
109 88 35
123 105 55
116 97 42
115 96 41
109 90 40
114 97 47
116 95 42
116 98 43
118 99 47
121 103 51
111 90 37
115 95 42
112 93 43
111 90 39
117 98 44
111 92 40
104 82 35
112 92 43
99 79 30
103 83 36
121 101 49
118 98 46
117 104 44
143 149 37
155 168 24
167 187 11
169 192 0
173 196 0
172 194 0
173 196 0
171 193 0
172 194 0
173 196 0
172 195 0
170 194 0
173 196 0
172 195 0
169 192 0
173 197 0
170 192 0
170 193 0
174 197 0
173 196 0
174 196 0
170 194 0
172 195 0
172 195 0
173 196 0
174 197 0
172 196 0
171 195 0
170 193 0
171 193 0
173 197 0
173 197 0
174 196 0
171 195 0
172 195 0
174 197 0
173 196 0
173 197 0
170 194 0
174 196 0
173 196 0
173 196 0
171 196 0
174 197 0
169 192 0
169 193 0
171 195 0
170 194 0
172 195 0
173 196 0
174 197 0
172 195 0
171 195 0
174 198 0
170 194 0
171 194 0
169 194 0
172 195 0
174 197 0
174 197 0
173 195 0
174 197 0
172 196 0
172 195 0
173 197 0
175 198 0
172 196 0
173 196 0
174 197 0
174 196 0
172 196 0
174 196 0
172 196 0
172 196 0
173 196 0
173 196 0
173 197 0
172 196 0
170 194 0
173 197 0
172 196 0
174 196 0
173 196 0
172 195 0
171 195 0
172 196 0
172 195 0
172 196 0
173 196 0
174 197 0
174 197 0
174 197 0
170 194 0
172 195 0
172 196 0
172 196 0
172 195 0
171 194 0
173 196 0
171 195 0
170 194 0
171 194 0
172 195 0
170 193 0
173 195 0
171 195 0
172 194 0
172 195 0
172 195 0
171 194 0
170 193 0
170 193 0
172 195 0
170 194 0
172 195 0
166 188 0
153 175 0
155 175 0
155 175 0
154 175 0
154 175 0
154 176 0
153 174 0
154 175 0
154 175 0
153 173 0
153 174 0
154 175 0
154 175 0
153 174 0
153 174 0
154 175 0
154 175 0
155 175 0
154 175 0
155 176 0
155 175 0
155 176 0
155 176 0
153 175 0
153 174 0
155 176 0
156 177 0
154 175 0
154 175 0
154 175 0
155 175 0
154 175 0
156 176 0
154 175 0
153 175 0
154 175 0
153 174 0
155 175 0
154 175 0
155 175 0
155 176 0
154 174 0
155 176 0
153 174 0
154 174 0
154 174 0
153 174 0
154 175 0
155 175 0
153 174 0
153 175 0
154 175 0
155 175 0
153 174 0
153 174 0
154 175 0
155 175 0
155 176 0
154 174 0
154 175 0
152 173 0
155 175 0
153 174 0
139 159 61
49 78 119
50 79 128
49 78 124
50 79 127
51 82 129
48 77 124
48 77 132
48 77 128
48 77 126
48 76 125
45 73 120
44 72 113
44 71 117
43 69 114
46 73 120
44 71 123
41 67 113
44 70 117
44 70 112
43 70 117
43 69 112
40 65 108
41 66 113
38 63 106
39 63 106
40 66 118
39 62 110
36 59 105
36 59 105
36 60 107
35 57 103
36 58 107
34 56 104
31 51 92
29 48 91
29 48 89
28 46 87
46 75 135
55 89 151
57 92 159
58 93 160
59 94 159
56 90 153
59 95 162
61 97 164
60 96 169
60 96 166
61 97 169
60 97 169
61 97 168
61 98 173
61 98 173
61 97 169
61 98 170
61 97 169
61 98 167
60 97 166
60 97 167
60 97 166
60 97 170
61 98 172
61 98 175
61 98 175
62 98 173
62 99 179
61 98 172
61 98 172
62 98 175
61 98 172
61 98 175
62 98 173
62 99 178
62 99 176
61 98 175
61 97 174
60 97 172
61 99 178
62 99 175
62 99 174
61 98 177
62 99 175
61 98 176
61 97 176
60 97 173
61 99 179
61 98 176
61 98 175
61 98 174
60 97 172
61 98 174
60 97 177
61 97 176
61 98 175
61 97 174
61 98 176
60 96 168
61 98 177
61 97 173
61 97 172
61 98 173
60 96 172
62 99 180
60 98 178
61 96 171
60 97 174
61 97 172
60 96 173
60 96 174
60 95 168
61 97 174
61 97 174
59 95 169
60 96 172
59 94 166
60 95 168
59 94 168
60 95 167
59 94 166
58 92 160
59 95 169
58 93 168
59 94 162
60 94 165
58 93 165
59 93 161
59 94 164
57 91 161
57 91 158
58 91 160
59 94 164
60 94 163
59 94 164
60 94 160
59 93 155
59 93 158
58 92 156
59 94 157
60 94 162
60 94 153
60 94 157
60 94 152
92 120 132
170 193 0
171 194 0
171 194 0
173 196 0
165 184 16
138 145 31
121 112 42
108 91 36
118 99 50
110 94 48
113 93 46
103 84 39
103 86 40
125 108 53
103 86 38
114 92 39
100 82 34
106 86 34
108 92 41
112 91 42
108 86 36
108 92 39
104 83 36
112 92 41
110 90 42
113 91 37
110 89 35
112 91 39
113 97 45
119 99 44
109 86 31
120 101 45
105 84 34
115 96 45
111 88 36
109 89 40
121 102 44
111 86 32
113 93 35
111 91 39
108 89 39
109 85 36
116 96 39
121 99 47
109 88 33
114 93 40
119 99 40
111 89 38
111 93 39
116 99 47
106 84 34
125 101 46
117 95 40
118 98 45
110 92 42
113 93 39
104 85 33
116 100 49
120 100 46
108 87 30
120 102 49
118 98 41
110 93 46
106 85 33
110 93 44
113 94 41
116 99 42
109 88 37
108 90 40
109 91 37
109 86 27
116 96 41
119 100 50
120 101 50
106 84 34
124 103 48
117 95 43
107 89 43
101 79 29
112 93 44
110 91 41
136 133 37
150 162 34
169 191 5
170 193 0
174 197 0
172 196 0
173 196 0
172 196 0
171 193 0
170 193 0
173 196 0
172 193 0
167 190 0
170 194 0
173 195 0
169 192 0
174 196 0
171 195 0
171 194 0
174 197 0
173 196 0
172 195 0
172 196 0
172 195 0
171 194 0
172 196 0
173 195 0
171 195 0
172 195 0
171 194 0
171 194 0
173 197 0
172 195 0
172 196 0
173 196 0
172 194 0
173 197 0
172 194 0
172 195 0
172 194 0
171 195 0
171 195 0
174 197 0
174 197 0
172 195 0
171 195 0
172 195 0
172 196 0
174 197 0
173 196 0
171 194 0
171 195 0
173 196 0
173 196 0
172 195 0
171 196 0
174 197 0
175 197 0
173 197 0
172 196 0
173 196 0
172 196 0
173 197 0
172 196 0
174 197 0
173 196 0
173 197 0
173 196 0
171 196 0
173 196 0
173 196 0
172 196 0
174 197 0
172 196 0
173 197 0
173 197 0
173 196 0
171 195 0
172 195 0
172 196 0
172 196 0
174 196 0
171 194 0
172 196 0
173 196 0
171 195 0
174 197 0
173 196 0
172 195 0
172 195 0
173 195 0
172 195 0
172 195 0
171 195 0
171 195 0
172 195 0
174 196 0
172 195 0
173 196 0
172 195 0
170 193 0
174 196 0
171 194 0
171 194 0
170 194 0
172 195 0
170 193 0
172 195 0
173 196 0
172 195 0
171 194 0
172 195 0
168 192 0
154 174 0
153 174 0
155 175 0
153 175 0
155 175 0
154 175 0
152 173 0
154 175 0
153 174 0
154 174 0
152 173 0
155 175 0
154 175 0
154 175 0
156 176 0
155 176 0
155 175 0
154 175 0
156 176 0
153 175 0
154 175 0
153 175 0
153 174 0
153 174 0
152 173 0
154 175 0
156 175 0
153 173 0
154 176 0
155 176 0
153 173 0
155 175 0
154 175 0
153 174 0
154 175 0
153 174 0
154 174 0
153 174 0
155 175 0
154 175 0
153 174 0
155 175 0
154 175 0
154 175 0
154 175 0
154 175 0
154 175 0
155 175 0
154 175 0
151 172 0
155 176 0
154 175 0
155 175 0
152 173 0
153 174 0
154 175 0
153 174 0
153 175 0
154 175 0
153 175 0
153 173 0
152 174 0
153 175 0
148 168 31
50 79 129
48 76 118
49 79 125
49 78 128
49 77 120
49 78 121
49 78 124
46 73 120
47 76 126
47 75 127
46 74 123
45 73 117
45 73 121
45 72 122
44 71 119
42 69 122
43 70 109
41 66 109
45 72 117
41 66 110
42 67 110
41 67 108
41 66 112
38 61 111
38 62 104
37 60 100
39 63 106
33 55 101
35 58 99
35 58 109
33 55 99
32 52 95
30 50 90
30 50 93
32 53 96
26 43 84
40 65 118
54 87 144
57 91 150
57 91 155
58 94 160
59 95 161
60 95 158
59 95 162
60 95 165
60 96 170
61 97 167
61 97 171
60 97 166
60 96 165
61 97 167
61 98 174
61 98 170
61 97 164
60 97 166
62 99 175
61 98 171
61 98 172
61 98 173
61 98 175
60 97 167
61 98 170
61 98 174
62 98 175
62 99 179
61 98 177
61 98 176
61 98 171
61 98 173
61 98 175
61 98 175
61 98 174
61 97 173
61 98 173
62 99 179
61 98 177
61 97 173
61 98 173
62 99 175
60 97 169
61 98 175
61 98 177
61 98 175
61 98 178
61 97 172
61 98 176
61 97 174
61 98 176
62 99 178
61 98 175
62 99 181
62 99 179
60 96 172
61 98 179
60 96 167
61 96 169
61 97 172
60 96 170
61 98 175
60 97 175
60 97 175
60 96 172
60 96 170
60 96 172
60 96 171
61 97 173
59 95 170
58 93 169
61 98 177
59 94 167
59 94 167
59 94 165
60 96 170
60 95 168
59 95 171
60 95 169
59 93 164
60 95 163
58 91 158
59 94 167
58 92 162
58 93 166
59 93 164
59 93 160
57 91 160
58 92 158
58 93 163
57 90 150
59 93 162
58 91 152
59 94 164
58 91 152
58 93 161
58 91 149
58 92 153
60 95 164
58 92 156
59 93 155
60 95 160
59 93 150
59 93 146
60 95 150
138 163 85
168 192 0
159 178 19
136 139 29
115 104 45
100 84 41
112 96 47
95 79 35
110 88 37
105 87 37
111 94 43
109 94 49
110 90 43
104 84 37
114 94 43
116 97 46
101 84 35
108 89 38
109 88 39
115 95 44
120 99 41
115 95 43
114 96 40
108 88 42
104 86 39
115 96 41
107 88 36
101 82 39
104 85 39
111 93 43
106 89 39
112 93 40
111 89 40
112 91 43
106 88 30
118 97 41
120 100 44
116 98 42
101 79 29
109 91 40
107 86 32
110 90 37
103 82 32
104 83 30
114 92 37
121 103 41
118 98 45
122 102 45
111 91 39
115 91 37
111 92 39
113 94 43
121 103 48
123 104 46
109 87 36
112 92 38
118 98 48
110 87 29
121 99 44
121 99 48
104 82 29
125 105 50
111 89 38
119 100 46
111 93 38
129 112 56
121 101 44
111 89 37
115 96 42
121 100 42
110 94 43
114 96 44
118 97 48
123 102 50
104 82 37
111 90 38
114 94 41
122 101 45
124 104 52
112 97 42
116 96 44
115 97 47
111 93 43
116 99 45
134 128 44
149 161 27
171 193 5
173 197 0
171 195 0
170 193 0
171 194 0
173 196 0
172 195 0
171 194 0
173 196 0
169 191 0
173 196 0
172 196 0
170 192 0
173 196 0
173 196 0
169 191 0
172 195 0
173 197 0
173 196 0
170 193 0
174 197 0
172 196 0
173 195 0
172 195 0
170 193 0
171 194 0
171 194 0
169 191 0
172 196 0
172 196 0
174 197 0
173 196 0
174 197 0
173 197 0
171 195 0
174 198 0
171 195 0
172 195 0
171 194 0
171 194 0
175 198 0
173 196 0
174 197 0
173 197 0
174 197 0
173 196 0
172 195 0
172 195 0
172 195 0
173 196 0
173 196 0
173 195 0
171 194 0
170 193 0
172 195 0
172 195 0
172 195 0
174 197 0
174 197 0
174 197 0
174 196 0
173 196 0
173 195 0
172 196 0
173 196 0
174 197 0
174 197 0
172 196 0
173 197 0
172 196 0
174 197 0
174 197 0
173 196 0
172 196 0
174 197 0
173 196 0
174 197 0
172 195 0
172 195 0
172 196 0
174 197 0
172 195 0
172 195 0
174 197 0
174 197 0
172 195 0
171 194 0
171 195 0
172 196 0
172 195 0
171 195 0
172 195 0
172 195 0
175 197 0
172 194 0
172 195 0
173 196 0
172 196 0
173 196 0
171 194 0
169 193 0
171 194 0
170 194 0
171 194 0
171 194 0
171 194 0
171 194 0
170 193 0
154 175 0
154 175 0
156 176 0
153 174 0
154 174 0
154 174 0
153 174 0
155 175 0
154 175 0
154 175 0
152 172 0
154 174 0
154 175 0
154 174 0
154 175 0
154 175 0
156 176 0
153 174 0
152 173 0
153 173 0
154 175 0
153 174 0
153 174 0
154 175 0
155 176 0
154 174 0
153 174 0
152 173 0
153 174 0
155 175 0
154 174 0
155 175 0
154 175 0
155 176 0
153 174 0
154 175 0
152 174 0
154 175 0
154 175 0
154 175 0
154 175 0
151 172 0
154 175 0
155 175 0
153 174 0
153 174 0
155 175 0
154 175 0
155 175 0
153 174 0
153 174 0
155 175 0
153 174 0
155 175 0
153 174 0
154 175 0
153 174 0
156 176 0
154 175 0
154 175 0
153 173 0
155 175 0
155 175 0
147 167 41
52 82 132
49 79 120
49 79 123
47 76 117
49 78 122
48 77 115
48 77 123
47 75 116
46 73 118
48 77 129
48 76 123
47 75 124
46 74 126
46 74 116
43 70 115
44 71 111
43 69 110
42 68 114
43 69 114
41 67 115
43 69 117
39 63 107
41 66 107
40 66 106
37 60 102
38 62 104
37 61 106
38 62 102
38 62 105
32 54 97
35 57 103
33 54 98
30 50 94
29 48 87
30 50 96
27 46 89
52 83 143
57 91 148
57 91 154
58 92 158
59 95 162
58 93 155
60 96 165
60 96 164
61 97 164
60 95 163
61 97 168
61 97 169
61 98 168
61 97 169
61 98 170
61 98 173
61 98 169
61 97 166
61 98 172
62 98 167
61 98 172
61 97 168
62 98 168
61 98 172
61 98 174
61 98 173
61 98 170
61 98 171
60 97 171
61 98 174
62 99 176
61 98 175
62 98 173
60 97 174
61 98 174
61 98 174
61 98 174
61 99 178
61 98 175
62 98 172
61 98 176
61 98 177
61 98 170
61 98 175
61 97 173
61 98 174
60 97 173
61 97 171
61 98 174
61 97 172
62 99 176
61 98 175
61 98 174
62 99 177
62 98 176
61 98 174
61 97 174
61 97 173
61 98 175
61 98 177
61 98 176
60 95 171
60 96 173
60 96 172
61 97 173
60 96 173
60 96 174
60 96 172
61 97 174
61 97 177
61 97 174
60 97 174
59 95 172
60 95 169
60 95 167
59 93 162
59 93 165
60 95 168
60 96 171
59 93 165
60 96 170
59 94 164
58 93 166
59 94 168
58 92 163
58 93 161
57 91 159
59 93 163
59 94 165
57 90 156
57 91 156
57 90 158
58 91 160
58 91 155
57 90 152
59 93 161
58 92 154
59 93 156
59 93 158
59 92 155
57 90 146
59 93 158
60 94 157
60 95 154
59 93 151
60 94 148
102 114 111
116 113 39
102 85 39
109 88 38
112 92 45
114 97 45
101 84 36
105 85 38
111 92 43
123 102 48
108 88 36
103 82 36
99 82 41
107 88 38
100 78 28
113 94 44
108 84 36
114 96 48
105 87 37
116 98 47
110 90 39
106 89 38
118 99 43
99 79 28
106 84 32
103 81 31
106 87 39
114 92 42
102 82 34
119 99 43
111 90 41
114 94 41
113 93 44
113 95 44
117 95 42
104 87 37
118 100 47
113 92 39
108 86 29
99 75 24
112 91 34
108 89 35
113 90 37
106 85 31
109 87 33
112 89 34
114 95 42
103 85 29
114 93 41
112 89 34
113 93 39
110 88 32
112 91 39
107 85 33
115 94 41
113 91 38
113 92 41
119 97 44
117 96 41
119 100 49
116 96 45
107 86 35
122 104 48
113 94 37
113 92 41
112 89 40
114 93 38
110 93 37
114 93 46
114 94 37
118 98 38
118 100 46
114 95 40
99 79 21
101 80 29
107 89 34
120 99 43
114 96 43
113 95 43
107 89 39
122 103 52
109 86 37
110 92 44
123 104 54
119 101 48
120 100 52
118 100 44
136 134 40
157 174 16
172 195 0
172 195 0
173 197 0
173 195 0
171 193 0
170 193 0
173 195 0
171 194 0
171 194 0
171 193 0
174 197 0
173 196 0
169 192 0
170 193 0
174 197 0
173 196 0
174 197 0
174 197 0
173 196 0
174 197 0
172 195 0
172 195 0
173 197 0
170 193 0
171 195 0
172 195 0
174 197 0
173 197 0
173 196 0
172 195 0
171 195 0
171 193 0
174 197 0
172 195 0
174 197 0
173 196 0
173 196 0
172 195 0
173 196 0
175 197 0
169 193 0
171 194 0
171 194 0
170 194 0
172 196 0
172 194 0
173 195 0
175 198 0
172 195 0
172 195 0
172 195 0
170 193 0
171 194 0
173 196 0
171 195 0
171 194 0
170 194 0
174 197 0
174 197 0
173 197 0
172 196 0
173 196 0
172 196 0
174 197 0
172 195 0
173 195 0
171 195 0
173 196 0
172 196 0
172 196 0
174 197 0
172 195 0
173 196 0
173 196 0
172 195 0
172 195 0
172 196 0
171 194 0
171 195 0
173 196 0
172 195 0
172 195 0
172 195 0
172 196 0
171 194 0
174 196 0
173 195 0
172 195 0
172 195 0
173 195 0
171 195 0
172 195 0
170 194 0
172 194 0
171 194 0
170 193 0
172 195 0
172 195 0
172 195 0
169 193 0
171 194 0
171 194 0
171 194 0
171 193 0
169 194 0
157 178 0
154 175 0
154 174 0
153 174 0
156 177 0
154 174 0
155 175 0
154 175 0
155 176 0
155 176 0
153 174 0
156 176 0
156 176 0
153 174 0
155 175 0
153 173 0
155 175 0
155 175 0
155 175 0
154 175 0
154 175 0
153 174 0
152 173 0
153 174 0
151 172 0
154 174 0
156 175 0
154 174 0
153 173 0
154 175 0
154 175 0
154 174 0
154 175 0
153 174 0
154 174 0
154 174 0
153 173 0
154 175 0
156 176 0
153 173 0
155 175 0
153 173 0
154 175 0
155 176 0
153 173 0
152 173 0
153 175 0
154 174 0
152 172 0
154 174 0
152 173 0
155 176 0
152 173 0
153 174 0
151 172 0
154 175 0
152 173 0
154 174 0
155 176 0
152 174 0
153 174 0
154 174 0
155 175 0
155 175 0
61 88 116
50 80 124
49 78 123
51 81 130
48 77 116
47 76 122
47 76 120
44 71 119
47 75 119
45 73 122
44 70 113
47 75 119
46 74 117
44 71 112
45 72 118
42 68 111
40 65 106
41 66 113
43 69 113
40 65 111
41 67 107
39 64 114
39 63 103
38 62 103
41 67 114
37 60 99
35 58 104
35 58 106
36 59 105
36 59 103
32 53 96
35 58 99
31 51 95
26 43 82
27 44 81
37 62 109
57 91 153
57 91 156
59 94 158
59 94 162
58 93 158
60 95 162
60 96 163
60 96 160
61 97 167
60 96 162
61 98 172
61 98 173
61 97 170
60 96 164
60 96 160
60 97 163
61 98 170
61 98 170
61 98 167
61 98 174
61 98 174
61 97 165
62 99 174
62 99 174
62 98 172
61 98 169
61 97 165
62 99 173
62 99 176
62 98 174
62 98 174
61 98 173
61 98 174
61 98 174
62 99 176
61 98 171
61 98 172
60 98 175
61 98 174
61 98 173
62 99 176
62 98 176
61 98 174
61 98 172
62 99 173
62 99 178
62 98 175
62 98 173
61 97 171
61 98 173
61 98 172
61 98 174
61 97 169
61 98 175
61 98 172
61 97 174
61 98 174
60 96 170
61 98 177
60 97 173
62 98 173
61 97 176
60 96 171
61 97 174
60 96 173
60 95 167
60 96 172
60 96 171
60 97 173
60 96 172
60 96 174
60 96 171
61 97 176
59 94 169
60 96 174
59 93 164
60 96 170
59 94 167
59 94 164
58 93 164
58 93 166
60 96 170
57 91 162
59 93 164
59 94 167
58 91 159
57 90 152
56 88 154
58 92 160
58 90 154
57 90 147
58 91 155
58 93 157
58 91 155
58 92 157
58 91 152
58 90 149
58 91 150
57 89 143
58 91 155
57 90 150
57 90 147
58 92 150
58 91 149
81 91 119
97 87 79
107 87 37
105 86 39
105 88 41
112 92 41
107 85 36
112 94 44
115 95 42
111 93 47
100 83 37
112 93 40
100 80 33
108 89 39
118 99 46
103 84 28
107 83 27
109 92 40
105 86 37
109 86 31
109 88 39
111 92 42
101 79 24
112 94 41
105 86 32
108 90 38
101 81 28
115 95 44
107 85 29
104 82 32
109 88 37
115 96 43
110 91 40
106 88 37
110 89 38
115 93 37
105 87 41
120 100 49
113 92 39
108 85 33
113 92 44
114 94 39
116 93 41
106 86 37
108 86 28
108 86 29
109 89 38
109 89 35
109 91 37
116 94 41
108 88 36
110 92 39
112 89 38
119 98 45
114 95 43
106 83 32
110 88 37
116 96 37
108 87 31
113 93 39
116 97 38
109 90 35
120 100 46
112 93 44
112 96 45
116 94 39
119 98 46
112 93 38
108 87 37
113 94 44
112 91 37
112 92 35
114 93 40
116 95 43
115 93 41
109 88 38
106 85 41
125 106 52
112 93 40
115 94 44
114 93 45
112 94 44
111 93 44
116 97 47
121 100 45
111 96 49
110 91 39
109 88 39
121 100 48
106 88 42
102 82 34
126 118 44
156 169 29
165 187 1
172 194 0
171 195 0
171 194 0
172 196 0
173 196 0
172 195 0
173 196 0
171 194 0
173 196 0
172 195 0
172 194 0
174 197 0
173 196 0
171 195 0
170 193 0
170 193 0
174 197 0
171 193 0
173 195 0
174 197 0
171 194 0
175 198 0
173 197 0
174 198 0
170 193 0
174 196 0
170 194 0
173 196 0
174 196 0
174 196 0
168 192 0
173 197 0
172 195 0
172 196 0
173 196 0
171 195 0
174 197 0
173 196 0
171 195 0
173 197 0
173 197 0
172 196 0
172 195 0
174 197 0
171 194 0
171 195 0
173 195 0
172 196 0
173 197 0
173 196 0
173 197 0
173 197 0
173 196 0
171 194 0
171 195 0
173 196 0
173 197 0
172 196 0
173 196 0
172 195 0
172 196 0
174 197 0
174 197 0
173 196 0
173 197 0
173 196 0
173 197 0
174 197 0
173 196 0
172 195 0
173 196 0
173 196 0
173 196 0
173 196 0
173 196 0
172 195 0
173 196 0
171 195 0
173 197 0
173 196 0
172 196 0
172 195 0
172 195 0
172 195 0
171 194 0
171 195 0
171 194 0
171 194 0
172 195 0
172 195 0
172 195 0
173 195 0
174 196 0
171 194 0
173 195 0
172 195 0
171 194 0
173 196 0
172 195 0
172 195 0
171 194 0
170 193 0
161 183 0
153 175 0
155 175 0
154 174 0
156 176 0
154 175 0
155 176 0
154 175 0
155 175 0
154 175 0
154 175 0
153 174 0
156 176 0
154 175 0
154 175 0
153 174 0
155 176 0
154 175 0
153 174 0
154 175 0
153 174 0
154 175 0
154 174 0
155 175 0
155 175 0
153 173 0
154 174 0
155 175 0
156 176 0
153 174 0
154 175 0
155 175 0
154 175 0
153 174 0
153 174 0
154 175 0
153 174 0
153 173 0
154 175 0
154 174 0
154 175 0
155 175 0
155 175 0
154 175 0
154 175 0
153 173 0
154 175 0
153 174 0
154 175 0
154 174 0
153 174 0
151 172 0
155 175 0
154 175 0
154 174 0
155 175 0
154 174 0
154 175 0
154 175 0
154 174 0
154 174 0
151 172 0
154 174 0
155 176 0
76 100 104
50 80 127
50 81 121
48 76 117
45 73 112
47 74 111
48 77 116
48 77 125
47 75 118
43 70 100
44 70 110
44 71 116
44 71 113
43 70 108
44 71 119
42 67 108
42 68 110
41 66 110
41 65 107
40 65 105
41 66 115
39 64 104
41 66 111
38 61 109
38 62 104
34 56 98
37 61 107
37 60 107
32 53 94
35 57 98
31 51 94
33 54 94
30 50 89
28 47 84
29 48 90
52 84 143
57 91 157
57 92 156
57 92 152
59 94 159
59 95 160
59 95 160
60 96 159
60 96 170
60 96 164
60 96 166
59 95 161
61 98 171
60 97 165
61 97 167
61 98 169
61 97 167
61 98 173
60 97 164
61 97 166
61 98 170
61 98 171
61 98 174
62 99 170
61 98 169
61 98 168
62 98 172
61 98 170
61 98 173
61 98 169
62 99 172
61 98 169
62 99 179
60 97 165
61 98 174
62 99 175
61 98 175
61 98 172
62 99 178
61 98 171
61 97 174
61 98 174
61 98 175
61 98 172
61 98 173
61 98 172
61 97 173
61 98 174
60 97 172
60 97 172
61 97 171
61 98 173
61 97 173
60 96 171
61 98 174
62 98 174
60 96 169
61 98 175
60 96 171
60 97 172
60 96 167
59 95 168
60 96 172
61 97 173
59 94 163
60 95 171
60 96 169
61 97 174
59 95 168
61 97 174
60 96 170
60 95 169
60 96 169
59 94 165
59 95 168
59 95 171
58 93 164
59 93 165
59 93 165
59 93 163
58 91 156
59 94 164
56 90 159
59 93 161
57 92 164
58 92 159
57 90 158
58 92 163
57 89 150
57 90 158
57 89 152
56 88 148
57 90 152
59 94 164
58 91 155
58 90 152
57 89 150
58 90 152
58 91 156
58 92 152
57 89 150
59 91 150
59 92 154
77 94 132
105 95 85
106 88 41
100 82 36
111 89 35
107 89 42
110 93 46
106 87 39
106 85 38
100 82 37
100 83 37
102 83 36
94 72 27
108 85 28
102 83 32
115 94 36
100 82 34
110 90 39
111 93 44
96 73 25
107 88 41
113 89 38
103 83 31
108 87 33
109 93 41
98 78 29
101 82 33
103 83 25
115 95 42
110 88 33
100 78 28
124 104 47
112 92 41
110 88 34
101 81 31
104 86 32
110 89 37
120 98 43
108 89 40
108 89 37
105 85 37
116 97 41
105 83 29
113 95 37
116 96 44
113 89 35
108 87 35
111 92 34
116 97 42
109 86 24
108 89 38
111 92 42
114 94 38
107 87 33
111 92 42
108 87 29
109 89 32
120 104 46
115 94 37
104 87 33
115 96 43
108 87 33
123 105 48
119 96 39
112 93 40
114 94 39
110 91 40
108 86 36
112 91 38
108 88 38
122 100 42
105 84 33
107 85 35
109 93 45
117 100 51
105 85 35
111 89 34
113 90 36
110 93 39
110 89 37
126 106 48
106 86 35
111 90 37
111 90 42
112 92 40
118 101 49
116 97 43
109 92 40
113 93 43
115 94 38
111 90 42
104 83 32
106 84 36
122 103 50
116 98 43
111 97 38
145 146 46
165 184 11
174 196 0
171 194 0
172 196 0
172 196 0
173 197 0
171 194 0
173 197 0
173 195 0
171 194 0
170 193 0
172 195 0
174 198 0
171 194 0
172 195 0
172 195 0
171 195 0
170 193 0
171 195 0
170 193 0
171 194 0
172 195 0
173 195 0
175 197 0
171 195 0
171 194 0
172 195 0
171 194 0
174 197 0
170 194 0
173 196 0
174 197 0
171 194 0
172 196 0
172 196 0
171 195 0
172 195 0
173 197 0
173 196 0
170 195 0
171 194 0
172 194 0
175 198 0
174 196 0
172 195 0
173 196 0
173 197 0
173 196 0
174 197 0
173 197 0
174 197 0
173 196 0
171 194 0
172 195 0
171 194 0
171 195 0
172 195 0
173 196 0
174 197 0
172 196 0
172 196 0
174 197 0
173 196 0
171 195 0
173 196 0
174 197 0
172 196 0
172 196 0
173 196 0
173 197 0
172 195 0
172 195 0
173 196 0
174 196 0
172 195 0
173 196 0
172 195 0
173 196 0
174 197 0
172 196 0
174 196 0
173 196 0
171 195 0
171 195 0
173 196 0
169 193 0
170 194 0
172 194 0
172 195 0
173 196 0
171 195 0
170 194 0
170 194 0
171 194 0
174 196 0
170 193 0
172 195 0
172 194 0
171 194 0
172 194 0
171 194 0
161 182 0
154 175 0
152 174 0
153 174 0
155 175 0
155 176 0
154 175 0
155 175 0
155 175 0
155 176 0
154 175 0
154 175 0
153 175 0
155 175 0
155 175 0
154 175 0
155 175 0
154 174 0
153 174 0
154 175 0
155 176 0
153 175 0
155 175 0
155 176 0
154 174 0
154 175 0
152 173 0
153 174 0
154 175 0
154 175 0
155 176 0
153 174 0
154 174 0
154 175 0
153 174 0
153 174 0
153 174 0
154 174 0
152 174 0
154 175 0
154 175 0
155 175 0
155 175 0
154 175 0
153 174 0
154 175 0
153 173 0
151 172 0
154 175 0
154 175 0
154 175 0
155 175 0
154 174 0
155 176 0
151 173 0
154 175 0
155 175 0
155 175 0
153 173 0
153 174 0
153 175 0
153 175 0
155 176 0
154 174 0
94 116 106
49 78 122
48 78 121
47 76 116
48 77 120
48 77 122
46 75 117
47 75 111
45 73 116
48 76 118
46 73 116
46 74 121
44 71 120
44 71 114
42 69 111
43 70 107
40 64 111
43 70 117
39 64 106
40 66 105
40 64 104
39 63 101
39 64 105
40 65 105
39 64 105
34 56 96
33 55 96
32 53 90
34 56 99
32 53 92
33 53 92
28 47 78
31 51 90
29 48 84
42 68 121
56 90 153
56 90 148
57 92 158
58 93 156
58 92 153
60 96 170
60 95 159
60 96 162
61 97 170
60 96 168
60 96 161
61 97 169
60 97 167
61 98 165
60 96 162
61 98 169
61 97 170
61 97 167
61 98 177
61 97 163
61 97 166
61 98 169
60 97 168
61 98 166
61 98 169
61 98 173
62 98 171
62 98 171
61 98 174
61 98 170
60 97 171
61 98 173
61 98 173
61 98 173
62 99 172
61 98 171
61 98 170
61 98 175
62 98 176
61 98 171
61 98 171
62 99 176
61 97 173
62 99 176
61 98 177
61 98 171
60 97 168
61 98 175
61 98 172
61 97 172
61 98 175
61 98 174
61 97 174
60 97 172
61 97 175
60 96 164
61 97 173
61 97 171
60 96 166
61 97 174
59 94 166
60 96 171
59 95 171
59 94 165
59 94 165
59 95 167
60 96 173
61 97 169
60 94 165
61 96 173
59 94 168
60 95 172
59 94 169
60 95 166
59 94 168
60 95 168
60 95 168
58 92 162
58 91 156
59 94 167
58 93 160
58 92 162
57 89 152
59 94 165
58 92 162
57 90 156
58 91 159
57 90 155
56 87 147
58 92 160
59 92 161
58 93 163
57 90 153
58 92 159
58 90 151
57 90 153
57 88 141
57 90 152
58 91 152
56 87 140
59 92 154
66 92 135
78 81 93
95 76 32
108 92 51
103 84 36
101 83 36
103 86 35
96 77 33
110 92 43
111 93 41
99 82 36
105 87 40
101 84 37
112 93 40
105 90 40
117 97 44
119 99 45
102 84 32
105 84 37
105 85 33
109 89 40
103 84 35
109 89 38
111 93 39
110 88 35
109 89 37
112 93 42
116 95 39
106 87 34
105 86 37
102 78 25
109 89 36
116 96 40
115 96 41
98 74 22
107 87 36
114 95 40
105 82 32
117 96 36
107 86 34
117 97 42
101 81 32
112 91 40
114 93 38
118 97 46
116 95 40
105 82 26
98 77 20
98 80 30
105 84 29
107 91 41
109 88 35
116 95 43
112 91 35
118 97 45
111 92 40
108 89 35
115 95 42
105 83 24
114 96 41
114 91 38
110 91 38
112 94 37
105 83 32
115 95 40
114 96 41
114 94 43
109 85 33
105 86 27
99 78 30
111 89 32
110 90 35
110 92 41
100 77 30
108 88 35
113 91 37
113 93 44
115 98 44
113 94 42
104 84 41
113 93 39
114 94 43
114 93 37
108 85 31
117 95 37
111 91 42
112 93 42
116 94 41
112 93 40
113 94 46
114 95 41
112 92 43
113 92 42
103 82 35
111 93 43
100 81 36
117 96 44
108 90 44
115 94 42
106 88 34
131 130 34
157 172 13
174 195 0
171 194 0
172 195 0
174 197 0
170 192 0
170 194 0
173 196 0
174 197 0
172 196 0
172 195 0
170 194 0
172 194 0
173 196 0
172 196 0
173 196 0
173 197 0
172 196 0
173 196 0
172 195 0
172 196 0
173 196 0
171 195 0
174 197 0
171 195 0
173 196 0
173 195 0
171 195 0
172 196 0
172 196 0
173 196 0
173 196 0
170 194 0
173 197 0
174 198 0
168 191 0
172 195 0
173 196 0
173 196 0
173 195 0
174 197 0
174 197 0
173 196 0
173 196 0
172 196 0
173 196 0
173 196 0
168 191 0
172 195 0
172 195 0
173 196 0
172 196 0
172 195 0
172 196 0
172 196 0
173 196 0
172 196 0
173 196 0
171 195 0
175 197 0
174 197 0
173 196 0
173 196 0
174 196 0
172 195 0
172 195 0
173 197 0
174 197 0
173 196 0
172 196 0
172 196 0
172 195 0
172 195 0
174 197 0
171 194 0
172 195 0
172 196 0
172 195 0
170 194 0
172 196 0
173 196 0
172 195 0
171 195 0
172 195 0
172 195 0
172 195 0
172 195 0
173 196 0
171 194 0
172 196 0
172 194 0
171 194 0
171 194 0
171 194 0
171 194 0
172 194 0
171 194 0
170 192 0
170 193 0
163 185 0
152 173 0
154 174 0
154 175 0
153 173 0
156 177 0
156 175 0
155 175 0
153 174 0
154 175 0
154 175 0
154 174 0
153 173 0
154 175 0
153 174 0
155 175 0
153 173 0
155 175 0
155 175 0
153 174 0
154 175 0
153 175 0
154 175 0
152 172 0
153 173 0
153 174 0
154 174 0
155 176 0
155 175 0
152 173 0
153 174 0
153 174 0
153 174 0
153 174 0
154 175 0
153 174 0
154 175 0
155 175 0
154 175 0
154 175 0
153 174 0
154 174 0
154 175 0
155 175 0
155 175 0
154 174 0
154 174 0
154 175 0
154 174 0
155 175 0
152 173 0
154 174 0
156 176 0
153 174 0
153 175 0
153 174 0
152 173 0
152 173 0
153 173 0
152 174 0
152 173 0
154 174 0
154 175 0
153 174 0
98 119 93
49 78 115
50 80 123
48 77 126
48 76 113
50 79 121
47 76 122
46 74 113
47 75 117
46 74 116
46 73 117
42 69 105
43 69 103
46 73 116
43 69 116
40 65 106
44 71 116
40 66 99
41 66 108
39 63 102
38 62 105
40 64 107
41 66 107
39 63 99
35 58 100
39 63 98
36 59 105
37 60 102
34 55 93
35 56 98
34 56 96
32 53 93
28 46 86
28 47 87
52 84 139
57 90 155
58 92 151
58 92 155
59 94 155
60 96 165
60 96 162
60 96 154
60 96 163
61 97 164
60 96 163
61 97 167
61 97 166
61 97 169
61 97 161
60 96 166
61 97 167
60 97 164
60 96 163
61 97 166
61 97 168
61 98 168
61 98 170
61 98 170
61 97 167
61 98 167
61 98 173
61 98 172
61 98 171
61 98 165
61 97 166
62 98 172
61 98 173
61 98 173
61 98 168
61 98 168
61 98 174
61 98 171
62 99 176
62 99 177
62 98 172
62 99 176
62 98 175
61 98 172
61 98 173
61 98 170
61 98 173
61 98 174
61 97 169
61 97 169
61 98 175
61 97 172
60 96 165
61 97 174
61 97 170
61 97 174
61 98 175
61 97 170
60 96 169
61 97 172
60 96 166
61 97 171
61 97 173
61 97 172
62 98 177
60 96 171
60 96 170
60 97 175
60 95 167
60 96 168
60 95 168
59 93 166
60 95 166
58 92 163
58 92 162
59 93 161
58 92 156
60 94 163
59 93 164
59 93 162
59 94 165
58 92 161
56 90 155
58 92 161
58 91 159
57 91 161
57 91 156
58 90 156
56 90 159
56 87 147
58 91 159
56 89 156
58 91 156
55 86 144
56 87 148
57 90 153
58 91 155
57 88 141
57 90 151
57 89 144
57 89 145
84 88 114
99 86 58
114 94 47
103 84 38
96 83 37
104 91 47
104 89 43
106 87 40
102 82 37
88 68 20
110 93 46
110 90 42
107 87 35
88 72 32
98 80 31
108 88 41
99 79 29
108 90 41
104 86 35
103 85 37
103 82 31
102 80 29
105 85 32
100 82 29
104 84 35
105 86 38
108 88 35
105 88 33
111 89 34
112 91 36
112 92 36
112 90 34
111 91 35
109 91 37
99 79 32
103 84 34
110 89 29
96 75 27
97 76 24
101 80 32
109 87 36
107 88 34
113 94 36
111 91 35
110 91 40
114 94 39
98 78 32
104 83 33
110 89 37
109 87 35
103 83 30
119 100 44
113 92 38
114 94 40
113 94 35
112 93 42
115 95 32
114 97 41
118 99 48
108 90 37
109 85 21
105 85 32
109 89 39
111 92 36
101 81 29
117 95 39
111 90 30
110 88 33
120 100 40
110 88 34
115 94 44
108 87 38
119 99 42
105 87 29
110 91 39
114 95 43
114 95 41
110 95 40
119 97 43
115 98 46
118 100 45
114 93 37
110 88 37
120 98 45
107 84 32
116 96 42
111 92 43
101 81 32
119 99 45
118 102 50
107 85 32
113 93 44
122 105 55
106 86 37
110 91 41
109 88 41
108 86 38
120 102 53
102 84 34
114 94 39
119 100 49
117 94 42
117 99 47
123 119 25
164 184 5
170 194 0
173 196 0
172 195 0
172 195 0
171 195 0
172 195 0
170 192 0
169 194 0
172 194 0
174 197 0
174 196 0
171 195 0
168 191 0
172 196 0
170 194 0
173 196 0
172 195 0
174 197 0
173 197 0
173 197 0
173 196 0
172 196 0
171 192 0
172 195 0
173 196 0
173 196 0
171 195 0
172 196 0
174 197 0
171 194 0
171 195 0
170 193 0
174 197 0
173 195 0
174 197 0
172 194 0
174 196 0
170 194 0
174 197 0
173 196 0
171 194 0
173 195 0
173 197 0
173 196 0
174 197 0
175 197 0
175 198 0
174 197 0
174 197 0
173 196 0
173 196 0
173 196 0
172 195 0
174 197 0
171 195 0
173 196 0
173 196 0
175 197 0
172 195 0
173 196 0
172 196 0
172 194 0
173 196 0
172 195 0
172 195 0
173 195 0
172 195 0
171 196 0
172 195 0
174 197 0
172 196 0
174 197 0
171 194 0
172 195 0
172 195 0
174 197 0
171 195 0
173 196 0
172 195 0
172 195 0
174 196 0
171 194 0
172 195 0
173 196 0
171 194 0
174 196 0
172 195 0
171 194 0
172 195 0
173 195 0
169 193 0
171 194 0
170 193 0
174 196 0
172 195 0
171 194 0
166 188 0
154 175 0
153 174 0
156 176 0
154 174 0
154 175 0
153 174 0
153 174 0
154 175 0
153 174 0
153 174 0
155 175 0
155 176 0
152 174 0
154 175 0
154 175 0
154 175 0
154 174 0
155 175 0
153 174 0
154 174 0
154 174 0
153 174 0
154 174 0
152 172 0
157 176 0
155 175 0
153 174 0
154 175 0
155 175 0
153 175 0
153 174 0
153 174 0
154 174 0
154 175 0
153 175 0
153 174 0
154 175 0
156 176 0
155 175 0
152 173 0
155 176 0
152 173 0
153 174 0
154 175 0
153 174 0
154 175 0
155 175 0
155 175 0
155 175 0
154 175 0
154 175 0
151 172 0
154 175 0
152 174 0
153 173 0
153 173 0
153 173 0
154 175 0
153 175 0
153 174 0
153 174 0
154 175 0
154 175 0
104 125 80
50 79 122
48 77 120
48 77 119
46 75 118
48 77 119
47 76 118
48 76 123
46 74 113
46 73 114
47 76 117
43 69 103
46 73 113
45 72 114
44 71 111
45 72 114
41 66 109
40 65 105
40 65 109
41 66 108
39 64 101
39 63 107
38 61 104
36 59 93
35 58 97
32 53 90
32 53 89
36 59 98
33 54 95
33 53 89
34 55 94
26 44 79
27 45 83
43 70 119
53 85 140
57 92 153
57 90 147
58 92 150
57 92 150
59 95 162
59 94 157
60 96 159
60 96 166
59 95 158
60 96 160
61 97 162
60 96 166
60 96 159
61 97 168
61 98 166
61 97 163
61 98 171
62 98 172
60 96 162
62 98 168
61 98 168
61 97 168
61 98 167
61 98 173
61 98 172
62 99 174
62 98 168
61 98 171
61 98 170
61 98 169
61 98 171
62 99 170
61 98 174
61 98 173
61 98 173
62 98 172
62 98 172
62 98 171
61 98 171
61 97 169
62 98 171
61 97 170
61 98 172
62 98 173
61 98 172
61 98 173
61 98 174
61 98 174
61 97 173
61 98 171
61 98 177
61 97 175
61 97 170
61 97 170
61 98 175
60 96 172
60 95 168
62 98 176
61 97 174
60 96 173
62 98 177
59 95 164
61 96 170
59 95 169
60 95 166
59 94 170
61 96 171
59 94 164
60 96 171
59 94 167
59 95 170
59 94 168
59 94 163
59 94 168
57 90 159
59 93 164
58 92 159
58 92 160
59 92 159
58 92 162
58 92 161
57 90 153
57 90 159
56 89 153
56 89 153
57 91 157
58 90 150
57 90 154
56 88 153
54 86 148
57 90 157
56 89 154
55 87 147
56 88 148
55 85 144
55 86 140
57 89 146
56 87 144
67 91 145
85 82 88
111 91 43
102 84 39
99 81 34
109 93 47
90 72 31
108 87 32
106 90 38
95 77 35
101 81 34
99 82 36
101 83 32
109 90 40
105 86 34
112 92 42
102 83 38
100 79 32
100 80 32
99 79 35
115 95 44
100 84 34
105 85 37
109 89 39
108 85 33
113 94 42
109 91 42
106 87 42
110 89 35
101 83 28
107 87 29
108 86 37
110 90 33
107 86 30
109 90 40
112 95 42
112 93 36
110 87 32
114 91 26
110 88 38
104 84 34
110 86 28
102 81 26
106 81 31
107 84 28
109 87 34
105 86 33
109 89 30
109 88 32
115 96 38
117 95 40
106 83 31
113 91 35
109 90 37
122 102 48
109 91 35
106 87 33
110 90 40
114 94 30
102 82 35
117 98 43
110 89 36
113 91 33
107 85 32
120 100 41
109 88 35
100 83 31
115 93 34
112 89 35
116 90 33
106 86 29
107 89 36
122 103 49
117 97 42
106 87 42
120 98 44
112 92 38
121 101 47
108 88 34
118 99 50
117 98 41
108 87 36
112 94 41
110 90 41
123 103 48
109 87 37
105 86 32
116 96 45
114 94 41
115 97 42
104 82 32
107 85 35
114 94 38
113 95 49
118 98 44
110 89 38
113 93 36
103 83 29
103 82 30
112 93 44
113 93 46
110 93 42
105 84 36
113 93 43
111 93 47
110 93 45
117 97 47
130 129 34
159 178 12
172 195 0
171 194 0
173 196 0
171 194 0
173 196 0
170 193 0
173 196 0
173 196 0
172 195 0
174 198 0
174 196 0
173 196 0
173 196 0
169 193 0
170 194 0
174 197 0
170 194 0
170 193 0
172 195 0
171 194 0
172 194 0
172 194 0
171 194 0
174 197 0
171 195 0
172 195 0
175 197 0
171 194 0
173 195 0
173 196 0
173 196 0
171 194 0
173 196 0
171 194 0
174 197 0
173 195 0
173 195 0
173 196 0
173 196 0
176 198 0
171 195 0
174 197 0
172 196 0
172 195 0
171 195 0
173 196 0
174 197 0
175 198 0
174 197 0
173 196 0
171 195 0
172 196 0
173 196 0
172 195 0
172 196 0
174 197 0
173 196 0
173 196 0
171 195 0
172 195 0
173 196 0
172 195 0
173 195 0
172 195 0
172 196 0
172 195 0
172 195 0
173 196 0
173 195 0
172 196 0
170 194 0
172 195 0
174 196 0
173 196 0
172 195 0
170 194 0
172 195 0
172 195 0
171 194 0
173 196 0
172 195 0
171 194 0
173 195 0
170 193 0
172 196 0
168 192 0
170 194 0
171 194 0
172 195 0
172 196 0
170 193 0
170 193 0
172 195 0
172 195 0
168 191 0
154 175 0
154 175 0
153 173 0
153 174 0
154 175 0
154 174 0
153 174 0
153 174 0
153 174 0
152 174 0
154 175 0
155 176 0
154 174 0
153 174 0
153 174 0
155 175 0
153 174 0
155 175 0
152 173 0
152 172 0
154 175 0
153 174 0
152 173 0
154 174 0
156 176 0
153 174 0
154 175 0
154 174 0
154 174 0
154 175 0
154 174 0
155 175 0
152 174 0
152 173 0
154 175 0
154 174 0
153 174 0
154 175 0
152 173 0
155 175 0
154 175 0
153 174 0
154 175 0
153 173 0
153 173 0
153 174 0
153 174 0
155 175 0
154 174 0
153 174 0
154 175 0
152 173 0
156 175 0
154 175 0
153 173 0
153 174 0
152 173 0
155 176 0
151 173 0
153 174 0
152 173 0
154 175 0
152 173 0
123 143 74
49 78 110
48 76 117
48 77 118
48 76 114
47 75 120
46 73 108
45 71 111
46 73 111
44 71 114
46 74 122
44 71 109
43 69 106
45 72 114
44 71 104
42 68 110
43 69 100
41 66 105
39 63 104
41 66 106
40 64 110
38 62 100
35 58 97
36 59 98
37 59 94
35 57 101
34 56 90
35 57 92
31 52 80
33 55 97
33 54 92
24 40 74
28 47 78
52 83 143
54 88 142
58 92 149
59 94 156
59 94 158
60 95 165
59 94 153
59 94 158
60 96 156
61 97 159
61 97 165
61 97 164
61 98 167
61 97 166
61 97 162
60 96 161
61 97 162
60 96 162
61 98 168
61 98 170
61 97 163
61 98 166
62 98 171
61 98 172
61 98 171
61 98 170
61 97 168
60 97 161
60 97 165
61 98 172
62 99 171
61 98 169
62 98 172
61 97 167
61 98 172
61 97 167
61 98 169
61 97 169
62 98 174
60 97 168
61 98 170
61 98 172
61 98 174
62 98 171
61 97 171
61 97 169
62 98 172
61 98 171
61 97 168
62 98 172
61 97 170
60 97 167
61 97 167
60 96 171
60 96 170
61 98 172
61 98 171
60 96 163
61 97 167
60 96 167
61 97 172
59 95 168
60 96 168
60 96 168
61 97 167
61 97 172
61 97 174
60 96 168
60 95 164
60 96 170
58 93 164
59 95 170
60 94 163
59 94 169
59 94 168
59 94 166
60 94 166
58 92 162
58 92 161
58 92 161
59 94 166
58 91 157
57 90 158
56 88 149
57 90 157
58 93 164
58 92 161
57 90 157
57 89 153
57 90 154
57 90 154
57 90 153
56 89 151
54 85 146
54 85 139
56 88 153
56 88 145
55 85 142
56 87 143
78 89 120
99 84 53
98 79 27
110 92 43
97 77 27
101 87 42
105 88 39
98 80 32
108 89 39
96 78 36
102 84 41
103 83 35
91 73 24
97 80 29
102 81 33
99 79 35
96 76 23
102 86 37
103 85 37
104 86 37
114 96 39
102 84 37
107 87 37
111 92 40
91 72 24
109 90 36
100 84 37
105 86 33
103 84 29
97 74 25
97 78 32
101 81 34
114 93 40
104 88 40
109 86 27
103 84 30
108 87 36
102 81 26
99 81 31
106 87 38
102 80 25
105 84 31
104 84 33
102 85 31
109 87 30
106 83 28
110 94 42
114 94 41
106 85 33
110 90 37
105 84 27
104 81 30
115 95 37
104 83 26
107 85 25
101 78 25
113 92 39
108 87 33
103 85 36
101 76 14
110 88 32
109 89 34
105 86 35
103 82 22
107 86 37
111 89 31
114 92 37
107 87 32
108 86 28
110 89 34
112 92 34
112 90 31
111 88 32
112 91 37
104 84 36
112 92 38
110 89 35
111 89 40
96 78 29
108 88 30
104 81 27
112 93 35
109 88 35
114 93 38
107 86 31
111 87 35
119 97 32
113 91 42
109 89 36
110 90 36
109 91 39
107 86 33
107 89 40
107 88 42
109 91 44
105 86 36
111 90 38
105 85 31
112 94 42
113 93 43
108 87 33
116 96 44
109 94 44
115 97 46
115 96 47
105 85 34
97 79 34
114 96 47
113 96 41
119 101 53
130 131 28
165 186 11
171 194 0
174 197 0
174 196 0
171 194 0
173 195 0
172 195 0
170 193 0
168 191 0
170 193 0
170 194 0
172 196 0
173 197 0
173 196 0
172 195 0
174 197 0
170 194 0
173 197 0
172 195 0
173 196 0
172 194 0
171 194 0
175 198 0
171 195 0
172 194 0
174 197 0
175 198 0
173 197 0
173 196 0
171 194 0
172 195 0
172 195 0
172 196 0
172 195 0
171 195 0
173 196 0
172 195 0
170 194 0
172 195 0
172 195 0
173 197 0
171 195 0
174 197 0
172 195 0
172 194 0
173 197 0
173 195 0
174 197 0
172 195 0
174 197 0
170 193 0
171 194 0
174 197 0
173 196 0
174 197 0
173 196 0
172 196 0
173 196 0
173 196 0
173 195 0
173 196 0
171 195 0
172 195 0
173 196 0
171 195 0
171 195 0
172 195 0
173 195 0
171 195 0
172 196 0
171 194 0
173 196 0
173 196 0
173 196 0
171 194 0
172 195 0
171 195 0
171 194 0
170 194 0
173 196 0
170 194 0
170 193 0
172 196 0
169 193 0
173 195 0
171 194 0
172 194 0
170 194 0
172 195 0
172 195 0
171 193 0
171 194 0
171 194 0
168 191 0
156 177 0
154 174 0
153 174 0
154 175 0
154 175 0
154 175 0
153 174 0
154 175 0
154 175 0
151 173 0
153 174 0
153 173 0
153 174 0
153 174 0
154 174 0
154 175 0
153 174 0
152 174 0
152 173 0
154 175 0
153 173 0
154 174 0
154 175 0
153 174 0
155 175 0
154 174 0
154 175 0
154 174 0
154 175 0
155 175 0
154 174 0
153 174 0
153 174 0
156 176 0
153 174 0
153 173 0
154 175 0
153 173 0
153 173 0
155 175 0
152 173 0
152 172 0
152 173 0
153 174 0
154 174 0
153 174 0
154 175 0
153 174 0
154 175 0
151 171 0
153 174 0
152 173 0
152 174 0
155 175 0
154 175 0
152 173 0
151 173 0
154 174 0
153 174 0
154 175 0
151 172 0
150 172 0
154 175 0
130 150 65
49 78 120
47 75 109
48 77 116
48 77 118
47 75 113
46 74 108
47 75 115
47 75 116
44 71 107
43 69 108
42 68 103
42 68 102
45 71 115
44 70 111
41 67 105
43 70 106
41 66 104
40 65 104
38 62 100
35 57 90
38 62 105
36 59 97
35 57 90
36 58 96
31 52 88
37 60 100
34 55 93
30 50 80
33 53 84
32 53 81
27 45 83
37 59 97
55 88 149
58 92 155
58 93 156
57 92 157
58 94 146
60 96 166
61 96 164
60 95 161
61 97 161
61 96 155
60 96 157
61 98 169
61 97 161
61 98 170
61 98 166
62 98 169
61 97 163
61 97 165
61 98 165
61 97 168
61 97 166
61 97 166
61 97 167
61 98 167
61 98 173
61 98 169
61 97 162
61 98 171
60 97 168
62 98 168
62 98 170
61 98 171
61 98 175
61 97 164
62 98 169
61 98 171
61 97 166
62 98 169
62 98 172
61 98 170
61 98 170
61 98 174
61 97 170
61 97 169
61 97 170
61 98 175
60 96 159
61 97 171
61 98 175
60 96 169
61 97 172
61 98 174
61 97 169
62 98 175
61 97 171
61 97 172
60 96 171
60 97 166
60 96 167
59 93 164
60 96 170
60 95 162
61 97 173
60 96 171
60 94 163
59 95 164
60 95 168
59 94 162
58 92 163
60 95 168
58 93 164
59 94 165
59 93 162
58 92 162
60 94 163
58 92 160
59 93 164
58 90 154
57 91 156
57 90 157
56 89 155
58 93 163
59 92 156
59 93 162
57 90 155
57 88 142
56 88 149
57 89 148
57 89 153
57 89 154
57 89 146
57 89 152
54 85 141
56 87 143
55 87 147
56 87 145
55 87 149
55 85 137
72 79 108
101 83 41
102 84 38
112 94 45
96 76 31
98 77 31
96 78 35
102 86 39
104 84 34
102 84 40
99 84 38
105 88 39
105 86 37
100 84 39
107 91 40
102 82 36
110 94 39
98 76 27
107 85 30
95 76 31
115 93 40
96 77 31
98 78 30
115 94 43
102 84 32
105 86 35
103 80 27
103 82 28
99 79 32
106 89 40
106 84 31
104 83 31
99 79 28
109 87 35
104 85 28
114 96 41
109 87 31
110 90 36
101 80 28
102 81 27
110 87 39
108 90 33
113 94 34
105 84 24
110 89 31
106 81 22
102 82 25
110 88 31
110 88 33
105 85 27
112 90 38
100 81 30
104 82 28
105 87 28
105 82 30
106 87 35
111 91 35
117 95 37
112 93 41
109 90 40
109 89 33
100 78 25
108 88 33
103 80 30
110 89 30
112 92 34
105 87 39
106 88 37
116 98 41
117 96 39
106 84 29
110 90 32
118 95 38
108 86 26
113 93 39
112 90 32
100 76 23
107 89 39
109 90 37
111 89 36
116 95 36
114 95 42
115 94 33
106 83 29
121 102 44
111 93 43
107 84 34
119 98 41
106 87 39
112 92 38
104 85 35
107 86 34
108 89 40
108 88 39
111 92 40
116 98 50
108 90 38
113 93 38
115 93 39
113 93 34
104 85 39
110 89 38
109 89 35
106 90 42
114 95 43
111 92 42
111 89 38
112 89 37
111 91 34
111 91 40
111 93 43
103 82 34
109 94 39
138 145 20
168 192 0
172 195 0
171 194 0
174 197 0
172 195 0
173 196 0
172 195 0
172 196 0
172 194 0
173 197 0
170 193 0
171 194 0
172 196 0
171 194 0
171 195 0
172 194 0
172 195 0
172 196 0
172 195 0
173 196 0
173 196 0
171 195 0
172 196 0
173 196 0
171 195 0
170 193 0
173 195 0
171 194 0
171 194 0
173 196 0
174 197 0
171 195 0
173 197 0
170 194 0
170 194 0
171 194 0
171 195 0
172 196 0
169 192 0
170 194 0
172 196 0
171 194 0
171 195 0
174 197 0
174 197 0
173 197 0
173 196 0
173 197 0
173 196 0
175 197 0
174 197 0
172 196 0
174 196 0
172 195 0
171 195 0
172 195 0
171 194 0
173 196 0
173 196 0
172 195 0
171 195 0
171 195 0
173 196 0
173 196 0
171 194 0
173 196 0
172 196 0
173 196 0
172 195 0
170 194 0
172 195 0
172 196 0
174 196 0
172 195 0
174 197 0
170 193 0
171 194 0
171 194 0
171 194 0
172 195 0
171 194 0
171 194 0
170 194 0
170 194 0
171 194 0
170 193 0
169 193 0
174 196 0
172 195 0
172 195 0
172 195 0
169 192 0
160 181 0
154 175 0
154 175 0
154 175 0
154 175 0
154 175 0
155 175 0
155 175 0
153 173 0
153 174 0
153 175 0
153 175 0
153 173 0
154 175 0
154 174 0
153 174 0
152 173 0
154 174 0
153 173 0
154 175 0
153 173 0
155 176 0
152 173 0
154 175 0
154 175 0
153 174 0
153 174 0
152 173 0
153 173 0
151 172 0
152 174 0
154 174 0
154 175 0
152 173 0
154 174 0
152 173 0
153 174 0
154 174 0
153 174 0
152 174 0
154 175 0
153 174 0
154 175 0
152 172 0
154 175 0
153 174 0
153 174 0
153 174 0
154 174 0
154 175 0
153 174 0
154 175 0
152 173 0
155 175 0
154 174 0
153 173 0
152 173 0
155 176 0
153 174 0
153 173 0
154 174 0
154 175 0
154 174 0
128 150 69
49 78 116
46 74 108
48 77 120
46 74 108
47 75 113
47 75 119
47 75 116
46 73 114
44 71 112
44 70 100
43 69 111
42 67 101
43 69 105
41 66 106
43 69 103
42 68 108
38 62 97
42 67 109
38 62 101
38 62 99
39 63 96
36 58 94
39 63 101
32 52 81
29 48 81
34 57 98
32 53 95
31 51 87
31 52 88
29 47 73
29 48 88
49 80 133
55 88 143
59 94 156
58 93 152
57 92 150
59 94 156
59 94 153
60 96 162
59 95 155
60 97 164
61 98 170
61 97 165
61 98 169
60 96 159
61 97 165
61 98 170
61 97 162
61 97 165
61 98 170
61 97 163
60 97 164
62 98 169
61 97 166
61 97 159
60 97 160
60 97 167
61 97 165
61 98 170
62 99 174
61 98 166
61 98 171
61 98 170
61 97 158
61 98 171
61 97 166
61 97 169
62 98 174
61 98 164
61 98 170
61 98 171
62 98 171
61 97 168
62 98 174
61 98 170
61 98 171
62 98 173
60 97 165
61 98 170
61 98 173
61 97 168
61 97 169
62 98 173
61 97 170
61 98 172
61 97 170
60 96 170
61 98 174
61 97 171
61 96 166
61 97 172
61 96 166
61 97 171
60 96 168
60 95 162
60 97 172
61 95 163
59 94 165
59 94 164
59 94 166
60 96 169
60 95 167
60 95 165
59 94 163
60 96 171
59 93 157
59 93 161
58 93 163
59 94 163
58 91 159
59 92 159
58 93 164
58 91 157
56 89 153
56 88 151
56 88 151
56 87 150
57 90 158
57 88 149
56 87 148
56 87 148
56 88 152
55 87 147
54 83 136
56 87 140
54 84 138
57 87 143
53 84 144
55 86 147
80 78 94
105 91 48
95 78 37
93 77 39
102 85 38
94 77 29
103 86 43
98 83 37
103 84 38
98 80 28
88 67 24
92 74 34
100 79 25
94 74 25
99 81 31
100 81 33
112 95 45
97 78 29
98 79 32
111 92 38
100 80 32
104 84 29
94 74 28
106 87 38
99 80 26
111 91 37
108 89 33
107 87 33
92 73 25
106 86 28
110 89 35
106 87 31
103 82 28
108 87 38
105 82 25
98 77 29
116 96 41
111 92 36
110 90 32
109 89 36
110 87 37
110 91 33
105 84 29
119 102 48
107 86 29
104 85 34
112 90 30
111 93 36
110 90 31
101 80 27
112 93 32
110 86 28
99 79 28
110 92 35
113 93 39
105 84 30
105 83 24
106 83 31
109 86 27
111 92 37
110 92 36
110 90 33
117 96 34
108 90 31
104 82 36
99 80 32
105 82 27
105 81 28
111 90 34
111 88 29
109 89 34
108 88 32
104 84 31
107 88 34
108 91 34
95 73 28
106 85 30
103 79 25
113 92 36
114 93 38
106 85 31
114 94 43
118 99 43
105 83 35
114 91 39
115 90 29
106 87 37
108 87 37
118 98 37
101 83 34
112 92 37
117 95 37
114 93 37
116 97 39
109 86 32
110 90 32
104 86 30
107 87 39
101 83 33
116 96 42
118 95 36
113 93 44
100 77 28
109 90 40
110 91 36
117 98 50
110 89 40
110 89 39
111 92 44
109 88 39
107 87 37
113 96 43
120 101 49
93 74 30
107 90 42
126 118 38
160 177 20
171 195 0
172 196 0
174 196 0
172 195 0
171 194 0
171 195 0
173 196 0
171 194 0
170 194 0
172 195 0
171 195 0
172 195 0
172 196 0
172 195 0
169 193 0
172 195 0
174 197 0
172 195 0
170 194 0
170 194 0
173 196 0
173 197 0
172 195 0
172 196 0
171 195 0
171 195 0
171 195 0
174 197 0
171 195 0
172 196 0
173 196 0
172 195 0
173 195 0
171 193 0
172 196 0
171 195 0
172 196 0
172 196 0
172 195 0
174 197 0
174 197 0
173 196 0
175 198 0
172 196 0
172 195 0
172 196 0
173 197 0
171 195 0
173 196 0
173 196 0
173 196 0
173 196 0
173 196 0
171 193 0
171 195 0
171 195 0
172 196 0
172 194 0
172 195 0
172 196 0
174 197 0
175 197 0
173 196 0
173 196 0
172 196 0
172 195 0
173 196 0
171 194 0
173 196 0
172 195 0
174 197 0
170 194 0
173 196 0
172 195 0
171 194 0
170 193 0
171 194 0
169 192 0
171 195 0
173 195 0
171 194 0
170 193 0
171 194 0
170 194 0
171 193 0
171 194 0
170 194 0
170 193 0
170 192 0
169 193 0
160 182 0
154 174 0
152 173 0
154 175 0
153 173 0
154 175 0
154 175 0
153 175 0
153 173 0
154 174 0
152 173 0
153 174 0
153 173 0
151 171 0
154 174 0
154 174 0
152 173 0
154 174 0
154 175 0
154 174 0
153 174 0
153 174 0
154 175 0
155 176 0
153 174 0
154 175 0
155 175 0
152 173 0
155 175 0
154 174 0
153 174 0
153 174 0
154 174 0
151 173 0
151 172 0
154 174 0
153 174 0
154 175 0
154 174 0
153 174 0
153 175 0
151 172 0
154 175 0
154 175 0
152 173 0
153 174 0
153 173 0
152 173 0
151 172 0
153 173 0
154 175 0
155 175 0
153 174 0
154 174 0
153 174 0
153 174 0
153 174 0
153 174 0
154 174 0
154 175 0
154 174 0
154 175 0
154 175 0
142 163 48
48 77 116
47 76 117
47 76 111
46 74 110
47 76 116
44 71 97
47 76 117
43 69 103
45 73 112
46 73 116
44 70 110
43 69 102
41 66 103
44 72 105
40 66 95
42 67 99
41 66 102
39 64 96
39 62 97
37 61 95
37 61 91
36 60 96
36 59 100
33 54 86
33 54 84
34 56 84
33 54 84
29 49 83
29 48 83
32 53 88
35 57 95
54 86 140
57 91 149
58 92 152
59 94 159
58 93 157
59 94 155
58 93 150
59 95 158
60 95 155
60 96 160
60 96 161
61 96 158
60 96 162
60 96 164
61 97 164
62 98 171
62 98 161
61 98 171
61 97 167
61 98 167
61 98 166
61 97 167
61 98 166
61 97 160
61 98 169
62 98 173
61 98 171
62 98 171
62 98 172
61 98 168
61 98 174
61 97 167
61 98 167
61 97 164
61 98 174
61 98 168
61 98 170
61 97 165
61 97 168
61 97 163
61 97 167
61 98 172
61 97 170
61 98 176
62 98 172
61 98 165
61 97 173
61 97 170
61 98 172
60 97 169
61 98 173
61 97 172
61 97 169
60 96 168
61 98 171
61 97 173
61 97 167
60 97 171
61 97 170
61 97 169
62 98 174
61 97 172
59 94 165
60 95 165
60 97 171
60 95 164
59 94 166
60 96 169
59 94 166
59 94 164
61 96 170
60 95 166
59 93 162
58 92 165
58 93 164
59 93 159
59 93 160
58 91 155
58 91 158
56 88 148
57 91 160
58 91 159
57 90 155
58 93 162
56 88 150
57 90 156
57 91 159
56 88 151
57 89 151
55 86 146
56 88 149
54 83 133
55 85 140
54 84 144
55 86 145
53 82 134
55 86 145
80 71 61
93 76 36
92 76 34
101 86 45
86 68 28
92 74 22
94 77 34
90 70 29
105 87 39
89 70 28
103 88 39
88 65 24
99 77 33
101 81 30
98 80 30
102 83 35
98 78 27
90 68 25
113 94 37
108 89 39
98 77 24
108 86 34
106 82 22
106 86 35
106 85 33
107 88 35
104 86 32
93 72 21
116 97 44
101 79 30
105 87 33
105 86 33
103 82 25
95 74 29
109 91 37
112 91 34
106 83 30
108 89 38
114 94 37
114 93 41
104 82 26
109 88 34
106 85 32
110 88 32
103 82 33
101 83 29
107 83 28
115 96 39
106 84 32
110 90 33
100 79 27
113 94 38
112 91 36
105 87 36
107 86 34
108 88 28
104 84 27
115 95 35
110 88 25
106 86 36
95 74 17
108 88 36
109 87 32
107 87 26
110 89 31
113 92 32
111 91 34
106 85 29
100 79 29
110 88 27
111 89 31
105 81 24
108 87 30
107 85 28
112 93 39
104 85 31
110 90 35
103 81 27
112 92 42
107 85 34
107 87 33
109 88 33
116 96 39
101 80 30
110 90 39
112 89 34
111 90 31
119 97 38
111 90 28
112 90 30
106 88 35
102 80 27
105 81 27
111 92 45
112 91 33
100 79 28
106 84 36
112 91 37
116 95 41
98 77 27
103 83 33
104 84 33
112 91 38
113 92 37
102 80 30
101 82 37
103 84 39
110 89 39
118 96 39
98 78 30
105 84 31
109 90 45
117 98 48
107 86 36
115 97 50
102 82 35
105 87 41
114 96 43
139 141 42
172 194 11
171 195 0
172 195 0
173 196 0
172 195 0
173 195 0
171 195 0
169 192 0
174 197 0
172 195 0
173 196 0
173 196 0
172 194 0
173 196 0
170 194 0
173 196 0
174 197 0
173 196 0
169 193 0
173 196 0
172 195 0
170 194 0
170 192 0
172 196 0
172 195 0
173 196 0
171 194 0
170 192 0
172 196 0
174 196 0
172 196 0
170 193 0
172 196 0
170 195 0
174 197 0
170 193 0
173 196 0
174 196 0
171 193 0
170 194 0
174 197 0
174 197 0
173 196 0
173 196 0
172 196 0
171 195 0
174 197 0
172 196 0
172 195 0
172 195 0
170 194 0
171 194 0
171 194 0
172 195 0
172 195 0
172 195 0
171 194 0
173 196 0
172 195 0
171 195 0
171 195 0
172 196 0
171 195 0
174 197 0
172 195 0
173 196 0
172 195 0
171 194 0
173 196 0
173 195 0
173 195 0
172 195 0
171 195 0
172 195 0
171 194 0
173 196 0
172 195 0
172 195 0
172 194 0
172 194 0
171 194 0
171 194 0
170 193 0
169 192 0
173 195 0
170 193 0
169 193 0
170 193 0
170 193 0
165 187 0
156 176 0
154 174 0
153 174 0
154 175 0
154 174 0
152 173 0
153 174 0
154 175 0
154 175 0
153 173 0
154 175 0
153 173 0
152 172 0
154 175 0
154 175 0
154 174 0
153 174 0
153 174 0
154 174 0
152 173 0
155 175 0
155 175 0
153 173 0
151 173 0
151 172 0
153 174 0
152 173 0
153 174 0
152 173 0
154 174 0
153 174 0
152 173 0
155 176 0
152 173 0
154 174 0
154 175 0
152 173 0
154 174 0
154 174 0
155 175 0
153 174 0
154 174 0
155 175 0
154 175 0
155 175 0
154 174 0
153 174 0
153 173 0
154 174 0
152 173 0
153 174 0
152 174 0
152 173 0
153 174 0
155 175 0
152 173 0
154 174 0
153 174 0
153 174 0
153 173 0
154 175 0
152 174 0
148 168 22
49 77 114
47 76 109
44 72 102
47 76 111
46 74 119
45 72 110
46 73 114
43 69 107
44 71 105
42 68 107
42 68 106
44 70 100
43 70 107
42 68 104
41 65 97
39 64 100
41 66 101
41 66 99
39 63 103
39 62 97
40 65 105
37 61 101
33 54 93
36 58 93
32 52 79
35 57 89
34 56 89
29 48 82
31 50 84
30 49 77
43 69 114
55 88 137
58 93 145
60 95 155
59 94 157
59 95 152
59 94 159
60 95 156
60 96 156
60 96 163
60 96 165
61 97 157
62 98 170
61 97 163
61 97 159
62 98 163
61 98 168
61 97 166
61 97 158
61 97 161
61 97 162
61 97 163
62 99 174
61 98 171
61 98 169
62 98 168
61 98 167
61 98 172
61 98 165
60 97 160
60 97 165
61 98 170
61 98 167
61 97 161
62 98 174
61 98 170
62 98 170
61 98 170
61 98 170
61 97 167
60 96 161
61 98 168
61 98 170
62 98 171
61 97 168
61 98 169
61 97 167
60 97 170
61 98 171
62 98 171
61 97 170
62 98 175
61 97 166
60 96 165
61 96 167
59 95 162
61 97 171
60 96 167
60 96 167
60 96 171
60 96 167
60 96 163
60 96 165
61 96 168
60 95 166
59 94 157
61 96 167
60 93 159
60 95 167
61 96 167
60 94 161
59 94 163
59 93 158
58 92 162
59 93 160
59 93 157
58 92 160
58 92 160
57 90 155
58 92 157
57 89 149
59 92 155
59 94 166
55 87 146
58 91 157
57 90 156
55 88 151
57 88 150
56 88 148
57 89 152
56 85 139
55 86 144
57 89 151
54 84 141
56 87 145
54 82 131
63 87 132
80 78 92
90 70 28
92 75 34
85 67 32
90 70 27
95 79 37
92 72 28
90 71 26
99 81 36
93 74 30
105 84 37
98 77 28
92 72 23
103 83 35
103 83 36
96 77 26
98 79 30
100 83 33
110 92 41
92 74 30
104 85 39
91 71 23
99 80 28
98 81 35
109 88 38
110 91 40
107 88 36
107 87 36
105 88 40
98 78 30
97 75 26
105 86 27
107 87 36
110 91 38
103 82 30
109 89 27
104 81 26
100 79 27
107 87 32
103 82 33
97 77 18
104 82 28
111 86 30
108 87 35
100 79 28
101 82 31
106 86 30
111 92 35
98 78 26
113 94 43
102 81 26
103 81 21
107 85 26
106 89 39
105 85 29
101 80 25
109 88 30
101 80 25
108 88 32
110 87 34
105 82 28
100 77 25
93 72 17
111 89 36
105 84 32
106 85 29
106 85 33
108 85 27
107 84 30
109 86 27
110 92 33
109 87 26
104 84 31
108 87 32
103 79 20
108 89 36
108 92 39
103 83 32
97 75 16
93 72 22
107 87 33
111 90 35
109 87 37
99 79 29
117 95 41
102 81 29
106 82 26
95 76 24
119 97 38
107 85 29
112 93 36
112 92 39
113 90 31
104 84 33
113 90 35
97 76 31
114 93 36
119 99 46
114 92 39
103 84 37
108 88 34
100 79 28
110 90 38
114 96 45
108 90 38
108 89 39
109 88 41
113 95 46
105 85 34
104 87 42
100 81 33
99 78 34
101 81 33
111 93 44
101 82 38
94 74 28
104 86 38
100 81 35
113 94 44
108 91 45
109 97 36
163 182 12
174 197 0
171 193 0
174 196 0
173 196 0
171 195 0
172 194 0
169 192 0
169 192 0
170 194 0
172 196 0
173 196 0
172 194 0
167 191 0
171 194 0
170 194 0
173 196 0
172 195 0
174 197 0
172 195 0
170 193 0
173 196 0
174 197 0
173 196 0
168 191 0
173 196 0
171 194 0
172 194 0
172 196 0
173 196 0
172 195 0
172 195 0
171 194 0
172 196 0
171 194 0
171 194 0
173 196 0
173 196 0
173 196 0
173 196 0
173 195 0
172 196 0
173 196 0
171 195 0
173 196 0
171 195 0
174 197 0
173 195 0
172 195 0
174 197 0
172 195 0
171 194 0
173 196 0
171 194 0
172 196 0
172 196 0
172 195 0
171 194 0
174 197 0
172 195 0
174 196 0
171 194 0
172 196 0
171 195 0
172 196 0
172 195 0
173 195 0
172 195 0
171 195 0
173 195 0
171 195 0
172 194 0
175 197 0
170 194 0
172 195 0
172 195 0
170 194 0
171 195 0
172 195 0
171 194 0
172 194 0
171 194 0
169 192 0
170 194 0
170 193 0
169 192 0
168 192 0
169 192 0
169 191 0
154 174 0
153 174 0
154 174 0
152 173 0
154 175 0
153 174 0
154 174 0
153 175 0
154 175 0
153 174 0
152 172 0
152 173 0
152 174 0
154 174 0
154 174 0
153 174 0
155 175 0
153 174 0
154 175 0
151 172 0
153 173 0
152 173 0
153 174 0
154 174 0
154 174 0
154 175 0
154 174 0
152 173 0
154 174 0
153 174 0
153 173 0
153 174 0
154 174 0
152 173 0
152 173 0
153 174 0
153 174 0
155 176 0
153 174 0
152 172 0
152 173 0
152 173 0
153 174 0
151 172 0
153 174 0
154 174 0
152 173 0
155 175 0
153 174 0
153 174 0
153 174 0
152 173 0
153 174 0
154 175 0
153 173 0
155 175 0
154 174 0
151 172 0
152 173 0
151 172 0
151 172 0
153 174 0
153 174 0
55 81 108
46 73 105
49 78 115
45 71 107
46 74 113
46 74 113
47 75 116
44 71 106
45 73 105
44 70 111
45 71 105
42 68 102
42 67 102
43 69 105
41 66 95
40 65 100
41 66 99
38 61 97
39 63 87
37 60 89
38 62 95
37 60 97
35 58 87
37 60 90
36 58 95
35 56 81
31 50 87
31 51 87
30 49 80
32 52 80
51 81 129
56 90 145
58 93 153
59 94 154
59 94 151
59 94 158
59 94 155
59 95 159
60 95 152
60 96 158
60 96 160
61 97 156
61 97 161
61 97 165
61 97 156
61 97 163
62 98 172
61 97 163
61 98 168
61 98 164
61 97 164
61 98 169
61 97 163
62 99 172
61 98 171
61 97 164
62 98 169
60 96 159
62 98 171
61 98 168
61 97 169
61 97 163
61 98 174
61 98 169
61 98 167
61 98 168
61 98 172
61 97 167
61 98 166
60 97 166
61 97 169
61 97 169
62 98 175
62 98 171
62 98 168
60 96 167
61 97 167
62 98 174
62 98 172
61 97 172
60 96 165
61 96 164
60 96 167
61 97 169
61 96 166
60 96 167
61 96 161
61 96 165
60 95 166
60 95 164
60 96 162
59 95 164
60 95 163
59 95 167
60 95 163
61 96 169
60 95 166
59 94 160
60 96 167
59 93 159
60 95 166
59 94 159
60 95 168
59 92 155
59 93 163
58 91 158
59 93 163
58 93 159
58 91 157
57 90 152
56 88 147
58 91 152
57 89 153
54 84 139
56 88 150
56 88 149
55 86 142
53 84 142
56 87 143
56 87 148
55 86 142
53 82 133
53 81 133
56 86 142
54 85 144
54 84 136
84 81 83
98 81 39
93 76 35
98 84 42
95 78 35
92 74 32
85 66 28
107 87 38
90 70 27
104 86 37
105 86 34
96 78 30
86 68 29
109 92 45
101 80 30
96 81 36
102 82 29
102 82 34
103 86 39
97 79 25
102 86 37
112 94 45
97 78 27
95 76 29
98 77 24
104 85 27
106 87 37
101 81 29
103 82 27
103 80 27
102 82 29
101 80 25
101 80 31
94 76 27
107 83 26
110 88 34
105 84 30
100 77 16
109 91 34
110 91 37
95 71 17
108 85 28
93 70 16
107 87 31
104 85 31
100 80 31
106 85 33
105 84 28
102 82 29
107 84 30
107 86 28
103 80 25
111 89 34
111 91 37
109 86 32
106 84 26
108 86 25
108 90 38
101 81 27
112 91 32
111 87 32
111 89 33
101 77 16
108 87 31
116 99 40
112 93 35
115 96 33
101 83 28
103 81 28
107 85 33
107 87 36
113 95 39
109 89 32
107 87 28
104 82 21
111 93 35
102 81 23
113 91 27
110 89 38
102 82 30
104 83 28
107 84 29
109 90 34
105 84 30
107 85 26
95 73 23
107 88 40
115 94 36
110 91 37
105 84 31
113 90 31
112 90 32
110 92 38
113 93 36
107 89 31
104 82 27
101 78 24
106 86 32
108 86 36
113 94 43
109 89 35
102 81 35
106 86 36
108 88 38
110 93 39
109 88 32
110 88 36
108 88 38
108 86 36
114 93 40
105 85 41
97 77 32
111 92 42
110 93 43
107 83 31
113 94 44
107 86 37
113 95 45
110 94 44
103 85 40
110 92 46
113 99 49
102 84 28
143 153 35
172 195 11
170 194 0
171 194 0
169 192 0
173 196 0
171 195 0
172 197 0
172 195 0
171 194 0
170 193 0
171 194 0
172 196 0
170 193 0
173 196 0
173 196 0
172 195 0
173 196 0
172 195 0
174 196 0
172 194 0
170 193 0
171 194 0
172 195 0
172 195 0
172 195 0
171 195 0
170 193 0
172 195 0
170 194 0
170 194 0
172 196 0
174 197 0
172 196 0
173 197 0
172 195 0
173 197 0
173 196 0
172 195 0
173 196 0
173 197 0
172 196 0
171 195 0
172 195 0
173 196 0
173 196 0
174 197 0
172 196 0
173 196 0
174 197 0
170 195 0
172 196 0
171 195 0
172 195 0
170 194 0
171 195 0
172 195 0
173 196 0
170 193 0
172 194 0
172 195 0
172 195 0
173 196 0
170 194 0
172 196 0
174 197 0
171 194 0
172 195 0
170 194 0
172 195 0
173 195 0
172 195 0
172 195 0
168 192 0
171 194 0
170 194 0
171 193 0
172 195 0
170 193 0
171 194 0
173 195 0
171 193 0
169 192 0
171 193 0
169 193 0
172 194 0
171 193 0
169 191 0
153 173 0
153 173 0
155 176 0
153 174 0
153 174 0
154 174 0
153 173 0
153 174 0
155 175 0
153 173 0
155 176 0
154 175 0
154 175 0
153 173 0
153 173 0
154 174 0
155 176 0
154 174 0
152 172 0
154 174 0
152 173 0
152 172 0
152 172 0
152 173 0
153 174 0
154 174 0
155 175 0
154 174 0
153 174 0
154 174 0
153 174 0
153 174 0
151 172 0
152 173 0
155 175 0
152 173 0
153 174 0
152 173 0
155 175 0
151 172 0
153 174 0
152 174 0
154 173 0
153 174 0
153 173 0
153 174 0
152 173 0
153 174 0
151 172 0
154 175 0
153 174 0
154 174 0
152 172 0
154 173 0
154 175 0
153 174 0
156 176 0
152 173 0
153 173 0
153 174 0
155 175 0
153 174 0
153 173 0
67 91 105
48 76 107
46 74 101
47 75 109
47 75 111
47 74 102
46 74 110
44 71 99
43 70 101
40 64 96
46 73 103
39 63 91
45 72 108
41 67 97
40 65 97
40 65 98
40 65 100
39 63 100
37 61 94
36 59 91
37 60 93
39 63 93
38 62 90
33 55 87
32 53 83
33 53 87
33 53 85
34 55 87
29 47 69
30 49 81
54 86 132
56 90 151
56 90 146
59 93 151
60 96 159
60 96 156
59 94 152
59 95 152
60 96 159
61 97 165
60 97 162
60 96 156
61 97 160
62 98 166
61 97 165
61 97 164
60 96 158
61 98 167
60 97 164
61 98 166
61 97 165
61 98 165
61 97 165
61 97 165
61 98 168
61 98 170
61 97 165
61 98 172
61 98 170
61 97 161
61 97 158
62 98 173
61 98 168
62 98 172
61 98 172
61 98 163
61 98 170
61 97 169
60 97 169
62 98 170
61 97 166
61 97 166
61 98 169
60 97 171
61 97 166
61 98 172
61 97 170
60 96 163
60 96 165
60 96 165
61 97 169
61 98 172
61 97 169
61 98 172
60 96 168
61 97 169
61 97 169
59 95 165
61 97 174
60 96 170
60 96 168
61 97 170
60 96 161
59 94 161
60 94 162
60 95 167
60 95 164
59 93 162
59 94 161
60 95 166
59 93 161
59 93 158
59 93 159
60 95 168
57 90 153
59 94 167
59 93 159
58 91 155
57 90 157
57 89 151
57 89 153
56 88 147
57 88 149
57 88 147
56 87 146
56 87 147
56 87 149
54 84 140
56 87 148
54 84 141
54 84 138
56 86 143
55 86 146
57 87 142
53 82 131
82 84 101
90 73 31
96 82 43
87 69 31
83 64 29
86 70 25
99 79 29
95 78 29
97 78 34
102 86 38
96 77 29
89 71 26
94 76 24
98 76 26
97 78 22
96 78 24
97 79 36
109 90 39
102 85 35
99 80 24
101 78 29
107 87 33
111 89 29
99 79 29
98 78 25
97 74 24
96 79 31
104 82 27
93 73 27
96 78 29
98 79 36
102 83 33
99 77 25
100 77 24
107 86 35
101 76 20
105 87 30
103 84 30
101 81 23
101 80 31
108 86 29
100 78 19
106 84 30
95 75 25
101 81 27
94 73 17
112 90 34
110 87 28
107 86 28
106 87 33
102 79 29
115 96 35
111 88 26
105 86 33
103 84 30
111 90 30
105 84 26
110 90 30
105 84 29
103 83 34
117 95 36
96 75 26
116 96 35
108 89 37
109 87 32
105 83 29
105 84 29
110 91 38
106 86 31
108 86 34
106 83 32
113 93 37
116 95 38
109 89 31
106 85 22
105 82 26
107 84 27
104 86 32
106 87 34
106 84 34
114 93 34
103 83 33
106 85 31
110 90 40
107 89 31
109 89 35
106 83 30
108 85 31
101 78 23
108 86 29
112 94 29
106 88 30
107 90 36
105 83 29
106 88 38
117 96 41
112 94 35
97 77 29
103 81 24
108 90 38
113 93 40
105 83 32
107 86 32
106 86 34
106 87 40
104 86 39
98 79 27
104 86 35
110 86 26
100 80 30
105 84 31
105 85 32
98 77 30
103 83 33
104 83 32
108 90 44
106 88 36
113 92 43
103 81 29
106 87 37
100 79 33
114 97 48
109 90 43
103 85 39
110 92 42
123 117 39
165 185 11
170 193 0
168 191 0
172 195 0
169 193 0
166 190 0
172 195 0
170 193 0
170 194 0
172 195 0
170 193 0
173 196 0
172 195 0
172 195 0
173 196 0
171 194 0
169 193 0
170 194 0
172 195 0
171 194 0
173 196 0
171 193 0
174 197 0
172 195 0
170 194 0
171 194 0
170 194 0
170 194 0
172 195 0
171 195 0
172 194 0
174 197 0
171 193 0
174 197 0
175 197 0
173 195 0
173 197 0
169 193 0
170 193 0
171 195 0
173 195 0
172 195 0
171 195 0
172 195 0
173 196 0
175 197 0
172 195 0
172 195 0
170 194 0
173 196 0
170 194 0
172 194 0
172 195 0
172 195 0
172 195 0
174 196 0
172 195 0
171 194 0
173 196 0
172 196 0
172 196 0
171 195 0
170 194 0
173 196 0
173 196 0
172 195 0
171 194 0
170 194 0
172 194 0
170 193 0
171 194 0
173 195 0
173 195 0
170 194 0
170 193 0
172 195 0
171 194 0
172 195 0
170 193 0
171 194 0
170 193 0
171 193 0
170 194 0
170 194 0
170 193 0
170 192 0
155 176 0
153 173 0
152 172 0
153 174 0
153 174 0
152 173 0
152 173 0
152 173 0
154 174 0
153 174 0
154 175 0
154 175 0
154 174 0
153 174 0
155 175 0
154 174 0
152 173 0
153 174 0
154 174 0
153 174 0
152 173 0
152 173 0
151 172 0
153 174 0
154 175 0
154 174 0
151 172 0
153 174 0
152 173 0
152 174 0
153 173 0
151 173 0
153 174 0
155 175 0
153 174 0
153 174 0
153 173 0
153 173 0
153 174 0
154 174 0
154 174 0
152 173 0
153 174 0
153 173 0
151 173 0
153 174 0
152 172 0
152 173 0
154 175 0
153 174 0
155 175 0
153 174 0
153 174 0
152 172 0
153 173 0
153 174 0
150 170 0
154 174 0
153 174 0
153 173 0
152 174 0
155 175 0
153 173 0
90 111 96
47 75 113
47 75 110
46 74 106
48 75 112
46 74 107
45 72 103
46 74 109
45 72 104
42 67 94
42 68 103
42 68 106
41 65 104
44 70 103
41 66 101
39 63 95
39 63 100
41 66 97
36 59 86
36 58 93
35 58 83
37 59 89
34 56 88
35 57 93
35 56 88
32 52 80
34 56 86
27 45 70
30 48 78
44 70 118
56 89 139
59 93 154
57 91 151
59 94 151
58 93 146
60 95 156
60 95 156
60 96 159
61 97 161
61 96 157
59 95 151
60 96 156
60 96 153
60 96 162
61 98 166
60 96 165
62 98 166
61 97 161
61 98 165
62 98 166
61 97 162
62 98 170
62 98 166
61 97 162
61 97 163
61 97 166
61 97 159
61 97 168
62 99 169
61 97 165
61 98 169
61 98 171
61 98 169
60 97 165
61 98 170
61 98 171
62 97 166
61 97 159
61 98 166
61 97 164
62 98 168
61 98 167
62 99 175
61 97 167
62 98 171
61 98 169
61 97 170
60 96 160
61 97 167
61 97 169
61 98 172
61 96 164
60 96 162
59 95 167
60 96 165
60 95 166
60 96 164
60 96 167
62 98 174
60 95 163
61 96 168
60 96 169
58 92 151
59 93 159
60 96 165
60 95 162
59 95 164
59 93 161
59 94 157
61 96 167
60 95 167
59 93 161
59 92 153
58 92 160
58 91 158
58 92 157
57 90 154
58 91 154
57 90 156
57 89 153
55 86 142
60 94 165
58 91 156
55 85 138
55 87 149
56 88 150
56 86 143
53 82 131
56 88 149
55 85 139
53 83 137
55 86 147
53 81 130
52 81 133
69 80 112
98 83 43
89 75 39
94 77 35
99 86 37
90 74 34
96 79 37
89 73 33
91 74 28
89 69 26
92 74 30
93 76 31
93 75 27
87 69 25
86 69 22
101 81 29
95 77 36
106 87 36
99 82 34
99 80 34
97 75 24
93 73 28
106 83 28
99 77 27
99 81 28
105 85 32
102 82 28
92 71 23
104 85 33
91 70 23
107 87 34
98 75 24
107 87 32
104 85 36
107 85 31
111 89 32
107 89 33
98 78 21
108 86 22
109 87 31
96 76 23
108 89 28
103 82 27
107 86 25
101 77 22
104 80 29
100 78 30
111 90 31
100 78 28
105 86 32
106 82 23
93 75 12
102 78 16
107 88 31
101 83 31
107 86 25
105 83 24
114 92 36
110 90 30
112 92 35
109 88 34
116 95 33
105 87 27
101 80 20
107 85 25
95 74 20
103 79 25
106 85 30
111 89 33
105 83 25
109 88 28
110 88 21
103 84 34
113 92 35
108 88 27
110 89 33
109 90 35
106 85 26
106 84 34
106 86 36
104 86 25
111 90 32
107 85 28
112 90 33
105 88 24
99 75 21
110 89 37
109 89 30
105 83 26
105 86 32
109 87 31
111 91 33
107 86 30
106 84 33
106 86 35
100 79 23
104 81 28
103 80 29
102 80 24
107 86 31
113 95 36
108 89 34
110 89 36
107 83 33
104 83 31
99 80 34
108 86 34
100 80 27
104 85 37
102 83 35
99 77 28
105 85 38
116 98 45
107 85 23
112 94 41
100 80 34
106 88 41
105 87 39
110 91 40
91 74 36
108 89 40
111 90 43
109 90 42
119 102 52
113 96 46
101 83 42
119 102 48
121 109 48
164 180 29
174 197 0
172 196 0
172 195 0
172 194 0
170 192 0
171 194 0
170 193 0
169 193 0
173 195 0
170 193 0
171 194 0
172 195 0
172 194 0
172 195 0
174 196 0
173 196 0
171 195 0
171 194 0
170 193 0
171 193 0
173 195 0
172 194 0
174 197 0
171 194 0
172 195 0
172 196 0
172 195 0
170 194 0
170 193 0
171 194 0
173 196 0
171 194 0
172 196 0
173 196 0
174 197 0
172 194 0
174 196 0
173 196 0
172 195 0
171 194 0
172 196 0
173 195 0
171 195 0
172 196 0
172 195 0
172 195 0
173 196 0
173 196 0
173 196 0
172 196 0
171 195 0
171 195 0
173 196 0
172 195 0
171 194 0
170 194 0
170 194 0
172 195 0
170 193 0
172 196 0
171 194 0
171 195 0
172 195 0
169 193 0
171 194 0
171 195 0
172 195 0
170 194 0
172 195 0
173 196 0
170 194 0
171 194 0
170 193 0
171 194 0
171 194 0
170 193 0
171 194 0
172 195 0
170 194 0
171 194 0
170 192 0
169 192 0
171 193 0
168 191 0
158 180 0
154 175 0
155 175 0
153 173 0
152 173 0
154 175 0
150 171 0
154 175 0
153 174 0
154 174 0
154 174 0
154 175 0
151 173 0
151 172 0
154 174 0
154 174 0
153 173 0
152 174 0
153 173 0
153 173 0
154 174 0
153 173 0
152 173 0
154 174 0
154 174 0
153 174 0
155 175 0
152 172 0
154 175 0
152 172 0
152 173 0
151 172 0
153 174 0
152 173 0
152 173 0
154 175 0
153 174 0
153 174 0
151 172 0
152 173 0
152 173 0
152 172 0
153 174 0
152 172 0
152 172 0
153 174 0
153 173 0
154 174 0
154 175 0
151 172 0
153 174 0
155 175 0
151 172 0
155 175 0
153 174 0
154 175 0
152 173 0
153 173 0
151 172 0
151 172 0
153 173 0
151 173 0
152 173 0
88 110 82
47 74 98
47 76 112
48 76 112
47 74 105
46 74 107
43 70 96
48 76 110
45 72 103
45 71 101
44 70 106
43 69 92
41 67 97
41 66 101
42 67 103
40 64 87
39 63 96
38 61 102
35 57 80
37 60 97
37 59 89
33 55 82
36 59 88
32 53 83
30 50 72
32 53 80
28 46 74
27 45 72
30 49 70
50 80 123
57 91 143
58 92 144
59 94 155
60 95 155
58 93 146
57 92 142
60 96 156
60 96 159
61 97 164
61 97 161
61 97 160
61 97 163
61 97 161
61 97 161
60 97 160
61 97 160
60 97 159
60 96 153
61 98 165
62 98 162
61 97 162
61 97 162
61 98 163
61 98 163
61 97 166
61 97 158
61 98 161
61 98 170
62 99 173
61 98 168
61 97 165
62 98 169
61 97 162
61 97 167
61 98 168
61 97 165
60 97 170
62 99 175
61 97 162
61 97 167
60 96 158
61 97 162
61 98 168
60 97 168
61 98 167
62 98 170
61 97 167
61 96 165
61 98 170
61 97 166
62 98 167
61 97 171
61 97 172
61 96 166
60 96 165
61 97 170
61 97 171
61 96 166
60 95 162
60 95 166
60 95 165
60 95 161
60 96 164
59 94 163
58 92 162
60 94 159
59 93 158
60 95 164
60 94 162
57 92 157
61 96 166
59 94 167
60 94 164
59 94 162
58 92 153
57 89 149
57 89 147
56 89 151
57 90 154
57 90 154
55 87 145
56 88 146
57 89 150
56 88 147
56 86 143
55 86 141
56 87 147
57 89 153
56 86 143
55 85 143
52 81 135
54 83 134
54 84 137
70 85 123
92 79 48
89 72 31
86 70 33
97 79 35
97 82 38
88 71 29
86 69 29
95 78 32
97 79 32
99 78 29
96 78 31
98 78 30
97 77 30
88 68 25
93 75 32
100 81 28
96 77 35
97 77 29
95 76 28
104 83 28
100 76 25
95 76 25
89 71 23
90 68 17
94 73 22
100 79 30
91 69 24
94 75 25
102 82 25
94 74 22
108 86 28
102 81 30
106 84 25
96 76 24
112 91 41
104 85 31
97 75 24
105 83 32
95 77 30
107 84 29
105 84 29
100 80 32
101 76 23
109 84 28
102 82 22
94 70 9
110 90 36
110 92 36
104 84 32
103 82 28
101 79 24
102 82 29
104 83 26
112 91 34
105 85 23
113 93 29
105 82 31
110 91 31
101 80 26
103 81 27
111 90 32
107 89 33
109 91 36
101 80 30
107 86 28
101 81 30
108 88 32
103 84 27
111 94 34
106 87 16
107 84 23
109 91 35
110 89 33
115 91 27
112 90 27
115 97 31
107 86 29
107 85 27
109 90 30
110 86 27
113 92 32
107 85 27
98 78 25
112 90 27
103 84 31
101 79 19
107 85 29
105 82 24
99 78 28
101 78 26
105 84 27
109 87 27
104 83 29
109 90 37
103 86 30
103 80 26
106 83 27
104 81 29
110 89 36
103 84 32
106 86 34
100 83 33
102 78 28
105 81 31
104 85 34
96 75 25
101 78 25
104 82 30
98 79 30
108 90 39
108 91 38
94 75 31
107 86 33
97 75 25
115 95 43
93 74 27
99 79 29
113 96 44
100 83 38
110 91 37
106 85 37
104 86 41
110 90 37
108 90 41
114 97 50
102 83 33
111 96 48
108 90 46
105 91 42
146 156 21
173 195 0
172 195 0
173 195 0
170 193 0
170 194 0
170 194 0
172 195 0
174 196 0
174 196 0
171 194 0
173 195 0
172 195 0
172 195 0
171 194 0
174 197 0
172 195 0
172 195 0
170 194 0
172 195 0
172 195 0
173 196 0
174 196 0
171 195 0
173 196 0
171 194 0
173 197 0
172 196 0
174 197 0
174 197 0
172 196 0
171 195 0
172 195 0
171 194 0
170 194 0
168 191 0
173 196 0
172 196 0
172 196 0
172 195 0
174 197 0
172 195 0
172 195 0
171 195 0
173 196 0
173 196 0
173 196 0
173 196 0
173 196 0
174 197 0
173 196 0
169 193 0
172 195 0
172 195 0
173 196 0
171 194 0
173 196 0
171 194 0
173 195 0
170 193 0
173 196 0
172 195 0
171 194 0
173 196 0
171 194 0
172 194 0
172 195 0
169 193 0
171 194 0
171 194 0
171 195 0
170 194 0
171 194 0
171 194 0
168 192 0
170 193 0
171 194 0
170 193 0
169 193 0
171 194 0
169 192 0
170 193 0
169 192 0
170 193 0
160 183 0
152 173 0
154 175 0
153 174 0
152 172 0
154 174 0
154 174 0
153 173 0
153 173 0
153 173 0
152 173 0
155 175 0
153 174 0
153 174 0
153 174 0
153 173 0
153 173 0
151 172 0
154 174 0
153 173 0
154 175 0
152 174 0
151 171 0
151 172 0
152 172 0
151 172 0
154 175 0
152 172 0
151 172 0
153 174 0
154 175 0
152 173 0
154 175 0
152 173 0
153 173 0
153 174 0
154 174 0
154 174 0
154 174 0
153 174 0
152 173 0
154 174 0
153 173 0
153 174 0
151 173 0
151 172 0
153 174 0
154 174 0
153 173 0
154 174 0
152 173 0
150 171 0
155 175 0
153 174 0
153 174 0
152 173 0
152 173 0
152 173 0
151 172 0
153 173 0
154 174 0
154 175 0
154 175 0
92 113 91
47 75 111
49 78 113
46 73 103
47 75 97
46 74 107
46 74 111
46 74 108
45 72 103
42 68 94
43 69 102
42 67 103
42 67 98
40 65 90
39 63 94
40 64 96
37 60 76
38 62 90
39 62 95
37 61 88
37 60 81
36 59 84
35 57 84
35 58 83
34 55 83
34 56 87
34 55 84
29 48 79
32 52 73
54 87 139
58 92 145
58 92 149
58 93 148
58 93 146
60 96 154
59 94 149
61 97 166
61 97 165
60 96 158
61 97 163
61 97 162
60 96 152
60 97 157
61 98 164
60 96 158
61 96 157
61 98 166
62 98 168
61 97 160
61 98 168
60 97 159
61 97 164
62 98 165
61 97 163
61 98 166
61 98 164
61 97 164
61 98 166
61 97 163
62 98 169
60 97 164
61 97 165
62 99 175
60 97 164
61 97 163
61 97 163
62 99 171
62 99 170
62 98 174
61 98 169
62 99 173
61 98 170
61 97 166
62 98 168
61 97 166
61 97 165
62 98 170
60 96 161
61 97 167
60 97 166
61 97 168
61 98 170
61 97 169
60 96 163
60 96 163
61 97 165
60 95 165
60 95 159
59 94 164
61 97 167
59 94 158
60 96 167
59 94 159
59 94 160
59 94 160
60 95 159
59 93 156
58 93 160
59 93 157
59 94 160
59 93 156
57 91 160
57 89 146
58 91 157
59 91 151
56 89 149
58 91 157
57 89 152
58 91 152
57 89 149
57 90 158
57 89 147
57 89 150
55 87 146
54 85 143
55 85 140
54 85 139
56 87 146
53 83 136
54 84 137
55 85 139
53 84 140
53 82 137
85 78 69
96 79 40
93 76 35
91 75 33
94 79 37
80 62 22
93 71 21
100 79 30
82 65 23
96 78 29
92 75 22
104 83 36
102 82 31
94 75 24
97 79 32
97 78 29
96 75 21
102 83 32
100 83 33
103 81 25
95 76 23
96 74 17
105 85 34
92 70 17
101 83 33
101 81 29
101 78 26
99 81 30
103 81 28
88 71 23
104 85 33
94 74 23
104 86 26
98 80 33
98 78 29
109 90 34
110 90 35
101 82 16
102 83 32
101 76 26
104 84 25
112 88 27
99 78 24
107 86 26
112 89 27
99 76 24
100 79 24
101 79 25
105 86 34
108 85 23
98 78 27
106 80 26
99 75 21
109 88 30
107 84 26
104 80 18
117 95 28
104 86 28
107 87 28
110 89 31
108 86 27
105 84 31
111 91 32
102 84 36
101 77 25
113 93 40
95 75 19
106 85 29
101 79 26
111 90 29
101 79 23
115 95 30
107 87 28
104 80 23
108 87 29
113 94 32
104 82 28
97 75 13
109 89 30
109 88 28
107 84 30
102 81 25
110 90 35
107 85 28
106 85 31
107 83 28
103 83 30
99 77 26
105 82 19
103 82 24
103 83 25
103 82 30
108 89 37
102 80 24
113 93 38
102 81 22
116 93 35
105 87 31
102 79 22
104 82 27
97 79 31
104 82 34
103 81 31
113 91 37
101 82 37
111 92 38
99 79 33
102 81 30
101 82 29
108 86 33
110 88 29
111 92 38
108 88 34
94 73 19
107 86 29
104 84 32
100 81 36
87 66 21
108 88 40
100 83 40
97 78 33
110 89 40
95 79 31
100 79 30
105 83 33
111 91 35
118 99 45
109 91 39
95 76 31
94 76 31
97 79 37
145 152 38
170 194 0
172 195 0
174 197 0
171 193 0
171 195 0
171 195 0
172 195 0
173 196 0
173 196 0
172 196 0
171 193 0
169 193 0
173 196 0
172 195 0
172 196 0
176 198 0
173 197 0
174 197 0
171 194 0
173 195 0
175 198 0
173 196 0
171 194 0
171 195 0
172 195 0
172 195 0
172 195 0
171 195 0
171 194 0
170 193 0
174 196 0
173 196 0
173 196 0
171 193 0
173 196 0
172 196 0
174 196 0
172 195 0
173 196 0
173 196 0
173 196 0
171 195 0
173 196 0
168 191 0
171 195 0
172 195 0
171 194 0
172 195 0
173 196 0
172 195 0
173 195 0
172 196 0
172 196 0
171 194 0
172 195 0
171 195 0
172 195 0
169 192 0
172 195 0
173 196 0
172 196 0
173 196 0
172 194 0
171 194 0
172 195 0
170 194 0
172 195 0
171 194 0
170 192 0
171 194 0
170 194 0
172 195 0
168 192 0
172 195 0
173 195 0
171 193 0
173 196 0
169 192 0
170 193 0
170 193 0
169 192 0
170 193 0
163 184 0
153 173 0
154 174 0
151 171 0
153 173 0
152 172 0
155 175 0
151 172 0
153 174 0
154 174 0
154 174 0
153 174 0
151 171 0
152 173 0
151 171 0
154 175 0
153 173 0
153 174 0
153 174 0
151 172 0
152 173 0
154 174 0
153 173 0
152 173 0
154 174 0
153 173 0
154 174 0
153 173 0
152 173 0
154 174 0
152 172 0
153 174 0
153 174 0
152 173 0
152 173 0
153 173 0
152 173 0
151 172 0
153 173 0
154 174 0
152 172 0
152 172 0
152 173 0
153 174 0
151 173 0
154 174 0
153 173 0
154 174 0
152 173 0
153 173 0
154 174 0
153 173 0
153 174 0
151 172 0
153 174 0
153 174 0
153 174 0
153 173 0
155 175 0
153 173 0
152 172 0
153 174 0
152 173 0
108 129 80
48 76 106
45 72 104
46 73 92
45 73 97
49 77 118
43 69 100
44 70 101
46 73 98
43 69 102
41 67 87
44 70 104
45 72 107
42 67 96
41 66 92
37 60 79
37 59 83
39 62 90
38 62 86
37 61 90
35 57 87
37 60 90
36 58 92
34 55 88
28 47 68
34 55 75
34 55 79
34 55 84
38 62 94
56 89 140
58 92 144
59 93 144
59 94 155
60 95 156
60 95 151
60 96 156
60 96 155
61 97 160
61 97 158
60 96 154
61 98 165
60 96 159
61 97 162
61 96 158
60 96 160
61 97 162
62 98 167
61 97 158
61 97 159
62 98 167
61 97 164
61 97 160
61 97 159
62 98 168
61 97 165
62 98 171
61 98 167
61 97 158
61 98 167
62 98 166
61 98 166
60 97 161
61 97 161
61 97 171
61 97 163
62 98 164
60 97 164
61 97 169
61 97 166
61 97 163
61 97 167
61 97 162
61 98 166
61 98 168
62 98 173
61 97 167
61 97 170
61 97 164
60 96 162
61 97 169
60 96 162
60 96 164
61 97 170
61 97 171
60 96 160
61 97 166
60 95 163
59 93 155
60 95 161
60 95 161
61 95 161
60 95 164
60 94 161
59 94 161
60 95 162
59 94 161
60 94 160
60 93 157
60 95 171
58 93 158
59 94 162
58 90 153
57 91 157
54 84 139
58 89 147
59 92 154
56 88 146
56 88 151
55 86 145
57 91 156
57 89 150
55 87 147
58 91 159
54 85 142
55 85 137
56 86 140
54 85 143
54 84 139
54 82 134
51 78 125
53 83 136
54 82 129
73 83 108
92 78 39
88 68 26
86 71 31
86 70 26
93 74 33
92 76 33
91 71 28
93 74 26
84 64 26
85 63 23
91 72 25
102 81 30
98 77 29
92 72 20
96 77 35
94 74 28
93 72 21
84 65 27
92 75 25
93 72 26
96 75 24
105 84 32
97 76 28
92 73 19
100 80 31
97 78 27
91 71 26
106 86 29
97 78 24
107 89 35
101 80 30
102 85 26
106 86 29
110 90 33
99 80 26
102 83 26
101 79 21
100 77 18
97 77 20
100 80 23
110 86 28
96 72 14
107 87 28
105 84 19
102 79 24
108 84 28
100 78 25
111 89 25
102 84 28
111 90 26
101 81 27
98 79 15
99 81 25
105 85 27
106 86 35
107 83 29
110 87 21
111 89 25
98 78 17
104 82 28
102 82 25
101 80 29
108 86 29
105 84 24
108 85 29
102 79 23
116 93 34
104 83 28
108 87 28
106 85 28
105 83 29
103 81 28
112 93 34
102 78 19
106 84 28
106 86 32
105 83 27
104 84 23
100 75 17
111 91 37
101 76 15
108 87 23
107 86 29
102 80 16
105 84 33
101 80 25
104 84 24
103 82 30
117 98 41
104 86 33
110 87 32
96 73 23
111 91 37
109 87 24
111 93 35
100 79 25
114 95 37
106 86 32
101 80 20
117 93 32
98 79 23
106 84 31
109 90 41
99 80 29
97 79 31
111 89 30
105 85 33
111 91 33
103 80 31
104 87 35
102 82 32
93 72 30
91 71 25
100 83 33
96 76 33
109 89 36
111 90 32
106 84 34
109 89 39
94 73 27
108 89 39
99 81 31
94 71 25
101 82 35
97 80 33
112 92 36
105 89 41
105 88 42
109 91 39
112 93 43
103 85 38
99 81 35
137 145 35
171 194 0
172 195 0
174 197 0
171 194 0
171 194 0
171 194 0
172 195 0
172 195 0
172 195 0
174 197 0
172 195 0
173 196 0
168 191 0
171 196 0
172 195 0
170 193 0
171 193 0
172 196 0
170 193 0
173 195 0
173 195 0
170 193 0
173 196 0
173 196 0
174 197 0
173 196 0
174 197 0
173 196 0
170 194 0
174 197 0
173 195 0
171 195 0
172 194 0
172 195 0
174 197 0
172 196 0
172 196 0
171 194 0
172 195 0
172 195 0
173 196 0
171 194 0
172 195 0
171 194 0
171 194 0
172 195 0
172 195 0
172 195 0
173 196 0
173 196 0
173 196 0
171 194 0
171 195 0
170 194 0
171 194 0
171 194 0
172 195 0
170 194 0
170 194 0
171 194 0
173 196 0
171 194 0
168 192 0
171 194 0
171 194 0
170 193 0
172 195 0
172 194 0
171 194 0
173 195 0
172 195 0
172 195 0
171 193 0
171 194 0
169 193 0
170 193 0
171 194 0
170 193 0
169 193 0
170 193 0
170 193 0
169 191 0
152 172 0
155 175 0
152 173 0
151 172 0
151 171 0
150 171 0
153 174 0
150 171 0
153 174 0
151 171 0
153 173 0
152 173 0
152 172 0
152 173 0
153 174 0
152 172 0
153 174 0
151 172 0
154 174 0
153 173 0
154 174 0
153 173 0
153 173 0
152 172 0
153 174 0
153 173 0
153 174 0
154 174 0
153 174 0
154 174 0
151 172 0
154 174 0
153 174 0
152 173 0
152 174 0
152 172 0
153 173 0
153 174 0
152 172 0
153 174 0
154 175 0
152 172 0
151 173 0
154 175 0
153 173 0
154 174 0
152 173 0
152 173 0
153 174 0
153 174 0
152 172 0
150 170 0
150 171 0
153 173 0
153 174 0
152 173 0
155 175 0
151 172 0
152 173 0
151 171 0
154 174 0
154 175 0
126 146 67
49 78 107
45 72 99
44 72 97
46 74 105
43 70 90
45 71 102
45 72 102
44 70 104
43 69 102
43 70 99
41 66 99
39 63 91
41 67 89
39 63 87
39 63 82
38 61 84
38 61 90
39 62 83
38 61 90
32 53 82
36 58 89
37 60 99
31 51 72
30 49 72
33 54 80
31 50 76
32 53 77
46 73 110
55 88 137
58 92 144
59 94 148
59 94 147
59 95 161
60 95 150
59 95 147
60 95 150
59 94 145
60 96 154
60 96 162
60 95 157
61 97 160
62 97 163
61 97 163
61 97 157
61 98 167
62 98 163
61 97 164
61 97 158
61 97 162
62 98 160
61 97 154
60 97 161
61 97 160
61 97 158
62 99 171
61 97 164
62 98 168
61 98 167
61 97 161
62 98 166
61 97 164
61 97 159
62 98 167
61 98 168
62 98 162
61 97 166
61 97 164
62 98 169
61 97 167
61 97 166
61 98 173
61 97 169
61 97 170
61 97 169
60 96 161
61 97 164
60 96 164
60 96 159
59 93 150
62 98 171
61 96 159
60 96 161
61 97 167
60 96 163
60 95 164
61 97 164
61 97 168
59 93 157
60 95 161
60 95 163
61 96 166
59 94 161
61 96 165
60 96 162
60 94 158
60 94 162
58 92 154
59 93 155
59 93 158
59 93 159
56 89 148
59 93 158
58 91 154
59 93 162
57 90 154
57 88 146
58 90 150
57 90 155
55 87 141
55 85 141
58 92 153
54 85 144
54 85 140
55 86 143
55 84 139
55 87 144
53 82 130
52 80 125
54 83 139
52 80 131
57 80 128
95 78 39
88 74 36
81 64 25
96 84 39
84 68 19
89 70 26
87 70 27
88 74 33
88 68 26
93 73 29
83 68 30
100 79 22
86 66 21
89 69 26
95 74 25
100 81 38
89 70 23
87 69 24
99 78 26
95 76 28
94 74 26
98 76 25
101 80 24
95 75 16
95 76 25
94 76 23
89 72 27
96 75 20
101 78 23
92 73 21
95 75 19
96 79 26
104 82 22
102 80 22
102 78 23
92 70 22
91 73 19
94 73 18
98 78 20
98 76 23
97 75 16
101 78 25
107 85 26
105 82 26
95 75 30
96 75 27
101 79 23
102 81 27
102 81 30
102 77 20
103 78 25
99 79 22
100 79 25
115 97 40
105 83 21
105 85 30
105 83 30
102 83 22
95 75 23
104 81 24
100 80 26
108 88 29
105 83 27
109 88 31
108 86 24
112 91 29
102 79 24
103 79 24
109 85 25
101 79 23
105 84 24
104 84 26
108 88 29
109 87 28
103 84 24
108 85 22
104 83 24
104 82 16
114 92 29
117 93 25
106 84 25
109 88 38
107 87 27
112 92 29
106 85 31
103 83 21
110 92 29
102 82 29
100 77 22
105 85 27
110 87 26
100 80 18
105 84 35
94 74 21
110 90 31
104 79 20
103 86 34
108 87 34
113 92 38
99 79 28
104 84 28
108 86 26
105 82 28
106 84 24
100 80 24
100 80 27
100 80 30
107 84 24
101 78 25
104 84 34
111 88 34
110 91 37
104 85 31
103 85 33
100 78 33
100 82 26
102 82 33
103 82 33
106 89 36
103 81 28
103 86 41
102 84 32
101 82 31
105 87 37
97 79 32
112 94 46
109 88 36
110 94 45
100 84 39
106 89 42
96 78 34
114 97 49
102 84 33
99 79 37
142 146 43
172 194 0
171 194 0
171 194 0
171 195 0
172 195 0
171 194 0
170 193 0
173 195 0
172 196 0
170 193 0
173 195 0
170 195 0
172 194 0
174 197 0
171 194 0
170 193 0
173 197 0
171 194 0
174 197 0
173 197 0
172 195 0
171 193 0
171 194 0
173 196 0
171 194 0
172 195 0
173 196 0
172 195 0
172 194 0
173 196 0
174 197 0
171 195 0
173 196 0
172 196 0
173 196 0
172 196 0
172 195 0
169 193 0
174 196 0
174 197 0
172 195 0
172 195 0
173 196 0
173 196 0
174 197 0
174 197 0
172 195 0
172 195 0
170 194 0
171 194 0
171 195 0
173 196 0
171 195 0
172 195 0
170 193 0
171 195 0
172 195 0
169 193 0
171 194 0
169 193 0
169 193 0
172 195 0
169 192 0
173 195 0
173 196 0
172 195 0
172 194 0
171 194 0
170 194 0
169 193 0
170 194 0
171 194 0
171 195 0
170 193 0
171 194 0
170 194 0
171 193 0
170 193 0
170 193 0
171 193 0
168 191 0
153 174 0
153 174 0
153 173 0
152 172 0
153 174 0
152 173 0
152 173 0
153 174 0
153 173 0
154 174 0
151 172 0
152 173 0
153 174 0
154 174 0
152 172 0
151 172 0
153 174 0
153 173 0
153 174 0
153 173 0
153 174 0
153 173 0
153 174 0
152 172 0
154 175 0
152 173 0
153 174 0
153 173 0
152 173 0
153 174 0
153 174 0
152 173 0
152 173 0
151 172 0
153 174 0
153 173 0
152 172 0
152 172 0
151 172 0
152 172 0
153 173 0
152 172 0
151 172 0
151 172 0
152 173 0
153 173 0
153 174 0
149 170 0
154 174 0
153 173 0
152 172 0
153 174 0
155 175 0
154 175 0
152 172 0
152 173 0
152 172 0
153 173 0
151 172 0
153 173 0
154 175 0
155 175 0
136 156 54
46 74 108
45 72 88
45 71 103
42 68 92
48 76 114
45 71 105
45 72 101
44 70 89
42 68 95
42 68 93
42 68 96
41 66 99
41 66 99
38 62 84
38 62 82
38 62 87
37 60 86
39 62 88
37 60 91
34 55 74
32 52 73
33 53 76
32 53 77
32 53 81
31 51 74
30 49 65
29 47 71
48 77 125
58 92 145
58 92 147
59 93 147
60 95 153
59 94 144
59 94 150
60 96 157
60 96 158
60 96 159
61 97 160
61 97 161
61 97 160
60 96 159
61 96 155
61 97 161
61 98 165
60 96 158
61 97 156
61 97 161
61 98 167
60 96 152
61 97 161
61 97 162
61 97 159
61 97 164
61 97 164
61 98 170
60 96 155
61 98 165
61 98 170
62 98 164
61 97 160
62 99 173
61 98 166
62 98 167
61 97 166
61 97 166
61 97 166
60 96 156
61 97 164
60 97 166
60 96 159
61 97 165
60 97 161
61 96 166
60 96 158
61 97 166
60 96 156
61 97 166
60 96 167
61 96 161
60 96 162
61 96 168
60 96 162
60 96 165
61 97 167
60 96 168
59 94 159
61 96 167
59 94 162
60 95 161
60 94 159
60 95 162
59 93 158
59 93 155
58 92 154
60 94 156
59 93 159
59 93 159
59 93 158
59 93 157
59 93 159
58 90 152
57 90 147
59 93 160
57 90 155
56 87 138
57 89 148
56 86 142
57 90 151
56 88 144
56 89 154
56 87 141
55 87 139
56 87 142
53 82 135
55 86 141
55 85 139
53 83 136
52 80 126
52 79 123
53 82 135
71 75 98
81 67 31
77 60 22
80 65 27
84 69 33
81 62 20
82 65 23
82 70 33
100 82 36
95 81 37
93 74 30
85 67 19
99 80 28
86 67 18
90 72 24
85 67 20
91 71 22
98 79 35
88 68 20
94 72 24
95 75 24
101 80 13
96 76 22
100 80 27
91 73 18
93 73 26
101 79 27
89 66 17
101 81 25
100 78 29
93 72 21
101 81 28
108 88 29
101 80 25
96 75 24
101 81 27
98 76 21
92 71 20
97 75 22
102 81 28
104 82 21
91 70 26
99 80 23
102 81 24
93 71 19
94 76 25
104 79 20
109 89 30
106 84 22
103 80 22
107 87 26
111 91 32
106 84 26
105 83 24
106 84 32
96 78 25
101 82 25
100 82 18
109 88 33
104 83 26
102 80 25
114 91 28
116 95 32
102 79 10
101 80 31
93 73 9
110 89 25
104 84 28
97 77 22
101 79 25
110 85 22
100 77 22
103 83 23
104 83 34
105 83 27
103 87 28
110 90 26
100 78 18
103 83 31
109 89 31
104 81 25
102 81 26
108 86 30
109 86 25
108 85 30
110 85 27
105 86 30
113 92 36
102 81 26
102 80 31
95 76 20
101 77 23
105 86 30
104 82 25
109 87 30
105 83 27
104 82 23
105 84 26
104 85 28
105 82 26
105 85 30
98 77 28
101 83 34
102 80 29
106 85 28
105 83 19
97 77 28
96 73 15
110 91 35
102 79 25
112 92 40
93 70 17
95 75 23
108 87 31
101 81 33
108 91 42
111 95 41
95 76 22
106 87 27
106 87 33
101 84 35
99 79 22
97 79 28
103 83 36
97 80 32
100 80 33
100 83 35
98 81 32
88 72 30
94 76 31
95 75 31
106 90 42
108 89 39
106 87 43
103 86 39
109 93 48
127 128 34
173 196 0
170 193 0
172 195 0
173 195 0
171 193 0
170 193 0
170 193 0
171 194 0
171 195 0
172 196 0
174 197 0
172 195 0
171 195 0
170 193 0
173 196 0
170 194 0
172 195 0
172 194 0
172 195 0
173 196 0
171 195 0
171 195 0
170 192 0
169 192 0
172 196 0
172 195 0
172 195 0
173 196 0
174 197 0
173 196 0
173 196 0
173 196 0
173 195 0
171 195 0
173 196 0
172 195 0
172 195 0
173 196 0
172 195 0
172 196 0
173 196 0
172 195 0
172 195 0
172 195 0
170 194 0
172 195 0
172 195 0
171 194 0
172 195 0
171 194 0
172 195 0
170 193 0
169 192 0
172 195 0
169 193 0
170 193 0
171 193 0
169 193 0
172 195 0
171 194 0
171 195 0
171 193 0
171 195 0
172 195 0
173 195 0
171 194 0
171 194 0
170 193 0
172 194 0
171 194 0
172 194 0
170 192 0
171 193 0
170 192 0
170 193 0
170 193 0
170 193 0
170 193 0
168 192 0
168 191 0
156 177 0
153 173 0
152 173 0
154 175 0
151 171 0
152 172 0
155 176 0
151 172 0
153 173 0
151 172 0
153 174 0
152 171 0
155 174 0
151 171 0
153 173 0
152 172 0
152 174 0
154 174 0
151 172 0
154 174 0
153 173 0
153 173 0
152 172 0
153 173 0
150 170 0
152 172 0
152 173 0
151 172 0
153 173 0
152 172 0
152 173 0
154 175 0
152 172 0
154 174 0
152 173 0
151 171 0
151 172 0
153 174 0
150 171 0
152 172 0
154 173 0
154 174 0
153 174 0
153 173 0
150 171 0
152 173 0
151 172 0
151 171 0
153 174 0
152 173 0
154 174 0
152 173 0
153 175 0
152 173 0
152 172 0
153 173 0
151 172 0
150 171 0
150 171 0
154 174 0
153 174 0
152 173 0
138 159 49
45 72 103
45 71 97
48 76 96
45 72 105
46 73 104
44 71 101
46 73 109
45 72 106
43 68 98
42 67 101
43 68 99
40 64 92
41 65 91
38 61 87
41 65 91
36 59 73
38 61 91
38 62 85
37 59 85
36 58 88
37 59 83
36 58 85
34 54 82
32 52 63
30 50 75
33 53 77
31 51 66
54 86 143
56 89 133
59 93 156
59 94 146
59 94 151
60 96 149
60 96 159
59 95 146
60 95 154
60 96 155
61 97 162
60 96 158
61 97 161
61 96 159
61 97 161
60 96 157
61 97 158
61 97 159
61 97 164
61 98 164
61 97 155
61 97 160
61 98 160
62 98 162
61 97 165
62 99 171
61 97 157
62 98 165
61 97 166
61 97 161
60 96 159
62 98 164
60 96 160
61 97 164
61 98 170
60 97 163
61 97 168
61 97 166
61 98 167
60 96 159
61 97 158
60 97 163
61 97 165
61 97 163
60 97 166
61 96 162
61 97 164
60 96 163
61 97 162
61 96 162
60 96 161
60 97 168
62 98 167
61 97 164
60 96 164
60 94 157
61 96 163
59 94 158
60 96 166
59 94 155
60 95 159
60 96 164
60 96 162
59 94 159
60 96 162
59 93 153
58 92 155
59 94 162
58 91 149
59 93 159
59 93 157
58 91 154
60 94 161
56 88 140
57 89 147
57 90 149
57 89 152
57 89 149
56 88 147
58 91 156
56 88 145
57 88 144
56 87 147
56 88 149
56 87 143
55 84 135
55 85 143
53 83 136
53 80 124
55 83 132
54 82 130
53 81 130
53 77 119
93 83 53
91 76 36
83 67 35
71 55 24
84 68 26
82 65 25
89 73 29
93 73 23
85 67 23
83 67 20
97 80 29
98 81 31
96 74 20
106 88 31
103 85 35
92 70 21
92 72 24
92 71 23
96 74 17
95 73 20
98 81 26
96 78 24
88 70 17
99 81 33
101 82 23
98 80 26
100 79 21
95 73 21
95 74 20
106 85 30
91 73 13
101 84 25
100 79 26
104 85 26
102 76 17
97 77 20
110 89 27
91 71 21
95 75 19
108 86 25
90 70 15
101 80 30
103 82 27
109 89 28
102 80 24
108 89 34
104 82 26
97 77 20
99 79 22
103 82 22
110 87 28
109 87 29
109 86 29
112 93 29
96 76 21
112 96 30
108 86 28
91 70 17
104 84 27
103 83 16
104 84 22
107 84 26
104 85 17
108 87 27
104 82 28
101 79 27
104 83 31
103 82 25
109 88 30
94 72 14
95 74 22
114 93 34
100 79 17
105 83 23
107 89 32
106 83 21
113 96 35
114 94 32
105 82 22
105 83 14
106 85 30
100 76 14
104 86 29
108 84 23
108 89 31
109 85 24
106 85 28
108 89 36
104 80 26
115 95 33
110 87 22
105 84 24
107 86 33
103 81 25
103 82 27
107 86 27
102 80 22
105 85 26
109 85 21
102 76 16
111 90 32
103 82 32
105 84 31
91 72 22
105 86 35
101 82 29
106 87 33
107 85 27
96 78 24
107 87 34
102 79 21
103 82 29
100 79 26
106 85 30
92 73 27
105 82 29
91 69 12
101 81 31
108 92 41
110 92 38
108 88 35
107 86 28
109 92 36
101 82 32
93 77 27
104 84 33
94 76 29
103 87 36
101 84 40
99 83 36
101 83 35
96 77 37
101 81 29
101 81 36
105 88 43
97 78 31
100 81 37
136 144 29
171 194 0
173 196 0
172 195 0
173 196 0
173 196 0
173 196 0
172 195 0
169 192 0
169 194 0
171 194 0
168 191 0
171 194 0
168 191 0
174 196 0
172 195 0
175 198 0
173 196 0
172 195 0
170 193 0
171 194 0
171 195 0
172 195 0
172 195 0
170 192 0
173 197 0
171 194 0
171 194 0
172 195 0
172 195 0
172 195 0
171 195 0
172 196 0
171 194 0
173 196 0
172 195 0
172 195 0
171 194 0
172 195 0
171 194 0
171 194 0
173 196 0
172 195 0
171 195 0
173 196 0
173 196 0
173 196 0
171 194 0
174 196 0
173 195 0
169 193 0
173 196 0
170 193 0
172 194 0
171 194 0
171 195 0
172 195 0
171 193 0
171 194 0
170 193 0
172 195 0
171 194 0
172 194 0
170 193 0
170 193 0
172 194 0
171 194 0
171 194 0
170 193 0
172 195 0
172 196 0
172 195 0
172 195 0
170 193 0
169 192 0
169 192 0
169 192 0
169 192 0
170 193 0
167 190 0
158 179 0
153 174 0
152 172 0
150 171 0
153 174 0
153 173 0
152 173 0
152 173 0
151 172 0
152 173 0
151 172 0
152 172 0
154 175 0
154 174 0
153 173 0
150 171 0
154 173 0
150 171 0
153 174 0
154 174 0
153 173 0
151 172 0
153 173 0
152 173 0
153 173 0
153 173 0
152 173 0
153 174 0
152 173 0
153 174 0
151 171 0
154 174 0
151 173 0
150 172 0
153 173 0
151 172 0
152 172 0
151 172 0
150 172 0
152 173 0
152 173 0
153 173 0
153 173 0
154 174 0
151 172 0
151 172 0
151 172 0
154 174 0
153 174 0
151 173 0
151 171 0
152 173 0
151 171 0
153 173 0
151 172 0
152 172 0
151 173 0
150 170 0
154 174 0
153 173 0
152 173 0
153 173 0
147 168 30
45 72 100
47 75 102
47 74 101
46 73 97
45 72 99
43 69 97
46 74 102
42 68 88
44 70 99
42 68 86
44 70 103
41 66 86
43 69 96
41 66 93
39 63 85
39 62 84
39 62 86
36 58 82
36 57 80
37 60 85
36 58 87
32 52 72
31 51 65
32 53 64
33 54 74
32 53 66
35 56 78
54 87 134
58 93 147
57 91 138
58 93 147
59 95 148
59 94 147
59 94 149
60 95 151
60 96 158
60 95 149
59 95 150
60 96 150
61 97 158
61 97 156
61 97 156
60 96 148
61 97 158
60 96 155
62 98 160
61 98 165
61 98 166
62 98 165
61 97 163
61 97 160
61 97 162
61 98 165
61 97 166
61 98 161
61 98 165
61 98 162
61 97 158
60 96 160
61 97 159
61 97 165
61 97 162
60 97 161
61 97 162
60 96 163
61 97 167
61 98 163
61 97 164
61 97 165
62 98 168
61 97 163
60 97 162
60 96 161
61 97 162
61 97 163
60 96 159
60 96 161
61 97 169
60 95 157
60 95 161
60 95 161
60 95 158
61 97 167
59 95 161
60 95 157
60 96 162
59 94 154
59 93 156
60 95 164
59 95 164
59 93 154
58 93 158
59 93 157
57 90 154
59 93 156
59 93 157
58 92 154
59 93 156
58 91 148
59 92 156
57 89 149
57 90 146
57 89 141
57 89 150
56 88 146
56 87 143
56 88 147
56 87 140
55 86 141
54 85 141
56 87 140
55 86 138
55 85 128
55 85 138
55 86 141
54 83 129
52 80 128
51 79 130
52 80 127
64 74 102
70 55 20
106 91 44
87 69 28
83 66 20
96 78 33
86 70 28
76 61 26
83 68 26
88 71 35
94 75 27
94 76 28
78 62 18
88 71 27
88 70 24
94 73 21
92 73 31
96 74 21
97 78 24
99 79 29
96 79 32
101 80 28
94 74 27
101 82 29
96 77 28
97 77 21
97 78 21
98 78 24
106 87 34
107 87 33
104 81 23
99 77 23
89 70 19
93 72 23
101 78 27
100 78 18
92 71 19
96 75 20
95 75 22
107 87 35
103 81 26
105 83 26
102 81 27
97 76 22
102 85 27
103 80 24
102 86 26
106 83 25
97 75 18
116 94 34
105 84 26
98 78 31
112 91 29
102 77 21
103 82 26
111 90 28
104 82 17
96 74 17
108 87 28
105 84 28
111 93 34
108 86 27
102 82 15
104 82 20
115 92 30
109 90 26
105 87 26
101 78 20
103 83 22
99 80 26
107 85 27
103 83 24
108 86 28
108 89 27
99 79 19
114 90 26
105 84 28
107 86 21
102 80 25
103 81 21
100 77 10
108 88 29
99 80 21
100 81 22
106 86 27
108 86 24
106 85 29
110 86 32
104 83 23
104 84 28
99 80 19
105 83 28
109 87 27
105 85 24
114 92 33
104 83 28
98 76 27
100 80 28
107 87 29
108 90 34
110 88 32
104 83 22
108 86 28
89 69 21
112 92 31
106 84 31
110 91 36
114 89 32
98 79 28
98 78 27
105 82 28
108 87 29
98 79 29
99 80 33
102 81 24
101 82 35
106 87 35
100 78 29
103 85 39
95 75 20
100 78 28
98 79 35
100 80 31
101 83 35
90 74 30
95 75 30
106 88 34
99 80 32
102 85 35
102 81 33
95 78 35
90 68 22
94 75 32
103 84 38
93 75 30
95 77 27
107 90 46
97 79 36
99 80 33
149 159 36
170 193 0
169 193 0
171 195 0
173 196 0
172 194 0
172 195 0
170 194 0
172 195 0
170 193 0
173 195 0
170 194 0
171 195 0
173 196 0
174 196 0
172 196 0
173 197 0
173 196 0
169 192 0
171 193 0
171 194 0
172 196 0
173 196 0
172 195 0
170 194 0
170 193 0
170 193 0
174 197 0
173 196 0
171 194 0
172 195 0
171 195 0
171 195 0
172 196 0
172 195 0
173 195 0
172 196 0
172 195 0
171 194 0
172 196 0
174 196 0
171 195 0
173 196 0
172 194 0
173 195 0
172 195 0
171 195 0
169 193 0
172 196 0
172 195 0
172 195 0
169 193 0
172 195 0
172 195 0
173 195 0
170 194 0
170 193 0
170 193 0
171 194 0
172 195 0
171 194 0
170 193 0
172 194 0
172 195 0
170 194 0
171 194 0
169 192 0
171 194 0
170 193 0
171 194 0
174 195 0
171 194 0
168 192 0
172 195 0
170 193 0
170 193 0
169 192 0
170 193 0
171 193 0
161 183 0
151 172 0
153 173 0
154 174 0
153 172 0
148 168 0
151 172 0
154 174 0
153 174 0
152 172 0
153 173 0
153 174 0
150 171 0
153 173 0
150 171 0
150 171 0
151 171 0
153 173 0
154 175 0
153 173 0
152 172 0
154 175 0
153 174 0
152 173 0
153 173 0
153 173 0
152 173 0
152 172 0
152 173 0
151 172 0
152 173 0
152 173 0
152 172 0
151 172 0
154 174 0
153 173 0
154 173 0
152 173 0
152 172 0
151 172 0
153 174 0
154 174 0
152 173 0
150 172 0
153 173 0
153 173 0
152 173 0
152 173 0
153 174 0
152 173 0
150 171 0
154 174 0
152 172 0
153 174 0
153 174 0
152 173 0
150 171 0
150 170 0
152 172 0
151 171 0
151 172 0
152 172 0
150 170 16
47 74 105
45 72 93
45 72 95
44 71 71
44 70 94
45 73 100
42 67 97
42 67 86
46 73 100
43 69 99
41 66 94
43 69 92
41 66 89
39 63 92
36 58 77
40 65 97
38 61 85
37 60 92
38 60 79
38 61 84
35 57 77
33 54 73
34 56 78
30 49 68
32 52 66
32 52 71
38 62 92
54 86 133
59 94 149
58 92 138
59 95 153
60 95 152
60 96 149
60 95 148
60 95 154
60 96 155
60 96 160
61 97 161
60 96 156
60 96 153
61 97 158
61 97 156
61 96 153
62 98 166
61 97 158
60 96 155
60 96 159
60 96 158
61 97 163
61 98 164
61 97 160
61 97 162
61 98 161
61 97 162
62 98 166
61 97 160
62 98 164
61 98 168
61 98 166
61 97 164
60 96 154
61 97 160
61 98 167
60 96 160
61 98 165
61 97 164
61 97 164
60 97 161
61 97 162
61 97 161
60 96 163
61 97 164
61 97 169
60 95 158
61 97 165
61 97 169
60 96 165
60 95 158
60 95 155
61 97 168
60 96 159
61 97 169
60 95 162
61 96 158
60 95 162
60 94 159
60 94 154
60 95 156
58 91 142
60 95 160
59 94 159
59 93 154
60 95 158
60 94 158
59 93 156
56 89 147
58 91 150
58 91 153
59 92 149
58 90 149
57 90 149
59 93 156
59 93 155
55 87 143
56 87 144
56 87 140
57 89 146
53 83 134
57 88 141
56 86 143
55 86 142
54 84 140
55 84 136
55 85 138
52 80 123
54 83 132
54 83 126
50 76 117
51 77 119
80 73 65
94 77 33
79 61 21
83 65 21
94 81 36
85 69 24
97 81 30
95 75 23
86 69 27
99 78 25
86 66 18
93 75 25
92 72 28
88 68 21
96 77 31
88 69 21
80 62 17
96 76 26
89 69 22
94 74 13
100 79 20
89 69 19
95 75 23
103 82 24
95 75 24
92 69 19
97 81 32
90 70 16
88 71 21
93 72 20
105 86 33
95 74 22
91 70 20
96 73 25
98 79 27
104 82 29
100 79 24
94 73 12
100 81 28
108 88 31
95 78 19
99 78 19
101 80 24
109 88 30
106 87 36
96 81 25
107 85 20
94 77 13
107 87 26
102 81 30
99 77 15
107 83 18
105 83 23
105 82 27
108 88 29
111 92 34
97 77 20
104 80 18
96 74 19
100 78 26
102 83 21
107 84 22
99 76 16
110 90 28
103 80 11
101 84 24
106 84 22
96 72 10
100 78 23
100 78 17
111 90 32
105 82 15
104 83 13
103 83 23
101 78 21
103 81 21
104 80 17
98 76 22
105 84 22
104 81 21
109 88 31
98 77 20
105 82 21
105 84 23
109 87 27
100 82 29
107 86 32
105 85 30
113 93 29
107 84 23
104 85 32
110 91 38
113 93 24
106 87 30
103 82 26
104 83 22
105 80 26
99 79 21
107 87 26
99 78 20
98 78 29
109 88 27
104 84 22
105 86 29
103 83 28
105 86 32
97 78 17
104 83 33
102 80 23
104 80 22
101 82 23
103 83 34
96 74 25
102 80 22
104 86 36
108 87 37
91 71 19
94 72 21
95 75 26
106 88 38
101 81 31
95 74 28
101 82 34
88 70 31
109 89 37
96 76 29
99 76 29
108 90 34
93 75 26
99 82 34
106 89 38
104 85 31
101 80 33
102 87 39
93 77 32
100 83 34
91 73 33
99 81 36
107 93 49
103 89 36
155 171 21
167 190 0
170 194 0
171 194 0
171 194 0
172 195 0
171 194 0
171 194 0
172 196 0
172 196 0
170 194 0
169 193 0
173 195 0
172 194 0
171 195 0
170 193 0
171 194 0
173 196 0
171 193 0
172 195 0
170 193 0
172 195 0
174 197 0
172 195 0
170 193 0
172 196 0
170 194 0
173 195 0
172 195 0
172 195 0
172 196 0
172 195 0
172 196 0
171 194 0
171 194 0
174 197 0
172 195 0
172 196 0
170 195 0
169 193 0
170 193 0
173 196 0
173 195 0
171 194 0
170 193 0
172 195 0
172 195 0
171 195 0
174 197 0
174 196 0
171 194 0
169 192 0
172 194 0
170 194 0
171 193 0
170 193 0
171 194 0
170 193 0
170 193 0
169 191 0
168 192 0
171 195 0
170 193 0
173 195 0
170 193 0
171 194 0
171 195 0
169 192 0
170 193 0
171 194 0
169 192 0
169 193 0
172 194 0
169 192 0
170 194 0
170 193 0
173 195 0
169 192 0
163 185 0
152 172 0
154 174 0
151 172 0
151 172 0
151 172 0
150 170 0
152 172 0
151 171 0
152 172 0
152 173 0
153 173 0
150 171 0
150 171 0
153 173 0
152 172 0
151 172 0
152 172 0
153 173 0
153 173 0
153 172 0
152 172 0
151 172 0
153 174 0
151 171 0
153 173 0
152 173 0
152 172 0
154 174 0
151 172 0
151 172 0
151 171 0
153 174 0
153 174 0
150 171 0
151 171 0
152 173 0
154 174 0
153 174 0
151 172 0
151 172 0
152 172 0
152 172 0
153 173 0
153 173 0
152 172 0
152 173 0
152 172 0
150 171 0
151 171 0
152 172 0
153 174 0
154 174 0
154 173 0
152 172 0
152 173 0
151 172 0
153 173 0
150 171 0
150 170 0
151 171 0
152 173 0
153 174 0
64 87 89
44 71 90
46 73 100
45 72 98
45 71 88
44 69 92
43 68 93
43 68 99
43 68 97
39 64 86
43 68 93
43 68 90
42 68 92
39 62 85
34 54 73
40 65 87
40 65 95
37 60 78
40 65 93
37 59 87
36 58 78
31 51 70
34 56 63
30 50 70
34 55 77
31 50 67
44 71 100
54 87 133
58 92 141
59 93 147
59 93 148
60 95 145
59 94 151
60 95 146
58 93 140
60 96 152
60 96 155
61 96 158
61 97 157
61 97 157
61 97 156
61 97 158
61 97 156
61 97 154
61 98 160
60 96 155
60 96 154
60 96 155
61 97 163
61 97 164
61 97 160
61 98 167
61 97 155
62 98 166
61 97 158
60 96 154
61 97 164
61 97 166
62 98 168
61 97 158
61 97 162
61 97 160
61 97 166
61 97 159
60 96 155
61 98 165
61 97 163
61 97 167
61 96 161
61 97 161
60 96 162
61 97 166
60 96 159
60 95 154
61 97 163
60 96 160
60 96 157
61 97 166
60 95 153
60 95 158
60 96 164
61 96 163
60 96 160
60 96 159
59 93 154
60 94 158
59 94 157
60 94 160
59 93 157
59 94 158
59 93 153
60 94 159
59 93 151
60 95 159
59 92 154
58 92 151
58 91 149
57 90 150
59 92 153
57 90 148
58 91 147
59 92 156
57 90 147
57 88 147
56 88 144
57 89 146
56 89 146
55 85 140
55 86 142
55 85 137
52 81 133
54 85 144
54 83 125
55 85 137
51 79 124
53 81 126
52 79 118
54 82 129
54 76 112
74 61 35
85 69 31
90 74 27
84 68 24
88 71 24
93 76 30
83 66 21
93 74 24
93 73 19
85 68 26
87 65 21
86 65 22
99 79 33
92 74 22
88 71 23
90 71 24
87 66 15
99 82 30
95 75 23
93 75 19
94 74 21
96 76 20
93 73 23
96 77 22
97 75 15
86 65 15
99 81 27
98 80 24
102 81 24
95 79 15
86 65 14
98 76 17
104 83 25
96 74 19
97 76 25
98 76 19
93 73 15
98 80 19
102 81 31
99 76 21
102 82 22
105 83 16
93 72 18
105 84 25
95 72 24
98 76 15
107 86 25
108 86 27
93 71 20
104 82 23
101 81 12
103 84 29
102 79 12
105 81 12
101 81 27
100 79 22
108 86 27
102 80 16
108 88 22
100 80 20
103 82 23
107 86 18
107 87 21
104 80 24
111 91 33
114 91 34
110 94 33
101 78 20
99 77 19
109 86 22
107 88 21
107 84 20
103 80 20
103 81 20
102 81 24
109 85 31
103 82 23
103 80 24
101 78 14
109 90 28
102 82 21
101 80 19
105 85 29
110 88 28
106 86 23
104 80 21
97 78 22
100 80 25
103 81 12
102 83 26
102 81 26
107 88 28
100 78 17
98 77 18
98 82 30
110 87 28
104 88 28
100 81 24
105 83 24
108 88 36
106 82 28
98 75 18
102 82 23
100 81 32
104 83 26
98 76 23
107 89 31
93 71 21
96 73 23
96 78 26
107 88 36
94 75 26
87 64 14
100 80 20
101 80 29
100 78 24
102 84 35
102 81 27
102 81 33
91 74 20
96 74 26
94 72 23
98 80 30
105 85 31
100 81 31
98 77 30
93 73 27
102 81 30
99 77 29
107 88 38
103 84 33
97 78 34
93 71 25
98 79 32
94 72 30
97 82 38
98 80 33
90 73 26
112 95 43
99 81 40
112 102 40
162 181 5
172 194 0
171 193 0
174 196 0
173 197 0
171 194 0
172 196 0
168 192 0
170 194 0
171 194 0
171 193 0
172 195 0
174 197 0
172 196 0
172 194 0
171 194 0
173 196 0
172 195 0
174 195 0
170 192 0
173 195 0
170 193 0
171 193 0
172 195 0
171 194 0
173 195 0
172 195 0
173 197 0
172 195 0
171 194 0
171 195 0
174 196 0
172 195 0
173 196 0
174 197 0
170 195 0
171 195 0
173 196 0
171 195 0
172 195 0
174 197 0
170 194 0
173 195 0
172 196 0
170 194 0
171 194 0
170 194 0
171 194 0
172 195 0
173 196 0
172 194 0
170 193 0
171 194 0
171 195 0
170 193 0
169 192 0
170 193 0
171 194 0
171 194 0
169 192 0
170 192 0
168 191 0
171 194 0
172 195 0
170 192 0
170 193 0
171 193 0
172 195 0
171 194 0
171 194 0
171 194 0
167 190 0
171 194 0
168 191 0
166 189 0
172 195 0
169 191 0
166 189 0
153 173 0
151 172 0
152 173 0
152 173 0
153 173 0
152 173 0
151 172 0
152 172 0
154 174 0
152 173 0
152 172 0
150 171 0
152 172 0
151 171 0
152 172 0
151 171 0
153 173 0
152 172 0
152 173 0
152 172 0
155 175 0
150 170 0
151 172 0
153 173 0
153 173 0
150 171 0
152 173 0
152 172 0
152 173 0
151 172 0
152 173 0
148 169 0
150 171 0
153 173 0
151 172 0
152 172 0
154 173 0
151 172 0
152 172 0
152 173 0
152 172 0
152 173 0
151 172 0
155 175 0
152 172 0
150 170 0
153 173 0
151 171 0
152 173 0
153 173 0
152 172 0
149 169 0
152 173 0
152 172 0
151 172 0
153 174 0
154 175 0
151 172 0
152 174 0
153 173 0
150 171 0
153 174 0
75 97 90
46 74 93
45 72 86
43 69 89
44 70 92
45 72 95
43 69 91
41 66 92
42 67 88
40 64 87
42 67 83
42 67 93
42 67 90
38 61 81
40 64 85
39 63 87
36 58 75
36 58 78
37 61 67
35 57 78
33 54 71
34 56 62
34 54 67
33 54 74
30 49 53
32 52 65
48 76 116
57 91 137
59 93 146
59 94 151
58 93 147
60 95 147
60 95 155
60 96 155
61 97 161
61 97 156
60 96 154
60 95 147
60 95 151
61 97 158
62 98 160
61 97 158
60 96 152
61 97 155
62 98 163
61 97 158
61 97 162
60 96 152
62 98 162
63 99 171
61 97 158
62 98 160
61 98 164
61 97 161
61 97 157
62 98 166
61 98 162
61 97 164
61 97 160
60 96 155
61 97 161
60 97 161
61 97 161
61 97 157
61 97 159
60 96 157
61 97 164
61 97 167
60 96 157
60 96 150
62 98 169
61 97 170
60 96 158
61 97 168
60 96 157
60 96 162
60 95 155
59 95 157
61 96 164
60 96 164
60 94 150
60 94 157
60 95 159
60 95 165
60 94 154
59 94 154
59 94 161
60 96 164
59 93 151
59 93 154
60 93 155
61 95 160
58 91 150
59 93 154
57 89 148
58 91 149
57 90 150
58 91 152
58 91 148
57 89 142
57 89 145
57 89 146
58 90 154
57 89 151
57 88 142
55 86 139
55 86 141
56 87 143
54 84 139
52 82 133
52 82 138
54 84 136
53 81 128
51 78 115
52 80 127
51 79 121
53 81 128
54 82 125
57 73 99
76 61 26
86 72 31
78 60 26
77 57 16
77 58 16
86 68 26
80 66 25
84 63 20
86 68 25
87 67 20
86 67 18
83 66 19
87 71 25
79 61 24
81 65 21
89 73 24
91 74 23
83 61 6
96 75 16
88 69 15
93 72 15
95 71 24
88 70 18
89 72 22
88 70 27
93 71 18
94 74 19
101 81 25
92 72 21
99 80 28
100 78 22
99 78 24
101 81 20
94 73 15
102 81 24
99 78 22
94 71 19
104 85 27
108 86 26
103 82 20
93 72 14
107 86 23
99 79 15
103 78 16
100 79 19
106 86 25
102 81 16
105 83 23
107 86 21
98 77 19
102 84 18
96 77 11
104 82 23
110 89 29
106 82 20
101 83 20
104 84 18
103 81 16
103 80 23
104 85 25
109 89 27
99 80 20
105 86 26
106 85 26
100 81 21
100 78 19
106 85 26
100 78 18
102 82 22
96 74 10
105 81 20
109 88 31
107 86 21
98 77 24
111 91 22
102 80 20
105 83 17
103 84 26
117 98 41
108 86 27
113 91 31
106 85 31
104 83 22
100 78 22
110 90 23
105 85 29
110 88 33
104 83 21
97 76 14
107 85 24
106 85 27
105 83 24
101 80 21
109 88 28
107 89 32
92 70 14
104 83 24
105 84 24
98 80 24
106 84 25
100 78 19
106 86 30
112 89 36
104 86 29
97 76 19
102 80 24
98 78 32
100 81 27
103 81 25
98 77 29
98 77 27
104 82 20
97 77 27
105 82 31
99 77 25
101 78 21
106 88 33
103 83 26
102 83 31
104 82 24
90 73 31
108 87 31
93 76 26
99 79 27
100 80 31
98 79 31
105 84 31
99 81 36
100 81 31
101 83 34
99 80 34
99 79 34
103 82 33
103 83 37
96 79 32
102 83 37
89 73 32
102 83 37
100 82 38
98 80 33
98 81 41
112 112 38
171 193 5
172 194 0
173 196 0
169 193 0
169 192 0
175 198 0
173 195 0
173 195 0
170 192 0
172 195 0
167 190 0
173 196 0
172 195 0
171 193 0
174 197 0
170 194 0
173 195 0
171 194 0
170 193 0
172 196 0
171 194 0
168 191 0
172 195 0
174 197 0
173 196 0
172 195 0
174 196 0
171 194 0
171 195 0
174 197 0
172 195 0
172 195 0
172 195 0
172 194 0
171 195 0
171 194 0
171 195 0
172 195 0
174 197 0
171 194 0
170 194 0
172 195 0
171 194 0
172 196 0
172 195 0
169 192 0
172 194 0
172 195 0
173 196 0
172 194 0
172 195 0
172 195 0
171 194 0
170 193 0
172 195 0
170 193 0
170 193 0
171 194 0
172 195 0
168 191 0
169 192 0
171 195 0
172 194 0
172 195 0
172 195 0
169 193 0
172 195 0
170 193 0
169 193 0
171 193 0
169 192 0
171 194 0
171 193 0
169 192 0
169 193 0
169 192 0
168 190 0
153 174 0
152 173 0
152 173 0
153 173 0
151 172 0
150 171 0
152 173 0
152 172 0
151 171 0
153 173 0
151 172 0
154 174 0
151 172 0
153 174 0
151 171 0
150 170 0
152 172 0
151 172 0
151 172 0
154 174 0
153 173 0
154 174 0
150 171 0
154 174 0
152 173 0
153 173 0
153 173 0
152 172 0
151 172 0
152 172 0
151 172 0
153 173 0
154 174 0
153 173 0
152 172 0
153 174 0
154 174 0
151 172 0
150 171 0
153 174 0
153 174 0
153 173 0
152 173 0
152 172 0
151 171 0
151 172 0
153 173 0
155 175 0
151 171 0
151 171 0
152 172 0
150 170 0
152 172 0
151 172 0
151 172 0
152 172 0
152 172 0
150 171 0
152 172 0
151 172 0
152 172 0
151 172 0
92 113 83
45 72 94
48 73 90
43 70 89
45 72 88
43 69 90
42 68 81
41 66 88
42 67 78
40 64 74
40 65 85
41 65 77
40 65 85
36 58 68
40 64 86
39 63 90
37 60 85
36 59 73
37 59 67
34 55 76
32 51 73
34 55 71
36 57 74
34 56 78
31 51 67
32 53 65
49 78 121
58 93 143
57 91 137
59 94 143
59 94 145
61 96 147
59 94 146
61 97 160
61 96 150
60 96 154
59 94 149
60 95 142
60 96 154
61 97 157
61 97 156
60 96 143
60 96 155
60 96 149
62 97 160
61 96 149
62 98 163
61 97 158
61 97 163
61 97 157
61 97 157
60 96 152
61 98 162
60 96 154
61 97 157
61 97 157
61 97 157
60 96 155
61 97 160
61 98 161
61 97 161
61 97 161
60 95 143
61 97 159
62 98 162
62 98 165
61 97 160
61 97 161
61 97 159
61 97 162
61 97 164
61 97 162
61 97 166
61 97 164
62 97 164
60 95 158
60 97 169
60 94 158
61 96 163
60 96 160
61 96 158
60 96 160
61 96 161
61 96 160
61 95 161
60 95 153
59 94 156
60 94 161
59 93 155
60 95 156
58 91 152
60 94 153
59 92 151
59 93 152
60 94 159
58 91 146
58 91 150
59 93 157
58 91 145
56 88 143
58 91 152
58 91 151
56 88 142
58 90 146
57 89 146
56 87 137
54 83 128
55 85 132
53 82 130
54 83 137
55 85 138
53 84 139
54 84 140
53 82 136
53 81 125
50 75 112
51 77 114
52 80 123
66 69 84
71 59 26
83 66 30
79 64 30
83 66 24
88 72 32
86 72 28
91 73 26
87 67 25
91 73 29
88 69 22
88 67 19
88 71 22
100 81 26
86 67 20
93 73 25
94 76 25
95 78 28
82 63 12
95 79 32
102 82 22
91 70 16
95 76 17
85 64 17
96 75 20
98 78 21
98 80 19
95 70 13
103 83 26
90 71 16
95 74 26
102 79 22
95 73 19
89 72 22
102 84 25
106 83 23
107 87 25
94 75 24
105 85 33
100 80 23
98 75 18
101 82 21
94 69 10
98 78 23
95 72 14
101 82 24
103 81 22
103 80 19
107 88 24
103 84 18
106 83 25
105 82 23
102 79 14
102 84 25
103 79 11
102 82 18
107 85 28
102 84 23
109 88 22
109 88 19
104 84 22
113 90 27
96 74 16
103 84 22
107 86 22
101 79 18
106 83 16
106 84 22
108 87 24
103 83 30
110 90 28
105 86 16
107 87 27
105 85 31
107 86 27
104 79 25
101 80 22
103 82 13
109 88 21
101 78 17
109 89 30
102 82 24
98 77 16
108 87 33
101 80 27
103 82 26
96 75 22
99 79 23
106 85 21
105 82 16
105 85 25
100 79 17
96 76 24
110 87 16
102 84 30
110 89 31
103 82 22
109 88 29
106 83 21
103 81 31
103 79 20
99 78 20
106 87 26
112 94 33
103 82 27
100 78 24
102 84 26
102 79 19
99 80 29
102 82 24
99 79 27
98 76 24
107 88 31
96 75 25
99 77 29
102 83 29
99 79 25
86 69 17
111 91 33
94 74 26
99 79 22
98 75 26
100 78 23
99 78 21
95 74 26
100 82 33
93 70 21
104 83 33
102 84 32
94 75 29
103 81 28
102 82 32
96 76 31
89 69 23
84 67 19
92 76 32
102 86 41
98 79 31
93 76 26
92 77 34
97 81 39
99 84 42
83 68 24
137 148 13
171 193 0
170 193 0
173 196 0
169 193 0
174 197 0
172 195 0
170 193 0
169 193 0
170 194 0
172 195 0
173 196 0
172 194 0
172 195 0
173 195 0
172 195 0
174 196 0
169 192 0
169 193 0
171 193 0
170 192 0
173 195 0
172 195 0
174 195 0
172 196 0
171 194 0
171 193 0
173 195 0
173 196 0
174 197 0
173 196 0
173 196 0
171 194 0
170 194 0
170 194 0
171 195 0
171 194 0
171 194 0
171 195 0
171 194 0
172 195 0
172 195 0
171 195 0
171 194 0
171 194 0
172 195 0
171 195 0
171 194 0
171 194 0
168 192 0
170 194 0
172 195 0
172 195 0
170 194 0
172 195 0
170 194 0
172 195 0
170 194 0
169 192 0
172 195 0
173 196 0
171 194 0
171 194 0
170 193 0
169 192 0
168 192 0
171 193 0
169 192 0
171 194 0
170 193 0
170 193 0
169 192 0
167 190 0
170 193 0
169 192 0
172 193 0
168 191 0
154 175 0
150 170 0
152 172 0
152 172 0
152 172 0
151 171 0
151 171 0
151 171 0
153 173 0
153 173 0
149 170 0
150 170 0
153 173 0
151 172 0
152 172 0
152 173 0
150 170 0
151 172 0
151 172 0
150 171 0
152 173 0
152 173 0
150 171 0
152 172 0
153 172 0
153 173 0
150 170 0
152 173 0
152 172 0
151 173 0
151 172 0
153 173 0
152 172 0
152 172 0
153 173 0
153 173 0
152 172 0
151 172 0
150 171 0
152 173 0
152 172 0
152 173 0
151 172 0
151 172 0
153 173 0
151 172 0
152 172 0
153 173 0
151 172 0
153 173 0
151 172 0
150 171 0
153 173 0
151 172 0
149 170 0
152 173 0
150 170 0
152 173 0
150 171 0
153 174 0
151 172 0
152 173 0
100 120 64
49 75 88
44 71 80
46 73 95
43 69 78
45 71 85
43 67 68
44 70 90
44 70 83
41 66 81
42 67 82
42 66 92
39 63 72
38 61 78
38 61 75
38 61 72
38 61 79
37 60 71
35 57 67
31 51 71
34 56 68
34 55 66
35 56 67
36 58 69
32 53 64
33 54 62
55 87 125
56 90 141
60 94 147
59 93 147
60 95 147
59 94 143
60 95 154
59 95 148
60 96 152
61 96 156
60 96 154
61 96 155
60 96 148
61 97 154
61 96 155
61 96 156
61 96 150
62 97 155
62 98 164
61 98 162
61 97 157
61 97 158
60 96 158
61 98 162
60 96 154
61 97 161
60 96 156
61 96 150
61 97 160
61 97 163
61 97 159
61 97 156
61 97 160
61 97 163
61 97 158
61 97 162
61 97 165
60 96 153
62 98 162
61 97 161
61 97 158
61 97 172
60 96 152
61 96 156
61 97 159
61 96 162
62 98 171
60 95 159
60 95 155
61 97 161
60 96 158
60 95 154
60 96 165
60 95 158
60 96 164
60 94 155
60 96 159
60 94 155
59 94 152
60 94 154
60 95 159
60 94 155
60 94 151
59 93 153
59 94 150
58 92 144
59 92 156
59 92 153
57 90 148
58 91 156
58 91 145
58 90 145
58 91 152
57 89 142
57 89 150
57 88 140
54 85 136
56 88 141
57 88 143
56 87 137
55 85 137
55 86 137
55 84 133
54 83 130
55 84 132
55 85 137
53 81 128
51 78 114
52 80 126
54 83 125
52 78 118
51 76 113
69 66 74
79 66 26
82 66 22
86 70 27
74 57 18
76 60 20
76 60 25
90 73 25
87 71 21
84 66 23
77 56 18
95 73 20
86 73 29
87 68 17
91 71 20
91 73 29
87 66 19
92 73 22
93 73 19
100 81 27
89 68 14
91 73 25
100 82 22
88 67 19
91 71 19
97 78 30
91 68 19
100 80 21
92 72 26
97 78 19
92 71 12
104 81 26
96 76 14
91 68 12
98 80 21
94 75 27
102 78 15
99 78 20
98 82 26
103 81 19
104 84 19
106 85 25
102 82 29
109 86 22
106 84 22
102 78 25
99 80 23
105 85 17
105 84 23
104 85 24
108 84 22
98 78 15
112 87 23
102 77 17
109 91 23
108 90 27
96 75 18
102 82 25
109 90 17
102 80 23
98 74 18
116 97 25
101 79 19
102 81 19
102 79 12
94 74 18
105 84 22
104 84 18
105 86 23
108 85 18
105 83 20
110 86 22
101 83 25
102 82 24
99 77 22
107 81 14
100 78 18
105 84 23
109 85 24
97 76 14
96 75 10
107 88 18
106 87 15
107 85 18
106 84 31
102 80 15
103 81 12
114 93 31
104 86 27
106 85 27
97 74 17
104 84 23
104 83 23
107 85 31
104 83 25
101 80 23
104 85 23
108 87 29
105 82 18
106 84 24
104 83 18
111 88 26
92 69 10
106 87 38
101 80 17
106 84 25
106 85 22
109 90 35
99 82 27
110 89 32
98 78 27
103 83 28
103 79 25
102 81 23
99 76 16
103 82 29
100 80 21
106 85 22
105 82 22
89 67 20
98 79 31
103 82 27
104 82 21
102 81 30
106 90 36
89 69 21
102 83 31
107 91 41
102 85 29
101 82 33
94 76 28
95 76 31
97 76 30
88 70 28
94 75 32
93 73 29
101 81 34
112 93 41
100 83 36
97 78 35
95 79 37
101 86 41
100 83 38
95 82 32
160 180 11
170 192 0
171 195 0
172 195 0
169 192 0
171 194 0
172 195 0
171 195 0
174 197 0
169 193 0
174 196 0
173 195 0
171 194 0
173 195 0
170 192 0
173 196 0
172 195 0
173 197 0
172 196 0
171 194 0
168 192 0
173 197 0
172 195 0
168 191 0
172 194 0
173 196 0
173 196 0
173 196 0
174 196 0
173 196 0
173 196 0
173 196 0
172 195 0
174 196 0
169 193 0
172 195 0
173 196 0
173 196 0
169 193 0
172 196 0
171 194 0
172 195 0
170 193 0
171 194 0
172 195 0
173 195 0
171 194 0
172 195 0
169 192 0
170 194 0
172 195 0
172 195 0
171 193 0
171 193 0
170 193 0
170 193 0
170 194 0
169 192 0
168 192 0
169 193 0
171 195 0
171 194 0
170 193 0
172 194 0
172 194 0
170 193 0
168 191 0
173 196 0
168 190 0
170 192 0
170 193 0
169 192 0
166 189 0
168 191 0
167 190 0
170 192 0
157 178 0
152 172 0
150 171 0
152 172 0
151 170 0
152 172 0
151 172 0
151 171 0
152 173 0
152 172 0
153 173 0
149 170 0
151 171 0
151 171 0
152 173 0
151 172 0
151 171 0
152 172 0
153 173 0
152 173 0
149 170 0
152 172 0
153 174 0
150 170 0
150 170 0
151 171 0
151 171 0
152 172 0
151 171 0
152 172 0
152 172 0
153 174 0
152 172 0
150 172 0
152 172 0
151 171 0
152 173 0
151 172 0
150 171 0
151 172 0
150 170 0
151 171 0
150 171 0
152 171 0
152 173 0
153 174 0
153 174 0
151 171 0
150 170 0
153 173 0
152 172 0
150 171 0
147 168 0
151 172 0
151 171 0
152 173 0
152 172 0
151 172 0
152 173 0
152 173 0
154 174 0
151 172 0
112 132 51
45 71 91
50 75 88
45 71 90
45 71 87
47 71 78
46 72 86
41 65 86
42 68 83
46 69 83
42 68 81
37 60 74
39 63 79
38 62 74
36 58 70
37 60 82
36 59 65
36 59 67
35 56 79
36 58 85
34 56 69
36 58 65
33 54 66
30 48 56
31 51 69
29 48 44
53 85 125
57 91 139
58 93 132
59 94 142
58 92 140
59 94 145
60 96 153
60 95 148
59 94 143
60 95 149
59 95 143
60 95 145
60 96 154
60 95 143
61 97 159
62 98 157
60 96 149
61 97 155
60 96 151
61 97 152
61 96 153
60 96 156
61 97 157
61 96 152
61 97 160
62 98 161
61 96 158
61 97 158
61 97 160
61 97 162
61 97 158
61 97 163
61 96 153
60 96 156
61 97 161
61 97 159
60 96 160
61 97 156
61 96 160
61 97 160
61 97 158
60 96 162
61 96 162
60 96 154
60 96 158
60 96 161
60 96 157
61 97 160
60 95 158
60 96 161
60 95 158
60 94 147
60 95 157
61 96 163
60 94 154
60 95 155
59 94 153
60 95 159
60 94 152
59 93 153
58 92 153
58 92 150
60 95 161
60 95 162
59 92 156
61 95 155
59 93 156
58 92 151
59 92 153
58 91 147
58 91 155
57 89 141
58 91 148
58 90 147
57 87 140
58 91 149
57 88 143
56 85 128
57 88 145
56 87 144
56 86 137
54 83 128
54 84 127
55 85 137
55 85 134
52 81 127
51 80 130
51 78 117
52 80 124
52 80 122
51 77 114
53 80 116
75 62 44
68 52 13
72 56 19
70 57 24
77 59 21
68 53 18
77 57 10
77 62 17
85 68 21
80 63 20
82 66 18
93 75 26
80 61 18
92 72 25
82 65 21
87 66 12
92 75 30
96 74 24
94 74 19
88 70 23
90 71 22
96 77 17
93 70 17
99 78 26
96 77 14
91 71 20
107 89 32
99 79 24
84 64 12
85 66 24
102 82 17
103 82 23
104 82 16
101 84 23
99 79 15
103 83 26
93 73 16
100 80 19
105 85 21
96 75 20
100 82 23
107 86 18
98 79 21
98 79 20
92 70 15
102 83 30
95 75 13
100 80 20
112 91 28
101 80 23
105 86 17
99 77 15
95 75 16
95 76 11
107 84 25
108 88 28
108 86 18
103 82 15
103 82 22
101 79 20
98 79 20
101 81 23
104 86 21
105 83 17
98 76 23
102 79 28
107 84 24
109 87 23
101 79 21
104 82 28
103 82 23
106 85 21
95 74 13
107 86 20
102 82 29
100 79 28
112 86 16
103 81 18
109 87 25
103 80 22
107 85 27
109 90 30
107 86 22
114 95 31
111 89 22
100 78 21
103 84 21
94 71 17
106 84 20
101 82 21
106 84 25
101 82 25
107 88 25
102 80 15
107 87 23
108 89 25
108 87 26
102 82 28
105 81 19
112 91 26
100 76 18
103 83 26
101 82 23
107 87 18
105 84 26
108 86 32
107 88 30
101 81 26
93 73 14
102 79 30
98 76 21
100 79 17
94 73 24
87 66 21
102 85 27
96 76 22
101 79 22
103 83 31
100 80 31
101 80 29
103 82 24
98 76 28
95 76 26
90 72 25
100 79 27
102 83 29
90 69 25
96 76 22
89 70 24
100 79 26
99 83 32
106 85 37
101 83 33
92 75 34
92 72 24
105 87 35
95 79 33
93 74 31
91 72 31
99 83 43
85 68 33
94 80 42
104 87 38
96 81 36
115 116 30
172 195 0
171 193 0
171 193 0
170 192 0
173 196 0
171 194 0
169 192 0
169 193 0
171 195 0
174 197 0
171 195 0
171 193 0
171 195 0
171 195 0
173 196 0
173 196 0
172 195 0
172 195 0
171 194 0
171 193 0
170 193 0
174 196 0
169 192 0
170 194 0
170 193 0
173 197 0
171 195 0
171 195 0
172 195 0
172 195 0
172 195 0
171 194 0
169 193 0
171 195 0
174 197 0
173 195 0
172 195 0
172 195 0
172 195 0
172 195 0
171 195 0
171 194 0
172 195 0
172 195 0
172 195 0
169 193 0
169 192 0
171 193 0
172 195 0
173 195 0
170 193 0
172 195 0
170 192 0
171 193 0
170 194 0
171 194 0
173 196 0
171 194 0
173 195 0
171 194 0
172 194 0
170 193 0
171 194 0
168 191 0
169 192 0
170 193 0
171 193 0
170 194 0
168 191 0
168 190 0
168 191 0
168 190 0
170 193 0
170 192 0
171 193 0
160 181 0
151 171 0
153 173 0
152 172 0
150 171 0
150 170 0
151 171 0
151 171 0
152 172 0
153 173 0
150 171 0
150 170 0
152 173 0
150 171 0
152 172 0
153 174 0
153 173 0
148 169 0
150 170 0
153 174 0
152 173 0
151 171 0
150 171 0
150 170 0
151 171 0
152 172 0
153 173 0
152 172 0
152 172 0
150 171 0
151 172 0
150 170 0
150 171 0
149 169 0
153 173 0
153 173 0
153 173 0
150 171 0
153 173 0
152 172 0
151 171 0
152 173 0
152 172 0
152 173 0
151 172 0
153 174 0
149 170 0
152 172 0
150 170 0
154 174 0
153 173 0
154 173 0
152 172 0
152 172 0
154 175 0
152 172 0
151 172 0
154 174 0
150 170 0
152 171 0
151 171 0
152 172 0
120 140 62
50 78 101
47 73 85
51 76 84
48 74 83
45 70 85
43 69 81
45 69 82
44 70 99
44 68 86
40 63 74
43 63 76
39 63 79
38 61 76
40 65 80
37 59 71
34 56 62
36 58 72
37 60 75
33 53 65
33 54 64
35 57 75
32 52 67
33 53 67
32 48 56
32 52 58
55 88 128
57 91 137
59 94 145
60 96 148
60 95 140
60 95 149
60 94 145
60 96 149
61 97 152
60 96 151
60 95 147
60 96 154
62 98 162
60 96 154
60 96 157
60 96 151
61 97 153
61 96 154
61 97 158
61 97 154
61 97 159
61 97 158
60 97 157
60 96 154
62 98 165
61 97 165
61 97 162
60 96 151
61 97 154
61 97 158
61 96 155
61 97 162
61 97 159
62 98 166
60 95 149
60 96 162
61 96 158
61 97 161
61 96 158
61 97 158
61 96 160
60 95 154
60 96 160
61 97 161
60 96 156
60 96 155
60 96 155
60 96 162
61 97 165
61 96 155
60 95 156
60 96 164
60 95 154
61 96 164
60 95 154
60 95 155
59 94 151
60 95 158
60 94 148
59 93 154
60 96 164
60 94 155
59 93 158
60 95 160
58 91 146
58 92 152
58 91 144
59 93 150
58 91 150
58 91 154
57 89 140
59 91 146
58 90 148
57 89 142
57 89 149
56 87 137
59 92 154
56 88 136
55 85 135
54 84 130
54 84 130
55 86 136
53 81 125
52 81 124
51 78 115
54 83 133
52 80 123
52 81 131
51 77 116
51 78 116
50 76 115
51 77 111
64 50 21
72 54 18
71 59 24
77 63 22
71 54 18
78 63 22
85 68 26
74 59 17
77 60 18
82 63 22
85 67 11
78 60 19
84 63 12
94 75 25
89 73 27
85 67 18
89 69 14
93 73 19
95 77 25
86 67 21
99 79 15
93 74 23
92 74 17
88 69 15
99 79 28
96 75 20
98 76 15
96 79 23
96 78 25
90 71 22
95 76 23
96 75 17
92 74 16
97 75 10
93 71 8
96 74 21
88 66 13
100 80 20
105 88 26
100 77 19
99 77 26
101 82 20
105 85 22
103 79 20
96 72 16
108 89 22
99 80 17
106 84 24
110 90 28
104 83 24
102 82 22
101 75 10
104 85 26
101 82 22
103 81 21
106 86 20
106 86 15
96 76 26
99 79 19
107 84 25
100 78 10
105 84 21
103 84 29
99 80 22
100 77 13
97 77 28
102 79 17
111 89 24
103 82 26
104 80 19
100 82 18
103 82 27
103 83 20
102 82 22
106 85 19
113 90 18
93 73 23
99 75 13
103 81 19
104 87 25
103 80 13
96 77 15
107 84 18
100 83 18
114 94 33
91 71 9
113 94 28
98 78 19
110 85 16
104 82 21
104 82 22
107 88 28
103 83 28
105 84 28
103 80 23
104 80 20
108 88 27
109 86 24
111 92 28
107 89 29
109 89 26
107 85 27
103 84 16
110 90 27
100 78 16
97 74 11
102 80 25
102 83 28
99 78 21
99 75 11
101 78 24
99 80 27
105 85 25
100 78 19
101 81 19
96 74 21
98 81 31
88 72 20
99 77 23
86 67 21
99 78 29
102 82 26
97 79 34
92 74 27
99 81 27
100 80 24
92 77 28
101 81 26
85 68 22
92 75 33
110 92 36
101 81 29
97 77 33
98 83 38
98 81 33
95 77 31
84 68 25
90 72 30
92 73 30
94 77 29
91 74 36
87 68 27
81 64 26
93 77 33
91 73 28
153 170 17
172 195 0
170 194 0
170 193 0
171 193 0
171 193 0
172 195 0
168 191 0
170 193 0
170 193 0
171 195 0
172 194 0
173 197 0
171 193 0
174 196 0
174 197 0
173 195 0
173 195 0
171 193 0
171 194 0
173 196 0
170 194 0
171 194 0
172 194 0
173 196 0
171 194 0
172 196 0
173 196 0
172 195 0
175 197 0
172 195 0
170 194 0
173 196 0
172 195 0
170 193 0
172 195 0
171 194 0
171 195 0
174 196 0
172 195 0
170 193 0
171 195 0
170 194 0
170 193 0
171 194 0
171 194 0
171 194 0
173 196 0
172 194 0
172 194 0
170 194 0
171 194 0
171 193 0
172 195 0
171 194 0
172 194 0
170 193 0
168 191 0
171 194 0
169 192 0
170 193 0
169 191 0
171 193 0
169 192 0
169 192 0
169 192 0
172 194 0
169 192 0
172 195 0
169 192 0
170 193 0
169 192 0
169 192 0
168 192 0
168 190 0
162 183 0
151 171 0
151 171 0
150 170 0
152 173 0
151 171 0
153 173 0
152 173 0
151 171 0
149 170 0
154 173 0
152 172 0
151 171 0
151 171 0
152 173 0
151 171 0
151 172 0
153 173 0
150 171 0
152 172 0
150 170 0
153 172 0
151 172 0
151 171 0
150 171 0
151 172 0
151 172 0
152 172 0
150 170 0
150 171 0
151 173 0
153 173 0
151 171 0
150 171 0
149 169 0
151 171 0
151 171 0
153 173 0
153 172 0
150 171 0
150 170 0
150 171 0
150 171 0
152 173 0
152 173 0
151 172 0
152 173 0
153 174 0
149 170 0
148 168 0
152 172 0
152 173 0
152 171 0
149 170 0
152 172 0
149 169 0
152 173 0
151 171 0
153 173 0
151 171 0
154 174 0
153 173 0
120 140 44
49 74 82
49 75 78
42 68 86
48 72 95
45 71 81
49 73 90
48 73 90
49 72 85
42 66 75
39 63 76
40 65 79
41 65 73
37 59 70
42 66 78
37 60 69
38 62 66
38 58 67
33 54 66
39 60 59
33 53 66
35 57 59
35 57 67
32 51 63
39 59 61
30 49 48
55 88 127
57 90 132
56 90 142
59 94 144
59 94 142
60 95 145
60 95 147
59 94 142
60 96 154
60 96 153
61 96 152
60 95 141
60 96 146
61 97 157
60 95 144
61 97 156
60 96 158
60 96 153
60 96 149
62 98 164
62 97 153
60 96 151
61 97 160
61 97 154
62 98 161
60 97 154
60 96 153
62 98 167
61 97 163
61 97 159
61 97 161
61 97 157
62 99 170
62 98 167
61 97 158
61 97 159
61 97 156
61 97 161
61 96 154
60 96 154
60 96 158
60 95 146
61 96 155
61 97 163
61 96 156
60 95 152
61 97 159
60 96 155
60 95 155
60 95 156
60 95 151
61 97 165
60 95 158
60 95 160
60 94 157
60 95 155
60 96 161
59 93 156
61 96 161
60 96 160
60 94 150
58 92 143
60 94 152
58 90 142
59 93 155
57 90 147
59 92 154
59 93 145
59 92 152
58 91 147
57 89 145
59 92 149
57 89 142
57 89 140
56 87 140
56 88 143
56 86 136
56 86 136
56 87 139
57 89 148
56 86 136
55 86 144
56 86 133
53 82 131
52 79 122
55 84 138
52 79 118
50 76 115
52 79 123
51 78 123
48 74 108
49 76 117
81 65 25
67 53 16
70 54 9
75 60 21
79 63 20
85 67 22
77 57 12
82 64 24
83 65 18
85 64 24
86 68 21
79 63 22
88 67 14
87 69 19
80 64 19
82 65 16
87 67 23
95 74 20
86 66 15
96 73 14
85 64 13
96 75 19
95 76 22
93 72 22
90 71 18
91 72 23
95 76 20
97 77 13
93 72 16
96 72 14
94 78 11
102 79 21
99 75 21
96 76 17
87 70 8
95 73 18
92 69 17
97 73 16
100 78 24
103 83 20
95 76 23
101 79 25
106 83 19
99 78 17
96 73 16
97 75 20
98 76 18
105 85 22
96 77 22
104 84 17
101 79 16
93 75 18
103 82 20
101 79 19
103 82 14
106 82 22
107 85 23
109 87 20
103 79 24
106 85 18
99 80 19
104 84 13
105 81 19
113 91 25
97 74 11
102 79 19
101 80 11
105 84 16
98 80 20
100 79 23
107 85 25
95 76 21
110 88 30
100 77 14
108 87 25
106 82 17
108 86 17
101 78 19
107 86 22
104 85 24
98 75 19
108 86 16
102 78 13
99 76 18
102 79 21
100 78 18
103 82 16
107 82 19
101 78 22
104 85 20
98 78 22
106 82 19
103 83 27
112 93 26
104 85 23
104 84 18
92 72 18
103 83 14
101 77 15
100 80 20
95 75 18
102 79 19
104 86 28
100 77 24
100 79 21
98 81 30
100 79 24
103 83 31
97 75 15
92 71 20
103 84 29
105 87 30
104 86 27
97 77 23
100 80 27
98 77 20
105 86 32
94 75 24
93 72 24
100 80 25
93 73 22
101 80 28
105 85 33
94 75 21
99 78 26
99 77 27
104 86 37
89 71 22
94 75 28
91 73 25
100 77 21
95 79 32
98 79 32
86 66 17
93 73 22
84 65 26
99 81 33
99 79 32
84 65 20
92 75 30
84 66 24
91 73 30
94 78 37
101 84 39
102 84 38
122 123 36
173 196 0
172 196 0
171 194 0
171 194 0
170 193 0
170 194 0
173 194 0
171 194 0
169 193 0
172 195 0
172 194 0
173 196 0
169 191 0
172 196 0
172 194 0
170 193 0
173 196 0
174 197 0
173 196 0
173 196 0
171 194 0
172 194 0
171 194 0
171 195 0
172 195 0
172 195 0
172 196 0
172 195 0
173 196 0
172 195 0
172 195 0
171 194 0
171 194 0
173 196 0
172 195 0
173 196 0
172 195 0
171 194 0
172 195 0
172 195 0
172 195 0
170 193 0
170 193 0
174 196 0
171 195 0
170 193 0
172 195 0
167 190 0
171 194 0
170 193 0
172 195 0
169 192 0
173 196 0
171 194 0
172 194 0
172 195 0
171 193 0
169 192 0
172 194 0
171 194 0
171 194 0
168 191 0
172 194 0
170 193 0
171 194 0
168 191 0
170 192 0
169 192 0
168 190 0
167 190 0
169 192 0
167 191 0
171 193 0
169 191 0
166 188 0
151 171 0
150 170 0
150 170 0
150 170 0
149 169 0
149 169 0
152 172 0
149 169 0
150 170 0
150 170 0
151 170 0
152 172 0
149 170 0
150 171 0
153 174 0
150 170 0
153 173 0
152 172 0
150 170 0
152 173 0
150 170 0
150 169 0
150 170 0
151 172 0
149 170 0
152 172 0
151 171 0
152 172 0
152 172 0
150 170 0
151 171 0
151 171 0
151 171 0
153 173 0
152 172 0
151 172 0
151 172 0
151 172 0
151 171 0
150 171 0
151 171 0
152 172 0
151 171 0
151 171 0
150 171 0
152 173 0
151 171 0
151 172 0
151 171 0
153 173 0
150 171 0
151 172 0
152 173 0
151 171 0
153 174 0
152 172 0
152 173 0
148 169 0
154 174 0
151 171 0
150 171 0
135 155 34
55 80 97
48 73 69
52 74 83
46 72 82
48 72 78
48 70 82
50 73 73
47 70 89
44 68 89
46 69 76
43 66 79
38 59 74
38 61 78
42 65 84
39 63 81
36 59 69
36 59 73
37 56 66
36 56 72
34 54 62
34 55 58
37 57 60
36 55 52
37 57 57
32 52 60
56 89 133
57 91 120
59 93 147
59 94 145
59 95 147
58 93 145
59 93 133
60 95 145
61 96 155
60 95 142
60 96 146
61 97 152
61 98 163
60 96 152
60 96 151
60 96 150
61 97 150
61 97 152
60 96 155
60 97 156
61 97 158
61 97 156
61 97 158
61 97 154
61 97 158
61 97 162
61 97 161
61 96 154
61 97 158
61 97 154
61 96 154
60 96 158
61 97 160
60 97 155
61 97 155
60 96 154
60 95 149
61 97 159
62 98 163
61 96 160
61 97 163
60 96 153
61 96 154
61 96 155
60 96 156
61 97 162
61 96 158
60 96 154
61 97 163
61 96 159
60 96 160
60 96 159
59 95 155
59 93 151
60 95 159
60 95 158
60 95 152
59 93 146
59 93 151
58 92 153
60 95 162
59 93 150
60 94 153
59 93 154
60 94 158
59 92 150
58 92 148
58 90 144
58 90 146
57 89 144
58 91 147
58 91 150
57 90 149
57 89 140
56 86 137
54 84 127
55 86 137
54 83 129
56 86 139
54 83 129
54 85 138
54 83 128
55 84 134
54 84 129
52 81 125
52 79 123
53 80 126
51 77 113
51 79 123
54 82 128
51 78 117
52 70 101
70 53 18
77 58 23
75 61 14
66 52 18
67 49 9
92 73 21
84 67 13
88 66 23
78 59 11
81 64 21
88 69 18
94 73 20
86 66 20
87 66 21
88 71 18
87 68 22
90 70 23
89 72 16
93 76 21
92 69 15
94 73 19
106 84 27
86 67 19
92 75 14
96 72 15
99 78 24
92 72 10
89 71 16
95 74 16
106 84 15
86 67 2
104 82 22
100 78 23
100 79 23
102 82 11
89 72 9
101 79 19
102 82 15
92 73 18
98 77 20
97 77 13
101 76 8
97 78 16
99 75 16
104 82 22
94 73 10
101 79 21
98 78 23
97 74 19
94 72 10
104 83 19
87 65 15
110 89 22
100 80 12
103 85 14
105 84 22
101 81 18
101 80 19
96 72 18
94 75 18
103 82 24
104 81 16
96 72 15
94 72 12
102 81 18
105 86 19
107 85 23
111 94 28
102 82 25
104 81 22
105 85 17
107 84 15
109 86 20
103 83 17
101 77 16
108 89 22
98 78 19
106 86 20
100 81 21
98 76 23
103 84 17
105 84 22
107 88 21
107 86 19
105 86 26
103 82 17
110 85 20
114 91 30
112 90 24
106 86 26
102 80 25
99 77 20
109 86 20
114 94 28
95 75 19
99 79 19
104 83 19
101 80 12
103 82 24
95 74 15
98 77 22
108 87 21
107 89 32
99 78 22
98 78 26
97 74 17
95 76 27
98 76 24
98 77 21
106 82 27
101 84 29
99 78 28
88 68 18
94 75 21
90 66 17
101 82 30
99 77 21
105 84 32
93 75 18
95 78 25
93 72 21
103 84 34
95 73 21
91 69 20
93 73 12
104 83 26
99 81 28
90 66 22
99 80 29
98 78 26
88 70 25
102 81 31
97 75 26
85 65 23
92 72 23
91 75 26
89 68 25
94 74 31
86 67 27
89 73 34
91 74 33
90 71 29
90 75 36
88 71 28
91 79 41
83 67 26
154 169 21
169 192 0
172 195 0
171 194 0
173 196 0
170 192 0
168 192 0
172 194 0
166 190 0
172 195 0
171 194 0
173 196 0
170 193 0
174 197 0
172 195 0
172 195 0
171 194 0
173 196 0
172 194 0
172 196 0
173 196 0
172 195 0
171 194 0
173 195 0
173 196 0
171 195 0
173 196 0
173 195 0
169 193 0
171 194 0
173 196 0
171 195 0
171 195 0
172 196 0
173 195 0
173 195 0
170 194 0
171 194 0
169 193 0
171 194 0
172 195 0
169 192 0
170 193 0
171 194 0
172 195 0
174 196 0
171 195 0
171 195 0
171 195 0
172 195 0
171 195 0
172 195 0
170 193 0
171 193 0
172 195 0
171 195 0
172 194 0
168 190 0
169 192 0
169 193 0
172 194 0
170 194 0
170 193 0
169 193 0
171 193 0
171 194 0
171 194 0
166 189 0
170 192 0
170 193 0
170 193 0
166 188 0
165 188 0
170 192 0
165 188 0
151 171 0
149 170 0
148 168 0
152 172 0
151 171 0
149 170 0
149 169 0
152 171 0
151 171 0
151 171 0
148 168 0
149 169 0
149 169 0
151 171 0
150 170 0
151 172 0
151 172 0
149 169 0
149 169 0
150 170 0
149 170 0
150 171 0
151 171 0
150 170 0
151 171 0
149 169 0
151 171 0
151 171 0
148 169 0
151 172 0
152 171 0
152 171 0
152 173 0
150 171 0
151 172 0
150 171 0
151 171 0
152 172 0
154 174 0
150 171 0
150 170 0
150 171 0
151 171 0
150 171 0
151 171 0
152 173 0
150 170 0
151 172 0
152 172 0
151 172 0
152 172 0
150 170 0
152 171 0
152 173 0
153 173 0
152 173 0
151 171 0
151 171 0
152 173 0
151 171 0
151 171 0
142 162 31
48 72 85
57 78 69
58 80 78
44 70 88
49 73 83
45 68 61
50 73 83
47 71 83
43 66 68
40 64 85
41 63 75
43 66 75
34 56 71
38 59 73
42 62 66
37 59 72
36 59 60
48 70 69
35 54 60
31 51 59
37 58 54
33 53 57
34 55 65
36 55 53
37 56 65
56 90 138
58 92 136
58 92 137
61 96 146
59 94 136
59 95 138
59 94 143
60 96 149
61 96 152
60 95 140
60 96 149
60 95 145
61 97 156
60 96 147
60 96 152
60 95 149
59 94 142
61 96 152
60 96 150
61 97 157
60 96 147
60 95 147
60 96 149
59 95 144
59 95 149
61 97 159
60 96 152
60 96 149
61 97 156
61 97 157
61 96 155
60 96 152
62 98 163
61 97 159
60 96 156
61 97 157
60 96 161
60 96 154
60 96 154
60 96 154
60 96 155
59 95 146
61 96 161
60 95 150
61 96 153
60 95 157
61 97 162
59 94 159
60 95 163
59 94 156
60 96 157
61 96 157
61 95 152
61 96 152
60 95 154
61 96 163
59 93 150
59 93 151
60 94 154
59 93 148
59 92 147
59 92 139
59 92 149
58 92 150
58 91 146
58 91 151
60 95 160
57 90 145
59 93 154
57 90 144
55 85 134
58 90 145
56 89 145
57 89 144
57 88 143
57 89 139
56 88 143
55 86 137
56 87 138
53 83 132
56 86 139
56 85 130
53 81 125
54 84 133
53 81 122
52 77 110
52 80 123
53 80 121
54 81 120
48 74 111
53 80 122
51 74 108
63 48 10
74 60 27
79 61 24
72 57 16
83 65 18
82 65 24
87 66 19
75 60 27
91 71 25
81 62 20
84 68 27
86 67 9
94 76 24
86 72 18
87 68 16
83 64 15
98 76 17
86 69 16
78 62 19
102 82 22
99 81 34
93 71 16
82 66 7
97 79 18
90 71 16
98 77 24
95 78 27
99 80 24
101 83 22
99 80 18
99 78 16
100 79 16
91 69 14
97 75 20
93 74 11
102 81 22
100 77 22
99 76 11
103 84 30
99 77 16
98 75 17
102 80 13
105 83 12
94 75 18
110 89 27
101 77 21
105 83 13
102 78 10
96 79 25
100 78 16
103 84 18
105 84 13
95 74 17
102 79 22
102 78 17
106 85 22
101 83 19
105 84 20
108 86 14
100 77 20
109 89 24
104 82 15
103 80 16
108 91 31
109 85 12
104 86 22
98 75 15
99 79 16
103 82 20
94 75 22
105 82 20
108 87 22
110 87 23
101 80 14
100 77 14
110 88 22
106 88 26
97 77 17
99 80 19
103 84 25
96 76 21
97 76 16
110 86 26
98 79 18
96 78 22
101 76 20
102 80 20
103 84 13
104 80 17
91 69 13
110 91 18
99 78 8
101 79 19
103 82 18
107 87 24
99 78 19
102 81 20
95 71 16
106 85 25
104 84 23
103 83 25
106 87 22
106 86 27
100 76 21
96 74 12
101 76 24
98 82 21
96 76 21
100 80 20
101 80 24
101 80 23
100 80 25
103 82 30
97 79 23
100 80 25
94 72 19
95 75 22
100 82 26
97 76 22
105 83 25
95 76 18
100 78 21
97 78 26
100 78 29
97 76 20
98 76 22
103 82 21
98 78 27
95 77 27
97 77 28
75 55 13
99 80 20
94 76 32
98 80 35
98 79 33
93 75 28
90 70 29
82 64 22
94 75 30
98 80 33
82 65 23
95 78 33
88 70 31
91 74 30
79 61 17
90 74 31
122 123 31
172 194 0
172 195 0
174 196 0
173 196 0
173 196 0
173 196 0
172 194 0
172 195 0
172 196 0
172 195 0
173 196 0
171 195 0
171 194 0
170 194 0
173 197 0
172 194 0
171 194 0
171 194 0
172 194 0
170 193 0
173 196 0
173 196 0
173 195 0
172 196 0
171 195 0
171 194 0
172 195 0
172 195 0
173 196 0
172 194 0
172 195 0
174 197 0
173 196 0
170 193 0
172 195 0
171 194 0
169 193 0
173 195 0
173 195 0
172 194 0
172 195 0
171 194 0
171 194 0
170 193 0
171 193 0
170 193 0
171 194 0
170 194 0
169 193 0
172 194 0
171 195 0
172 194 0
170 193 0
173 195 0
171 193 0
169 192 0
168 191 0
169 192 0
170 193 0
171 194 0
171 194 0
170 192 0
169 192 0
171 193 0
168 192 0
169 192 0
168 191 0
169 191 0
168 191 0
171 194 0
170 193 0
164 186 0
166 188 0
167 188 0
156 175 45
146 165 0
147 167 0
148 168 0
152 172 0
150 170 0
149 168 0
151 171 0
150 170 0
148 169 0
146 167 0
150 169 0
150 170 0
151 172 0
150 170 0
149 169 0
152 172 0
150 170 0
149 169 0
150 170 0
150 170 0
151 171 0
149 170 0
150 171 0
149 169 0
149 170 0
152 172 0
151 172 0
154 174 0
149 169 0
152 172 0
151 171 0
153 172 0
151 171 0
151 171 0
151 171 0
150 171 0
149 170 0
149 170 0
150 170 0
153 173 0
151 170 0
151 172 0
153 173 0
154 174 0
151 172 0
153 173 0
152 172 0
151 171 0
150 171 0
153 173 0
151 171 0
149 169 0
152 172 0
150 170 0
152 172 0
152 172 0
152 172 0
151 172 0
152 172 0
151 172 0
142 163 22
50 73 73
42 65 72
57 80 85
47 72 62
40 64 70
47 70 72
43 64 72
45 68 65
41 65 76
41 63 68
41 64 77
47 71 90
45 68 69
37 57 55
41 66 69
40 60 68
37 58 65
48 65 58
43 62 68
44 63 49
39 59 50
35 54 49
34 54 53
39 57 60
35 57 57
58 92 147
57 91 125
58 92 134
58 92 131
60 95 146
59 93 142
60 96 147
60 95 149
60 96 148
60 96 145
60 95 147
61 96 156
60 96 151
60 96 151
61 97 153
62 98 158
61 97 157
61 97 157
60 96 150
61 97 152
61 97 155
61 97 150
61 96 153
61 97 158
62 98 158
61 97 160
61 97 159
61 97 161
61 96 150
61 97 156
61 97 159
61 97 162
61 97 163
60 96 153
60 95 150
61 97 160
61 97 165
61 96 151
60 96 155
61 96 158
60 96 155
60 95 148
60 95 151
61 96 153
61 97 163
60 95 152
60 96 154
60 95 154
60 95 150
60 96 155
60 95 156
60 95 151
60 94 154
59 92 141
60 96 158
61 96 155
60 95 156
60 95 159
59 94 145
60 95 154
60 94 149
58 93 150
59 93 150
59 93 156
59 93 155
59 93 147
60 94 158
57 90 141
59 93 150
57 89 140
58 91 148
57 90 148
57 89 145
56 87 135
54 84 129
57 88 143
56 86 124
55 85 136
54 83 120
55 84 127
54 82 125
54 83 126
54 85 138
54 82 122
51 79 118
52 79 120
53 81 120
51 78 119
48 74 108
50 74 104
52 79 120
61 78 99
79 61 19
79 66 30
73 59 19
78 61 19
68 49 9
77 59 18
86 67 21
81 64 20
77 59 19
82 61 14
93 69 18
86 68 18
91 70 22
88 70 13
85 68 16
91 72 15
84 64 11
91 71 21
85 66 15
89 72 20
91 71 20
86 64 15
93 73 22
92 72 18
94 76 16
99 80 20
93 74 18
89 69 13
92 72 8
96 76 16
92 71 14
94 76 21
106 85 22
98 78 16
99 79 17
96 73 11
102 79 12
108 84 14
99 78 21
94 73 18
96 76 19
91 71 9
103 85 24
100 82 15
97 80 17
94 75 8
101 82 17
102 82 16
100 79 16
100 77 20
100 76 15
95 75 19
102 79 16
111 89 24
107 84 12
102 80 15
106 86 25
106 86 16
109 86 13
101 80 16
104 81 20
107 84 26
101 82 8
102 78 12
110 88 22
102 79 12
109 88 20
108 86 16
103 84 12
108 85 21
102 80 20
102 81 14
104 84 25
101 79 17
108 89 27
101 82 19
106 85 14
102 80 17
95 75 17
99 81 11
102 79 7
97 74 9
105 82 22
102 81 13
105 83 11
103 80 18
96 78 17
103 82 25
108 87 16
109 87 23
99 77 19
96 78 23
102 81 22
108 88 20
101 81 18
102 82 21
102 82 19
104 81 22
101 81 23
107 85 19
102 81 23
103 83 18
109 87 26
103 83 27
106 84 23
97 75 22
108 87 20
106 86 20
101 82 25
97 76 17
99 77 22
105 85 24
105 81 18
104 82 28
104 83 20
95 76 16
94 73 24
99 80 25
103 83 25
101 79 26
101 82 21
97 76 29
90 70 22
97 77 20
96 76 19
95 78 25
95 77 25
90 70 24
98 76 25
97 77 30
86 64 19
87 63 13
91 75 24
97 79 30
101 81 32
101 83 34
93 76 29
89 73 29
80 64 23
86 69 24
96 79 29
110 93 40
91 75 31
94 76 33
83 67 25
99 83 37
85 74 32
162 184 5
173 196 0
171 195 0
171 194 0
173 197 0
170 193 0
174 196 0
168 191 0
171 194 0
174 196 0
170 193 0
170 192 0
172 195 0
171 194 0
172 194 0
171 194 0
170 193 0
171 193 0
172 194 0
172 195 0
169 192 0
172 195 0
168 191 0
174 197 0
172 195 0
172 195 0
172 195 0
171 195 0
171 194 0
173 196 0
173 196 0
171 194 0
171 195 0
171 195 0
173 196 0
172 194 0
172 195 0
171 194 0
169 192 0
172 195 0
169 192 0
171 194 0
172 195 0
169 192 0
170 194 0
171 194 0
173 195 0
170 193 0
171 195 0
171 194 0
170 193 0
172 194 0
170 193 0
169 192 0
169 192 0
169 193 0
170 193 0
172 194 0
173 195 0
168 192 0
168 191 0
169 192 0
168 190 0
170 192 0
170 194 0
168 191 0
170 193 0
168 190 0
168 191 0
171 194 0
167 189 0
170 193 0
167 189 0
165 189 0
165 188 0
161 183 22
150 169 45
148 167 0
150 169 0
151 171 0
145 166 0
149 168 0
148 167 0
147 167 0
150 170 0
148 169 0
149 169 0
149 169 0
149 168 0
151 171 0
151 171 0
149 170 0
150 170 0
150 171 0
149 169 0
148 168 0
150 170 0
149 170 0
148 168 0
151 171 0
150 170 0
151 171 0
149 170 0
149 169 0
151 171 0
149 170 0
151 171 0
150 170 0
149 169 0
151 171 0
148 168 0
151 171 0
150 170 0
152 171 0
151 171 0
149 170 0
151 171 0
149 169 0
151 171 0
151 172 0
151 171 0
151 172 0
151 172 0
153 173 0
152 172 0
149 169 0
152 172 0
150 171 0
151 172 0
151 172 0
151 172 0
152 172 0
151 172 0
151 172 0
148 168 0
151 172 0
58 81 73
58 80 79
65 83 54
54 77 84
52 75 82
47 72 77
50 71 72
43 65 69
47 71 71
49 72 77
47 69 69
41 64 65
40 60 63
45 66 62
47 67 58
45 64 64
41 62 70
35 57 59
35 53 62
36 56 65
39 57 67
40 61 65
34 53 47
43 59 53
38 53 49
57 90 127
58 93 141
60 95 139
58 93 135
58 92 135
60 95 144
60 95 139
60 95 144
60 95 145
60 96 143
61 96 147
60 96 152
61 97 152
60 96 148
60 96 151
60 96 150
61 97 156
61 97 156
60 96 145
61 97 158
61 97 152
61 96 153
60 95 142
61 97 156
61 97 160
61 97 154
61 97 157
62 97 158
61 97 150
60 95 150
61 96 154
61 97 157
61 96 154
62 98 164
61 97 160
61 96 155
60 96 156
60 96 151
60 96 157
61 98 164
60 96 160
60 95 157
60 95 153
60 96 156
60 96 155
60 96 157
60 95 155
60 95 153
60 95 151
60 95 149
60 94 150
59 94 150
60 95 153
60 95 153
60 95 155
60 94 151
60 93 149
60 95 158
59 92 144
60 94 149
60 93 150
59 93 148
59 93 153
59 92 144
58 89 137
59 93 154
57 89 144
59 92 149
58 90 143
58 90 139
57 89 132
56 89 142
57 89 138
56 87 138
56 88 139
57 88 139
56 85 125
58 88 139
52 80 120
56 87 140
55 86 129
57 88 140
54 82 125
53 82 122
52 79 116
56 85 129
53 80 121
52 79 119
47 72 108
52 79 116
51 76 110
58 76 99
71 58 19
73 58 21
88 69 27
75 55 13
87 69 20
81 62 5
82 65 14
78 59 13
81 65 17
70 54 12
87 68 21
75 57 10
88 71 18
92 74 12
98 77 28
94 74 22
86 66 13
86 65 13
90 74 13
85 66 8
100 85 20
82 61 18
93 72 17
93 73 12
93 73 18
103 81 11
102 79 20
98 80 24
96 79 22
107 85 32
92 70 15
85 65 12
102 82 26
97 77 10
92 73 14
104 82 20
100 77 24
93 74 8
100 78 21
98 77 11
101 79 17
100 80 23
105 87 10
95 79 12
106 84 24
95 72 7
97 76 20
98 79 18
102 82 14
95 71 15
103 84 17
107 86 19
104 81 13
110 89 15
102 79 10
102 79 12
102 82 20
99 77 18
106 85 19
108 85 21
108 86 17
106 85 22
99 78 17
91 71 12
98 77 14
103 81 18
108 85 23
105 87 19
98 79 19
103 83 10
102 80 12
108 85 15
108 87 14
106 86 18
98 78 12
101 82 20
109 85 21
106 86 15
103 84 16
101 79 17
107 87 20
106 84 14
105 85 21
103 79 18
107 85 22
98 76 19
106 83 24
103 86 25
102 79 17
104 82 14
109 84 18
107 87 26
98 78 22
103 80 21
100 80 21
94 71 16
101 83 20
108 90 31
105 85 27
97 76 8
95 74 20
97 76 14
102 80 13
98 79 22
101 79 16
97 74 17
100 78 21
99 79 19
95 74 15
107 85 19
96 76 16
92 69 11
98 80 25
101 79 22
95 76 23
105 84 30
106 87 28
98 79 26
105 84 27
94 74 22
91 73 23
89 69 14
91 76 16
105 85 24
85 66 21
102 82 27
88 65 16
93 72 17
94 74 16
97 77 28
89 72 24
88 69 21
96 79 29
100 80 35
100 83 25
95 79 29
91 72 28
86 69 31
86 68 27
90 71 27
85 68 22
86 70 23
63 49 21
89 74 25
74 56 18
96 82 37
93 79 38
145 158 29
168 190 0
171 195 0
172 195 0
170 193 0
171 195 0
172 195 0
173 195 0
169 193 0
170 194 0
168 191 0
171 194 0
174 197 0
171 193 0
172 195 0
169 192 0
173 196 0
173 194 0
173 195 0
173 196 0
175 198 0
171 195 0
172 195 0
171 195 0
172 195 0
172 195 0
171 195 0
170 194 0
171 195 0
171 194 0
170 193 0
171 195 0
170 194 0
171 195 0
173 195 0
171 194 0
172 194 0
172 196 0
171 195 0
170 193 0
171 194 0
170 194 0
170 193 0
172 195 0
171 195 0
171 193 0
170 193 0
171 194 0
171 194 0
169 192 0
171 194 0
172 194 0
171 194 0
172 195 0
170 193 0
170 193 0
171 194 0
171 194 0
168 191 0
169 192 0
169 191 0
167 190 0
168 191 0
169 192 0
170 192 0
168 190 0
168 190 0
168 191 0
169 192 0
169 191 0
168 192 0
167 190 0
167 188 0
167 189 0
167 189 0
166 187 0
162 184 0
160 179 56
148 167 22
148 167 0
149 168 0
149 169 0
148 168 0
146 165 0
147 168 0
151 170 0
147 167 0
149 169 0
149 169 0
150 169 0
147 168 0
150 170 0
150 170 0
149 169 0
150 170 0
148 169 0
151 171 0
150 170 0
149 170 0
152 172 0
149 169 0
150 170 0
148 169 0
151 170 0
151 170 0
150 170 0
148 168 0
149 169 0
151 171 0
150 170 0
152 171 0
151 170 0
151 172 0
149 169 0
150 171 0
151 172 0
150 171 0
151 171 0
149 170 0
151 171 0
154 173 0
151 171 0
148 167 0
152 172 0
151 170 0
151 171 0
148 168 0
152 172 0
149 171 0
150 171 0
151 171 0
152 172 0
151 172 0
150 171 0
152 172 0
149 170 0
70 90 64
55 78 79
61 81 81
46 69 66
45 68 69
48 70 66
45 65 62
47 66 63
49 72 71
55 75 71
38 62 69
48 69 79
60 78 60
46 66 66
37 57 62
32 52 62
43 63 65
36 54 58
34 55 57
38 56 52
36 56 50
41 58 53
54 70 47
38 56 59
33 54 50
57 90 132
59 93 137
58 92 130
59 93 133
60 95 141
58 93 129
60 95 145
61 96 147
59 94 142
60 96 153
60 96 149
60 96 149
60 96 150
59 95 144
60 95 150
60 96 150
61 96 155
60 96 148
60 95 143
61 96 149
61 97 159
60 96 142
60 95 148
61 97 157
61 96 160
62 97 155
61 97 151
60 96 154
61 97 157
61 97 156
61 97 157
61 96 152
62 97 157
61 97 157
60 95 149
60 95 154
62 97 161
61 96 153
60 95 148
61 96 155
61 96 160
61 96 156
61 97 161
61 97 160
61 96 149
60 96 156
59 94 152
61 96 150
60 96 158
60 95 155
60 94 149
60 96 156
60 95 158
58 91 142
60 94 149
59 93 153
60 95 158
60 94 150
59 94 151
59 92 149
60 94 152
58 91 142
59 93 152
58 92 147
59 93 148
59 91 143
57 90 141
59 93 150
58 90 138
57 88 135
57 90 139
58 91 149
58 90 141
57 89 145
56 87 134
56 87 133
56 86 128
56 86 133
55 85 130
56 85 132
56 86 134
56 87 130
54 84 134
53 80 121
54 83 120
54 82 127
51 77 115
53 81 126
49 72 95
50 77 120
47 71 103
58 77 95
69 60 27
82 67 26
74 59 16
70 55 10
80 61 17
77 60 19
85 67 19
84 66 18
88 71 14
79 63 14
75 56 5
85 66 18
77 58 9
93 73 15
89 70 18
77 61 19
96 78 20
92 73 8
92 74 15
85 64 7
98 80 18
88 71 16
81 65 16
96 76 14
101 84 26
95 73 18
90 69 12
96 77 15
93 72 10
100 83 20
95 74 16
89 69 15
104 82 19
94 72 11
93 72 15
98 76 12
105 81 20
107 85 14
98 78 15
99 77 16
105 84 15
97 76 12
100 81 11
106 88 28
107 86 16
102 83 15
109 87 13
105 84 25
108 88 22
98 78 15
99 80 20
101 78 12
92 75 15
103 82 23
102 81 13
108 87 21
106 84 15
101 80 17
96 77 12
100 83 19
102 81 14
104 85 18
109 85 18
106 85 19
105 84 16
106 88 26
113 91 18
98 79 21
101 78 21
92 72 18
106 87 22
104 85 20
108 89 26
100 78 24
108 87 26
110 89 20
104 79 21
102 81 14
107 86 21
105 83 20
101 83 12
99 79 19
99 80 17
97 78 17
102 82 19
101 81 18
106 84 23
99 78 16
109 90 21
104 83 22
99 79 16
101 80 14
102 82 18
93 71 9
107 86 30
103 85 25
101 81 9
110 89 30
103 80 15
106 86 18
101 82 12
101 78 16
98 76 16
103 83 31
95 76 24
100 76 23
92 70 21
99 77 26
92 73 17
104 82 24
97 75 23
96 76 13
98 76 18
105 85 21
93 73 18
100 80 23
95 75 18
100 82 25
101 81 22
104 85 29
93 72 28
101 79 16
91 72 17
98 78 21
94 75 26
99 78 22
87 69 22
91 72 22
91 73 18
100 79 32
99 81 36
84 64 21
90 73 22
81 60 19
97 76 26
92 76 29
94 77 28
83 68 14
94 74 24
90 73 22
88 72 26
86 67 24
78 61 24
95 75 28
78 60 22
90 75 37
90 75 39
110 111 24
168 190 0
172 195 0
170 192 0
171 194 0
170 194 0
170 194 0
171 195 0
173 196 0
173 195 0
171 195 0
173 196 0
169 193 0
171 194 0
169 191 0
173 195 0
173 196 0
173 196 0
172 194 0
173 195 0
168 192 0
174 197 0
172 195 0
170 194 0
171 194 0
172 195 0
172 195 0
171 195 0
172 195 0
172 195 0
173 196 0
170 194 0
172 195 0
170 194 0
171 195 0
172 195 0
172 195 0
169 192 0
171 194 0
172 194 0
170 193 0
170 194 0
171 195 0
168 192 0
172 195 0
174 196 0
172 195 0
170 194 0
168 191 0
173 195 0
167 190 0
170 193 0
172 194 0
171 193 0
170 193 0
171 194 0
170 193 0
171 194 0
169 192 0
167 191 0
169 192 0
169 192 0
170 193 0
171 193 0
169 191 0
167 191 0
169 192 0
169 192 0
165 188 0
168 190 0
169 191 0
169 191 0
166 189 0
169 191 0
166 189 0
167 188 0
163 185 0
164 187 0
157 178 51
151 170 39
149 169 0
146 166 0
145 165 0
147 167 0
147 167 0
149 169 0
149 169 0
149 169 0
148 168 0
147 167 0
149 169 0
148 169 0
147 167 0
149 169 0
149 169 0
151 170 0
149 169 0
150 170 0
150 170 0
151 171 0
150 170 0
150 171 0
151 171 0
152 172 0
149 169 0
150 170 0
151 171 0
149 169 0
151 171 0
150 170 0
150 170 0
151 172 0
149 169 0
150 170 0
151 172 0
153 172 0
150 170 0
150 170 0
150 170 0
151 172 0
152 172 0
151 171 0
149 170 0
152 172 0
149 170 0
151 173 0
150 171 0
151 171 0
151 172 0
150 170 0
150 171 0
152 172 0
149 169 0
148 169 0
151 171 0
151 171 0
80 98 65
62 82 53
52 72 64
49 70 65
60 79 64
52 73 60
52 72 67
54 74 66
45 66 60
49 69 70
49 71 73
48 70 71
42 62 61
58 78 71
44 61 51
49 66 54
48 67 55
37 55 51
44 61 52
48 65 42
35 51 41
30 50 45
44 61 48
41 59 51
35 53 36
55 88 128
58 92 131
57 91 132
59 94 136
59 94 149
60 95 144
59 94 139
59 94 145
60 95 145
60 95 143
60 95 136
60 95 142
60 95 141
61 96 147
61 97 150
60 95 142
61 97 157
60 96 145
61 96 147
61 96 148
61 96 149
59 95 147
60 96 154
61 97 155
60 96 142
61 97 156
61 97 159
61 97 156
60 96 147
60 96 154
61 96 156
61 96 152
61 97 155
60 95 150
60 95 150
61 97 161
60 96 151
61 96 152
60 96 153
61 96 158
61 97 158
61 97 160
62 97 161
61 96 161
60 95 152
60 95 154
60 95 150
60 95 153
61 96 156
60 94 151
60 95 155
61 95 149
59 93 148
60 95 156
59 94 154
59 94 154
60 95 158
59 94 148
59 94 151
60 95 156
60 95 151
59 94 150
58 91 149
58 91 147
58 91 145
59 93 148
58 91 148
57 89 139
59 91 144
57 89 136
58 90 140
55 86 130
57 88 134
58 90 138
56 87 138
56 86 135
55 85 125
55 84 131
56 85 132
53 82 124
53 81 118
54 82 126
53 81 124
51 78 117
52 80 121
49 75 117
50 76 110
49 74 111
51 76 111
51 78 115
48 72 102
49 70 94
76 68 32
76 61 19
70 55 13
85 67 16
71 54 17
87 69 16
75 56 12
81 62 14
86 67 18
76 60 18
75 58 14
89 71 19
78 60 8
85 67 17
93 72 20
82 63 17
94 72 12
85 69 23
88 70 20
90 69 12
94 67 10
83 64 14
94 79 12
93 72 15
101 82 21
92 71 12
92 71 14
88 69 12
93 72 10
90 69 9
94 77 18
93 73 17
96 75 14
98 76 11
91 67 10
92 71 13
98 79 19
95 77 15
99 78 20
96 75 16
96 75 19
90 71 14
91 72 13
109 86 20
101 79 13
98 77 15
106 85 14
101 81 11
104 82 20
102 80 21
99 77 10
97 76 14
103 85 26
107 82 17
104 82 15
100 78 17
100 79 13
102 81 19
107 84 19
97 77 12
102 82 22
103 82 20
98 79 15
98 76 14
103 82 19
102 80 16
108 87 12
98 76 12
105 81 10
106 82 14
105 85 21
108 90 23
95 73 11
98 76 17
100 81 27
105 84 17
97 75 20
101 82 10
99 79 12
100 80 20
111 88 20
102 80 12
101 79 23
106 83 15
104 86 20
107 85 23
101 84 29
99 77 23
97 77 11
101 80 19
97 74 12
101 77 13
102 82 14
101 81 16
106 82 18
100 79 18
100 79 24
112 90 20
89 70 18
101 80 18
107 82 19
104 83 21
101 80 22
99 77 16
103 79 12
103 81 25
94 74 14
98 77 16
97 77 21
108 89 22
99 81 29
101 80 24
103 82 23
94 73 16
94 74 22
95 76 24
106 85 21
98 77 31
101 79 24
92 74 18
90 69 22
96 74 22
98 81 31
91 75 22
93 73 12
96 75 18
102 80 19
104 83 26
89 68 21
94 78 28
95 75 23
94 75 18
90 69 17
102 80 29
93 73 21
97 78 26
92 73 24
95 73 22
86 68 20
92 73 29
88 67 23
91 75 26
79 62 27
92 73 32
82 65 24
88 72 25
84 70 32
92 79 37
172 194 11
171 194 0
171 193 0
171 194 0
168 190 0
168 191 0
174 197 0
173 197 0
171 195 0
169 192 0
171 193 0
172 194 0
171 193 0
168 191 0
172 195 0
171 194 0
171 194 0
172 195 0
171 193 0
168 191 0
174 197 0
171 193 0
169 192 0
171 194 0
174 197 0
172 195 0
169 192 0
172 195 0
171 194 0
171 195 0
171 194 0
173 195 0
172 195 0
172 195 0
172 195 0
173 196 0
172 195 0
170 194 0
172 195 0
170 194 0
170 193 0
170 193 0
172 194 0
171 193 0
171 194 0
171 194 0
172 194 0
170 193 0
169 193 0
171 194 0
170 193 0
168 192 0
172 195 0
167 189 0
170 193 0
170 193 0
169 192 0
170 193 0
170 193 0
168 191 0
172 195 0
171 193 0
167 191 0
170 192 0
168 191 0
169 193 0
171 194 0
170 193 0
166 188 0
169 192 0
168 190 0
169 191 0
166 189 0
169 191 0
168 190 0
164 187 0
165 188 0
162 184 0
163 185 32
154 174 51
145 164 0
148 168 0
145 165 0
148 168 0
150 169 0
148 168 0
146 166 0
147 167 0
150 170 0
149 168 0
148 169 0
149 169 0
151 170 0
151 172 0
150 170 0
148 168 0
150 170 0
148 168 0
151 171 0
151 170 0
147 167 0
150 170 0
149 170 0
152 173 0
150 170 0
149 170 0
151 171 0
152 172 0
149 169 0
149 169 0
150 171 0
150 169 0
151 171 0
151 171 0
150 171 0
149 169 0
149 170 0
151 172 0
150 171 0
152 172 0
150 170 0
151 171 0
151 171 0
151 172 0
151 172 0
154 173 0
150 171 0
150 170 0
151 170 0
151 172 0
152 173 0
151 171 0
150 170 0
151 171 0
149 169 0
100 120 63
58 77 65
60 79 65
35 57 52
49 70 60
55 74 67
54 74 63
53 73 66
55 76 70
51 71 54
54 73 65
44 62 57
54 73 59
47 65 52
48 67 60
47 66 65
44 63 56
47 64 51
47 64 49
53 68 46
51 68 50
51 67 52
50 67 54
35 51 37
50 66 44
55 88 132
59 93 140
57 91 129
59 93 133
58 93 133
61 97 152
60 95 148
61 96 144
60 95 143
61 96 150
59 95 136
60 95 143
61 97 159
61 97 157
61 97 155
59 95 142
60 96 153
61 97 155
61 96 149
61 97 150
61 96 146
60 96 152
61 96 152
61 97 154
61 96 153
61 97 155
61 96 151
61 96 153
61 97 154
61 97 161
61 97 156
61 97 158
59 95 145
61 96 155
61 96 162
61 97 156
60 95 148
60 96 155
60 95 148
60 96 154
61 95 149
61 96 152
60 95 155
60 95 148
60 96 147
60 96 152
61 96 160
61 95 151
58 92 141
60 95 150
59 94 150
59 93 149
59 94 152
60 95 154
59 93 150
59 94 142
59 94 152
59 93 152
60 94 150
60 94 153
60 93 152
58 91 149
58 91 135
58 90 137
57 88 131
57 89 139
58 90 135
58 93 150
56 87 132
58 89 140
57 88 141
58 89 137
58 90 140
56 86 128
57 88 134
58 90 142
54 85 131
55 85 131
55 85 128
56 88 143
53 80 119
53 83 124
54 82 129
52 80 123
52 79 116
51 76 106
54 81 120
52 80 119
49 73 103
50 75 110
49 73 99
52 71 95
82 78 37
78 61 15
71 54 13
81 63 17
78 60 19
78 63 16
79 60 18
76 60 17
76 60 13
74 56 18
77 57 9
92 74 18
78 62 13
93 71 13
97 81 20
88 71 23
93 77 19
92 73 10
85 66 14
91 72 20
85 64 8
98 79 19
92 71 6
93 73 25
99 79 23
94 75 15
86 65 14
97 78 19
103 81 14
97 76 24
98 75 15
95 72 10
89 69 10
96 74 11
96 75 16
94 71 10
97 80 16
104 82 14
99 76 14
90 65 13
103 85 19
106 85 24
99 82 19
103 80 18
107 85 14
97 81 11
102 83 16
103 81 16
108 85 13
100 79 16
98 75 7
107 87 19
103 82 20
106 84 19
103 83 18
99 80 18
107 88 20
103 82 10
102 81 16
112 97 26
97 76 10
100 80 14
109 89 18
108 85 18
113 94 24
104 83 16
100 78 9
97 74 11
108 89 18
108 84 18
101 80 14
108 88 13
106 85 18
112 89 14
98 81 16
106 85 23
99 78 20
99 79 21
115 93 27
97 78 16
99 75 12
97 75 17
108 88 16
104 86 19
109 89 26
100 81 9
100 81 14
95 74 12
108 88 24
98 79 23
107 87 23
92 72 17
100 80 14
104 82 22
107 85 18
109 88 26
98 76 20
108 85 20
105 84 14
96 74 17
97 76 14
106 84 27
96 75 14
96 75 13
100 81 24
89 70 15
107 84 21
101 82 22
104 84 11
100 78 25
106 89 32
101 80 13
100 82 20
97 78 20
98 76 17
94 69 14
106 83 22
99 74 18
96 76 23
88 67 14
102 81 20
85 64 21
101 81 26
96 75 18
91 76 20
90 71 25
86 66 16
94 75 20
90 74 15
93 75 21
80 62 17
92 69 19
89 67 17
94 78 31
98 80 29
85 67 25
91 72 26
86 70 31
85 67 27
97 81 38
78 64 20
89 72 21
94 75 29
86 70 29
87 67 24
91 76 31
92 78 37
79 66 29
155 171 13
170 193 0
169 191 0
174 196 0
169 193 0
172 195 0
174 196 0
171 194 0
171 194 0
170 193 0
170 193 0
170 192 0
171 194 0
167 190 0
171 194 0
172 194 0
171 194 0
174 196 0
172 194 0
172 194 0
173 195 0
170 192 0
172 195 0
171 194 0
172 195 0
173 196 0
173 195 0
172 195 0
173 196 0
173 195 0
170 193 0
170 194 0
174 197 0
174 196 0
170 193 0
169 193 0
171 194 0
173 196 0
173 195 0
170 193 0
171 193 0
171 195 0
171 193 0
172 195 0
173 195 0
171 195 0
172 195 0
171 194 0
169 192 0
173 196 0
170 192 0
172 195 0
171 194 0
169 193 0
170 193 0
170 193 0
171 194 0
170 194 0
169 192 0
168 191 0
168 191 0
169 193 0
165 189 0
167 190 0
170 193 0
171 193 0
169 191 0
167 190 0
170 192 0
164 187 0
168 191 0
168 190 0
168 190 0
163 186 0
166 188 0
167 190 0
164 186 0
163 186 0
165 187 0
165 187 0
159 179 51
146 166 22
145 165 0
146 165 0
145 164 0
147 166 0
148 168 0
148 167 0
147 167 0
148 168 0
148 167 0
149 169 0
146 165 0
146 166 0
149 169 0
149 169 0
150 170 0
148 168 0
152 172 0
150 170 0
148 169 0
148 168 0
148 168 0
147 166 0
149 168 0
149 169 0
150 170 0
148 168 0
149 169 0
149 170 0
150 170 0
152 171 0
150 169 0
151 170 0
150 170 0
152 172 0
151 172 0
150 170 0
151 171 0
151 172 0
149 169 0
149 169 0
150 170 0
148 168 0
149 170 0
151 172 0
150 171 0
150 170 0
151 171 0
153 173 0
152 171 0
149 170 0
151 171 0
152 172 0
149 169 0
103 122 52
68 86 52
61 79 44
62 81 60
43 64 59
57 75 51
62 79 44
46 64 52
53 73 62
52 71 57
47 65 40
42 62 56
58 74 52
47 65 49
46 64 66
50 67 47
34 55 58
40 57 43
42 61 42
37 54 52
50 66 41
51 65 38
39 55 37
44 59 34
42 57 25
55 83 106
58 92 132
58 92 136
58 93 140
60 95 139
59 94 137
60 95 146
60 96 149
60 95 142
59 94 135
61 96 147
61 96 146
61 96 152
61 96 146
60 96 150
61 96 147
60 95 142
61 97 151
60 96 142
60 95 143
60 95 147
61 97 150
61 97 149
60 96 149
61 96 147
60 95 150
61 97 156
60 96 153
60 96 155
61 96 153
60 96 155
62 98 159
60 96 156
60 96 149
61 96 151
59 95 151
61 97 152
60 95 155
61 97 159
60 95 154
60 95 150
60 96 154
61 97 161
60 95 145
60 94 159
60 95 151
60 96 154
61 96 151
60 95 153
59 93 148
60 94 152
60 94 148
60 94 146
59 93 146
60 95 154
59 94 153
60 94 149
60 94 145
60 95 156
60 95 154
60 94 152
59 92 148
60 93 147
59 93 151
59 91 144
58 91 147
58 91 140
59 91 140
57 89 132
57 89 136
58 90 140
56 89 146
56 87 134
56 86 139
56 87 135
56 88 131
54 82 125
54 86 130
56 86 135
53 82 121
52 80 120
54 83 124
52 79 113
53 81 116
50 76 114
51 77 110
51 77 109
50 76 108
47 70 98
50 76 106
49 74 99
60 75 83
79 81 48
65 50 15
66 51 14
76 58 14
75 59 15
69 51 18
75 57 9
88 67 22
87 71 23
80 62 7
78 57 11
75 57 10
94 74 23
94 75 22
86 68 13
94 74 20
82 63 18
90 72 14
97 76 14
88 70 19
85 65 6
91 72 15
96 74 12
83 67 22
96 74 22
95 76 22
97 74 21
90 71 17
95 74 17
93 73 15
90 70 15
96 75 17
94 74 11
96 77 10
98 77 21
95 74 14
97 75 12
98 80 15
93 75 9
102 81 13
91 73 10
100 80 11
107 87 23
101 81 14
100 79 18
105 85 15
101 81 18
102 83 14
86 69 10
93 75 6
103 81 16
98 78 19
107 84 15
97 75 13
99 77 14
107 87 11
99 79 10
97 77 10
98 77 11
114 96 26
105 83 19
103 81 17
105 82 15
103 85 21
112 91 18
104 85 16
100 80 8
97 74 9
106 87 27
100 77 16
107 89 16
110 87 18
100 82 21
102 80 13
107 83 16
107 86 21
98 77 19
110 88 18
106 85 14
108 88 18
106 84 11
106 84 23
103 82 22
106 86 16
108 89 22
104 85 24
105 86 18
108 85 18
98 78 14
98 77 12
104 83 15
97 79 19
106 87 20
100 81 23
107 85 19
97 76 19
110 91 25
109 85 17
100 76 7
94 75 14
104 86 20
102 82 22
100 78 17
98 77 18
100 77 17
104 82 19
102 82 23
97 76 20
104 79 20
99 79 19
103 85 22
103 81 20
101 82 24
94 75 15
102 81 21
99 81 22
98 77 22
96 75 19
102 82 25
103 81 21
96 75 18
93 71 20
99 79 17
97 77 21
92 71 25
96 79 19
90 69 20
96 76 25
100 78 24
92 72 18
85 68 23
86 68 19
91 71 28
93 75 26
83 66 24
83 64 22
84 67 22
84 68 23
105 85 32
84 66 27
80 63 21
82 64 21
92 75 30
90 75 35
91 73 32
79 62 24
85 74 38
91 74 32
139 150 29
171 193 0
173 196 0
171 195 0
172 195 0
173 195 0
170 192 0
170 193 0
170 193 0
171 194 0
172 195 0
169 192 0
170 193 0
170 192 0
172 195 0
174 197 0
172 195 0
171 194 0
172 195 0
170 193 0
172 195 0
167 190 0
173 196 0
174 196 0
173 196 0
172 195 0
172 196 0
171 195 0
172 195 0
172 195 0
171 194 0
171 194 0
171 194 0
170 193 0
171 194 0
172 194 0
170 194 0
172 195 0
169 192 0
172 195 0
172 195 0
170 193 0
171 194 0
172 195 0
171 193 0
169 192 0
170 193 0
171 195 0
170 192 0
171 194 0
171 193 0
172 195 0
172 195 0
170 193 0
167 190 0
172 195 0
170 193 0
170 193 0
171 194 0
169 192 0
170 192 0
172 194 0
170 193 0
170 192 0
171 193 0
170 193 0
170 192 0
168 190 0
165 188 0
169 192 0
166 188 0
167 190 0
166 189 0
168 190 0
166 188 0
165 188 0
167 190 0
165 187 0
164 187 0
160 182 0
163 184 0
164 186 22
152 171 51
147 166 0
147 166 0
150 171 0
149 168 0
146 166 0
147 167 0
147 167 0
149 168 0
150 170 0
146 166 0
147 167 0
151 171 0
148 168 0
147 166 0
147 167 0
147 168 0
150 170 0
148 168 0
150 170 0
150 171 0
149 170 0
148 168 0
148 168 0
149 170 0
151 170 0
150 169 0
151 171 0
146 167 0
151 171 0
151 171 0
149 169 0
151 171 0
151 172 0
150 170 0
151 172 0
151 172 0
151 172 0
150 169 0
148 169 0
145 165 0
150 170 0
150 169 0
151 170 0
150 170 0
148 169 0
151 172 0
149 170 0
151 172 0
149 169 0
151 171 0
151 171 0
151 172 0
119 138 49
53 71 53
70 88 55
60 79 59
60 79 53
61 79 53
50 69 57
67 86 57
59 77 56
62 79 42
48 67 59
51 68 57
44 63 55
46 64 48
52 68 52
49 67 58
49 67 46
40 57 44
51 66 45
47 66 52
41 57 44
51 64 35
43 58 32
43 58 34
56 69 27
55 84 98
59 93 135
57 91 132
59 93 137
58 92 134
59 93 130
60 95 140
59 94 135
60 96 152
60 95 142
59 94 138
60 96 147
60 95 140
59 95 139
59 94 144
60 95 142
61 97 154
60 95 145
60 96 143
61 96 146
61 97 155
61 96 154
60 96 145
62 97 154
61 96 150
61 96 154
61 97 153
61 97 158
61 96 151
60 96 149
61 97 151
62 97 154
60 95 150
60 95 144
61 97 160
61 96 150
61 97 158
60 96 153
61 97 154
61 97 156
60 95 146
60 95 149
60 95 146
61 96 153
60 96 156
60 95 147
60 95 148
61 96 155
60 94 144
60 94 152
60 94 149
61 95 149
60 94 150
61 96 162
60 94 152
60 93 151
59 94 147
59 93 140
58 92 143
58 92 147
58 91 140
58 91 141
58 91 136
59 91 139
58 91 142
58 90 138
58 90 141
57 89 140
57 90 148
56 87 134
56 86 134
56 87 132
57 88 137
55 85 126
56 87 133
53 81 119
56 87 136
55 85 120
54 83 127
53 80 112
52 81 120
55 84 127
52 79 114
51 79 122
53 81 120
52 79 119
53 79 110
50 74 101
52 77 113
49 73 101
48 72 107
65 79 81
87 89 47
73 62 22
76 58 12
71 54 15
70 56 7
79 62 11
86 67 14
82 63 10
71 54 14
83 63 14
92 71 16
93 75 24
93 73 13
95 78 22
81 61 17
97 77 19
93 73 22
85 69 9
93 75 13
82 61 10
91 73 24
90 72 13
94 75 17
90 69 12
102 83 25
94 73 16
98 77 9
97 76 13
92 74 19
92 71 9
91 67 13
99 79 12
101 81 20
100 77 21
102 83 17
97 77 12
103 83 21
99 80 19
102 80 12
96 74 9
95 73 10
94 75 11
108 85 12
95 75 20
101 79 14
91 73 16
104 84 16
93 71 8
105 85 17
98 77 4
98 79 14
109 92 23
101 79 16
100 78 12
107 85 20
99 76 14
100 81 20
102 82 10
107 83 20
107 85 18
103 83 14
100 78 10
102 78 12
105 82 17
100 80 13
104 81 20
101 81 15
102 84 19
99 78 10
102 81 12
101 83 11
106 84 23
107 83 14
109 90 19
101 80 17
103 81 13
104 84 17
97 76 15
100 80 20
106 85 14
104 82 20
109 88 20
105 86 14
99 82 16
108 88 24
97 72 11
98 80 15
101 80 19
103 80 15
101 79 14
99 77 16
97 75 11
103 83 18
104 82 20
102 81 12
101 83 16
104 83 20
105 82 16
102 81 25
97 73 18
100 80 20
95 70 14
103 81 17
95 74 15
90 69 12
103 84 26
104 81 14
106 87 26
94 74 20
103 83 16
99 78 15
91 71 14
101 76 13
104 81 20
98 78 18
97 79 25
97 75 19
92 72 20
95 74 19
88 68 17
93 73 21
95 74 20
89 73 19
97 77 26
101 82 28
93 75 27
100 82 30
89 72 23
91 75 31
91 75 18
98 77 24
93 76 31
81 62 20
99 81 33
84 63 19
102 84 33
87 67 23
94 76 27
90 72 23
88 69 25
87 70 28
71 54 19
85 69 29
76 62 21
82 65 17
90 71 27
90 73 25
89 76 34
121 126 24
169 193 0
172 195 0
174 198 0
170 193 0
172 195 0
169 193 0
172 195 0
170 193 0
172 195 0
171 193 0
169 192 0
170 193 0
170 194 0
171 192 0
169 192 0
171 195 0
171 194 0
171 194 0
169 192 0
170 193 0
173 196 0
171 195 0
169 193 0
171 194 0
174 197 0
170 193 0
171 195 0
171 194 0
173 195 0
173 196 0
171 194 0
171 194 0
171 194 0
172 195 0
171 194 0
172 194 0
174 196 0
171 195 0
170 194 0
171 194 0
170 193 0
171 194 0
172 194 0
173 196 0
171 194 0
169 192 0
172 194 0
171 194 0
170 194 0
169 192 0
167 190 0
172 195 0
169 192 0
174 196 0
169 192 0
172 195 0
171 193 0
169 192 0
170 193 0
166 189 0
170 193 0
171 194 0
169 192 0
170 192 0
169 192 0
165 188 0
167 190 0
169 192 0
169 191 0
165 187 0
165 187 0
169 191 0
166 189 0
168 190 0
167 189 0
166 189 0
167 189 0
163 186 0
166 188 0
164 185 0
162 184 0
162 184 0
157 176 56
143 162 0
147 166 0
146 165 0
146 166 0
146 166 0
147 166 0
145 164 0
150 169 0
147 168 0
151 170 0
150 170 0
147 167 0
149 170 0
148 168 0
150 170 0
149 169 0
149 169 0
150 170 0
150 170 0
150 170 0
149 169 0
151 171 0
150 170 0
150 170 0
151 171 0
149 170 0
149 170 0
148 167 0
150 169 0
148 168 0
148 168 0
148 167 0
149 169 0
149 169 0
149 169 0
151 171 0
151 170 0
150 170 0
150 170 0
151 171 0
152 172 0
151 171 0
146 167 0
150 171 0
148 167 0
150 170 0
148 168 0
151 171 0
149 169 0
151 171 0
150 169 0
123 142 37
65 82 57
64 82 57
53 72 60
49 67 53
69 86 47
63 81 55
61 78 46
57 76 51
59 78 62
58 75 53
52 70 51
53 71 52
52 68 41
56 71 40
53 69 38
51 65 46
41 59 41
45 62 42
38 56 40
47 62 32
54 67 19
58 71 41
46 61 31
54 66 36
54 80 104
58 92 131
60 95 137
58 93 131
59 94 134
60 95 140
60 95 144
60 95 145
59 94 132
60 96 145
61 96 152
60 95 136
59 94 140
60 96 149
60 95 139
60 95 136
61 96 151
61 96 148
61 97 151
61 97 154
61 96 155
61 96 147
61 97 158
61 96 150
60 96 144
61 96 149
60 95 143
60 96 152
62 97 159
60 95 148
60 95 144
60 95 150
61 97 158
61 97 153
61 96 148
61 96 158
60 95 147
60 95 148
61 96 153
61 96 151
60 95 150
61 97 154
61 96 151
60 95 152
60 95 150
60 94 150
60 94 144
59 94 152
60 96 151
59 93 146
62 96 156
60 95 151
59 93 134
59 93 148
59 93 143
60 94 152
59 93 151
59 93 142
60 94 154
59 93 141
59 92 145
59 92 149
57 90 138
60 92 146
59 93 153
57 90 137
59 92 143
56 88 136
58 89 142
56 86 128
57 89 142
59 92 142
56 88 131
56 87 132
54 83 121
53 82 119
56 86 126
56 86 129
53 81 124
55 84 120
52 79 113
55 83 119
52 79 110
51 79 120
49 74 106
50 76 115
53 81 115
49 74 109
46 69 97
49 75 112
48 71 95
51 70 89
75 77 43
89 83 38
84 68 25
81 62 15
79 63 17
73 54 11
81 61 18
78 60 15
87 66 14
91 75 21
91 72 18
84 65 11
84 69 18
84 62 15
82 64 12
90 70 12
85 67 8
84 63 11
81 65 10
90 71 10
92 76 21
86 67 15
92 71 20
90 71 7
97 78 10
88 66 14
95 74 17
108 88 22
83 66 11
92 71 16
102 79 16
93 73 8
99 76 11
108 88 23
104 83 15
102 84 12
97 79 7
96 73 16
99 76 4
86 65 6
96 73 16
102 80 16
96 76 20
99 82 15
95 76 13
95 74 16
102 79 12
111 91 23
93 69 13
108 86 11
99 78 17
100 77 11
105 88 18
100 77 15
107 87 11
95 75 12
106 84 11
102 80 19
108 89 17
105 85 20
100 83 15
102 78 16
107 87 19
96 79 17
100 74 14
98 75 13
105 86 18
105 85 19
98 78 19
96 75 20
104 84 14
104 82 15
95 75 19
104 83 19
101 81 19
107 83 16
107 85 12
99 77 17
97 78 16
107 84 12
105 86 10
106 85 17
102 78 16
97 77 7
106 86 27
106 84 21
111 92 23
104 84 13
106 85 14
112 91 21
105 83 19
101 82 27
100 80 19
98 78 23
100 76 7
103 78 18
103 80 15
102 79 15
98 78 18
100 82 12
103 80 17
95 77 18
93 72 9
109 91 31
105 83 22
98 79 14
88 70 8
99 77 16
98 78 22
96 75 20
95 76 20
104 84 14
102 83 19
95 75 21
105 86 20
98 80 18
97 77 21
96 74 19
99 80 24
101 85 30
103 82 19
98 75 16
90 70 14
94 72 22
87 65 12
87 68 20
98 76 20
91 72 21
92 72 20
87 67 20
93 74 26
91 74 23
90 73 23
85 66 11
82 65 20
94 71 22
95 75 25
93 75 19
90 70 27
90 70 25
88 70 26
73 55 17
83 63 16
87 70 33
82 67 22
73 56 24
69 55 19
85 71 33
110 110 24
170 193 0
173 195 0
171 194 0
171 195 0
171 193 0
169 192 0
173 194 0
169 192 0
171 194 0
174 196 0
171 193 0
172 194 0
173 196 0
170 193 0
171 194 0
170 193 0
171 194 0
173 195 0
169 192 0
172 195 0
171 194 0
170 193 0
171 194 0
171 194 0
172 195 0
171 194 0
168 192 0
171 194 0
172 195 0
171 194 0
172 196 0
171 194 0
172 195 0
171 195 0
171 195 0
173 196 0
173 195 0
169 193 0
173 195 0
170 193 0
171 194 0
171 195 0
171 195 0
171 194 0
169 192 0
171 193 0
170 193 0
171 195 0
170 193 0
170 193 0
169 192 0
170 193 0
168 191 0
169 193 0
172 195 0
170 192 0
171 194 0
169 193 0
171 194 0
172 195 0
168 191 0
170 192 0
170 192 0
170 193 0
168 191 0
168 190 0
169 191 0
168 190 0
167 190 0
167 189 0
168 190 0
168 190 0
168 190 0
168 190 0
169 190 0
168 190 0
162 184 0
163 186 0
164 186 0
164 186 0
167 189 0
163 185 0
160 182 0
161 181 32
152 170 56
145 164 0
146 165 0
149 167 0
149 169 0
148 168 0
147 167 0
149 168 0
148 168 0
149 168 0
149 168 0
149 169 0
150 169 0
149 168 0
148 168 0
150 171 0
150 171 0
149 169 0
152 171 0
149 168 0
148 168 0
147 167 0
148 168 0
149 169 0
148 168 0
151 170 0
150 170 0
150 171 0
148 168 0
149 169 0
150 170 0
150 170 0
149 169 0
148 169 0
151 172 0
148 170 0
151 171 0
149 170 0
149 170 0
150 170 0
150 170 0
150 170 0
149 169 0
148 169 0
150 170 0
150 170 0
150 170 0
149 170 0
151 171 0
151 171 0
135 155 30
69 87 44
53 70 52
62 79 53
65 82 50
62 78 54
61 77 56
55 73 57
65 81 44
66 82 41
68 86 72
59 75 45
54 70 55
66 82 46
61 77 49
43 60 48
55 69 14
47 62 39
49 65 36
55 70 40
62 75 31
59 74 35
53 67 29
55 69 29
60 73 33
49 71 85
58 92 130
58 93 125
60 95 141
59 93 127
59 94 137
59 94 125
58 93 134
59 94 131
59 95 142
59 94 135
59 95 138
61 96 147
60 96 146
61 96 149
61 96 151
60 96 143
60 95 144
61 96 151
61 97 153
59 94 143
61 97 151
60 95 145
60 96 145
61 97 153
61 96 148
61 96 151
60 95 143
61 97 152
60 96 153
59 95 146
60 95 151
60 95 152
60 96 149
61 97 161
61 96 156
60 96 148
60 96 147
59 94 140
61 96 158
60 95 140
60 94 147
61 97 157
60 95 149
59 94 137
59 94 144
60 95 157
60 95 152
59 93 145
59 94 152
59 93 140
60 95 153
59 92 132
59 93 147
58 92 150
60 94 147
60 94 141
60 94 150
59 93 144
58 91 135
60 95 157
59 92 146
59 92 136
58 91 150
59 92 145
59 92 143
58 90 133
58 90 140
57 88 138
57 89 134
56 87 137
57 88 136
56 85 115
58 91 143
58 90 140
54 85 135
56 86 128
53 82 120
54 82 118
55 85 127
55 85 126
54 81 118
53 81 110
51 78 111
52 80 119
53 79 117
50 74 106
50 75 103
49 73 98
49 73 103
48 72 98
53 67 80
73 76 44
90 90 44
74 63 19
69 55 18
74 58 19
83 66 14
85 64 16
76 58 8
81 64 12
75 54 5
82 62 14
85 65 15
92 71 12
83 62 12
85 66 21
91 69 18
88 71 15
91 71 18
88 69 10
88 69 13
88 69 11
95 72 10
96 77 21
91 72 15
81 62 8
94 73 10
90 70 14
88 69 11
94 72 20
91 71 11
93 74 16
91 72 8
98 76 10
103 79 9
103 83 15
90 72 16
95 75 12
97 74 10
105 84 18
102 81 13
101 82 15
99 81 8
106 85 12
96 76 18
107 85 19
109 88 11
102 79 13
105 86 17
103 80 18
104 83 10
103 83 19
93 74 20
107 89 27
110 89 18
103 80 16
103 82 17
95 74 15
104 84 13
105 84 21
102 79 10
99 80 8
102 84 15
102 80 14
106 84 12
106 89 20
103 81 10
101 79 9
106 83 21
104 83 13
103 83 17
107 88 19
104 83 19
103 81 10
94 74 14
104 86 12
104 82 18
104 84 21
104 83 12
96 75 17
99 76 12
101 81 18
108 89 23
102 80 11
100 76 15
102 80 9
103 80 17
108 85 14
108 89 23
95 74 11
110 89 22
96 77 9
97 75 18
94 72 14
99 81 20
106 87 18
102 81 19
99 80 18
92 69 10
104 79 18
102 83 21
95 71 10
111 90 25
99 78 12
98 79 14
98 78 19
105 86 19
99 79 10
99 78 13
103 81 18
95 76 14
93 75 19
95 77 11
106 84 22
96 75 11
105 84 20
96 74 17
102 79 14
100 79 21
86 65 11
96 75 13
96 76 16
104 81 24
97 78 21
89 69 18
95 73 18
97 74 16
97 77 27
89 71 21
97 77 26
92 73 19
91 72 17
101 82 20
89 67 19
91 69 20
88 71 17
92 71 19
87 69 23
86 66 20
93 76 29
86 66 22
91 74 32
84 65 23
82 66 27
84 66 25
80 64 18
78 64 30
80 65 23
64 48 12
104 108 24
170 194 0
169 190 0
173 196 0
168 191 0
173 194 0
171 194 0
172 195 0
172 196 0
174 195 0
170 193 0
173 195 0
172 195 0
170 194 0
170 193 0
172 195 0
172 195 0
172 196 0
169 190 0
171 193 0
172 195 0
168 191 0
171 194 0
172 195 0
171 194 0
172 195 0
172 195 0
172 195 0
170 193 0
172 195 0
172 195 0
172 195 0
172 196 0
171 194 0
171 195 0
170 193 0
171 194 0
170 193 0
169 193 0
171 194 0
174 196 0
171 194 0
171 194 0
172 195 0
172 195 0
169 192 0
173 195 0
170 193 0
170 194 0
171 194 0
172 196 0
170 193 0
170 193 0
169 192 0
171 194 0
169 192 0
170 193 0
168 191 0
170 192 0
171 193 0
166 189 0
169 192 0
168 191 0
169 191 0
168 191 0
168 190 0
168 191 0
170 192 0
166 189 0
166 189 0
167 189 0
167 190 0
167 190 0
168 190 0
164 188 0
166 188 0
167 189 0
165 187 0
167 188 0
163 186 0
167 189 0
165 187 0
165 187 0
166 188 0
163 186 0
161 182 32
157 175 64
146 166 0
145 164 0
147 166 0
149 169 0
147 167 0
147 167 0
150 169 0
148 168 0
148 168 0
147 167 0
151 170 0
148 168 0
148 169 0
149 170 0
150 169 0
151 171 0
150 170 0
151 171 0
148 168 0
149 169 0
150 170 0
149 169 0
149 169 0
149 169 0
148 167 0
150 170 0
150 170 0
151 170 0
150 170 0
149 169 0
149 169 0
150 170 0
152 171 0
150 171 0
150 169 0
148 169 0
150 170 0
149 170 0
150 170 0
152 172 0
149 169 0
151 171 0
148 169 0
149 169 0
150 171 0
148 168 0
149 170 0
149 168 0
133 152 26
64 80 51
62 80 57
70 85 41
60 78 54
61 77 40
71 86 45
68 83 25
66 83 38
59 75 45
61 75 33
70 85 35
55 69 37
55 71 37
49 65 44
60 74 44
56 69 34
66 80 32
43 57 33
44 60 29
67 79 18
60 72 30
48 62 30
53 68 37
46 58 41
58 80 79
57 90 125
58 93 127
59 93 133
58 93 138
59 94 139
59 94 137
59 95 135
60 96 148
59 94 142
59 94 141
61 96 146
60 95 141
60 96 144
59 94 135
61 97 153
59 94 148
60 95 142
60 96 145
60 96 153
61 97 153
61 97 155
60 96 150
61 97 156
59 95 145
60 96 150
61 97 148
62 97 154
60 95 149
61 96 154
60 95 141
60 96 143
59 95 149
60 96 152
60 94 145
59 95 147
60 96 147
60 96 156
60 96 156
60 95 140
60 95 149
60 95 156
59 94 145
60 94 150
59 94 146
60 96 153
60 95 149
59 93 143
61 96 156
60 94 148
61 95 154
59 94 145
60 93 139
59 92 145
60 94 143
59 94 147
59 93 145
59 93 139
59 92 147
58 90 129
58 90 142
59 94 153
59 91 140
57 90 134
58 90 132
58 90 143
58 91 140
57 89 139
58 91 141
56 87 133
56 87 130
59 90 136
56 87 131
57 88 134
55 85 126
55 84 120
54 84 129
56 86 125
53 82 120
55 85 128
55 83 123
53 81 122
54 83 121
50 76 108
51 77 108
52 79 116
52 78 108
51 77 111
50 76 109
47 71 98
50 75 104
56 70 78
86 87 48
93 93 42
85 78 33
75 57 18
84 64 12
82 63 12
81 61 16
81 62 8
71 53 12
81 64 22
76 57 8
91 71 19
82 66 6
84 67 16
87 67 15
85 66 14
88 71 14
90 69 9
96 76 19
91 72 11
89 71 5
94 72 13
94 76 15
97 76 20
89 68 13
82 64 14
91 73 6
101 83 13
91 68 14
98 78 15
92 73 15
84 66 14
101 82 17
101 80 13
98 77 6
96 76 10
100 79 18
95 76 8
99 79 9
94 74 16
104 85 20
98 79 20
101 79 10
99 80 11
101 81 18
102 79 12
104 83 14
100 79 14
109 88 23
106 84 13
98 81 8
105 84 16
102 80 12
97 76 17
100 81 8
102 84 15
99 74 12
99 77 10
98 77 10
104 84 6
104 83 19
105 85 12
104 83 10
105 85 17
105 85 17
102 80 8
105 85 20
104 82 14
105 84 20
104 87 20
106 86 20
105 83 10
105 84 18
114 91 17
100 77 14
102 83 13
106 86 16
103 84 22
106 84 17
105 82 14
99 76 11
103 79 15
99 78 20
104 85 17
99 84 17
102 83 22
106 87 14
106 86 15
97 76 15
97 76 16
106 88 18
103 83 17
103 82 19
97 77 8
99 78 23
96 74 12
94 74 16
97 78 20
98 79 20
103 82 15
99 82 19
100 77 17
100 80 14
102 81 21
104 83 19
104 82 20
95 74 10
95 74 12
101 81 18
106 88 20
102 81 16
100 81 13
89 68 18
99 79 20
100 78 16
97 76 15
98 77 14
93 74 8
88 65 9
98 77 18
92 71 15
98 74 20
92 74 16
93 72 22
92 73 24
90 68 20
93 74 12
98 75 22
86 69 19
100 79 27
99 76 23
91 70 20
88 66 12
97 76 25
91 71 24
79 59 17
89 68 14
82 59 18
80 62 13
83 64 24
91 69 19
88 72 27
89 70 30
89 73 27
86 71 34
79 62 21
81 65 23
89 73 32
95 95 26
170 192 0
172 193 0
171 194 0
171 194 0
173 196 0
172 194 0
173 196 0
170 194 0
171 194 0
173 196 0
172 195 0
171 193 0
169 191 0
172 195 0
169 192 0
169 191 0
173 195 0
171 195 0
172 195 0
170 194 0
170 193 0
170 193 0
172 196 0
169 192 0
172 195 0
171 193 0
172 195 0
170 193 0
172 195 0
172 194 0
172 195 0
170 193 0
172 195 0
172 196 0
171 194 0
171 194 0
171 194 0
171 195 0
171 194 0
171 194 0
170 193 0
171 195 0
170 194 0
172 195 0
172 195 0
171 195 0
170 193 0
170 193 0
170 193 0
174 196 0
170 193 0
171 194 0
171 194 0
170 193 0
169 192 0
168 191 0
170 192 0
166 190 0
170 192 0
170 193 0
168 192 0
168 191 0
168 191 0
170 192 0
171 193 0
170 192 0
167 190 0
169 192 0
169 190 0
170 193 0
168 190 0
167 189 0
166 188 0
167 189 0
167 189 0
165 187 0
164 186 0
165 188 0
167 189 0
167 189 0
168 190 0
165 187 0
164 185 0
162 184 0
162 183 0
163 185 0
163 183 60
150 168 45
144 164 0
147 166 0
144 164 0
146 167 0
149 169 0
147 167 0
147 167 0
148 168 0
148 168 0
148 168 0
150 170 0
150 169 0
148 167 0
150 169 0
148 168 0
148 169 0
150 169 0
148 167 0
149 169 0
149 169 0
147 167 0
149 169 0
149 169 0
149 170 0
149 169 0
150 170 0
148 169 0
151 171 0
149 169 0
149 169 0
149 169 0
150 171 0
152 172 0
149 168 0
148 169 0
150 170 0
151 171 0
149 169 0
151 171 0
150 170 0
149 169 0
150 171 0
149 169 0
149 170 0
150 171 0
149 169 0
145 165 0
77 93 44
65 81 39
61 77 38
70 86 35
59 76 47
66 84 56
75 91 44
63 78 38
65 80 36
60 76 28
59 73 28
64 78 36
66 80 35
70 86 31
54 68 42
61 76 37
55 69 37
55 69 26
49 62 22
61 75 22
53 64 22
67 79 29
56 69 16
54 66 25
50 68 63
57 90 131
59 94 134
59 94 137
57 90 122
58 92 135
60 94 139
59 94 131
59 95 137
60 95 134
58 93 131
60 95 145
61 96 147
60 95 139
60 95 135
60 96 149
61 96 145
60 95 143
60 95 148
60 95 139
60 95 137
60 95 143
61 96 142
61 96 153
60 96 141
61 97 151
61 97 156
60 95 143
59 94 138
60 95 145
61 97 154
59 94 141
60 95 141
60 95 145
61 97 156
60 95 149
60 95 145
60 94 145
59 94 146
58 93 143
61 96 151
59 94 140
59 94 143
61 96 152
60 95 151
59 93 136
60 95 146
60 94 145
60 95 146
58 92 131
59 93 149
60 95 152
59 92 141
59 93 153
59 93 150
58 91 135
58 92 146
59 93 144
59 94 146
59 93 143
59 92 142
59 92 142
59 91 143
57 89 128
59 92 147
58 90 141
58 91 137
58 91 140
58 89 138
57 87 128
57 88 132
58 91 143
57 87 133
56 87 126
56 86 126
57 88 135
55 85 123
55 85 127
55 84 126
52 80 109
52 79 115
52 79 112
53 80 115
49 73 94
52 79 113
51 78 110
50 75 106
49 74 102
46 69 95
49 73 101
51 77 106
57 70 73
79 83 44
97 97 42
106 105 50
64 52 19
81 65 13
75 57 14
80 60 10
83 62 10
82 60 13
81 65 17
81 63 13
79 66 15
89 67 13
92 73 15
82 65 13
88 70 11
85 64 13
88 69 8
88 66 10
90 73 15
95 73 11
99 78 16
92 72 16
90 72 20
93 75 15
94 76 13
94 73 15
92 74 14
95 76 18
97 76 11
90 71 10
92 72 19
98 74 10
104 80 13
98 79 18
106 85 19
104 83 19
101 81 18
99 76 10
101 80 11
104 87 8
105 82 18
92 70 14
98 76 14
103 83 15
109 90 14
103 83 15
103 80 13
96 78 10
101 79 12
97 79 13
106 83 16
110 87 24
96 73 12
100 79 15
109 86 15
105 85 16
97 76 15
103 81 7
102 82 16
106 85 16
104 84 18
103 84 16
109 87 15
113 91 20
106 86 11
103 81 9
102 83 10
101 79 22
100 79 20
104 81 16
101 82 17
104 81 17
112 90 17
101 80 13
100 81 8
105 85 12
107 89 18
102 82 11
107 82 16
106 83 15
105 87 15
104 86 16
101 79 17
102 78 7
110 87 14
103 86 19
102 80 18
102 83 16
94 70 18
99 78 9
98 75 5
100 79 21
104 81 11
108 88 17
99 80 23
100 80 14
108 86 18
105 83 16
100 80 21
102 81 17
103 82 16
100 80 11
106 83 14
101 81 11
96 78 15
104 84 22
98 76 21
96 78 18
92 72 9
96 78 19
105 85 19
85 67 9
97 78 14
94 73 16
95 75 19
99 76 16
93 73 20
94 73 17
98 78 22
91 68 18
95 77 25
98 84 22
94 75 23
88 66 14
88 68 15
94 73 27
93 72 21
91 74 17
93 73 19
102 85 29
98 78 21
92 71 19
97 78 19
90 68 18
87 69 24
81 63 23
77 59 15
78 60 15
69 52 12
79 65 25
86 68 20
76 59 18
77 62 16
66 51 9
75 58 22
88 71 30
73 58 22
99 97 30
172 194 0
170 193 0
172 196 0
166 189 0
171 194 0
167 191 0
171 194 0
168 191 0
169 191 0
171 195 0
173 195 0
172 193 0
173 196 0
171 194 0
173 196 0
168 191 0
172 194 0
171 194 0
168 191 0
171 195 0
170 193 0
173 196 0
171 194 0
169 192 0
171 195 0
170 193 0
171 195 0
172 195 0
170 194 0
172 195 0
172 195 0
172 195 0
170 194 0
171 194 0
172 195 0
170 194 0
172 194 0
171 194 0
170 192 0
171 194 0
171 193 0
170 193 0
172 195 0
172 195 0
169 192 0
170 193 0
169 192 0
171 194 0
172 195 0
172 194 0
171 193 0
169 192 0
170 194 0
168 192 0
170 193 0
170 192 0
170 193 0
169 193 0
169 191 0
170 192 0
167 190 0
169 191 0
169 192 0
168 191 0
166 188 0
169 192 0
170 192 0
169 192 0
169 192 0
167 191 0
165 187 0
165 187 0
165 188 0
166 188 0
167 189 0
164 186 0
167 190 0
165 187 0
168 190 0
168 190 0
165 187 0
166 188 0
164 187 0
164 186 0
164 185 0
161 184 0
163 184 0
166 187 51
149 168 32
145 165 0
143 163 0
146 166 0
149 168 0
147 167 0
146 165 0
148 168 0
148 168 0
148 168 0
146 166 0
150 169 0
150 170 0
148 168 0
148 168 0
148 168 0
149 168 0
150 170 0
147 168 0
149 169 0
150 170 0
147 168 0
150 170 0
150 170 0
150 170 0
149 169 0
149 169 0
149 169 0
148 168 0
150 170 0
150 170 0
150 170 0
148 168 0
150 170 0
150 170 0
149 170 0
149 170 0
147 168 0
148 168 0
149 170 0
150 170 0
152 171 0
149 169 0
149 169 0
150 170 0
149 170 0
149 168 0
73 88 42
65 83 49
66 83 57
62 79 46
63 77 31
63 78 41
54 72 49
59 75 43
67 82 46
61 76 33
58 72 22
65 81 41
63 77 33
62 76 28
58 74 39
53 66 40
60 72 33
54 68 30
53 65 20
72 84 15
50 65 39
63 75 14
60 74 25
70 82 22
56 67 14
56 89 117
59 93 139
57 91 123
59 94 140
60 95 141
59 93 131
60 95 148
59 94 134
60 95 141
59 94 137
61 96 150
60 95 139
60 95 141
59 95 142
60 95 143
60 95 140
60 96 141
60 96 148
61 97 157
60 95 141
60 95 144
60 96 149
60 95 150
60 96 149
61 97 155
61 96 149
60 95 148
60 94 146
61 96 147
60 95 147
61 95 152
60 95 143
61 97 152
61 96 149
60 94 145
61 96 151
60 96 148
59 94 143
60 94 142
60 95 143
59 94 146
59 94 144
61 96 154
60 94 142
60 94 141
60 96 153
61 96 151
59 93 142
59 92 142
59 93 150
59 93 140
60 94 147
58 91 138
60 94 151
59 93 149
58 92 132
58 90 138
58 92 138
58 91 139
58 91 141
58 90 138
59 92 147
58 91 143
57 89 133
57 88 135
58 90 136
57 89 140
58 90 139
58 90 134
58 89 135
56 88 128
56 87 128
55 86 129
56 86 127
55 85 127
56 85 116
55 84 126
55 85 130
53 81 119
54 82 120
55 84 131
54 83 126
52 79 110
51 77 110
52 79 112
51 77 106
52 78 108
49 73 103
49 75 114
49 72 93
54 64 52
71 75 43
94 95 52
93 94 40
93 84 29
70 53 10
80 61 11
77 58 6
71 55 14
79 61 10
78 60 8
79 60 19
86 66 11
89 68 13
84 70 10
92 75 15
88 69 10
83 62 11
93 74 15
86 69 7
87 65 7
88 69 10
78 61 8
90 69 10
89 68 13
102 79 14
91 75 17
99 81 10
92 71 8
94 74 15
94 75 14
98 80 8
97 74 8
97 76 14
92 74 6
109 85 14
90 69 9
104 79 12
99 78 11
96 72 10
94 74 6
107 88 21
97 75 13
96 76 12
95 73 7
101 79 16
93 71 11
103 83 22
96 76 10
106 87 15
105 85 17
106 86 9
101 80 13
104 83 10
96 78 8
102 81 11
97 77 9
112 91 19
104 83 17
102 81 7
101 79 16
105 83 14
105 86 16
97 78 17
100 80 9
108 89 16
104 82 12
97 76 13
101 77 12
106 89 13
102 78 16
101 82 17
98 77 11
97 80 10
103 82 17
103 87 15
102 83 14
97 77 14
98 80 6
98 80 7
104 86 18
101 78 11
109 89 12
109 87 16
98 79 9
104 83 12
108 87 14
102 80 16
96 75 11
108 84 17
100 79 22
106 86 20
100 77 10
97 75 10
102 83 15
100 81 15
102 82 9
95 74 10
102 84 20
100 82 20
94 72 15
92 72 6
90 71 11
100 78 15
97 75 14
98 78 10
107 87 17
105 85 20
98 77 19
96 75 15
93 74 20
94 71 17
98 79 27
102 83 15
101 81 12
103 82 17
90 71 11
99 77 24
98 78 18
98 78 26
99 80 20
96 75 17
96 75 19
86 67 15
88 68 8
86 68 15
94 72 20
97 80 20
89 69 20
92 75 19
86 65 14
82 63 19
79 62 17
83 64 13
87 71 18
90 74 29
81 67 21
84 66 20
82 62 11
77 60 8
84 63 18
82 60 11
80 62 22
88 68 26
83 68 22
81 65 24
73 57 18
74 59 21
65 53 21
118 122 37
170 193 0
171 193 0
170 193 0
172 194 0
172 193 0
172 195 0
167 191 0
170 193 0
173 196 0
168 191 0
172 195 0
171 194 0
172 194 0
172 193 0
169 192 0
171 194 0
172 193 0
171 196 0
171 194 0
170 193 0
173 196 0
171 194 0
172 195 0
171 194 0
171 194 0
172 195 0
170 194 0
170 194 0
170 194 0
171 195 0
171 194 0
168 192 0
172 195 0
170 192 0
171 194 0
172 194 0
172 195 0
173 195 0
173 196 0
173 196 0
172 195 0
168 192 0
171 194 0
171 194 0
171 194 0
168 192 0
170 193 0
170 193 0
170 193 0
171 194 0
171 194 0
169 192 0
172 194 0
173 196 0
172 194 0
170 192 0
169 192 0
171 192 0
171 194 0
171 193 0
169 192 0
170 192 0
168 190 0
169 192 0
169 192 0
168 189 0
168 191 0
164 188 0
167 189 0
167 190 0
165 189 0
167 189 0
166 188 0
167 190 0
165 188 0
168 191 0
169 191 0
164 186 0
164 186 0
165 188 0
167 189 0
164 186 0
167 189 0
162 183 0
165 187 0
161 182 0
164 186 0
166 188 0
161 183 0
151 169 51
144 163 0
146 165 0
146 166 0
147 167 0
146 165 0
148 168 0
148 167 0
144 164 0
148 168 0
148 169 0
149 169 0
148 168 0
147 168 0
149 169 0
148 168 0
146 167 0
149 169 0
148 168 0
150 169 0
148 168 0
146 167 0
146 166 0
149 169 0
150 170 0
148 168 0
149 170 0
150 169 0
150 170 0
152 173 0
147 168 0
149 170 0
149 169 0
151 171 0
147 167 0
150 170 0
148 169 0
150 172 0
151 171 0
151 171 0
150 170 0
148 169 0
150 170 0
150 171 0
150 169 0
150 171 0
91 106 37
73 90 46
71 87 49
56 72 53
61 75 35
67 82 33
79 94 33
68 84 44
58 73 42
65 81 45
67 82 42
67 83 34
64 77 26
59 74 39
76 90 34
59 72 42
61 75 21
65 79 38
67 79 28
48 62 0
63 76 27
56 68 20
70 83 14
68 79 20
64 76 0
63 89 103
57 90 118
59 94 136
58 93 135
59 93 134
59 94 133
59 94 135
59 93 135
60 96 143
59 94 136
59 94 137
60 95 136
60 95 138
59 94 137
59 93 129
60 94 142
60 96 147
59 95 147
61 96 145
60 96 144
61 96 147
60 96 143
59 93 136
61 96 150
60 95 147
61 95 141
60 95 141
60 95 145
61 96 149
60 95 146
61 96 150
59 94 137
60 96 151
60 95 142
60 96 151
61 96 150
61 97 152
60 96 149
60 95 143
60 95 151
59 94 145
60 95 142
60 95 149
60 95 149
60 94 150
59 93 141
59 94 147
59 94 144
59 94 140
59 94 148
60 94 149
58 92 136
59 93 146
60 94 145
58 91 132
59 92 142
59 92 140
61 95 146
58 91 143
58 91 147
57 88 136
58 92 139
58 91 145
56 86 123
57 89 141
57 89 131
56 87 132
59 92 142
58 90 138
56 88 130
57 87 126
57 89 133
55 85 126
52 80 119
56 86 119
55 85 125
52 81 118
54 84 123
53 81 112
53 81 108
52 80 117
52 79 114
52 78 107
50 76 106
49 74 109
49 74 99
50 75 98
49 72 99
47 71 103
45 69 93
61 71 61
88 89 44
94 94 42
94 95 40
101 100 45
82 63 17
66 50 13
83 69 12
81 61 16
71 53 14
68 50 6
84 65 18
80 62 7
85 66 15
90 71 14
84 66 8
89 69 10
88 66 7
90 69 15
90 71 11
80 60 9
93 71 13
93 74 20
91 73 11
84 63 7
90 71 10
96 76 12
93 71 7
92 72 16
93 74 10
95 76 9
103 81 19
96 77 15
102 81 10
86 67 7
102 80 16
91 73 6
105 86 14
103 83 18
92 73 11
106 88 15
102 82 13
99 79 6
89 68 11
110 86 18
100 80 7
101 80 13
105 82 13
93 75 9
100 79 10
106 85 13
99 81 12
107 83 11
101 80 9
104 85 17
97 76 16
103 85 14
96 76 12
102 81 12
100 82 20
104 84 19
105 81 15
102 80 19
105 86 13
106 88 19
102 82 10
104 83 14
97 75 11
109 90 13
105 80 18
106 86 19
101 82 16
107 85 17
104 84 15
106 86 18
99 79 18
103 79 8
102 79 14
100 79 9
102 82 13
104 83 11
99 79 13
108 86 15
104 80 12
108 85 15
107 83 11
106 84 15
110 89 15
106 83 13
97 77 11
96 76 13
103 82 13
103 82 19
93 70 12
105 85 20
97 75 13
97 75 10
97 76 8
100 82 20
91 71 10
104 83 19
105 86 19
94 72 12
97 75 11
91 69 9
108 90 24
98 77 13
96 79 29
102 79 21
92 69 9
95 75 16
90 69 18
97 78 12
101 82 19
94 75 14
100 82 16
94 77 18
90 71 14
97 78 17
103 79 15
88 68 15
86 68 16
106 82 19
94 74 18
96 77 16
86 69 13
91 72 18
98 77 23
95 75 11
88 71 18
94 79 25
89 72 25
90 69 19
79 57 13
83 63 15
86 68 22
97 76 22
87 69 18
90 71 17
84 65 22
87 68 20
85 67 25
85 67 24
87 67 23
68 53 15
83 65 17
81 64 23
69 55 19
81 65 29
114 118 30
171 193 0
172 194 0
169 190 0
169 192 0
172 195 0
169 192 0
168 192 0
171 194 0
172 195 0
170 192 0
171 193 0
171 194 0
172 195 0
173 195 0
169 193 0
172 194 0
170 193 0
171 193 0
173 196 0
175 198 0
168 192 0
175 198 0
173 195 0
172 195 0
171 194 0
170 193 0
172 195 0
170 193 0
169 192 0
171 195 0
171 195 0
173 196 0
170 194 0
172 195 0
171 194 0
170 193 0
171 194 0
171 194 0
172 196 0
171 194 0
171 195 0
172 194 0
172 195 0
174 196 0
173 195 0
169 193 0
170 193 0
172 195 0
173 195 0
169 192 0
169 192 0
169 193 0
171 193 0
169 192 0
169 192 0
170 192 0
169 191 0
170 193 0
170 192 0
169 191 0
169 191 0
169 192 0
169 191 0
167 189 0
168 191 0
170 191 0
169 191 0
168 191 0
168 191 0
169 192 0
169 190 0
169 191 0
168 190 0
167 190 0
167 189 0
165 188 0
167 189 0
167 189 0
167 189 0
165 187 0
167 189 0
163 185 0
164 187 0
167 189 0
164 185 0
165 188 0
166 189 0
163 185 0
163 184 0
162 183 0
157 177 39
148 167 22
145 165 0
149 168 0
146 166 0
148 167 0
150 170 0
145 164 0
148 168 0
146 167 0
146 165 0
149 169 0
148 168 0
146 165 0
148 167 0
149 169 0
146 165 0
149 169 0
147 166 0
147 167 0
148 168 0
149 169 0
150 170 0
149 169 0
149 169 0
149 169 0
149 170 0
148 168 0
148 169 0
150 170 0
150 170 0
149 170 0
150 170 0
149 169 0
150 169 0
147 167 0
150 170 0
149 169 0
150 170 0
151 172 0
148 168 0
145 167 0
148 168 0
153 173 0
151 171 0
92 108 27
82 98 35
70 85 21
79 94 35
60 74 31
83 98 50
78 94 42
84 100 23
62 75 0
58 72 18
65 79 28
61 74 27
65 80 22
73 87 35
58 70 30
74 89 30
72 84 14
61 74 14
61 74 27
68 80 0
71 84 0
78 91 33
62 74 19
59 69 0
64 77 21
62 84 86
57 91 119
58 92 123
59 93 124
60 94 132
60 95 136
58 92 123
60 95 144
60 95 144
60 95 149
60 95 136
60 95 137
59 94 143
60 96 145
60 95 143
60 94 125
60 95 144
61 96 151
60 96 144
60 95 155
60 96 144
60 95 145
60 95 140
60 95 144
60 95 140
60 95 148
61 96 149
61 96 145
60 95 141
61 96 148
61 96 147
60 95 141
60 95 150
60 95 152
60 95 147
60 94 144
60 95 141
60 94 143
59 94 143
60 94 138
59 94 146
60 95 149
59 94 147
60 95 152
60 95 149
60 95 150
59 94 150
60 95 150
60 94 146
60 94 145
60 94 144
59 92 147
58 92 135
61 95 150
59 93 145
58 92 139
60 94 149
58 91 141
60 94 150
59 92 141
59 92 144
58 92 140
58 88 129
58 91 137
57 90 139
57 88 130
56 87 135
57 89 132
55 86 121
57 89 125
57 89 139
55 84 122
54 84 117
56 87 136
54 84 124
57 88 138
53 81 118
55 83 119
53 80 115
54 82 124
51 77 103
52 77 110
50 78 119
51 77 103
51 77 113
50 76 104
49 74 104
50 77 110
46 69 88
48 72 98
63 74 72
80 83 41
91 93 47
100 101 47
101 100 48
91 86 27
78 64 15
81 62 14
74 57 6
82 64 8
80 60 11
85 69 9
86 66 11
81 62 16
87 67 17
91 71 12
91 71 15
98 81 15
91 70 9
90 70 16
90 67 15
91 72 17
95 75 7
86 65 11
93 78 19
102 79 16
91 69 12
91 71 8
99 80 14
97 76 9
92 74 7
95 75 12
96 77 13
87 68 8
104 86 16
101 81 17
95 75 8
102 83 18
95 76 15
98 78 16
103 85 23
94 71 8
101 80 9
102 80 16
102 82 19
98 74 12
92 71 4
104 86 19
103 87 13
101 81 20
104 80 14
98 81 11
102 80 13
108 90 10
100 81 16
102 83 12
103 83 14
102 83 8
101 83 14
103 83 15
96 74 11
97 80 5
108 88 14
104 87 14
95 78 14
102 85 17
98 77 15
102 85 13
104 84 11
104 85 14
103 79 12
104 83 13
104 85 11
102 83 17
102 84 11
103 80 17
107 85 16
103 82 17
101 81 9
109 87 11
104 83 18
112 94 17
106 86 20
101 81 12
102 80 15
101 80 8
102 84 14
102 82 18
109 91 21
107 87 20
103 83 19
98 79 15
106 81 17
99 79 14
108 86 11
101 80 17
97 75 11
98 79 10
100 81 22
103 79 13
92 73 17
100 79 14
101 81 9
94 73 16
97 79 16
100 83 11
106 84 22
102 81 20
102 82 22
99 78 15
91 73 15
96 77 17
105 83 17
98 79 16
95 79 13
103 82 18
91 70 12
97 78 12
96 77 14
95 74 20
100 80 21
99 78 17
87 68 10
103 79 14
100 80 24
89 67 13
92 78 21
91 70 13
87 66 19
79 64 16
90 70 14
81 64 19
81 59 11
85 63 16
82 65 8
90 70 17
83 64 10
90 71 29
80 65 16
90 71 21
80 63 22
83 64 23
83 65 18
74 56 15
77 62 18
79 60 20
70 51 17
65 50 17
66 54 22
130 143 19
173 196 0
169 192 0
171 194 0
171 193 0
168 191 0
171 194 0
169 192 0
170 191 0
170 193 0
171 194 0
171 194 0
171 194 0
170 193 0
170 192 0
171 194 0
170 192 0
168 190 0
172 195 0
171 194 0
171 193 0
169 192 0
172 195 0
171 195 0
171 194 0
170 193 0
171 194 0
170 193 0
173 195 0
171 195 0
174 196 0
170 193 0
172 195 0
171 194 0
171 194 0
170 192 0
170 193 0
172 194 0
171 194 0
168 192 0
168 192 0
173 196 0
169 193 0
173 194 0
169 193 0
171 194 0
172 195 0
171 194 0
171 194 0
171 194 0
171 194 0
171 194 0
172 194 0
168 192 0
170 194 0
170 192 0
171 193 0
169 191 0
170 193 0
169 192 0
169 192 0
169 191 0
170 192 0
170 192 0
168 191 0
167 190 0
166 189 0
167 189 0
169 192 0
169 190 0
167 190 0
167 190 0
167 189 0
168 191 0
168 190 0
165 187 0
166 188 0
166 189 0
169 190 0
164 187 0
170 192 0
166 188 0
164 187 0
164 186 0
166 188 0
169 191 0
164 186 0
166 189 0
162 183 0
162 185 0
162 183 0
163 186 0
162 184 0
156 175 64
147 167 22
147 167 0
147 167 0
149 168 0
146 166 0
148 168 0
149 168 0
148 168 0
149 169 0
149 169 0
146 166 0
145 165 0
148 168 0
150 170 0
147 167 0
149 168 0
147 167 0
149 168 0
150 170 0
148 169 0
149 168 0
149 169 0
147 167 0
148 168 0
150 170 0
149 169 0
149 168 0
146 166 0
150 170 0
149 169 0
150 171 0
151 171 0
149 169 0
150 170 0
149 169 0
150 170 0
150 169 0
148 168 0
149 169 0
149 170 0
149 169 0
148 169 0
105 122 28
76 92 43
80 96 31
85 99 16
77 91 33
74 90 26
68 82 40
70 86 40
73 87 31
78 91 27
73 87 30
78 91 0
65 79 21
70 83 29
67 80 14
67 78 0
72 85 28
69 82 17
74 86 20
61 73 29
68 79 0
73 84 14
76 88 0
78 91 14
89 103 14
67 86 68
56 89 128
60 94 137
60 94 134
59 94 136
58 93 127
59 94 131
60 94 130
60 95 139
61 96 146
61 97 147
59 94 137
60 95 141
60 95 139
60 95 140
59 94 136
59 94 136
60 95 140
59 95 135
60 95 141
60 96 143
60 96 145
60 95 145
60 96 152
59 94 131
60 96 145
60 95 147
60 95 145
61 96 151
59 94 139
60 95 148
60 95 151
60 95 151
59 94 143
59 95 145
61 96 153
60 94 143
60 95 146
59 94 140
59 93 147
60 95 149
59 94 146
60 95 148
60 95 148
60 95 148
61 96 147
60 95 148
59 93 149
60 95 149
59 93 143
59 92 136
58 91 134
60 94 144
60 93 140
60 93 146
59 92 138
59 92 140
58 90 138
58 92 138
59 92 140
57 89 138
60 93 149
55 87 123
58 91 140
57 89 140
58 91 139
57 88 136
57 88 135
55 85 123
54 84 124
57 88 131
56 87 130
55 85 127
56 86 129
55 85 123
56 85 128
54 81 118
53 81 109
54 82 114
53 80 110
52 79 109
53 80 111
52 78 111
50 75 91
50 75 104
49 75 99
50 76 105
46 70 91
42 63 81
49 73 102
49 60 57
89 91 45
91 91 41
99 100 36
101 101 48
116 115 52
89 73 24
75 58 8
74 57 13
84 64 10
95 75 11
81 63 5
85 68 14
86 70 17
80 64 15
86 66 8
83 65 16
86 66 9
91 72 10
84 63 8
94 76 15
85 65 11
88 67 8
87 69 13
90 72 7
96 73 9
95 76 21
99 81 24
97 79 14
96 78 14
98 82 6
93 73 12
96 75 15
101 81 16
99 78 12
102 80 12
103 86 16
93 71 14
101 83 17
96 76 9
96 78 22
97 81 10
97 77 14
96 78 9
99 80 11
112 91 13
100 81 10
99 77 16
100 75 6
107 88 12
97 78 11
97 80 14
110 88 15
103 81 7
101 81 15
100 80 10
112 95 18
106 86 18
104 87 16
107 86 12
103 85 9
104 85 20
100 81 11
97 77 8
105 87 13
102 83 13
102 79 14
97 77 15
99 75 7
102 84 17
92 71 14
106 87 14
108 86 11
108 87 16
101 81 17
107 84 11
107 90 14
108 87 17
106 83 15
104 85 11
103 81 10
99 80 18
105 85 11
109 87 21
101 82 11
96 74 16
101 81 15
106 83 16
100 80 13
106 85 16
105 85 13
97 77 18
104 80 13
99 79 12
101 79 9
104 80 21
98 78 14
108 90 19
95 77 16
101 81 13
94 72 20
105 84 15
96 73 12
99 81 17
92 72 14
95 74 17
98 80 13
97 76 20
95 72 6
93 71 12
95 74 16
94 75 23
103 85 20
100 82 18
92 73 12
101 81 20
100 79 15
95 73 20
98 78 16
95 76 9
98 80 23
97 78 21
92 72 13
81 62 7
103 84 21
95 72 20
88 71 18
90 68 17
83 62 6
94 71 10
93 72 19
98 77 27
95 77 22
68 50 6
92 73 22
82 63 16
82 64 15
84 66 19
77 58 17
91 73 25
78 61 18
94 78 30
75 59 18
78 61 21
82 65 21
85 69 21
86 70 22
83 63 20
56 43 12
135 151 5
171 194 0
172 193 0
169 192 0
167 190 0
170 192 0
170 192 0
171 194 0
172 194 0
169 192 0
170 192 0
172 195 0
169 193 0
171 193 0
170 194 0
171 194 0
171 193 0
170 194 0
172 195 0
172 195 0
171 194 0
172 195 0
171 194 0
172 195 0
172 195 0
173 196 0
174 197 0
171 194 0
173 196 0
173 196 0
171 195 0
173 195 0
171 195 0
172 195 0
172 194 0
170 193 0
172 196 0
169 192 0
170 194 0
173 196 0
173 195 0
171 194 0
171 193 0
171 194 0
171 194 0
171 195 0
170 194 0
169 193 0
170 193 0
173 195 0
170 193 0
169 192 0
171 193 0
169 191 0
171 194 0
167 189 0
169 192 0
168 191 0
169 192 0
168 191 0
168 190 0
168 191 0
169 192 0
167 190 0
167 190 0
169 191 0
168 190 0
169 191 0
168 190 0
169 191 0
168 191 0
169 191 0
168 190 0
167 190 0
168 191 0
169 191 0
168 191 0
168 190 0
165 188 0
167 190 0
164 186 0
167 188 0
163 185 0
166 188 0
167 190 0
166 187 0
165 187 0
167 188 0
167 189 0
162 184 0
163 185 0
165 186 0
165 187 0
164 186 0
158 178 56
145 163 45
148 168 0
146 165 0
145 165 0
146 165 0
147 166 0
146 165 0
148 168 0
147 167 0
147 166 0
147 167 0
144 165 0
149 169 0
146 166 0
147 166 0
151 171 0
149 168 0
150 170 0
148 168 0
151 170 0
149 169 0
150 170 0
150 170 0
149 169 0
148 169 0
149 168 0
147 168 0
149 169 0
151 171 0
151 171 0
149 169 0
149 170 0
150 171 0
149 169 0
149 168 0
149 170 0
150 170 0
151 170 0
152 172 0
151 170 0
151 170 0
112 129 27
83 97 36
86 101 24
89 104 36
80 95 14
76 91 27
67 82 32
74 88 21
72 86 17
53 67 22
52 67 16
74 87 21
70 83 21
68 80 16
75 88 26
70 83 28
70 83 14
78 91 0
74 86 0
69 81 14
76 88 0
78 90 0
69 81 16
71 83 0
69 81 0
64 78 25
55 88 119
59 93 133
59 94 132
59 94 126
59 93 137
60 95 141
59 94 135
59 94 137
60 95 133
59 93 118
60 96 141
59 94 139
61 96 142
62 97 154
59 94 140
60 95 136
60 95 135
60 95 141
60 95 147
60 96 145
60 95 131
60 95 149
61 96 150
60 95 147
60 95 139
61 96 147
60 96 149
60 95 142
60 95 146
59 94 133
59 94 136
60 95 145
60 96 154
61 95 147
60 95 145
59 94 143
61 96 155
60 96 151
60 96 148
59 94 146
61 96 153
58 92 137
60 94 141
60 93 139
61 96 149
59 94 146
59 93 133
58 92 142
59 92 133
58 92 137
60 94 145
59 93 139
60 94 144
57 90 137
58 92 141
60 94 141
59 91 142
59 93 143
60 94 146
58 90 133
57 89 131
58 90 139
59 91 132
58 90 135
58 88 127
56 87 126
57 89 131
57 88 123
56 87 124
57 88 126
56 87 132
56 86 126
56 86 123
56 86 135
54 83 118
51 77 105
52 80 115
52 81 115
54 82 129
53 81 123
54 82 115
53 79 109
49 74 104
50 75 107
50 77 110
46 70 99
48 71 97
48 71 96
47 70 93
60 69 55
81 82 40
88 91 40
89 91 46
99 99 44
119 116 49
120 118 45
83 66 14
74 58 8
80 64 16
80 61 14
79 64 10
81 64 13
90 72 16
86 68 14
79 59 6
89 70 10
90 68 9
79 58 5
90 73 9
91 72 15
97 82 9
85 67 6
85 68 9
96 74 9
86 68 13
93 72 12
84 65 13
91 75 15
91 71 10
96 76 9
106 87 14
102 82 13
93 72 10
97 79 15
99 79 8
94 74 9
89 69 11
98 81 15
98 78 11
99 77 19
100 80 13
100 81 13
95 75 11
101 82 17
93 72 15
101 84 11
93 75 8
100 82 5
104 88 11
97 74 9
98 81 7
106 83 8
99 78 12
101 82 13
106 85 14
107 86 10
105 83 11
96 78 11
102 82 10
107 88 14
103 82 16
103 83 11
102 83 5
104 87 13
104 85 11
108 89 23
97 76 10
104 83 14
109 91 13
100 83 13
97 76 8
105 87 22
100 81 16
103 80 12
102 82 13
106 86 11
104 84 10
107 90 22
109 91 15
108 85 13
102 81 18
101 79 10
105 81 12
106 87 13
94 76 10
110 89 27
104 84 15
102 83 17
103 80 12
94 71 13
99 80 11
94 76 7
102 81 15
99 79 9
98 83 14
94 72 9
105 82 15
98 79 12
105 86 21
97 74 16
104 83 17
95 74 10
102 80 17
102 82 12
97 78 20
102 81 17
105 86 18
98 79 14
100 76 19
99 80 16
93 73 9
98 77 10
104 81 16
101 81 20
98 78 14
96 76 14
95 76 24
90 68 18
97 76 21
102 78 12
91 74 16
99 80 15
92 71 9
86 68 12
87 66 19
86 68 17
89 73 14
83 61 9
93 74 19
82 62 13
90 72 17
92 74 16
90 68 19
90 71 22
94 74 22
82 62 18
84 67 19
77 61 18
74 61 13
77 58 14
70 51 14
84 65 14
76 62 27
81 65 22
69 53 16
68 55 19
59 44 8
72 58 26
160 178 11
170 192 0
171 194 0
168 190 0
171 193 0
174 195 0
169 191 0
171 195 0
169 191 0
169 191 0
172 194 0
173 196 0
173 197 0
170 192 0
171 194 0
170 193 0
170 192 0
171 193 0
168 190 0
174 196 0
171 192 0
172 195 0
172 195 0
170 194 0
170 193 0
172 196 0
170 194 0
171 194 0
172 196 0
172 195 0
171 194 0
173 195 0
170 193 0
172 195 0
170 193 0
171 194 0
172 194 0
172 194 0
169 193 0
170 194 0
169 193 0
170 194 0
171 195 0
172 194 0
170 193 0
170 193 0
170 193 0
169 193 0
170 193 0
171 194 0
169 192 0
169 193 0
171 194 0
171 194 0
169 192 0
172 194 0
170 193 0
170 193 0
169 191 0
171 192 0
169 192 0
170 192 0
168 191 0
171 193 0
168 191 0
168 191 0
169 192 0
168 190 0
168 191 0
169 191 0
168 191 0
168 190 0
169 191 0
167 189 0
168 190 0
167 189 0
168 190 0
167 189 0
168 191 0
166 188 0
167 189 0
162 184 0
168 189 0
165 187 0
165 188 0
165 188 0
163 185 0
165 187 0
166 189 0
164 187 0
166 189 0
165 187 0
164 186 0
165 186 0
164 186 0
165 185 32
152 172 39
144 164 0
147 167 0
147 166 0
147 166 0
149 168 0
147 167 0
148 167 0
147 167 0
146 166 0
145 164 0
151 171 0
147 167 0
148 169 0
148 168 0
150 169 0
148 168 0
150 170 0
150 170 0
148 168 0
149 169 0
151 171 0
148 168 0
150 171 0
149 169 0
151 171 0
150 169 0
151 170 0
150 170 0
148 169 0
149 169 0
150 170 0
152 171 0
148 169 0
149 169 0
151 171 0
148 169 0
150 171 0
152 172 0
149 169 0
119 137 30
93 110 26
92 107 30
87 101 14
76 89 21
80 95 34
96 111 21
73 86 35
86 100 27
74 87 0
74 87 14
71 84 10
74 87 14
82 95 21
77 91 0
80 93 14
87 99 19
71 85 20
58 71 16
74 86 0
58 68 0
64 76 0
70 83 0
69 80 0
78 90 0
79 91 0
58 85 86
57 91 125
59 93 127
57 91 124
59 94 134
59 93 133
57 92 124
60 94 129
59 94 142
61 96 141
60 95 143
60 95 141
60 95 139
60 94 134
60 94 133
60 95 136
60 95 137
60 95 139
60 95 140
61 96 143
60 95 140
60 95 139
60 95 137
61 96 145
59 94 140
59 94 140
60 94 141
60 95 145
60 95 146
61 96 150
60 95 142
60 95 147
59 94 140
60 95 150
60 95 143
59 94 135
61 96 147
60 95 147
59 93 147
60 96 150
59 94 139
61 97 154
58 92 138
60 95 143
60 95 145
60 93 142
59 93 143
60 94 142
59 94 142
60 94 141
58 92 139
60 94 142
58 91 135
59 93 133
58 91 140
59 92 142
58 90 134
58 92 141
57 90 126
58 91 136
59 92 137
57 88 130
56 88 134
58 89 123
57 88 127
57 87 125
57 88 127
56 88 134
54 83 120
55 84 111
56 86 133
57 88 135
55 84 120
54 83 122
55 85 125
52 81 115
54 82 122
52 79 112
54 83 121
52 79 106
54 81 114
48 73 94
52 79 111
50 76 108
49 74 104
46 69 96
47 70 97
48 71 97
46 69 90
66 71 50
93 95 49
94 94 39
102 102 39
101 102 37
104 105 42
121 119 45
102 97 37
83 65 17
90 71 14
88 70 10
73 58 13
90 72 14
90 74 15
83 67 10
82 64 14
84 64 15
83 64 14
88 70 6
81 61 7
97 77 10
84 69 11
91 71 9
92 71 8
93 76 12
93 75 15
90 66 3
94 74 10
93 75 8
103 87 18
98 76 10
99 82 10
98 79 8
92 73 9
98 76 8
96 76 10
97 77 11
101 79 14
104 83 12
104 84 19
94 73 12
101 80 17
100 83 11
97 79 8
102 82 17
97 79 8
100 78 9
95 77 11
107 87 14
98 79 13
97 79 6
102 79 9
102 83 10
101 80 10
103 83 21
98 78 10
97 78 14
101 81 8
110 90 12
100 80 10
111 89 12
103 84 18
104 84 11
104 83 17
104 83 16
106 85 15
105 84 9
108 88 11
106 85 14
101 81 18
108 89 22
103 79 15
105 86 17
106 85 11
107 86 12
104 84 16
95 75 5
101 81 8
102 83 8
103 84 14
108 85 18
104 86 18
101 82 13
101 79 12
100 81 14
101 79 14
102 83 4
106 81 13
106 83 15
104 82 12
101 80 14
100 82 8
101 80 13
104 83 18
104 83 10
111 90 14
104 83 10
98 78 13
97 73 10
102 83 18
107 85 16
100 83 23
104 85 21
98 76 16
99 78 7
95 75 6
99 78 16
98 79 10
101 81 19
92 71 16
105 86 13
96 77 8
89 68 8
103 82 17
84 65 13
94 73 21
83 66 12
91 72 12
84 64 11
92 72 12
86 66 20
89 71 14
88 70 20
101 78 20
90 72 23
87 67 14
84 65 11
96 73 13
97 80 25
83 65 6
79 63 12
88 67 14
89 69 9
84 64 11
81 62 8
82 61 7
87 71 21
78 59 8
82 64 15
73 51 6
85 66 19
78 63 14
71 55 17
86 71 27
84 66 26
80 63 22
66 47 12
83 62 22
90 82 17
169 191 0
172 194 0
168 190 0
171 193 0
170 192 0
172 194 0
170 192 0
172 194 0
169 192 0
172 195 0
168 190 0
170 192 0
169 192 0
172 195 0
169 191 0
171 194 0
169 192 0
169 191 0
170 192 0
171 194 0
170 192 0
170 193 0
172 194 0
172 195 0
171 195 0
173 196 0
173 195 0
171 195 0
172 195 0
170 194 0
173 195 0
173 196 0
172 195 0
172 195 0
172 196 0
170 192 0
172 195 0
171 195 0
171 194 0
171 193 0
170 193 0
170 193 0
171 194 0
171 194 0
171 195 0
169 192 0
170 193 0
171 194 0
170 193 0
170 192 0
171 194 0
169 192 0
170 193 0
172 195 0
169 192 0
170 193 0
169 191 0
170 193 0
170 192 0
170 193 0
168 191 0
169 193 0
168 190 0
169 192 0
172 194 0
168 191 0
170 193 0
168 191 0
167 191 0
168 190 0
168 191 0
170 191 0
167 191 0
168 190 0
170 192 0
167 189 0
165 188 0
167 189 0
168 190 0
166 189 0
167 189 0
165 188 0
167 190 0
167 190 0
164 186 0
166 187 0
165 187 0
164 186 0
168 191 0
164 186 0
166 188 0
160 182 0
159 180 0
164 187 0
161 183 0
165 188 0
167 189 0
157 177 39
142 161 22
147 167 0
148 168 0
151 170 0
148 168 0
147 167 0
144 164 0
147 166 0
148 167 0
150 169 0
147 168 0
148 167 0
148 168 0
148 168 0
147 167 0
150 169 0
148 167 0
146 166 0
149 169 0
146 165 0
150 169 0
149 169 0
149 169 0
149 169 0
148 169 0
151 171 0
150 170 0
149 169 0
147 167 0
150 171 0
151 170 0
149 170 0
150 169 0
150 170 0
147 168 0
147 167 0
147 168 0
148 168 0
122 140 0
93 107 16
77 93 42
82 97 0
85 100 16
75 89 14
77 91 30
74 87 0
79 93 22
79 92 26
84 97 14
75 88 22
78 92 21
79 92 0
81 94 9
78 90 0
76 90 14
79 91 0
74 87 16
77 88 0
74 86 0
73 85 0
71 83 0
83 96 0
77 90 0
82 94 0
73 93 82
58 92 126
56 90 113
58 92 133
58 92 125
59 94 127
61 96 145
60 95 139
60 94 131
58 93 130
61 96 140
60 94 137
59 94 136
59 95 137
58 93 129
60 95 142
59 95 145
60 95 141
60 96 144
60 95 144
60 95 137
60 95 141
58 93 137
60 95 141
60 95 143
59 94 133
59 94 137
59 93 134
59 94 133
61 96 149
60 96 147
60 96 154
59 94 138
60 96 145
61 96 142
60 94 140
60 95 148
59 94 141
60 94 134
61 96 146
61 95 142
61 95 145
59 93 148
58 92 131
59 93 139
59 92 142
60 94 140
59 93 137
58 91 131
59 92 132
59 93 141
59 92 135
59 93 143
59 93 139
59 92 140
59 93 141
58 91 136
58 91 134
58 91 136
57 89 132
57 90 130
57 89 136
58 91 132
58 91 131
58 90 127
58 90 134
55 86 123
56 88 123
58 89 133
58 89 132
55 85 123
56 85 121
55 84 118
54 84 123
53 81 107
54 82 111
53 81 112
52 79 115
53 82 116
52 79 101
54 82 115
52 79 105
52 79 110
50 76 101
50 75 103
49 73 102
51 76 101
48 71 94
44 66 90
66 71 51
74 78 42
89 90 40
88 91 43
104 103 37
112 110 42
102 101 33
115 113 43
101 93 22
86 69 14
92 71 11
93 75 15
87 68 14
82 63 12
89 73 14
88 70 10
88 67 14
91 69 10
88 64 14
93 75 12
95 74 14
96 76 16
95 76 9
92 72 13
98 77 9
88 69 3
101 81 11
101 82 15
89 73 9
100 82 11
93 73 7
96 79 10
87 65 2
100 84 12
98 80 14
96 74 11
92 73 17
100 75 10
88 69 11
97 75 11
92 75 14
97 77 14
99 81 9
99 83 6
108 90 16
100 79 18
106 86 20
100 80 10
105 81 11
105 85 11
102 82 10
105 84 12
104 84 11
108 88 15
106 83 15
105 85 15
111 92 15
107 83 18
108 86 19
104 84 13
105 84 17
95 79 7
99 80 10
109 87 14
103 80 12
100 77 11
105 89 17
107 87 12
102 80 12
104 84 14
97 78 8
98 76 11
108 84 11
100 82 8
105 84 10
111 90 10
103 82 18
102 85 9
101 78 12
105 86 18
107 88 14
98 77 8
108 88 18
103 81 9
103 84 12
104 83 15
104 82 17
100 80 17
106 87 19
106 86 16
99 81 9
99 81 10
102 81 16
103 78 12
100 79 10
101 77 11
107 88 12
101 78 9
106 84 22
98 76 10
104 83 18
107 89 13
92 70 10
98 75 15
108 89 18
105 84 17
99 81 10
100 79 15
104 80 19
98 76 17
97 77 22
102 81 20
97 78 20
91 71 15
102 79 17
101 82 13
96 77 16
102 81 13
100 81 24
89 71 11
93 74 10
102 82 17
85 66 9
91 72 11
93 73 12
100 78 16
84 69 15
81 67 14
86 71 15
94 76 14
86 65 18
87 65 15
90 70 15
81 64 18
88 69 13
90 73 22
86 71 21
78 62 6
77 60 17
83 66 20
84 67 23
78 60 14
76 59 10
73 56 10
75 58 21
86 71 19
73 57 21
73 57 22
117 121 21
170 193 0
171 194 0
170 191 0
171 194 0
172 194 0
170 193 0
168 189 0
171 193 0
169 190 0
170 192 0
172 194 0
173 195 0
172 194 0
172 194 0
172 194 0
171 193 0
169 191 0
170 192 0
168 191 0
171 194 0
170 192 0
169 192 0
172 195 0
173 195 0
171 193 0
171 195 0
171 194 0
171 195 0
173 196 0
173 195 0
172 195 0
173 196 0
172 194 0
169 192 0
171 195 0
172 195 0
170 194 0
172 195 0
172 195 0
172 195 0
171 194 0
171 194 0
171 194 0
171 194 0
171 194 0
171 194 0
171 194 0
171 194 0
169 193 0
171 194 0
170 193 0
172 195 0
171 194 0
170 192 0
171 194 0
169 192 0
171 194 0
169 192 0
171 194 0
167 190 0
170 193 0
171 193 0
169 193 0
170 192 0
171 193 0
168 192 0
171 192 0
167 190 0
170 193 0
165 187 0
169 191 0
169 192 0
166 189 0
166 188 0
165 188 0
168 191 0
168 190 0
164 186 0
167 189 0
167 190 0
169 191 0
164 186 0
167 189 0
166 189 0
167 190 0
166 188 0
167 190 0
165 187 0
165 187 0
167 189 0
165 187 0
162 183 0
166 188 0
165 187 0
166 189 0
167 189 0
160 182 0
163 184 0
162 182 39
152 169 56
145 164 0
147 167 0
145 165 0
147 166 0
148 168 0
145 165 0
149 168 0
149 170 0
144 164 0
148 167 0
147 166 0
147 166 0
148 167 0
149 169 0
148 169 0
150 170 0
148 168 0
149 169 0
150 171 0
148 168 0
149 169 0
149 169 0
151 171 0
144 165 0
148 168 0
147 167 0
148 168 0
148 167 0
148 168 0
148 168 0
149 169 0
150 171 0
145 166 0
149 169 0
152 172 0
149 170 0
129 148 0
88 103 16
84 98 14
78 92 22
81 94 14
89 103 0
81 94 0
80 95 21
90 103 14
75 89 16
81 95 14
68 81 0
84 97 0
83 96 0
74 87 19
86 99 0
69 81 0
70 83 16
80 93 0
79 92 0
70 82 0
85 98 0
69 82 0
80 93 0
79 91 0
76 87 0
87 101 37
56 89 109
57 90 120
59 94 135
60 95 136
57 90 120
59 94 130
60 94 137
59 94 129
59 94 131
60 95 135
60 94 130
60 95 136
59 93 128
60 95 136
59 94 126
60 95 131
59 93 133
58 93 131
60 95 141
60 95 142
61 96 143
60 94 140
61 96 148
61 96 145
59 94 129
60 95 140
60 95 139
58 93 135
60 95 142
60 95 146
61 96 149
60 94 141
61 96 149
59 94 140
58 93 134
59 92 130
59 93 134
59 93 137
61 96 151
60 95 141
59 94 146
59 92 139
58 92 143
60 94 137
59 94 149
59 93 134
60 94 139
60 93 138
58 91 135
57 91 131
59 92 138
58 92 129
58 91 137
60 94 144
59 92 141
57 90 129
58 91 134
59 92 130
58 91 132
58 90 129
58 90 141
57 89 129
56 87 127
57 88 129
56 87 114
58 90 135
57 89 125
56 86 120
57 88 131
57 87 123
54 84 118
56 85 123
54 84 119
54 83 118
53 83 114
52 79 113
53 81 116
54 82 120
52 79 107
51 78 112
51 77 104
48 73 102
51 79 117
49 74 100
46 71 99
47 71 92
47 71 92
46 69 89
72 76 47
94 96 47
94 96 41
99 99 47
117 114 37
109 108 44
116 115 39
118 115 41
128 125 39
106 96 26
83 63 11
85 65 6
83 64 10
88 66 10
92 72 14
94 76 10
85 68 6
89 72 17
86 64 5
99 80 11
99 79 16
89 71 13
96 76 10
91 71 14
96 79 9
91 74 15
90 71 7
96 75 10
103 82 13
100 77 12
93 72 16
104 81 13
91 70 10
94 76 9
94 72 9
104 83 16
100 83 14
101 81 17
101 82 17
106 84 10
96 78 11
97 77 13
102 83 8
105 85 15
98 79 10
105 84 9
102 81 11
106 86 17
92 70 12
106 84 13
103 84 16
112 93 21
107 86 13
104 83 9
96 75 10
101 83 9
102 80 9
105 85 14
103 84 11
109 90 16
99 75 8
105 85 10
100 82 14
100 79 8
106 89 21
103 82 11
96 76 9
106 87 15
101 83 15
98 78 7
106 87 15
108 86 18
106 85 14
101 83 19
98 80 7
107 85 12
113 90 17
100 81 10
105 85 11
102 83 10
104 84 10
107 85 22
100 83 10
107 85 15
101 81 15
100 81 13
97 76 9
98 81 10
101 82 13
110 91 19
98 82 9
105 84 13
101 84 10
104 85 13
102 82 10
108 86 10
100 80 19
103 83 17
100 79 13
98 74 6
102 83 19
98 78 20
104 84 15
100 78 10
96 74 16
100 78 12
102 80 11
94 74 9
102 83 17
101 81 14
98 78 11
96 74 17
95 75 8
96 76 10
97 76 12
91 73 7
96 76 13
97 79 9
102 81 17
108 89 24
91 73 13
86 71 14
97 76 16
89 66 9
90 71 11
95 75 10
89 68 8
93 70 14
85 64 12
95 76 23
93 75 15
87 66 15
92 68 14
91 72 17
86 65 11
90 70 20
84 66 22
82 65 15
82 64 18
89 73 24
83 61 11
80 63 12
69 51 8
85 67 25
76 59 23
74 57 17
79 64 20
64 53 18
141 151 23
172 194 0
168 191 0
173 195 0
172 194 0
169 192 0
171 193 0
170 194 0
172 193 0
174 196 0
169 192 0
167 190 0
171 193 0
168 191 0
173 195 0
172 194 0
168 189 0
172 193 0
171 194 0
172 194 0
170 193 0
172 194 0
172 194 0
169 192 0
169 192 0
170 194 0
172 195 0
172 195 0
172 196 0
173 196 0
171 195 0
172 195 0
171 193 0
172 194 0
170 194 0
170 193 0
170 193 0
171 195 0
172 194 0
171 194 0
172 196 0
171 193 0
170 194 0
170 194 0
169 193 0
168 191 0
172 195 0
170 193 0
169 192 0
169 192 0
172 195 0
172 195 0
167 190 0
172 194 0
170 193 0
171 193 0
167 191 0
169 192 0
170 193 0
168 190 0
170 193 0
171 194 0
169 192 0
166 189 0
167 190 0
165 189 0
169 191 0
170 193 0
169 192 0
169 192 0
168 190 0
167 190 0
170 193 0
168 191 0
169 191 0
167 189 0
167 190 0
165 188 0
168 190 0
169 191 0
167 190 0
167 190 0
165 188 0
166 189 0
167 189 0
166 189 0
168 190 0
166 188 0
168 190 0
165 187 0
164 186 0
167 188 0
165 187 0
164 187 0
163 185 0
167 189 0
164 186 0
164 185 0
165 188 0
166 188 0
163 185 0
154 174 32
143 163 0
147 166 0
146 166 0
147 167 0
149 169 0
149 168 0
148 168 0
147 166 0
146 166 0
149 168 0
149 169 0
148 168 0
149 168 0
148 168 0
149 169 0
146 166 0
147 166 0
147 167 0
149 168 0
149 168 0
150 169 0
147 167 0
149 169 0
149 169 0
147 168 0
149 170 0
150 170 0
151 170 0
147 166 0
146 166 0
149 169 0
148 168 0
151 171 0
150 170 0
148 168 0
139 159 16
76 91 21
77 91 14
79 93 0
91 106 0
79 94 0
89 104 14
85 99 16
74 87 0
76 89 20
91 106 0
70 85 16
74 87 0
84 98 0
77 90 0
65 78 14
78 91 0
84 96 0
83 97 0
89 102 0
78 90 0
81 95 0
76 89 0
87 100 0
84 97 0
65 79 0
86 99 0
62 90 99
57 91 117
59 93 125
57 90 124
60 95 133
58 93 139
59 93 122
60 94 124
60 94 135
61 96 143
59 94 134
59 93 133
61 96 143
60 95 135
59 94 141
60 96 136
59 94 136
60 95 136
60 96 141
61 97 150
59 95 139
59 94 135
59 94 141
60 95 142
59 94 139
60 94 137
59 94 134
62 97 151
60 95 137
59 93 134
60 95 146
60 95 144
60 95 144
60 94 138
59 95 145
60 94 140
59 93 131
59 92 125
58 93 138
60 95 145
59 93 133
59 94 142
60 94 139
60 95 147
60 94 150
58 91 133
59 93 142
58 91 133
59 92 135
58 91 130
59 92 134
60 94 142
59 93 143
58 90 129
58 92 135
57 89 125
57 90 131
57 89 133
57 89 132
58 90 133
57 89 127
57 88 118
57 87 117
57 88 134
56 88 129
56 85 115
54 85 124
56 87 120
55 85 120
53 83 120
56 85 117
56 86 120
54 83 117
53 81 108
55 83 120
51 78 97
53 81 117
52 79 99
50 76 103
49 74 103
50 76 105
50 75 97
50 75 95
48 73 98
49 75 103
45 66 77
44 67 90
44 65 75
68 71 42
78 83 42
95 95 39
93 93 38
104 103 44
109 108 41
116 116 44
121 118 36
128 125 47
122 119 43
94 83 24
90 73 13
71 55 10
88 68 8
84 66 11
91 73 10
87 66 12
87 68 12
94 76 12
96 79 9
93 75 19
87 68 7
98 82 15
97 80 18
93 74 6
85 65 8
88 70 9
94 77 8
100 80 8
104 86 7
93 77 8
102 83 11
91 71 13
104 84 8
98 76 7
111 93 16
94 76 7
96 74 8
107 88 16
97 77 10
101 80 8
98 82 11
107 88 11
102 84 10
99 79 12
99 80 20
100 82 11
102 81 8
98 79 7
110 91 10
104 81 11
103 83 14
96 76 9
101 80 9
108 87 11
105 84 17
101 84 10
105 87 10
104 86 14
106 85 12
99 81 11
105 84 13
99 79 9
104 83 10
110 88 11
107 87 13
104 82 11
100 77 8
107 88 10
106 87 18
104 86 9
111 92 15
96 74 9
103 81 13
103 81 19
108 86 12
99 78 11
101 78 8
106 86 9
107 86 9
101 81 11
101 77 12
107 86 15
106 86 10
106 88 19
98 80 6
100 78 9
99 76 10
105 83 15
107 89 16
99 79 9
102 84 3
105 86 19
103 84 15
102 82 17
103 82 11
107 87 9
107 85 15
101 84 19
104 84 15
98 77 11
102 79 16
96 78 10
100 78 11
103 83 10
100 77 9
99 77 15
92 72 7
92 70 11
98 76 15
104 85 16
102 81 10
93 77 2
101 80 10
99 82 9
92 72 9
102 82 18
93 72 9
94 75 18
94 73 13
94 74 17
84 66 12
90 71 14
95 76 17
91 73 10
88 69 20
86 70 17
94 72 9
79 62 13
88 68 11
92 73 18
83 66 15
81 63 15
85 65 15
96 76 19
94 74 20
80 62 14
88 70 21
77 55 13
77 57 10
79 60 8
90 70 23
74 60 10
73 55 15
75 61 22
79 63 15
61 46 18
84 74 17
157 174 16
166 189 0
171 194 0
172 194 0
170 192 0
169 191 0
172 194 0
171 194 0
168 191 0
168 190 0
172 194 0
173 195 0
168 192 0
173 194 0
172 195 0
168 191 0
171 193 0
170 193 0
170 193 0
168 192 0
169 190 0
172 196 0
171 194 0
171 194 0
171 194 0
172 195 0
172 195 0
174 196 0
170 194 0
170 193 0
173 195 0
172 195 0
172 195 0
172 194 0
172 195 0
170 193 0
174 196 0
171 195 0
171 195 0
171 194 0
171 195 0
170 193 0
171 193 0
171 194 0
169 193 0
173 196 0
171 194 0
172 195 0
170 193 0
170 193 0
170 193 0
170 193 0
170 193 0
170 193 0
169 192 0
171 193 0
170 193 0
170 193 0
171 193 0
169 192 0
171 193 0
169 192 0
168 190 0
166 190 0
170 193 0
168 191 0
169 192 0
167 189 0
166 190 0
168 191 0
167 190 0
169 192 0
167 189 0
168 192 0
167 190 0
168 191 0
168 191 0
168 190 0
168 191 0
164 187 0
167 189 0
167 189 0
166 188 0
166 188 0
164 186 0
167 190 0
167 190 0
162 185 0
166 189 0
168 190 0
166 188 0
165 188 0
165 188 0
165 187 0
164 186 0
164 186 0
160 183 0
163 184 0
163 185 0
165 186 0
161 182 0
163 184 0
161 182 39
149 167 60
146 166 0
145 164 0
142 162 0
145 165 0
148 168 0
148 167 0
150 169 0
147 167 0
148 168 0
150 170 0
148 167 0
146 166 0
146 165 0
153 172 0
150 170 0
150 169 0
146 167 0
148 169 0
146 166 0
151 171 0
148 169 0
149 169 0
152 172 0
148 168 0
147 168 0
149 169 0
150 170 0
146 166 0
150 170 0
148 168 0
147 167 0
146 166 0
148 168 0
139 158 0
97 113 0
83 97 16
89 104 0
85 100 14
85 99 16
87 101 16
87 101 0
75 89 0
72 85 0
87 101 0
73 86 14
77 90 0
68 81 0
87 101 0
85 98 0
84 99 0
81 93 16
89 103 0
62 74 0
76 89 0
71 84 0
91 105 0
69 81 0
71 83 0
73 86 0
77 90 0
79 100 67
58 92 126
59 93 131
58 93 130
58 92 125
60 94 136
60 95 134
60 94 129
60 95 136
59 93 130
60 95 136
59 94 131
60 95 130
60 96 142
59 93 130
61 96 141
59 94 131
60 95 137
60 94 137
60 95 142
60 95 141
60 94 135
60 95 140
61 96 147
60 94 144
60 95 138
60 95 139
60 96 148
61 96 144
59 94 136
59 93 125
60 94 134
60 95 143
59 93 139
59 94 136
58 93 136
58 92 128
60 95 144
58 92 132
60 95 150
59 93 138
59 93 131
59 93 139
59 94 136
59 93 136
59 93 135
60 94 147
60 94 141
58 92 136
59 91 129
60 93 134
59 92 137
59 92 145
57 89 123
59 93 136
58 91 137
57 89 135
57 88 125
57 88 128
58 90 131
57 89 132
59 91 141
58 90 138
54 84 117
57 87 120
57 88 132
56 87 126
58 89 132
56 87 123
56 85 119
56 86 129
53 82 113
55 84 116
55 84 120
55 83 115
53 81 112
54 83 112
54 82 122
51 77 101
51 79 113
50 77 108
52 79 109
50 76 110
49 73 100
49 73 93
48 71 94
44 65 81
48 71 95
70 74 44
86 87 40
95 97 39
93 95 34
101 100 42
112 110 39
115 113 31
122 121 34
128 126 39
118 116 41
127 123 40
87 75 21
94 76 12
80 62 10
91 71 8
93 75 13
82 64 9
89 69 6
91 68 14
96 76 10
99 75 15
87 70 9
100 82 14
97 79 14
100 79 7
97 79 10
91 74 6
102 83 14
92 73 9
103 83 12
98 76 8
103 84 6
97 77 8
96 78 9
102 80 11
102 81 16
91 70 9
102 83 18
102 80 12
96 77 11
98 79 8
101 80 9
103 87 13
95 76 8
98 79 15
99 80 9
89 72 8
109 89 16
99 79 14
109 90 8
107 89 10
104 84 16
98 79 10
109 91 8
99 80 6
105 85 12
101 82 6
108 88 13
99 79 9
103 81 14
100 82 7
103 82 16
97 78 8
115 93 11
98 78 8
104 86 13
106 89 12
101 79 8
100 79 5
98 82 9
99 75 10
104 83 16
101 85 15
102 80 7
100 79 15
102 84 14
104 86 13
97 79 13
104 84 9
108 89 8
106 86 17
106 85 10
102 79 13
103 85 14
106 86 16
100 80 8
98 79 14
98 76 8
102 84 9
109 90 9
107 88 12
102 84 9
100 78 9
99 80 13
104 83 13
93 72 8
108 89 15
94 75 11
102 83 12
102 83 15
99 81 19
102 80 15
106 84 15
106 84 15
96 77 15
100 78 19
99 79 9
107 89 16
103 84 11
101 81 17
96 74 8
97 75 16
96 73 14
98 79 8
105 85 14
100 77 13
96 72 10
97 77 14
86 65 8
91 74 14
95 75 16
95 74 18
96 75 15
96 77 15
96 77 13
96 77 10
92 70 16
90 68 16
81 63 9
84 68 18
83 63 11
88 69 10
92 73 16
83 64 13
91 71 17
90 72 18
77 57 12
83 62 9
90 70 23
84 64 16
80 64 21
94 75 24
83 68 15
80 62 20
76 59 18
84 68 25
72 52 8
98 92 24
158 180 0
169 192 0
170 191 0
169 192 0
171 193 0
169 190 0
172 194 0
165 188 0
169 192 0
171 194 0
169 192 0
170 193 0
170 194 0
171 192 0
170 192 0
171 195 0
171 194 0
173 196 0
171 194 0
170 193 0
170 193 0
172 195 0
169 193 0
170 193 0
173 196 0
171 194 0
171 195 0
171 195 0
171 194 0
171 195 0
169 193 0
170 194 0
171 194 0
171 194 0
172 195 0
171 195 0
172 194 0
170 193 0
170 193 0
170 194 0
172 195 0
171 194 0
171 194 0
169 192 0
170 194 0
171 193 0
172 194 0
168 192 0
170 193 0
169 192 0
169 193 0
171 193 0
171 194 0
170 193 0
169 192 0
168 191 0
170 193 0
170 193 0
170 193 0
171 193 0
170 192 0
168 190 0
170 193 0
170 193 0
170 192 0
168 191 0
169 191 0
170 193 0
168 192 0
169 192 0
166 188 0
168 190 0
166 189 0
167 189 0
168 191 0
168 190 0
168 191 0
169 192 0
168 190 0
169 191 0
168 190 0
166 189 0
167 191 0
166 189 0
166 189 0
166 188 0
167 190 0
167 189 0
164 186 0
167 188 0
165 187 0
166 188 0
163 185 0
165 186 0
167 189 0
166 188 0
167 189 0
165 188 0
160 182 0
166 188 0
166 187 0
162 183 0
162 184 0
163 185 39
150 169 0
146 167 0
148 167 0
144 163 0
147 167 0
147 168 0
145 165 0
148 168 0
148 168 0
146 165 0
147 167 0
149 169 0
145 165 0
146 167 0
145 166 0
147 166 0
147 166 0
148 169 0
148 168 0
148 168 0
148 168 0
147 166 0
148 168 0
148 168 0
148 169 0
147 166 0
151 171 0
147 167 0
150 171 0
149 168 0
147 167 0
149 170 0
145 166 0
148 168 16
98 114 21
89 104 16
83 98 0
79 92 0
85 99 0
94 108 0
81 95 0
94 108 0
91 107 0
77 91 0
84 99 0
69 82 0
87 100 0
86 99 0
89 103 0
81 94 0
79 93 0
85 98 0
79 92 0
76 89 0
79 93 0
78 91 0
81 95 0
94 107 0
76 89 0
91 105 0
76 91 42
59 93 138
58 92 122
57 91 117
56 90 108
58 92 124
60 95 139
58 92 122
61 96 139
59 94 131
59 94 126
61 96 140
59 93 133
61 96 142
60 94 131
60 95 137
59 93 129
59 93 142
59 94 133
60 94 137
60 95 137
60 95 137
58 93 126
59 93 130
59 93 137
59 94 133
59 94 134
60 95 143
59 93 134
60 94 139
60 95 143
59 94 135
60 95 141
60 94 140
60 94 140
60 95 148
59 94 139
60 94 138
59 93 129
59 93 134
60 94 138
60 95 139
60 94 144
58 92 138
59 93 133
58 92 139
59 93 142
59 93 141
59 93 137
60 93 140
59 93 143
57 90 128
59 92 139
59 93 139
59 92 133
59 92 138
58 90 135
58 90 134
59 91 132
58 91 138
58 91 138
54 86 115
55 85 122
57 88 132
58 90 132
55 84 120
55 85 129
57 88 123
57 87 122
56 85 120
58 90 134
54 82 117
54 82 110
54 84 120
56 85 119
53 82 121
54 82 111
53 82 122
50 75 101
50 76 104
52 79 109
49 74 99
49 75 103
51 76 95
49 74 93
46 69 89
46 70 96
46 68 87
73 77 40
96 95 46
93 93 45
103 103 37
111 109 40
103 102 46
117 116 34
114 113 46
131 129 43
119 117 38
134 131 37
128 125 36
99 85 23
85 66 11
96 78 14
80 67 13
84 67 2
98 81 18
87 68 9
94 76 12
98 77 8
90 74 9
87 66 10
104 84 10
92 74 11
90 71 11
93 71 7
97 77 11
98 78 7
104 84 10
95 77 11
88 70 14
98 77 10
97 76 14
99 82 13
99 81 8
101 81 11
104 86 15
104 83 12
97 81 10
98 80 8
97 77 9
101 77 10
99 79 9
103 82 15
94 74 8
107 89 12
105 86 15
102 82 11
108 91 17
103 83 6
101 84 6
99 76 7
101 82 11
103 83 11
107 87 10
104 86 14
112 96 19
97 79 14
102 85 6
101 80 14
105 84 16
109 90 16
105 84 10
105 84 9
101 80 7
99 81 8
108 88 19
104 86 12
110 88 10
100 82 11
110 90 8
109 86 12
101 78 10
107 89 9
102 86 12
99 81 19
101 80 7
102 80 10
106 85 18
103 81 15
102 82 8
97 78 8
103 83 10
105 87 10
98 79 12
100 80 10
111 91 13
108 89 13
106 86 18
102 83 4
107 84 12
107 83 16
108 88 16
98 78 8
105 85 13
107 88 9
93 74 11
106 85 14
99 80 8
94 74 12
107 86 17
96 72 10
97 74 9
90 70 8
104 82 12
97 78 12
101 80 14
100 79 10
104 88 9
96 76 14
95 77 12
100 79 11
100 80 10
101 83 12
97 81 12
93 73 11
94 76 11
94 76 20
95 75 15
101 82 13
92 72 13
95 71 16
94 74 15
97 76 12
86 68 14
85 65 9
79 58 10
93 75 17
93 76 14
83 62 8
96 74 13
90 74 24
81 63 8
91 73 13
80 63 16
82 64 12
78 58 20
80 64 18
83 66 16
85 68 20
78 61 10
81 62 13
73 59 8
73 57 7
83 65 17
91 76 20
128 128 30
169 192 0
171 193 0
170 191 0
168 191 0
171 195 0
163 186 0
171 194 0
170 194 0
172 194 0
169 191 0
171 194 0
168 190 0
170 192 0
169 192 0
169 192 0
170 192 0
171 194 0
171 193 0
173 196 0
170 192 0
169 191 0
171 194 0
173 194 0
171 194 0
172 196 0
172 195 0
171 195 0
171 195 0
173 196 0
170 194 0
173 196 0
172 195 0
171 195 0
170 193 0
172 194 0
172 194 0
173 196 0
170 194 0
172 195 0
170 193 0
172 194 0
169 192 0
169 192 0
171 193 0
171 194 0
171 194 0
170 194 0
169 193 0
169 192 0
171 194 0
169 192 0
171 193 0
167 191 0
170 193 0
169 193 0
170 193 0
167 191 0
168 191 0
168 191 0
168 190 0
170 192 0
168 191 0
170 192 0
170 193 0
168 191 0
168 191 0
168 190 0
167 190 0
170 192 0
167 191 0
170 192 0
167 190 0
169 191 0
167 189 0
169 192 0
168 191 0
169 191 0
170 192 0
167 190 0
166 188 0
167 189 0
167 190 0
166 188 0
168 190 0
168 191 0
165 187 0
166 188 0
166 187 0
166 188 0
166 189 0
164 187 0
168 191 0
165 188 0
166 189 0
167 190 0
164 186 0
164 186 0
162 183 0
163 185 0
164 186 0
164 186 0
161 182 0
163 186 0
161 183 0
161 183 0
157 176 56
146 166 32
143 163 0
144 163 0
144 163 0
148 168 0
149 169 0
148 169 0
148 168 0
147 168 0
148 167 0
146 165 0
145 164 0
147 166 0
149 169 0
147 167 0
149 169 0
147 166 0
148 168 0
148 167 0
150 170 0
151 171 0
147 167 0
150 170 0
146 166 0
147 166 0
148 168 0
150 170 0
146 166 0
147 167 0
148 169 0
150 170 0
150 170 0
93 109 0
94 108 16
93 107 0
92 106 0
74 88 0
91 105 0
95 109 0
92 106 0
96 111 0
97 111 0
77 91 0
84 98 0
73 86 0
86 99 0
78 92 0
95 109 0
91 105 0
76 90 0
89 103 0
88 101 0
84 98 0
88 101 0
92 105 0
85 99 0
77 89 0
82 94 0
84 97 0
61 88 92
56 89 112
58 91 119
57 90 115
59 93 126
59 93 125
59 93 121
58 92 114
59 94 132
60 95 133
59 94 137
59 93 128
59 94 128
60 95 140
60 95 139
59 94 137
60 95 140
59 93 137
59 94 131
58 93 132
60 95 139
60 94 141
61 96 147
59 95 139
59 93 133
59 94 133
59 94 134
59 94 134
59 94 137
58 92 120
60 95 142
59 93 133
59 94 136
59 94 136
60 94 145
61 95 143
60 95 142
60 95 148
60 95 148
59 93 132
59 93 138
59 92 135
60 94 145
59 93 131
59 92 138
59 93 135
60 94 141
59 93 141
60 94 138
59 92 135
60 93 144
57 89 125
58 91 134
59 93 139
59 92 133
58 91 135
56 87 118
58 91 136
58 91 130
56 87 120
58 91 133
57 89 130
57 88 130
56 86 117
55 85 117
56 87 123
55 86 128
55 84 112
56 87 123
55 84 123
55 84 110
55 84 117
53 81 117
51 79 109
51 78 102
54 82 113
51 78 108
53 80 106
52 77 99
52 78 104
51 78 108
49 73 101
47 71 92
48 73 86
48 72 96
46 69 93
48 72 89
62 66 41
77 80 40
95 95 50
91 93 41
106 106 41
120 117 38
117 115 40
113 112 38
121 119 46
124 122 37
133 129 38
131 127 44
134 130 35
102 89 30
95 72 11
87 72 14
88 71 9
86 69 6
87 68 8
94 76 16
97 79 14
94 73 7
91 73 10
93 73 11
94 76 11
99 79 12
102 84 11
104 83 16
93 75 5
95 75 10
95 75 9
97 77 13
106 89 13
93 73 10
96 80 12
104 83 11
96 79 9
100 82 6
99 82 10
97 79 6
107 87 18
97 76 8
93 77 9
97 77 8
105 87 14
99 78 15
105 86 4
106 87 10
108 90 9
105 85 12
104 84 11
104 86 11
107 87 7
109 90 12
100 83 9
101 80 10
107 87 11
110 88 12
99 79 13
99 79 9
104 87 11
111 92 10
98 78 8
104 83 9
102 84 9
107 89 7
106 82 8
103 82 8
98 76 7
104 86 16
107 88 14
103 82 9
109 86 12
105 86 12
106 87 12
110 90 17
112 93 14
110 93 11
101 81 9
105 84 10
101 80 9
102 82 9
104 79 8
104 81 13
104 82 17
114 94 18
102 82 3
103 82 19
103 83 12
103 82 13
103 81 13
108 89 17
107 86 11
96 81 9
102 83 9
93 74 5
105 81 16
101 85 12
105 86 13
98 79 15
90 70 5
102 85 19
99 76 10
102 80 15
97 77 11
109 86 18
97 74 15
97 74 6
97 77 9
97 77 8
107 87 7
104 86 13
92 74 14
95 74 16
96 72 14
96 77 11
102 83 20
95 76 18
87 67 11
97 77 12
98 78 16
91 74 6
89 72 18
92 76 14
90 69 17
92 71 14
95 75 14
100 80 17
83 65 9
89 70 18
84 69 15
90 70 10
93 74 16
86 68 10
89 70 17
85 66 8
82 65 17
86 65 17
78 58 16
84 63 14
76 59 14
74 58 15
77 57 14
79 61 18
73 56 10
85 66 15
118 112 30
131 137 19
166 186 0
167 188 0
166 189 0
165 186 0
170 191 0
170 193 0
168 191 0
170 191 0
168 190 0
170 192 0
170 191 0
168 190 0
169 192 0
170 193 0
171 193 0
171 194 0
171 193 0
169 192 0
170 192 0
169 191 0
171 193 0
169 192 0
168 191 0
171 193 0
172 195 0
172 195 0
171 194 0
171 194 0
170 193 0
171 193 0
171 194 0
173 196 0
172 195 0
171 194 0
171 194 0
171 195 0
170 193 0
171 194 0
171 193 0
169 192 0
169 192 0
170 194 0
170 193 0
172 194 0
171 194 0
168 192 0
172 195 0
170 194 0
169 193 0
169 192 0
171 194 0
172 194 0
169 192 0
170 193 0
170 192 0
169 192 0
170 192 0
169 192 0
167 190 0
169 192 0
169 192 0
168 192 0
169 191 0
167 190 0
170 192 0
168 192 0
168 191 0
166 189 0
169 191 0
168 190 0
168 190 0
170 193 0
168 191 0
168 190 0
166 189 0
169 192 0
167 190 0
169 191 0
170 193 0
168 191 0
167 190 0
167 189 0
166 188 0
165 188 0
166 188 0
167 189 0
165 188 0
164 187 0
165 187 0
167 189 0
165 187 0
166 188 0
166 188 0
167 189 0
167 189 0
164 186 0
164 186 0
166 188 0
167 189 0
166 187 0
165 188 0
164 186 0
163 185 0
166 188 0
160 182 0
166 187 0
161 182 39
150 170 32
144 164 0
148 168 0
145 165 0
143 163 0
146 165 0
147 166 0
147 167 0
147 166 0
147 167 0
149 168 0
149 169 0
148 167 0
147 167 0
148 168 0
148 168 0
148 168 0
152 171 0
149 169 0
150 170 0
149 168 0
148 167 0
151 171 0
147 167 0
148 168 0
150 170 0
149 168 0
148 169 0
147 167 0
150 170 0
146 166 0
117 133 0
94 108 0
96 112 0
91 107 0
101 116 0
97 111 0
90 104 0
94 109 0
95 109 0
87 102 0
85 99 0
76 89 0
83 97 0
78 91 0
78 91 0
94 108 0
89 103 0
84 97 0
86 100 0
76 89 0
92 107 0
92 106 0
91 104 0
84 97 0
79 92 0
77 91 0
77 88 0
76 94 66
57 90 110
58 91 115
59 93 127
57 91 114
58 91 125
59 94 134
59 93 133
59 94 128
58 92 120
59 94 131
59 94 128
60 95 143
60 94 130
60 96 139
59 94 131
57 91 118
59 94 140
60 95 142
59 94 135
60 95 137
60 95 137
59 94 139
59 94 136
61 96 143
60 96 147
59 94 133
60 94 139
60 95 135
60 95 137
60 94 138
58 92 132
60 94 136
60 95 144
60 95 149
60 95 143
60 94 149
60 94 127
60 95 142
57 89 116
58 91 134
59 93 140
60 94 145
59 92 136
59 93 137
59 93 134
58 93 134
59 92 143
58 92 132
58 92 129
59 91 134
57 90 132
57 89 115
58 91 135
58 91 132
58 89 129
59 92 142
55 85 125
57 89 127
56 88 120
56 87 119
57 87 121
56 86 124
57 88 122
56 86 114
56 87 125
55 85 122
58 89 130
56 85 112
55 84 115
54 81 107
53 81 113
53 80 109
52 78 101
52 79 99
49 74 93
53 81 115
51 75 94
53 80 116
52 78 109
47 72 92
49 74 101
48 72 95
49 73 88
48 72 89
48 73 93
45 67 82
77 79 46
90 92 53
96 95 42
96 96 48
103 103 51
116 114 44
122 119 53
126 123 44
112 110 36
127 125 38
121 119 44
129 126 33
128 126 33
128 125 27
112 98 27
99 78 13
83 65 6
86 65 7
98 80 15
84 65 11
103 84 21
97 78 9
93 75 9
92 72 12
95 75 2
91 72 16
96 79 12
96 79 11
100 82 12
102 81 17
92 75 7
102 82 8
98 77 10
100 82 16
91 73 11
102 80 11
92 74 5
103 79 10
104 84 7
94 74 6
100 79 9
107 88 13
97 80 14
93 77 6
102 81 10
96 79 9
107 89 9
95 75 7
103 84 10
97 79 11
103 84 11
106 86 11
101 80 9
103 84 9
102 81 12
104 86 11
105 84 8
104 85 10
101 85 7
106 87 9
100 81 7
113 94 18
105 88 9
108 88 14
100 78 10
106 86 9
104 84 9
102 86 14
104 85 11
101 82 8
108 91 10
103 83 10
98 77 13
106 82 12
99 81 7
100 82 19
101 82 8
110 89 8
106 87 15
97 80 1
101 82 12
107 85 9
104 82 7
100 79 8
105 86 14
104 86 16
100 78 13
99 78 10
99 81 9
109 89 8
104 86 9
105 87 13
106 86 15
98 77 11
105 88 14
100 79 12
102 81 10
102 83 17
105 84 13
110 90 16
96 77 5
98 80 14
103 81 6
97 77 8
99 81 9
94 77 11
100 80 15
99 81 16
100 80 10
97 74 15
94 78 13
95 73 6
94 74 7
95 74 12
99 76 12
96 72 8
102 81 14
97 79 9
84 67 7
93 75 9
94 78 17
91 70 16
104 85 16
86 66 11
90 71 15
91 74 12
100 78 14
92 72 16
88 67 8
83 64 14
88 70 15
87 72 9
80 63 17
82 65 14
84 62 8
83 64 9
79 61 9
83 65 13
75 56 7
75 61 7
68 48 6
87 69 13
79 62 16
83 66 16
64 48 15
98 91 21
127 123 25
143 154 19
171 195 0
168 190 0
170 193 0
170 191 0
169 192 0
171 194 0
171 192 0
170 193 0
169 191 0
173 195 0
171 195 0
172 194 0
169 191 0
169 191 0
171 194 0
168 189 0
171 194 0
173 196 0
172 195 0
173 195 0
173 196 0
172 195 0
171 194 0
172 195 0
173 196 0
172 195 0
171 194 0
172 196 0
172 195 0
170 193 0
173 196 0
171 194 0
172 195 0
173 196 0
173 196 0
170 193 0
170 192 0
171 194 0
171 194 0
171 194 0
171 194 0
171 194 0
169 193 0
170 193 0
172 195 0
170 192 0
171 194 0
171 195 0
169 193 0
170 193 0
170 194 0
173 196 0
171 193 0
169 192 0
166 189 0
170 192 0
171 194 0
171 194 0
168 191 0
170 192 0
167 190 0
170 194 0
169 192 0
167 191 0
169 192 0
168 191 0
168 191 0
167 189 0
167 190 0
170 193 0
169 192 0
165 188 0
168 191 0
169 191 0
167 190 0
171 194 0
167 190 0
169 192 0
168 190 0
169 192 0
167 190 0
164 186 0
166 189 0
167 189 0
165 188 0
168 191 0
166 189 0
167 189 0
166 189 0
166 188 0
165 187 0
166 188 0
165 187 0
165 188 0
163 185 0
166 189 0
164 187 0
163 185 0
166 189 0
161 184 0
166 188 0
166 188 0
166 188 0
165 187 0
165 187 0
157 179 0
159 181 0
156 178 22
154 173 51
147 167 0
145 165 0
147 166 0
147 167 0
148 168 0
148 168 0
148 168 0
149 168 0
150 169 0
146 166 0
148 168 0
145 165 0
149 168 0
147 166 0
147 167 0
146 165 0
148 168 0
146 165 0
148 169 0
146 167 0
149 168 0
150 169 0
148 168 0
149 168 0
149 169 0
147 167 0
148 169 0
150 170 0
146 165 0
110 128 0
95 111 0
98 114 0
90 105 0
93 108 0
87 102 0
90 106 0
97 112 0
87 103 0
85 99 0
90 104 0
92 106 0
96 110 0
93 108 0
90 104 0
80 94 0
91 105 0
92 106 0
93 108 0
87 99 0
88 101 0
86 100 0
76 90 0
94 107 0
81 95 0
85 100 0
83 96 0
100 115 31
62 91 100
57 90 118
57 90 122
57 91 117
59 93 126
59 93 122
59 93 128
57 91 124
59 93 121
59 93 133
59 93 121
59 93 125
58 92 124
58 93 121
58 93 128
60 94 130
60 95 137
60 95 134
59 94 133
60 94 142
59 94 133
60 95 140
59 93 137
59 93 130
59 93 126
60 94 142
60 95 138
61 96 148
59 93 139
61 96 141
60 94 134
58 92 128
59 94 139
59 94 132
60 94 143
59 93 134
60 95 139
59 93 138
60 94 143
58 92 130
58 92 134
59 92 140
59 93 137
59 93 135
60 94 140
59 92 128
58 92 134
59 90 127
59 92 132
58 92 135
58 90 127
59 92 136
59 92 133
59 92 134
57 90 129
58 89 129
58 90 131
57 90 130
57 89 119
57 88 123
56 87 124
55 84 117
57 89 125
56 87 123
53 82 116
55 85 121
54 83 114
55 85 120
57 87 126
54 83 116
53 82 111
52 80 100
53 80 114
51 79 110
53 80 106
49 75 102
53 79 108
51 77 109
49 73 92
51 77 107
49 74 93
49 73 93
43 64 73
43 65 81
48 71 86
45 66 88
68 70 33
82 84 32
87 88 41
102 102 47
113 112 45
110 110 34
121 119 46
109 109 39
126 124 37
118 117 38
127 125 38
133 130 29
134 131 36
136 133 39
135 132 42
103 92 28
100 82 10
83 65 9
89 72 10
88 70 12
96 79 11
89 68 9
96 77 12
92 71 10
87 68 3
90 70 10
86 66 4
94 78 6
94 75 8
100 79 11
97 77 9
90 71 12
95 76 6
92 73 8
93 71 11
91 71 3
100 84 6
103 83 10
98 78 12
101 81 8
99 82 8
104 85 12
100 80 6
99 80 13
104 83 12
95 76 8
102 83 12
100 82 14
103 83 9
102 86 9
96 74 12
105 89 8
109 93 9
107 87 12
110 89 12
106 88 16
104 86 11
95 77 9
104 84 8
102 80 6
105 87 8
97 77 12
99 79 7
104 89 9
108 86 14
113 92 12
103 84 9
107 88 9
104 85 15
109 89 18
109 91 15
102 85 9
100 80 7
104 86 10
104 83 16
100 82 8
107 91 9
111 93 16
104 85 13
106 84 9
109 88 10
104 84 5
106 85 16
101 84 12
105 83 14
100 83 7
104 86 14
105 84 9
101 81 9
110 90 14
95 78 16
100 79 10
105 85 8
97 76 14
100 80 11
97 78 6
97 78 7
102 82 14
101 80 14
99 81 9
104 85 16
95 76 7
105 82 11
99 75 10
99 76 12
98 76 8
101 82 15
100 76 10
98 78 12
97 76 11
92 72 13
100 81 17
104 83 15
101 83 12
99 80 15
93 74 7
95 74 12
97 77 14
94 74 9
91 71 15
92 71 13
103 81 20
90 67 8
91 72 10
94 73 10
94 75 13
94 73 12
91 72 11
90 73 15
86 66 16
87 68 8
85 64 13
87 66 10
87 65 8
91 71 17
85 68 9
83 64 12
86 66 11
93 74 20
78 62 13
77 58 14
85 66 14
72 53 7
75 62 13
90 78 23
120 116 34
122 118 22
155 169 22
171 194 0
170 193 0
171 192 0
170 193 0
167 188 0
170 194 0
172 195 0
172 194 0
169 191 0
171 193 0
167 189 0
171 194 0
170 193 0
168 191 0
168 190 0
171 195 0
171 194 0
169 190 0
172 195 0
172 193 0
171 194 0
170 193 0
168 190 0
171 194 0
172 195 0
172 196 0
173 196 0
172 195 0
172 194 0
171 195 0
172 195 0
168 191 0
172 195 0
171 195 0
173 196 0
168 191 0
172 195 0
171 194 0
170 193 0
171 194 0
171 194 0
170 193 0
171 194 0
170 193 0
173 195 0
171 194 0
170 192 0
171 194 0
171 194 0
168 191 0
172 194 0
170 193 0
171 194 0
169 192 0
168 191 0
172 195 0
170 193 0
172 193 0
169 192 0
170 192 0
169 191 0
167 191 0
169 192 0
164 187 0
168 192 0
169 192 0
171 194 0
167 189 0
170 193 0
167 190 0
168 191 0
168 190 0
167 189 0
165 188 0
168 190 0
171 194 0
168 190 0
165 189 0
167 190 0
170 193 0
168 190 0
169 191 0
168 190 0
167 190 0
168 190 0
165 188 0
166 189 0
167 189 0
168 190 0
164 186 0
167 189 0
166 188 0
167 189 0
165 188 0
165 188 0
165 187 0
165 188 0
161 183 0
166 188 0
167 189 0
164 185 0
165 187 0
165 187 0
166 189 0
164 186 0
165 187 0
165 188 0
165 188 0
164 185 0
159 177 64
145 164 39
146 166 0
145 165 0
149 169 0
148 168 0
146 166 0
146 167 0
150 170 0
145 165 0
148 168 0
148 168 0
147 167 0
149 168 0
146 165 0
148 168 0
147 167 0
144 164 0
149 169 0
147 167 0
150 170 0
148 168 0
147 166 0
148 169 0
146 166 0
151 170 0
149 168 0
150 170 0
148 168 0
113 131 0
88 104 0
93 107 0
95 110 0
103 120 0
88 103 0
92 106 0
92 107 0
83 97 0
94 109 0
94 108 0
98 113 0
91 105 0
95 110 0
89 104 0
90 105 0
79 93 0
88 103 0
82 95 0
94 108 0
84 97 0
91 106 0
93 108 0
91 106 0
83 97 0
71 84 0
85 98 0
85 98 0
75 93 70
58 92 116
56 90 123
58 92 118
59 94 131
60 95 136
58 93 126
59 94 122
59 94 125
58 93 129
59 93 134
59 94 128
57 90 117
60 94 129
58 92 131
60 95 136
59 93 130
59 93 130
61 96 137
60 94 133
59 94 136
59 94 134
58 92 128
60 95 135
60 94 142
57 90 120
59 93 133
59 94 139
60 95 139
60 95 135
60 95 142
59 93 133
59 93 136
60 95 141
60 93 133
58 92 125
59 93 133
59 93 131
60 94 140
60 95 144
58 91 132
59 93 134
60 94 144
59 93 132
60 94 139
60 93 145
58 92 134
59 93 145
59 92 133
58 90 124
58 90 130
59 92 139
58 91 136
58 89 124
58 91 128
56 88 119
58 90 126
57 90 118
56 87 124
56 88 120
55 84 111
56 87 118
58 89 137
56 88 127
57 88 127
57 87 124
55 84 118
55 85 123
54 82 108
53 82 112
55 84 117
55 82 112
55 84 123
54 82 109
51 76 99
49 74 90
51 77 102
52 78 104
50 77 107
52 78 99
51 76 98
49 74 89
48 74 103
46 70 91
47 71 90
46 68 92
66 69 39
81 84 40
100 100 47
99 100 42
118 116 42
116 114 48
109 108 37
125 123 40
122 121 43
121 119 31
122 120 37
129 128 37
135 132 37
133 131 36
132 129 33
138 135 44
116 107 27
88 71 9
92 74 9
87 71 7
90 68 6
90 70 10
79 61 10
96 78 14
96 77 8
89 71 6
95 75 11
101 79 8
98 80 8
102 82 9
97 78 13
102 82 9
101 83 8
98 77 10
97 78 7
93 76 8
93 74 6
105 84 9
101 81 9
100 80 7
98 81 6
99 77 8
102 83 9
105 86 10
105 85 7
110 90 16
103 85 13
105 83 11
103 85 11
97 75 8
97 80 9
104 86 10
106 86 17
106 87 7
104 85 11
99 83 1
105 87 13
109 89 12
104 84 4
98 81 9
106 85 13
107 88 9
107 89 10
112 91 13
104 89 11
110 90 8
103 85 11
102 83 7
109 89 10
101 83 12
107 86 8
102 83 6
102 87 5
105 84 12
99 77 8
106 84 10
105 83 15
103 85 8
104 87 10
108 90 12
108 88 10
103 84 10
106 88 15
103 87 12
110 89 13
102 84 15
103 84 11
102 83 9
106 86 12
103 85 13
107 88 14
100 81 11
97 78 13
99 80 8
101 82 13
105 83 17
103 84 13
100 81 13
97 76 12
100 78 6
97 81 5
99 81 9
103 84 11
103 84 8
96 74 10
101 83 12
101 85 18
104 87 15
100 79 9
94 72 10
101 78 9
99 78 16
98 78 12
96 78 16
93 76 10
101 83 16
82 65 5
90 71 15
86 65 13
95 79 16
86 67 9
93 71 13
93 73 14
94 75 19
89 70 10
92 71 13
90 75 16
102 85 17
86 67 19
94 75 17
94 73 16
77 58 13
72 53 10
85 66 10
87 69 21
86 69 20
87 67 16
78 59 9
81 64 20
79 64 19
87 70 12
74 57 8
68 51 8
59 46 13
115 110 23
126 122 28
122 118 30
161 178 16
168 189 0
170 190 0
170 194 0
167 190 0
168 191 0
172 194 0
168 190 0
168 191 0
168 190 0
168 189 0
171 194 0
168 191 0
175 197 0
171 193 0
173 195 0
172 194 0
171 193 0
169 191 0
170 193 0
168 190 0
171 195 0
170 192 0
167 190 0
172 196 0
174 197 0
172 195 0
170 193 0
171 194 0
170 193 0
173 196 0
172 195 0
169 192 0
172 194 0
172 194 0
173 195 0
170 193 0
171 194 0
171 194 0
171 194 0
171 194 0
168 193 0
172 193 0
169 193 0
170 193 0
173 195 0
172 194 0
172 194 0
170 193 0
172 195 0
171 194 0
171 194 0
171 193 0
171 194 0
170 192 0
168 191 0
171 193 0
171 193 0
169 192 0
169 193 0
168 191 0
171 194 0
169 192 0
171 193 0
164 188 0
169 191 0
169 192 0
170 193 0
167 190 0
172 194 0
168 190 0
168 191 0
167 190 0
169 191 0
167 190 0
169 190 0
168 191 0
170 192 0
168 191 0
168 191 0
167 190 0
168 191 0
169 191 0
170 192 0
164 187 0
165 188 0
167 189 0
166 188 0
167 188 0
169 192 0
166 189 0
165 188 0
166 188 0
165 187 0
166 188 0
169 192 0
165 187 0
167 189 0
163 185 0
167 189 0
163 185 0
163 185 0
164 187 0
165 186 0
167 188 0
162 183 0
164 186 0
162 183 0
165 187 0
163 185 0
164 187 0
164 185 39
154 172 60
148 168 0
147 167 0
146 166 0
146 166 0
147 167 0
147 166 0
144 164 0
145 165 0
148 168 0
147 167 0
147 167 0
146 166 0
148 167 0
148 167 0
143 163 0
148 167 0
147 168 0
151 170 0
148 168 0
147 167 0
146 166 0
150 171 0
147 167 0
148 168 0
148 169 0
148 168 0
121 138 0
90 106 0
90 105 0
105 122 0
100 115 0
110 126 0
98 114 0
85 99 0
90 105 0
97 112 0
94 109 0
89 103 0
93 109 0
90 104 0
98 113 0
90 105 0
83 98 0
97 112 0
98 113 0
82 97 0
81 94 0
89 102 0
92 107 0
89 102 0
90 104 0
92 106 0
84 98 0
101 117 0
87 103 36
60 91 105
57 90 120
58 92 122
58 91 121
58 92 135
58 91 115
58 92 121
58 93 134
57 92 122
58 92 122
57 91 120
58 92 124
58 92 134
60 94 130
59 94 128
60 95 134
58 93 129
59 94 125
59 93 132
59 93 130
59 93 128
59 93 134
59 93 120
60 95 144
59 94 140
59 93 135
59 94 132
60 94 132
59 94 136
58 92 135
60 94 137
60 94 140
59 93 132
59 93 135
58 92 133
59 94 137
60 94 142
60 94 136
59 93 137
59 93 132
58 92 131
60 93 143
59 94 138
59 93 141
59 92 135
59 93 141
59 92 142
60 93 142
58 91 131
58 91 131
59 92 129
58 91 131
56 88 121
58 91 128
59 91 126
57 89 127
58 90 128
56 87 127
56 88 126
55 86 119
57 88 123
58 90 135
56 86 127
56 86 119
56 85 122
54 85 111
56 85 119
53 82 110
55 83 113
51 77 107
52 80 113
53 80 103
53 80 106
52 79 106
52 79 111
53 80 110
53 79 105
50 76 99
47 71 92
50 77 100
47 70 89
47 71 88
48 72 89
45 67 78
45 66 82
60 65 32
82 84 39
97 98 42
96 97 41
110 110 38
103 103 46
120 118 35
122 120 38
125 123 42
130 127 44
132 130 29
137 134 31
134 131 42
140 135 47
142 139 35
138 134 36
146 142 42
128 121 33
89 70 5
95 74 15
96 79 4
98 77 8
90 69 7
91 74 8
92 75 8
99 81 10
97 81 15
101 83 10
96 78 8
97 79 13
97 75 11
102 84 11
99 77 8
100 83 8
102 82 7
101 82 11
96 74 9
100 82 13
105 86 9
104 83 9
102 83 6
98 78 6
105 83 8
102 83 10
102 81 9
103 85 13
102 81 10
103 83 15
101 85 9
94 76 6
103 83 6
107 90 15
99 81 6
101 81 6
102 82 10
99 82 8
106 86 9
107 88 11
104 85 11
103 84 5
105 87 8
97 80 2
106 86 11
111 91 15
100 77 9
103 84 8
104 84 11
108 90 11
103 84 7
101 82 8
101 78 9
98 75 10
109 88 11
106 89 8
101 81 8
105 84 9
112 94 8
110 89 11
106 89 17
105 82 11
108 89 10
110 87 9
109 88 9
107 90 11
101 80 17
104 84 7
101 81 11
99 80 6
101 85 16
104 83 7
94 77 6
106 85 15
98 77 14
99 81 7
104 84 11
99 77 8
98 80 9
103 84 15
104 83 13
101 81 9
98 79 12
96 73 8
93 72 7
95 75 12
105 88 8
101 80 14
97 81 13
100 83 8
95 76 7
101 83 8
97 78 10
105 83 15
102 79 12
95 76 15
97 76 14
100 75 9
93 72 10
97 78 9
89 70 6
93 70 11
86 68 9
95 73 10
94 73 10
97 77 13
92 75 16
101 78 8
96 77 18
90 68 12
92 74 14
89 70 11
85 66 18
83 68 17
91 73 13
86 66 11
81 64 13
86 66 11
83 65 11
83 69 17
77 60 11
80 62 8
76 57 8
77 58 8
86 68 18
123 116 35
132 129 30
125 122 28
124 121 30
168 190 0
169 191 0
171 193 0
171 193 0
172 195 0
167 188 0
167 190 0
172 196 0
171 194 0
172 195 0
170 192 0
173 195 0
170 193 0
171 193 0
172 194 0
170 192 0
172 195 0
167 190 0
171 193 0
173 195 0
172 194 0
170 192 0
169 190 0
171 192 0
172 195 0
173 196 0
172 195 0
171 194 0
173 196 0
173 195 0
171 194 0
171 194 0
170 193 0
170 193 0
170 193 0
172 195 0
171 194 0
171 194 0
173 196 0
171 194 0
172 195 0
171 194 0
170 194 0
171 194 0
168 192 0
171 194 0
171 194 0
170 193 0
170 193 0
170 193 0
170 192 0
169 193 0
169 193 0
169 192 0
170 193 0
168 192 0
170 192 0
166 190 0
167 191 0
171 193 0
171 193 0
169 192 0
169 191 0
169 192 0
171 193 0
170 193 0
170 194 0
167 191 0
167 190 0
169 191 0
167 190 0
168 191 0
168 192 0
167 190 0
166 189 0
169 192 0
165 188 0
167 189 0
168 191 0
168 191 0
167 190 0
169 191 0
167 190 0
168 190 0
167 189 0
168 190 0
167 190 0
166 189 0
167 190 0
169 191 0
165 189 0
164 187 0
166 188 0
167 189 0
165 187 0
164 186 0
162 184 0
165 187 0
165 188 0
166 189 0
163 185 0
167 189 0
163 185 0
168 189 0
166 187 0
165 187 0
167 189 0
163 186 0
161 183 0
164 187 0
161 183 0
157 178 0
166 189 0
164 182 68
151 169 51
142 161 0
146 165 0
149 168 0
147 167 0
146 165 0
147 167 0
146 166 0
149 169 0
147 166 0
147 166 0
151 170 0
144 163 0
147 167 0
149 169 0
147 166 0
149 169 0
147 166 0
146 166 0
146 167 0
146 167 0
147 166 0
147 167 0
148 168 0
148 168 0
130 148 0
92 107 0
112 128 0
104 119 0
99 114 0
99 115 0
101 117 0
103 118 0
93 108 0
98 114 0
101 116 0
90 105 0
104 119 0
100 114 0
83 97 0
91 104 0
83 99 0
85 100 0
95 110 0
96 110 0
87 102 0
97 111 0
97 112 0
92 106 0
92 105 0
91 105 0
88 100 0
97 111 0
99 114 0
80 102 78
56 89 100
58 91 118
57 91 117
58 92 125
60 94 131
58 92 121
58 92 126
59 93 122
59 93 128
58 92 121
60 95 135
60 94 130
58 93 122
59 94 136
60 94 135
60 95 137
59 94 126
60 95 138
59 94 129
60 95 135
60 94 129
59 93 125
59 94 142
60 94 136
59 93 132
60 94 134
59 93 133
59 93 131
60 94 132
59 93 129
60 94 139
59 94 137
61 96 144
58 91 130
58 92 131
58 92 123
59 94 138
59 93 141
59 93 140
58 92 129
58 92 133
60 94 136
59 94 142
58 90 130
56 88 123
58 90 123
57 90 130
58 91 130
59 93 134
58 89 130
58 91 135
57 90 126
57 89 117
58 90 127
58 90 132
57 89 122
56 87 132
57 89 129
58 90 127
56 87 119
57 88 128
56 86 123
56 86 127
55 85 122
53 81 112
55 84 117
54 82 108
55 84 121
55 83 110
51 80 110
54 83 112
52 78 108
50 77 105
51 77 91
52 77 99
51 78 105
51 76 105
50 74 79
49 73 91
49 73 94
45 68 82
43 64 81
44 65 85
44 64 76
69 73 40
85 86 37
103 105 47
100 101 41
100 101 37
119 116 34
112 111 34
112 112 36
127 125 44
122 120 39
126 123 42
128 126 33
132 131 26
136 133 45
141 138 35
131 128 35
136 133 36
143 139 35
132 127 22
106 93 12
95 76 9
91 72 3
96 74 7
87 69 6
94 76 8
90 72 9
97 79 10
99 80 9
96 77 5
107 87 11
91 73 8
105 87 9
85 68 8
99 81 15
95 74 7
101 80 6
107 86 15
104 87 9
94 75 6
102 85 7
98 78 9
99 82 7
106 88 18
104 83 6
107 88 16
89 72 3
105 86 9
112 93 12
107 87 6
101 84 11
103 85 10
103 85 12
101 83 8
95 77 5
99 81 12
94 76 7
106 89 6
108 88 17
101 81 8
102 84 10
99 79 9
107 90 13
110 91 5
102 83 10
102 82 6
108 88 7
107 89 15
100 81 5
94 70 7
112 96 10
103 82 10
102 83 7
101 83 8
103 85 3
108 93 11
103 86 9
100 81 10
98 80 12
105 88 9
102 82 7
101 80 10
107 90 9
103 84 7
105 83 11
104 83 9
108 89 12
99 80 9
105 87 10
99 82 9
106 84 10
106 85 15
102 81 11
104 83 16
109 91 9
102 78 16
97 79 9
100 81 13
97 84 2
104 83 12
99 80 11
103 82 9
92 74 9
102 84 13
99 79 9
101 79 17
92 73 8
103 81 17
97 81 19
103 84 12
93 76 14
106 87 7
107 85 9
100 78 9
105 86 23
94 75 11
88 72 7
101 82 14
94 75 9
98 77 10
89 71 12
89 70 6
90 72 6
93 72 9
91 72 9
87 69 9
79 63 9
92 76 5
85 66 6
93 76 12
87 69 13
84 67 9
84 64 18
88 68 12
88 69 14
89 67 9
87 68 15
75 56 12
80 61 14
90 72 18
76 59 13
79 62 18
79 60 16
123 116 26
125 121 28
134 130 28
120 117 28
136 140 28
170 191 0
169 190 0
168 191 0
167 190 0
169 191 0
170 192 0
168 190 0
170 193 0
168 192 0
171 194 0
170 192 0
169 192 0
171 195 0
169 190 0
173 194 0
170 192 0
171 191 0
172 195 0
173 195 0
171 192 0
170 192 0
173 195 0
171 193 0
171 193 0
172 195 0
171 194 0
172 194 0
171 195 0
172 195 0
171 194 0
171 195 0
171 194 0
172 196 0
173 196 0
172 195 0
170 194 0
172 196 0
171 194 0
171 194 0
170 193 0
168 191 0
171 193 0
172 195 0
170 193 0
169 192 0
171 194 0
171 194 0
172 195 0
168 191 0
170 193 0
172 194 0
170 193 0
169 193 0
169 193 0
170 193 0
171 193 0
170 192 0
169 192 0
169 192 0
169 192 0
168 191 0
171 193 0
169 192 0
170 193 0
168 191 0
168 191 0
171 193 0
168 191 0
169 191 0
166 189 0
169 191 0
169 191 0
167 190 0
170 193 0
166 189 0
168 190 0
169 191 0
169 191 0
165 188 0
167 190 0
169 191 0
167 190 0
169 191 0
168 191 0
167 190 0
166 188 0
167 190 0
166 189 0
164 187 0
167 189 0
168 191 0
166 189 0
166 188 0
170 193 0
166 189 0
168 189 0
166 188 0
165 188 0
169 191 0
168 190 0
168 190 0
165 188 0
164 187 0
164 185 0
165 188 0
167 188 0
161 183 0
165 187 0
165 188 0
161 183 0
167 189 0
163 185 0
162 184 0
163 185 0
162 182 56
149 168 0
144 162 0
146 166 0
143 163 0
147 166 0
146 165 0
147 166 0
147 166 0
146 167 0
149 170 0
145 166 0
150 170 0
147 166 0
147 167 0
146 166 0
146 166 0
147 167 0
147 167 0
148 169 0
145 166 0
147 167 0
147 167 0
145 165 0
147 167 0
134 153 0
108 124 0
94 110 0
104 120 0
88 102 0
106 124 0
95 111 0
90 106 0
98 114 0
108 123 0
87 103 0
91 107 0
94 109 0
103 118 0
97 113 0
99 115 0
94 108 0
91 107 0
92 107 0
99 114 0
102 118 0
92 107 0
82 96 0
95 110 0
97 112 0
100 115 0
84 98 0
88 101 0
89 103 0
81 96 25
66 95 108
56 89 111
57 90 111
58 91 117
58 92 128
58 92 111
57 91 114
60 94 128
59 93 121
59 93 126
58 93 129
59 93 130
59 93 128
59 94 128
57 91 122
60 94 131
60 94 139
59 93 124
60 95 139
58 93 128
60 95 141
60 95 133
59 94 126
59 93 129
60 95 135
59 94 134
59 93 135
59 93 134
59 94 139
59 93 139
60 94 142
58 92 127
60 95 140
59 93 131
60 94 140
58 92 131
59 93 134
60 93 135
56 90 120
59 93 134
58 91 129
59 94 137
58 90 120
59 92 126
58 91 124
59 92 131
59 92 129
59 92 137
57 89 118
58 91 130
57 88 120
56 88 119
58 90 130
58 90 128
57 89 119
56 87 122
55 86 116
56 88 113
56 87 119
57 88 118
54 85 115
56 87 131
55 84 112
54 83 107
55 85 120
53 82 106
55 84 112
54 82 108
53 82 118
53 81 101
53 80 100
53 79 101
50 76 97
49 75 97
50 77 102
50 77 99
52 78 103
48 72 88
48 72 91
47 71 87
48 73 96
47 71 89
46 69 90
46 63 79
75 78 39
75 76 37
101 101 42
104 104 49
108 107 32
106 106 37
115 114 39
117 115 45
124 121 47
124 121 38
125 122 39
124 122 38
132 129 42
129 128 26
131 128 32
128 125 31
132 129 42
142 138 43
149 146 40
141 137 26
122 115 16
95 80 7
84 68 7
99 82 8
95 79 5
96 78 7
97 80 10
99 80 7
90 70 6
94 77 6
88 72 12
99 84 7
101 82 9
102 83 8
95 74 6
97 80 14
97 76 6
105 83 8
97 77 11
104 87 8
111 89 15
107 88 9
100 82 9
99 80 7
105 86 11
112 93 6
100 83 9
100 82 7
103 88 7
100 82 10
95 78 9
102 83 3
108 88 12
119 100 10
107 86 12
104 84 9
107 88 11
98 81 10
108 90 17
110 92 12
103 87 14
101 81 8
111 91 9
105 90 14
104 83 8
99 78 6
101 84 11
110 91 17
102 84 3
103 85 10
105 85 9
96 76 11
101 83 3
104 84 9
106 87 11
101 83 7
102 84 11
104 87 9
110 90 19
102 83 8
95 76 7
100 82 10
106 85 7
99 78 6
103 85 5
106 85 9
105 84 8
103 85 10
97 77 9
102 81 12
108 87 15
102 81 7
100 81 3
100 83 9
99 78 9
102 80 10
97 77 7
102 86 5
106 84 8
98 77 7
103 82 12
98 78 5
99 80 6
98 79 12
99 79 9
97 78 13
100 83 6
100 81 8
99 79 13
96 75 10
102 83 11
94 74 15
98 77 16
99 82 11
97 78 14
89 70 16
100 81 13
89 69 8
85 69 12
97 78 12
103 84 10
86 68 10
88 69 13
96 75 11
90 72 17
84 64 9
86 65 9
91 74 10
77 61 3
87 70 13
96 78 16
90 67 6
84 66 14
85 64 8
89 69 14
84 68 7
83 69 17
81 63 9
85 68 15
80 60 11
73 57 18
105 97 32
136 132 34
126 122 32
131 128 32
120 116 28
145 157 11
172 194 0
168 192 0
168 189 0
170 193 0
172 194 0
171 192 0
168 191 0
170 192 0
171 194 0
173 195 0
169 191 0
169 192 0
168 189 0
171 193 0
171 193 0
168 190 0
167 190 0
173 195 0
171 193 0
168 189 0
171 194 0
173 195 0
170 192 0
169 192 0
170 193 0
170 193 0
173 196 0
173 196 0
172 196 0
171 194 0
171 194 0
169 192 0
167 191 0
171 194 0
171 194 0
170 193 0
172 194 0
171 195 0
171 194 0
172 195 0
172 194 0
169 192 0
170 194 0
168 191 0
171 194 0
169 192 0
171 194 0
169 192 0
171 193 0
171 194 0
169 192 0
169 192 0
170 194 0
168 191 0
169 192 0
169 192 0
171 193 0
168 191 0
171 193 0
170 193 0
171 193 0
171 195 0
169 193 0
168 190 0
170 192 0
169 192 0
168 190 0
168 191 0
169 192 0
167 190 0
169 191 0
169 191 0
170 192 0
169 192 0
167 190 0
169 191 0
169 191 0
167 190 0
167 189 0
168 191 0
166 189 0
169 191 0
167 189 0
168 190 0
166 188 0
168 191 0
167 189 0
171 193 0
165 188 0
165 187 0
165 188 0
167 189 0
167 190 0
167 189 0
164 187 0
167 190 0
167 189 0
165 188 0
167 189 0
166 188 0
164 186 0
166 188 0
164 186 0
165 188 0
165 187 0
166 187 0
166 188 0
166 188 0
167 189 0
167 189 0
165 186 0
164 186 0
164 186 0
165 186 0
165 187 0
164 186 22
155 175 39
143 163 32
149 168 0
146 166 0
146 166 0
144 164 0
149 168 0
148 168 0
146 165 0
147 167 0
148 167 0
147 167 0
147 166 0
148 168 0
149 169 0
147 166 0
144 164 0
148 167 0
149 168 0
148 167 0
144 164 0
149 169 0
150 170 0
138 156 0
102 119 0
107 125 0
96 111 0
110 125 0
104 120 0
103 119 0
97 113 0
98 114 0
102 117 0
104 120 0
101 117 0
102 118 0
110 127 0
94 110 0
93 109 0
90 104 0
99 114 0
89 103 0
95 110 0
94 109 0
92 106 0
95 110 0
101 116 0
86 100 0
87 101 0
105 120 0
91 104 0
88 102 0
92 106 0
71 93 82
56 89 108
57 91 122
59 93 130
56 89 100
57 91 114
57 90 117
59 93 126
58 92 117
59 93 125
59 92 126
59 93 117
59 94 130
58 92 129
60 95 134
58 93 123
60 95 135
59 94 133
58 93 125
60 95 139
58 93 126
60 94 129
59 93 135
59 94 130
60 94 136
59 93 121
59 93 133
60 94 130
58 92 126
59 94 136
59 92 127
59 92 132
59 92 131
59 93 137
58 90 128
58 92 128
58 91 121
60 95 140
58 91 120
59 92 137
60 94 142
59 92 132
59 92 132
57 90 124
58 91 127
59 91 133
59 92 137
59 92 124
56 88 122
57 90 130
58 91 126
57 87 115
56 87 120
59 91 131
57 89 124
56 87 119
56 87 123
57 88 121
55 86 116
57 88 126
55 85 118
57 89 126
54 82 103
56 87 115
57 87 121
55 84 112
55 85 120
53 82 105
55 84 109
55 82 103
54 81 109
52 79 98
50 76 95
51 77 99
51 78 105
48 74 91
48 74 92
51 76 95
50 75 94
48 73 100
48 71 92
48 72 88
46 70 84
41 61 69
73 75 37
72 75 36
96 96 36
111 111 40
121 119 43
105 104 37
122 120 34
123 120 41
125 123 35
112 111 33
133 130 36
140 136 38
130 128 26
133 130 36
140 137 31
138 134 31
140 136 33
140 135 39
143 139 44
142 138 32
148 144 30
132 130 30
105 91 14
92 73 9
91 72 8
101 82 6
99 79 7
101 79 13
108 88 11
93 74 7
104 85 13
101 86 9
102 84 9
102 86 9
101 85 14
100 82 14
100 81 8
98 79 10
94 75 3
105 86 10
99 83 11
95 77 8
98 79 13
102 80 12
103 85 6
103 85 10
100 80 8
99 81 11
111 93 10
102 82 7
103 85 10
97 76 6
104 84 8
108 88 10
107 90 6
95 80 13
103 82 8
96 74 9
108 90 13
107 88 6
114 97 10
104 86 10
107 88 13
101 83 8
109 90 15
104 85 9
104 86 9
104 87 4
97 80 11
110 90 8
111 91 16
99 81 8
101 79 10
100 80 8
104 83 6
109 91 14
104 85 11
97 78 7
103 82 7
101 82 7
95 72 6
104 84 6
102 83 8
106 87 10
99 80 10
106 86 15
101 85 8
106 84 10
100 83 9
105 85 9
101 81 7
95 75 4
106 83 13
104 84 7
107 91 19
104 86 6
104 85 6
101 80 11
104 82 13
99 78 8
99 78 10
96 73 8
100 77 7
104 85 14
108 88 11
92 75 8
105 87 16
97 76 10
98 80 8
86 67 10
97 75 7
92 71 10
95 76 9
94 76 12
95 75 3
90 72 6
94 78 9
91 72 6
91 73 10
99 79 13
96 75 5
83 69 7
91 71 6
89 71 10
80 62 3
91 72 15
94 76 19
85 64 9
90 69 13
86 70 11
90 71 17
87 70 7
80 63 10
83 64 9
85 64 13
81 64 15
89 74 15
71 53 10
78 59 5
80 60 10
111 103 20
133 128 32
135 131 39
133 128 32
130 126 37
116 113 30
153 169 16
168 190 0
169 191 0
172 193 0
169 191 0
169 191 0
171 192 0
171 193 0
169 191 0
170 192 0
169 191 0
169 191 0
170 191 0
170 192 0
173 195 0
169 192 0
172 194 0
170 193 0
169 190 0
173 195 0
172 193 0
171 193 0
173 196 0
170 192 0
172 193 0
170 193 0
170 194 0
169 192 0
170 194 0
172 196 0
170 194 0
172 195 0
170 194 0
170 193 0
169 193 0
171 194 0
172 195 0
172 195 0
171 193 0
172 195 0
171 194 0
171 194 0
169 191 0
169 193 0
171 193 0
170 193 0
171 195 0
171 194 0
170 193 0
167 190 0
168 192 0
168 191 0
168 192 0
170 194 0
171 195 0
168 190 0
170 192 0
167 190 0
170 192 0
169 192 0
168 191 0
174 196 0
170 193 0
170 193 0
170 193 0
166 190 0
169 192 0
172 194 0
169 192 0
168 191 0
170 192 0
166 189 0
167 190 0
168 191 0
167 189 0
166 189 0
168 190 0
169 191 0
166 189 0
170 192 0
168 189 0
171 193 0
167 190 0
167 190 0
168 191 0
169 192 0
169 192 0
165 188 0
165 187 0
167 190 0
166 189 0
169 192 0
168 191 0
167 189 0
165 187 0
165 187 0
166 189 0
166 189 0
165 187 0
166 188 0
166 189 0
165 188 0
167 189 0
165 188 0
161 183 0
166 188 0
165 188 0
164 185 0
162 185 0
165 186 0
166 188 0
163 185 0
164 186 0
162 184 0
163 185 0
165 187 0
165 188 0
163 185 0
163 184 51
149 168 45
148 168 0
146 166 0
146 166 0
147 167 0
147 167 0
146 166 0
150 170 0
147 167 0
144 164 0
147 167 0
144 165 0
142 161 0
148 169 0
146 167 0
152 171 0
149 169 0
145 165 0
146 167 0
146 166 0
148 168 0
140 160 0
103 120 0
109 124 0
118 135 0
100 116 0
106 122 0
111 128 0
102 118 0
103 119 0
99 114 0
97 112 0
110 126 0
85 100 0
100 116 0
94 109 0
104 118 0
90 104 0
108 124 0
100 116 0
92 106 0
92 108 0
96 112 0
95 109 0
94 109 0
98 113 0
94 109 0
100 114 0
99 113 0
93 106 0
88 102 0
88 101 32
64 94 107
57 90 111
59 93 122
57 91 107
57 91 120
58 92 117
57 90 125
56 90 114
60 95 133
58 92 114
60 94 134
59 93 133
57 91 115
59 94 134
58 92 125
58 92 121
59 93 128
59 93 134
58 92 124
59 93 121
59 92 137
59 93 126
58 92 120
59 94 129
58 92 134
60 95 142
58 92 129
58 91 124
60 94 133
58 92 121
60 94 132
57 90 122
59 92 133
59 93 129
59 93 127
59 92 135
57 91 122
59 93 132
58 91 126
58 91 130
57 90 119
58 92 126
59 93 128
57 90 123
58 92 134
58 90 123
58 91 126
60 93 136
58 91 136
56 87 119
58 91 126
57 89 123
57 89 127
55 85 110
55 87 114
58 89 123
56 88 116
56 87 110
55 83 106
55 86 118
57 89 122
55 83 110
54 82 107
57 88 121
55 84 114
52 80 112
55 85 119
54 82 113
53 81 106
54 82 110
53 80 104
53 80 109
50 77 98
51 77 103
47 71 97
47 71 93
49 73 99
47 70 92
47 70 80
43 65 75
47 69 90
45 68 74
48 69 84
71 74 37
75 79 40
93 93 39
105 104 38
102 102 37
112 110 45
112 110 44
117 116 37
119 117 37
122 120 30
126 124 32
129 127 29
137 134 36
135 132 48
134 132 26
135 132 40
131 128 37
136 134 34
139 136 35
147 143 37
146 141 43
146 142 37
143 140 16
129 122 27
94 76 4
89 66 7
89 73 2
91 71 11
102 82 2
95 76 7
91 73 6
99 83 8
106 91 10
90 71 9
100 82 10
110 93 9
94 73 5
104 88 8
102 83 13
94 78 4
99 77 10
101 80 10
104 88 14
101 84 10
102 84 11
101 85 14
105 86 9
105 87 10
105 84 8
107 87 9
109 91 9
105 87 8
101 80 4
106 86 8
105 85 6
98 81 11
106 87 9
103 81 9
99 81 10
103 85 6
107 90 2
104 84 8
107 88 13
114 92 11
104 85 12
112 93 8
104 81 5
111 88 10
103 85 5
107 89 9
110 90 6
104 86 6
108 84 8
98 79 8
102 85 11
94 73 10
100 82 8
101 83 15
102 82 6
101 81 14
112 93 4
97 78 13
99 81 9
94 72 6
105 87 10
96 74 8
104 85 8
100 81 7
99 82 13
91 72 7
94 75 8
108 89 19
99 80 13
99 81 11
102 84 14
102 86 8
102 82 15
96 78 8
106 86 6
95 76 9
108 88 12
108 89 8
100 80 14
99 82 12
103 86 8
103 87 8
107 86 15
103 85 9
90 69 7
97 77 9
99 77 9
95 78 11
101 79 11
98 77 13
100 80 16
87 68 11
91 73 9
93 73 9
95 76 15
86 67 8
90 70 10
92 72 13
97 77 13
90 73 16
80 65 9
89 69 7
85 67 10
89 68 10
76 58 8
86 67 15
88 67 11
85 66 8
85 65 10
74 56 2
75 56 15
72 55 13
75 58 17
85 68 9
78 63 13
114 107 17
133 130 30
131 127 25
127 123 28
132 127 37
122 116 37
119 116 25
167 187 0
168 190 0
172 194 0
169 190 0
173 195 0
170 190 0
170 192 0
171 194 0
171 192 0
166 189 0
170 191 0
169 191 0
167 191 0
169 190 0
173 195 0
167 189 0
170 193 0
172 195 0
169 191 0
166 189 0
170 193 0
172 194 0
172 194 0
169 192 0
170 192 0
169 192 0
170 193 0
172 194 0
172 195 0
172 196 0
171 195 0
173 195 0
172 195 0
170 194 0
172 195 0
169 192 0
171 194 0
171 193 0
173 196 0
171 194 0
170 193 0
170 193 0
172 195 0
171 194 0
167 191 0
170 193 0
172 195 0
170 194 0
171 194 0
172 194 0
168 192 0
166 190 0
169 192 0
167 190 0
170 193 0
171 193 0
169 191 0
169 192 0
169 193 0
169 192 0
167 190 0
169 192 0
167 190 0
166 188 0
170 193 0
167 190 0
167 190 0
168 191 0
165 188 0
167 190 0
166 189 0
166 188 0
169 192 0
168 191 0
166 189 0
167 188 0
167 190 0
168 192 0
167 189 0
167 189 0
169 191 0
168 190 0
168 190 0
166 188 0
167 190 0
167 190 0
167 189 0
167 189 0
165 187 0
169 191 0
170 192 0
167 190 0
167 189 0
164 187 0
165 188 0
165 187 0
167 189 0
167 189 0
166 188 0
165 188 0
169 191 0
166 188 0
164 186 0
162 184 0
165 187 0
170 191 0
167 188 0
162 185 0
163 186 0
164 186 0
167 188 0
164 186 0
163 186 0
165 187 0
166 187 0
164 186 0
164 185 0
163 184 0
166 188 0
166 187 22
150 169 32
146 166 0
143 162 0
147 166 0
149 169 0
148 167 0
148 168 0
145 164 0
147 167 0
148 168 0
146 165 0
146 166 0
147 167 0
146 166 0
149 168 0
147 167 0
146 166 0
145 165 0
151 169 0
146 166 0
140 160 0
112 128 0
106 122 0
111 129 0
102 119 0
90 106 0
112 130 0
106 122 0
98 114 0
99 115 0
110 127 0
100 116 0
102 119 0
98 113 0
95 111 0
94 109 0
90 105 0
103 119 0
96 111 0
91 105 0
102 117 0
95 110 0
90 105 0
100 113 0
88 102 0
88 103 0
109 123 0
98 114 0
95 110 22
106 120 56
104 118 45
91 112 60
55 87 111
56 89 100
57 90 111
57 90 114
57 90 108
57 90 110
56 89 115
58 92 115
58 93 117
58 92 124
58 92 122
56 89 108
59 93 130
59 94 129
59 93 129
60 94 140
59 93 125
59 93 125
58 93 122
56 89 115
60 94 136
59 93 135
58 91 127
60 94 135
57 90 117
59 93 139
59 94 136
60 95 139
59 94 132
58 91 126
58 92 113
59 93 131
59 93 132
59 93 131
58 91 126
60 94 138
57 90 121
59 93 133
58 90 124
58 91 124
59 93 139
57 90 119
57 90 118
56 88 119
58 92 126
58 91 126
59 92 130
57 89 118
58 91 125
58 90 126
57 89 125
57 90 124
58 91 135
57 89 114
56 87 117
56 86 116
56 86 119
54 84 99
56 85 113
55 85 109
56 86 113
54 83 107
56 84 114
55 84 100
54 82 111
55 84 109
53 81 96
53 81 97
50 75 93
51 78 91
52 79 104
50 77 98
53 80 100
51 77 94
49 74 89
50 75 101
46 69 83
47 70 87
44 66 84
47 71 95
45 68 87
56 73 80
73 74 37
76 80 42
93 93 39
94 94 31
114 113 43
116 115 42
111 110 33
123 121 42
121 120 39
128 126 41
133 129 37
130 126 42
135 132 42
131 129 32
132 128 37
140 137 33
135 131 31
146 142 39
142 139 42
143 140 37
139 136 32
147 144 25
146 141 30
138 135 33
137 131 29
116 104 20
85 70 7
90 76 8
99 79 11
99 81 8
105 86 12
88 70 5
101 84 11
101 83 7
99 80 5
94 72 8
99 84 5
96 77 5
97 77 6
100 79 6
94 79 6
103 85 4
100 80 9
108 90 10
102 85 9
105 89 4
102 84 14
104 83 10
108 86 7
99 80 9
113 94 6
106 88 11
107 85 10
103 85 12
105 86 10
102 81 10
105 86 11
109 92 14
101 81 7
112 95 5
105 83 3
104 83 9
109 89 13
105 84 14
100 83 11
108 88 9
106 89 8
105 84 7
98 81 2
104 84 7
100 81 4
105 88 5
117 100 8
108 89 12
104 82 8
101 87 3
114 95 9
97 80 7
109 92 10
105 86 10
104 83 8
102 84 4
103 84 11
109 91 10
91 76 3
96 75 3
110 91 12
103 90 8
98 80 11
107 88 4
106 85 7
106 87 10
97 80 5
104 86 8
98 76 9
101 85 10
107 86 4
106 88 15
104 83 10
103 83 12
102 83 14
97 78 8
96 76 10
103 87 13
99 80 11
96 81 14
96 77 6
99 80 16
97 78 14
93 74 12
98 79 12
97 76 10
97 75 9
101 84 13
95 75 7
91 71 14
102 79 12
94 73 10
94 75 5
96 78 10
93 76 17
92 76 14
92 71 10
89 71 10
100 79 10
83 67 15
88 69 8
89 69 15
85 66 3
88 69 9
89 68 15
80 66 15
80 62 11
86 65 13
83 66 11
86 66 15
73 58 7
88 72 9
125 120 22
145 139 48
125 121 19
120 116 19
126 122 28
122 119 25
128 124 32
125 126 16
170 192 0
170 192 0
167 188 0
166 188 0
169 190 0
168 190 0
168 189 0
169 189 0
170 191 0
170 193 0
171 194 0
169 192 0
168 190 0
171 193 0
166 189 0
170 192 0
169 191 0
170 192 0
173 196 0
174 196 0
173 195 0
171 194 0
171 194 0
171 194 0
168 190 0
170 194 0
173 196 0
173 196 0
172 194 0
171 194 0
173 196 0
171 193 0
172 195 0
170 194 0
169 192 0
171 194 0
168 191 0
169 193 0
173 196 0
171 194 0
169 192 0
170 192 0
169 192 0
170 194 0
171 195 0
171 194 0
171 194 0
173 195 0
169 192 0
168 192 0
171 195 0
169 193 0
171 194 0
171 193 0
170 193 0
170 193 0
169 192 0
170 194 0
168 191 0
172 194 0
168 191 0
169 192 0
167 191 0
165 187 0
167 190 0
168 191 0
169 192 0
170 193 0
168 190 0
169 191 0
170 193 0
168 191 0
169 191 0
170 192 0
169 192 0
167 189 0
168 191 0
167 190 0
167 190 0
168 190 0
168 190 0
168 191 0
168 190 0
167 189 0
168 191 0
167 189 0
167 190 0
168 190 0
169 191 0
167 189 0
165 187 0
163 187 0
167 189 0
166 188 0
165 186 0
167 190 0
165 188 0
169 191 0
165 188 0
167 189 0
166 189 0
170 192 0
164 186 0
166 188 0
163 186 0
165 187 0
163 186 0
166 188 0
165 186 0
164 187 0
163 185 0
161 183 0
167 189 0
167 189 0
162 184 0
166 188 0
163 185 0
164 185 0
167 189 0
166 187 0
163 185 0
156 176 51
151 169 39
144 164 0
149 168 0
148 168 0
150 170 0
146 165 0
144 163 0
146 166 0
149 169 0
147 166 0
148 169 0
148 168 0
146 167 0
148 168 0
145 165 0
145 165 0
147 167 0
146 166 0
145 165 0
110 126 0
98 114 0
109 125 0
116 133 0
100 115 0
111 128 0
107 123 0
94 111 0
102 119 0
96 111 0
105 122 0
103 120 0
100 116 0
97 113 0
91 107 0
101 117 0
105 121 0
108 123 0
91 106 0
97 112 0
97 113 0
92 107 0
100 114 0
88 103 0
90 104 0
88 102 0
97 110 45
102 116 51
93 109 0
100 116 0
104 120 0
65 91 79
57 90 108
56 89 99
58 92 124
58 92 120
59 93 122
58 92 120
58 91 115
58 92 131
57 91 115
60 94 129
59 93 124
58 91 117
58 92 120
60 94 138
58 91 120
59 93 130
58 92 122
59 93 126
59 93 132
59 93 129
58 93 131
60 94 139
58 92 135
59 92 126
59 93 138
58 92 127
59 93 133
59 94 136
58 92 133
59 92 129
58 92 126
58 92 140
60 95 138
58 93 129
58 91 119
59 93 133
58 91 118
57 89 113
58 91 124
58 91 128
59 92 137
58 91 126
58 90 123
57 89 125
58 91 129
58 91 126
57 90 120
58 90 126
58 91 134
56 86 114
57 88 124
57 89 127
56 87 122
57 88 124
56 86 112
56 87 121
56 86 121
55 85 107
56 87 123
53 81 110
55 84 113
57 88 117
56 86 117
53 82 113
54 82 110
55 85 116
54 82 110
53 81 109
51 77 95
53 80 103
49 75 97
50 76 98
50 77 107
49 75 99
47 71 86
51 76 96
46 70 85
48 73 101
46 69 86
45 66 79
45 62 61
85 88 33
77 79 34
95 97 37
103 103 38
96 97 34
109 108 39
114 112 37
107 107 46
117 117 36
121 119 29
126 123 38
133 130 41
132 130 34
139 135 37
134 130 37
130 127 33
129 127 34
140 136 39
137 133 32
145 141 36
149 145 43
147 143 30
141 138 33
149 147 33
144 140 41
149 146 36
133 126 30
110 97 17
97 76 13
93 76 7
97 80 7
108 91 16
97 79 12
94 77 6
104 88 10
108 93 7
102 84 4
101 86 6
105 88 13
97 80 9
101 85 10
109 91 11
94 76 11
107 90 9
99 79 8
94 74 13
103 85 3
97 77 7
109 91 10
104 90 11
103 84 9
109 92 6
107 90 11
105 87 7
105 87 12
101 81 10
107 88 10
99 82 11
107 88 13
106 88 5
105 84 3
105 86 9
112 95 5
107 87 9
102 84 15
106 90 9
101 82 10
102 81 14
102 83 9
108 90 10
102 86 6
106 87 10
106 87 3
110 90 10
105 84 7
104 84 3
102 82 13
103 80 8
102 81 8
109 89 10
106 86 16
106 89 11
100 83 12
112 96 14
99 81 13
106 85 6
108 89 10
105 88 11
107 87 9
99 79 8
104 82 9
102 84 11
97 77 9
103 83 10
102 85 10
97 76 15
116 96 19
106 86 9
96 80 6
103 84 14
104 85 13
99 79 14
103 84 8
101 82 8
94 74 4
95 73 10
94 75 8
97 79 7
104 86 7
98 81 11
101 81 11
97 78 12
98 79 11
96 77 14
94 76 8
91 73 3
97 76 9
91 71 3
95 71 10
99 81 13
94 73 8
92 74 7
93 73 7
82 66 8
89 69 8
83 64 14
92 73 8
93 75 4
94 75 8
80 59 6
88 71 10
94 77 13
85 66 8
78 60 8
87 68 7
74 58 8
95 84 16
130 124 33
140 135 37
140 135 34
137 133 32
127 122 28
127 122 30
124 120 36
113 110 22
130 138 28
168 190 0
170 192 0
168 189 0
169 191 0
172 195 0
172 192 0
171 194 0
169 191 0
171 193 0
171 192 0
168 191 0
170 190 0
173 195 0
171 193 0
168 189 0
168 191 0
168 191 0
171 194 0
169 191 0
171 192 0
169 192 0
170 192 0
172 193 0
167 190 0
171 193 0
171 195 0
171 195 0
171 194 0
171 194 0
170 194 0
171 194 0
170 193 0
171 194 0
169 192 0
171 195 0
170 193 0
169 193 0
172 195 0
171 195 0
172 195 0
170 193 0
171 194 0
167 190 0
170 194 0
169 191 0
169 192 0
166 189 0
167 191 0
170 193 0
171 193 0
168 191 0
168 191 0
171 194 0
171 194 0
168 192 0
170 193 0
170 193 0
169 192 0
169 192 0
169 192 0
168 191 0
171 194 0
171 195 0
170 192 0
170 193 0
168 191 0
167 190 0
168 191 0
168 191 0
167 190 0
167 190 0
168 191 0
170 192 0
166 189 0
166 189 0
167 189 0
168 190 0
168 191 0
167 191 0
169 192 0
166 189 0
167 191 0
168 191 0
168 191 0
169 192 0
166 189 0
164 187 0
163 186 0
166 189 0
166 189 0
168 191 0
168 190 0
163 187 0
163 186 0
167 190 0
166 189 0
167 189 0
165 188 0
168 190 0
166 187 0
166 188 0
167 190 0
166 188 0
163 186 0
168 190 0
168 190 0
165 187 0
164 186 0
165 188 0
165 187 0
165 187 0
166 189 0
163 185 0
165 188 0
162 184 0
163 185 0
164 186 0
163 185 0
166 187 0
168 189 0
165 187 0
163 186 0
160 181 32
152 170 39
147 167 0
147 167 0
143 164 0
148 167 0
145 165 0
147 166 0
149 168 0
147 166 0
145 165 0
146 167 0
145 164 0
148 167 0
148 167 0
150 169 0
141 161 0
147 167 0
146 165 0
113 130 0
108 125 0
114 132 0
114 131 0
107 122 0
112 129 0
103 120 0
100 117 0
108 125 0
108 124 0
92 108 0
105 122 0
112 129 0
100 116 0
108 125 0
107 124 0
100 117 0
101 116 0
95 111 0
91 107 0
101 116 0
89 104 0
90 105 0
91 106 0
94 107 32
110 124 51
107 124 22
95 109 0
105 120 0
115 132 0
113 129 0
99 115 25
56 86 103
55 88 110
57 90 103
56 89 102
57 91 117
57 90 120
59 93 128
59 93 125
59 93 124
59 93 128
59 93 124
58 92 126
58 92 115
58 92 117
58 92 120
58 91 117
58 91 121
58 92 126
59 93 124
58 92 124
60 95 136
57 91 123
58 92 129
59 93 134
59 93 133
60 94 126
59 94 134
58 92 123
59 93 131
59 93 128
58 92 134
58 91 126
58 91 130
58 92 130
58 91 123
57 90 122
57 91 135
58 91 117
59 92 128
58 91 117
58 90 132
58 90 131
59 92 131
57 88 119
56 88 112
57 89 117
58 90 123
58 91 125
57 89 130
58 91 125
56 88 119
58 91 130
57 89 126
56 87 114
57 87 122
56 87 116
56 86 113
55 85 109
55 85 121
55 85 114
53 82 104
53 82 105
52 80 101
54 83 106
54 83 116
54 81 105
53 82 102
52 80 107
55 84 115
50 77 92
50 74 80
50 75 95
48 73 91
50 76 101
49 73 93
47 70 85
43 66 84
45 68 74
44 66 75
42 64 74
48 65 62
63 67 33
75 78 43
94 95 39
98 99 39
105 105 41
111 110 43
120 119 36
126 124 36
114 114 39
120 119 31
120 119 35
129 127 39
132 130 31
135 132 48
137 134 39
135 132 25
137 133 32
144 140 40
137 134 37
143 140 29
137 134 34
146 142 39
146 143 26
150 146 39
145 140 32
148 144 41
144 140 28
146 144 25
142 132 34
108 91 15
98 80 7
100 81 7
101 84 12
100 82 9
101 83 8
99 81 10
97 79 15
106 85 7
102 81 11
102 85 8
94 76 7
99 82 5
106 88 16
102 84 8
99 78 4
106 90 9
102 83 8
114 96 9
99 80 9
95 77 8
104 85 7
106 85 10
106 87 11
105 85 10
108 90 9
98 78 9
108 91 6
102 87 6
111 91 8
102 81 15
104 86 6
108 88 6
109 90 11
106 88 10
108 89 7
104 86 7
108 90 8
102 86 7
105 84 8
109 91 10
101 83 8
102 84 9
103 84 9
110 95 5
103 84 11
115 97 6
111 92 13
106 85 8
106 83 6
104 87 9
104 88 9
105 85 10
109 89 13
100 85 14
101 87 8
105 87 10
104 85 6
104 87 8
106 86 9
107 87 11
104 87 8
111 90 9
104 86 14
97 78 6
102 84 11
103 86 6
100 79 13
101 81 8
99 81 5
108 89 9
99 83 8
96 80 7
102 86 7
99 82 9
97 75 12
95 74 10
105 88 10
94 75 9
98 81 15
104 84 11
95 74 9
91 75 1
101 83 11
98 80 12
95 78 12
87 70 8
107 85 12
98 80 15
83 64 8
96 79 16
92 74 12
95 78 14
84 66 11
94 77 10
88 72 8
82 64 6
87 70 15
82 63 7
91 70 8
82 62 6
97 78 9
85 68 8
85 63 13
88 74 7
72 55 6
109 97 23
140 136 28
139 135 36
138 134 36
134 129 28
133 130 34
124 121 30
126 122 34
137 132 37
119 116 25
143 155 19
171 194 0
168 189 0
166 188 0
169 190 0
168 191 0
171 193 0
169 192 0
170 191 0
170 193 0
170 191 0
169 192 0
168 189 0
169 191 0
165 186 0
168 190 0
169 191 0
171 194 0
170 191 0
173 194 0
169 190 0
169 190 0
171 193 0
171 194 0
169 191 0
171 194 0
171 195 0
169 193 0
171 195 0
170 193 0
170 193 0
170 194 0
170 193 0
171 194 0
169 193 0
173 196 0
170 193 0
170 194 0
170 193 0
171 194 0
170 193 0
171 193 0
170 192 0
171 194 0
174 196 0
170 194 0
169 192 0
171 194 0
170 193 0
171 194 0
172 194 0
169 193 0
170 193 0
171 193 0
170 193 0
171 195 0
167 191 0
168 191 0
170 193 0
169 191 0
168 191 0
170 192 0
171 193 0
169 192 0
168 190 0
167 190 0
169 192 0
170 192 0
172 194 0
168 191 0
168 190 0
168 191 0
170 193 0
168 191 0
170 192 0
167 190 0
168 191 0
169 192 0
169 192 0
166 189 0
169 191 0
166 188 0
167 190 0
167 189 0
165 188 0
169 191 0
168 191 0
165 188 0
167 190 0
167 189 0
165 186 0
163 186 0
166 189 0
169 191 0
165 187 0
164 187 0
165 187 0
166 189 0
165 188 0
167 190 0
167 189 0
167 189 0
164 186 0
168 191 0
168 190 0
165 187 0
165 186 0
165 187 0
164 186 0
163 186 0
166 188 0
165 187 0
166 188 0
165 188 0
163 185 0
164 186 0
162 184 0
163 185 0
163 186 0
164 186 0
167 189 0
165 186 0
162 184 0
164 185 0
163 185 22
156 174 60
146 165 0
147 166 0
146 165 0
145 165 0
143 163 0
145 164 0
141 161 0
151 171 0
148 168 0
146 165 0
147 166 0
149 169 0
145 165 0
150 169 0
148 168 0
145 166 0
118 136 0
111 128 0
105 123 0
90 106 0
111 128 0
102 120 0
108 124 0
108 126 0
103 120 0
101 118 0
96 112 0
95 110 0
107 123 0
105 120 0
96 112 0
112 128 0
104 120 0
98 114 0
98 114 0
95 112 0
97 113 0
100 115 0
95 112 0
112 126 56
104 121 22
99 115 0
107 123 0
99 116 0
102 118 0
113 129 0
100 116 0
90 106 0
86 107 67
55 87 104
58 91 123
57 91 115
56 89 111
57 91 113
57 90 108
55 89 97
59 93 126
57 91 111
58 92 115
56 89 107
59 94 128
59 93 134
59 94 125
58 92 120
58 92 124
59 93 126
58 92 118
59 93 130
58 92 128
60 95 145
58 92 123
59 93 125
58 91 120
57 90 111
59 93 129
58 92 124
59 93 126
58 91 128
59 93 137
58 92 124
59 92 126
59 93 136
58 92 122
58 92 121
60 93 130
58 91 124
58 90 128
57 90 116
58 90 135
58 91 123
58 90 125
57 91 130
57 89 114
58 91 126
58 90 123
58 91 131
56 87 113
57 89 131
55 85 111
58 89 120
56 87 114
56 86 115
56 86 121
56 87 115
55 85 108
55 85 109
57 87 121
55 84 106
54 83 109
55 84 103
55 84 105
52 80 103
53 81 102
54 82 101
54 83 100
53 80 103
52 78 99
50 75 87
48 70 80
50 76 94
52 77 101
53 81 101
45 67 78
44 66 77
48 72 89
45 67 80
46 68 78
40 60 54
46 63 61
72 73 36
76 78 34
92 93 40
94 94 42
105 104 37
101 100 36
112 111 34
125 123 37
123 120 32
128 125 37
122 120 39
130 128 32
134 130 45
129 127 28
132 129 32
140 137 34
135 132 31
142 139 43
141 138 35
136 133 36
142 139 31
144 141 32
145 141 32
145 141 37
150 146 44
140 136 22
149 146 44
146 143 34
149 145 32
148 143 39
125 115 30
106 89 18
97 80 8
98 80 4
99 78 9
105 88 8
93 77 8
98 76 9
98 77 6
104 88 9
101 84 11
107 87 9
102 83 9
108 88 9
108 92 5
108 89 9
105 88 13
106 88 9
102 84 5
101 85 7
102 82 10
101 83 7
106 86 8
109 90 8
99 79 3
103 84 8
105 84 10
105 88 2
96 77 5
111 94 6
104 85 8
103 84 6
102 82 10
100 80 7
107 91 5
107 92 10
104 85 8
100 86 7
102 83 8
108 88 7
108 88 7
109 90 10
101 82 11
109 89 9
110 93 13
107 88 11
104 83 11
99 80 2
106 86 11
105 84 10
102 85 8
113 94 10
101 86 9
105 86 8
103 85 7
101 81 9
107 87 13
97 78 9
108 90 10
103 86 8
100 82 9
110 87 12
99 80 13
108 93 8
96 76 6
99 79 18
105 84 9
101 83 6
101 80 8
103 82 11
92 73 7
108 90 11
99 81 4
93 75 8
98 79 8
96 78 11
98 78 6
89 69 9
106 89 11
95 80 7
99 78 7
97 78 14
92 72 4
91 72 10
96 78 9
98 79 15
95 75 11
90 68 10
106 86 11
91 73 9
102 82 9
93 72 11
93 71 6
89 71 13
97 77 10
95 75 8
90 71 12
86 68 14
81 61 9
86 66 11
79 62 15
86 70 7
81 63 9
93 78 13
130 126 28
137 133 37
139 134 37
140 136 34
136 131 36
142 139 30
136 132 32
136 131 39
127 124 22
128 125 34
120 117 30
158 173 16
170 191 0
166 186 0
168 190 0
169 191 0
169 192 0
171 193 0
167 188 0
174 196 0
171 194 0
169 193 0
169 190 0
169 192 0
170 192 0
170 192 0
166 189 0
164 187 0
170 192 0
170 191 0
172 193 0
168 191 0
169 192 0
168 189 0
170 192 0
171 193 0
172 195 0
172 196 0
170 194 0
172 195 0
173 196 0
172 196 0
173 195 0
170 193 0
171 195 0
171 194 0
172 194 0
168 191 0
172 194 0
168 192 0
171 194 0
167 191 0
171 193 0
171 194 0
169 192 0
171 194 0
173 195 0
169 192 0
172 195 0
172 194 0
169 193 0
170 192 0
171 194 0
169 192 0
168 191 0
171 194 0
170 194 0
171 194 0
168 191 0
170 192 0
168 191 0
168 191 0
170 193 0
170 192 0
168 191 0
169 191 0
171 194 0
168 191 0
169 190 0
169 192 0
168 191 0
167 190 0
168 191 0
167 190 0
170 192 0
168 190 0
170 192 0
169 191 0
168 190 0
170 193 0
167 190 0
169 191 0
167 190 0
165 188 0
167 189 0
170 192 0
168 189 0
166 190 0
166 189 0
165 187 0
168 191 0
169 191 0
167 189 0
164 187 0
166 189 0
165 186 0
165 188 0
167 189 0
169 191 0
168 190 0
166 188 0
167 190 0
166 187 0
168 190 0
166 188 0
164 185 0
165 187 0
164 187 0
168 190 0
165 188 0
166 188 0
166 188 0
166 189 0
164 186 0
164 187 0
166 189 0
164 187 0
165 186 0
164 186 0
163 186 0
164 186 0
165 186 0
163 185 0
161 184 0
163 186 0
163 184 0
164 185 0
162 182 51
153 172 45
144 163 0
145 165 0
146 166 0
146 166 0
148 168 0
146 166 0
145 165 0
145 164 0
147 167 0
144 164 0
150 169 0
149 169 0
146 166 0
143 163 0
122 140 0
110 127 0
108 125 0
114 131 0
109 125 0
113 130 0
99 115 0
117 134 0
100 115 0
108 123 0
98 115 0
100 115 0
98 113 0
106 122 0
100 116 0
98 114 0
102 118 0
97 112 0
95 110 0
101 116 0
99 114 22
100 117 32
107 122 39
113 129 0
109 126 0
108 125 0
105 122 0
97 113 0
112 128 0
101 118 0
96 112 0
107 123 0
94 109 0
71 95 76
56 88 105
57 90 115
57 90 111
57 91 110
57 90 111
57 90 111
57 90 120
59 93 125
56 90 111
56 90 110
58 91 118
58 92 123
56 89 120
58 91 114
58 91 114
60 94 130
58 91 123
57 90 117
58 91 118
58 92 132
59 93 124
59 93 126
59 93 130
58 92 113
58 92 118
58 91 125
59 93 131
58 92 122
58 91 127
57 89 109
57 90 116
58 91 122
58 91 129
58 91 127
59 92 123
58 91 121
57 90 117
58 90 121
58 91 128
57 89 122
56 88 117
57 89 121
57 89 121
56 88 114
56 88 114
57 89 117
56 87 110
58 91 133
56 88 115
57 89 123
57 88 120
58 89 112
56 88 117
56 86 114
54 82 105
56 86 115
56 86 113
55 83 104
54 83 105
56 85 112
52 79 94
55 84 110
53 81 112
54 82 108
54 83 102
51 78 93
50 76 94
53 81 105
50 74 89
47 70 85
51 77 95
49 75 90
45 67 73
46 69 80
47 70 87
42 63 76
44 65 77
43 64 78
47 59 57
79 80 37
85 89 37
94 95 32
109 106 28
104 103 35
112 112 39
103 102 45
125 122 42
125 122 37
122 120 42
124 122 39
121 119 28
134 131 39
130 127 32
134 131 28
143 139 42
137 135 28
142 138 37
142 138 34
142 139 26
146 142 30
144 140 28
143 138 36
151 146 40
152 147 39
151 147 37
148 145 28
143 140 32
153 149 42
155 150 34
150 145 32
142 138 34
127 118 25
112 99 17
101 86 6
99 80 9
99 80 11
97 79 6
106 88 6
97 79 9
99 80 7
100 84 4
100 82 10
102 84 6
113 95 10
99 80 5
107 88 11
109 90 9
107 90 9
101 80 13
107 88 4
97 78 10
101 83 8
101 84 8
100 85 7
100 81 8
100 83 2
112 95 9
103 86 11
107 89 9
104 84 11
95 79 5
108 90 13
100 81 9
102 84 7
102 86 3
99 81 6
105 89 10
112 94 8
101 81 11
108 90 5
111 95 7
105 88 7
111 94 7
109 91 8
108 90 10
100 82 4
108 87 8
106 91 9
101 83 6
96 78 7
97 78 6
107 86 9
104 85 8
99 82 7
109 91 15
102 86 6
98 78 6
106 86 16
103 86 10
106 86 11
111 94 11
103 84 5
98 81 4
108 89 11
102 84 11
100 83 6
92 71 7
96 78 7
102 87 13
100 79 10
105 87 14
103 87 9
105 84 12
95 76 8
91 73 5
97 80 8
99 78 10
102 87 10
98 77 8
99 76 7
106 87 10
94 78 8
96 74 9
86 68 7
93 74 9
95 77 3
100 82 7
90 71 12
88 68 5
96 76 9
89 70 6
83 68 3
93 75 17
88 68 7
82 66 4
96 76 11
87 71 15
94 71 15
83 65 6
92 73 10
79 59 10
116 107 28
138 133 41
129 126 30
140 136 25
135 132 28
140 136 34
134 129 32
126 124 11
136 132 36
131 128 32
135 131 32
126 122 25
112 109 25
162 181 11
167 190 0
171 193 0
170 194 0
168 189 0
171 193 0
172 193 0
168 190 0
171 193 0
167 191 0
168 190 0
163 186 0
170 194 0
168 189 0
169 189 0
169 190 0
168 191 0
172 194 0
169 192 0
168 192 0
168 191 0
168 191 0
168 190 0
170 192 0
171 193 0
169 192 0
171 195 0
172 195 0
170 193 0
171 194 0
172 194 0
172 194 0
171 194 0
172 195 0
169 192 0
172 195 0
171 194 0
170 194 0
172 194 0
171 194 0
170 193 0
171 193 0
171 193 0
171 194 0
172 195 0
170 193 0
171 194 0
171 194 0
170 193 0
172 196 0
170 193 0
166 190 0
170 193 0
171 194 0
171 194 0
170 194 0
171 193 0
171 192 0
169 192 0
169 192 0
166 189 0
170 194 0
169 192 0
166 190 0
168 191 0
169 192 0
169 192 0
168 190 0
168 190 0
166 189 0
167 191 0
167 189 0
169 191 0
169 192 0
168 191 0
169 192 0
165 188 0
168 190 0
170 193 0
168 191 0
168 191 0
167 190 0
163 186 0
168 190 0
165 188 0
168 191 0
168 191 0
165 188 0
166 188 0
166 189 0
166 189 0
166 188 0
168 190 0
169 189 0
165 187 0
168 191 0
165 188 0
164 187 0
166 188 0
170 192 0
166 188 0
166 188 0
164 188 0
167 190 0
168 189 0
166 188 0
162 185 0
166 189 0
164 187 0
164 187 0
167 190 0
162 186 0
166 189 0
163 185 0
164 185 0
163 186 0
166 189 0
167 189 0
163 186 0
168 190 0
165 187 0
162 184 0
165 187 0
166 187 0
166 188 0
167 189 0
164 186 0
160 181 0
149 168 51
143 163 0
146 166 0
144 162 0
145 165 0
146 166 0
148 168 0
145 165 0
149 168 0
147 167 0
147 166 0
145 164 0
144 163 0
149 169 0
123 140 0
111 130 0
106 122 0
113 131 0
114 131 0
113 131 0
108 124 0
98 115 0
104 121 0
110 127 0
112 128 0
103 120 0
107 124 0
105 122 0
108 124 0
106 121 0
101 116 0
97 113 0
100 116 0
108 121 51
113 129 32
120 139 0
116 134 0
105 123 0
109 126 0
118 136 0
108 125 0
111 128 0
109 126 0
111 127 0
99 115 0
112 129 0
110 127 0
103 119 25
59 90 92
55 88 97
55 87 105
56 89 111
59 92 120
58 91 114
56 89 107
57 91 111
57 91 118
57 90 118
59 92 120
57 91 125
59 93 123
58 92 118
58 92 123
57 91 115
57 90 117
58 92 124
60 95 140
59 93 134
59 93 131
60 94 128
58 91 124
57 90 117
60 94 129
59 93 129
56 89 119
59 93 129
58 91 123
57 89 113
57 90 115
58 91 123
60 95 131
58 92 126
58 91 130
57 88 117
59 92 126
59 93 132
59 92 129
56 88 113
57 90 126
58 91 129
56 88 126
56 88 110
57 89 123
58 90 131
58 90 124
58 89 116
55 85 111
56 87 115
57 88 113
57 89 117
55 86 104
55 85 112
55 84 117
57 87 123
56 85 108
53 83 113
56 87 109
55 84 111
55 84 114
54 82 109
52 80 98
53 80 98
54 81 100
49 75 82
53 81 106
50 75 92
50 77 91
47 72 99
49 74 88
48 72 91
44 66 79
46 68 65
45 68 90
46 69 87
47 72 89
41 62 66
58 69 55
77 79 34
79 80 26
92 93 39
107 106 30
109 107 38
100 100 35
120 120 45
118 117 32
126 123 41
113 112 35
127 123 40
131 128 37
123 120 28
123 121 32
140 135 42
137 135 32
138 135 28
142 138 38
143 139 33
146 142 37
145 141 35
157 153 43
144 141 28
146 142 45
139 136 34
147 143 32
149 145 37
143 140 28
147 144 32
149 145 19
153 149 36
146 143 30
151 147 34
154 150 36
138 130 38
110 98 12
103 85 10
103 88 5
100 80 13
107 85 11
106 86 11
98 80 7
105 84 4
98 81 9
94 80 5
97 76 4
105 87 10
104 90 2
109 91 9
108 92 9
100 81 5
105 89 4
99 78 6
103 86 10
104 87 7
105 86 12
110 93 8
107 86 10
99 80 6
112 94 9
111 94 3
99 80 2
109 91 9
107 90 9
104 84 2
104 89 6
106 87 6
106 89 6
101 85 10
105 88 6
103 83 8
100 80 10
107 88 9
109 92 6
100 82 8
104 83 11
106 88 7
98 80 7
114 96 8
101 80 9
108 91 7
103 84 13
98 77 8
101 82 8
105 83 3
101 82 3
109 89 12
110 91 8
106 86 9
111 92 13
105 83 10
96 78 6
108 87 8
99 82 6
105 88 9
111 90 6
101 82 11
107 90 9
102 81 2
101 81 7
98 78 6
99 81 10
99 80 10
106 88 10
104 85 7
100 81 8
95 79 13
97 76 10
101 81 6
90 67 2
106 90 10
99 80 3
103 84 15
97 78 9
96 74 14
100 78 7
94 74 10
87 70 9
100 80 9
84 63 12
93 75 11
93 75 11
93 74 6
88 73 9
93 73 11
90 71 8
89 69 6
90 73 6
85 69 8
93 74 3
104 92 21
140 135 32
146 142 34
136 133 28
143 139 30
140 136 28
138 134 37
136 132 25
142 138 32
135 131 28
128 124 30
125 122 22
133 130 30
133 130 30
122 120 32
169 191 0
167 189 0
171 193 0
168 190 0
169 190 0
169 191 0
164 186 0
171 193 0
168 191 0
168 189 0
170 193 0
170 193 0
170 193 0
169 190 0
170 191 0
169 191 0
171 193 0
173 195 0
170 193 0
169 192 0
170 193 0
170 193 0
167 191 0
170 191 0
169 192 0
170 191 0
172 194 0
172 195 0
171 194 0
169 191 0
169 192 0
171 194 0
172 195 0
172 195 0
172 195 0
172 195 0
170 193 0
170 194 0
173 196 0
171 194 0
171 194 0
168 192 0
172 195 0
171 194 0
171 195 0
169 193 0
171 193 0
173 195 0
168 192 0
171 194 0
170 193 0
169 192 0
170 193 0
170 193 0
167 191 0
170 192 0
169 192 0
170 193 0
171 194 0
169 193 0
168 191 0
169 193 0
170 192 0
168 190 0
170 192 0
169 192 0
171 193 0
169 192 0
173 195 0
172 194 0
169 192 0
169 192 0
169 192 0
169 192 0
167 190 0
168 190 0
169 192 0
167 190 0
168 191 0
168 190 0
167 190 0
166 189 0
166 190 0
165 187 0
169 191 0
169 191 0
166 188 0
167 189 0
165 188 0
166 188 0
167 189 0
165 188 0
164 187 0
166 189 0
168 190 0
168 190 0
168 190 0
167 190 0
166 189 0
165 188 0
166 188 0
168 190 0
164 187 0
164 187 0
166 188 0
166 189 0
167 189 0
165 189 0
165 188 0
166 188 0
166 189 0
163 186 0
166 188 0
161 183 0
167 189 0
166 188 0
165 187 0
163 186 0
164 187 0
163 185 0
165 188 0
162 184 0
160 182 0
166 188 0
159 181 0
161 183 0
163 186 0
167 188 0
165 186 0
157 176 45
147 166 39
148 167 0
145 164 0
147 166 0
147 167 0
142 162 0
144 164 0
147 166 0
144 163 0
148 168 0
144 164 0
148 168 0
133 151 0
113 132 0
111 129 0
114 131 0
104 122 0
102 119 0
105 122 0
107 124 0
112 128 0
100 116 0
114 131 0
112 129 0
107 124 0
93 110 0
112 128 0
105 121 0
98 114 0
94 109 32
109 124 45
111 127 39
105 123 0
109 125 0
105 121 0
117 135 0
103 120 0
97 114 0
108 124 0
101 118 0
112 129 0
107 124 0
97 114 0
110 127 0
119 136 0
102 118 0
99 119 44
56 88 91
57 90 113
57 89 113
58 92 117
56 89 111
56 89 107
57 90 105
57 91 114
59 93 124
57 91 117
57 90 121
57 91 113
58 92 118
57 91 118
58 91 135
58 92 118
57 91 114
57 90 113
59 93 124
59 93 131
58 92 123
56 89 114
58 91 119
57 90 121
58 91 128
57 89 117
57 90 124
58 91 125
58 93 128
59 93 133
58 92 121
58 92 129
59 94 126
58 92 122
58 91 124
59 92 125
60 93 138
57 89 116
57 89 117
57 88 113
57 89 122
57 90 125
59 92 123
57 89 111
55 86 114
57 88 121
57 88 120
56 88 117
56 87 122
56 87 112
57 88 111
55 85 106
55 86 112
53 82 99
54 82 97
55 85 110
56 86 123
53 82 99
54 83 100
52 79 90
54 83 106
52 79 95
54 83 110
53 80 97
51 77 91
53 81 112
52 79 102
52 79 101
49 73 89
49 75 92
47 71 81
49 74 95
46 68 72
47 70 80
44 66 77
46 68 81
45 66 72
61 73 71
71 75 31
76 79 36
105 104 33
93 94 32
99 98 37
108 107 39
115 113 36
117 116 37
122 121 34
129 126 39
128 124 42
137 135 32
132 128 39
137 134 36
130 127 38
130 127 26
142 139 30
134 131 27
146 143 25
147 143 39
141 138 22
145 143 31
141 138 27
150 145 42
147 143 39
150 146 41
145 141 19
147 143 39
150 147 39
146 142 34
146 143 25
149 145 22
149 145 34
152 148 30
142 138 32
156 153 39
137 132 34
128 116 24
102 86 12
104 85 8
104 87 8
103 86 10
100 81 8
108 89 7
105 84 6
100 82 6
106 85 11
104 87 6
102 82 7
104 85 8
107 90 14
103 84 10
101 84 6
108 89 6
106 87 10
105 89 7
103 87 9
109 96 7
101 81 8
113 97 9
104 88 3
98 79 5
104 85 11
108 88 8
105 84 3
105 87 7
108 92 5
105 89 2
108 91 9
112 93 7
112 94 8
109 93 8
112 94 8
97 81 5
106 90 4
106 88 8
103 87 6
112 94 10
94 76 8
103 89 5
110 93 6
104 88 3
108 90 11
103 84 8
104 83 10
101 82 15
102 84 8
98 79 8
101 83 6
100 81 6
98 82 12
96 79 9
102 83 7
99 81 19
99 79 7
104 85 12
100 80 7
104 85 4
103 85 11
101 83 11
100 82 13
96 80 8
100 80 9
96 80 7
104 88 15
98 79 4
100 79 8
93 76 4
102 82 12
102 81 8
101 81 8
98 82 8
97 77 4
107 85 10
94 76 9
90 70 6
96 76 11
97 80 10
92 74 10
89 72 8
96 75 12
95 77 9
99 81 10
96 76 6
93 73 6
87 66 10
91 70 9
89 71 15
102 91 17
142 137 32
147 142 37
145 140 37
147 142 36
135 131 34
138 133 39
141 137 36
142 137 47
139 135 30
128 125 25
139 136 28
127 124 28
128 125 32
118 114 28
115 112 22
142 148 19
167 189 0
170 191 0
163 185 0
169 190 0
168 189 0
172 194 0
169 191 0
169 189 0
169 191 0
171 193 0
168 190 0
168 191 0
166 188 0
171 195 0
170 191 0
168 191 0
169 191 0
173 195 0
168 190 0
171 194 0
168 190 0
170 193 0
171 193 0
168 190 0
172 194 0
171 194 0
172 195 0
173 195 0
171 195 0
170 193 0
172 195 0
170 193 0
168 192 0
172 195 0
171 194 0
169 192 0
172 195 0
172 195 0
171 194 0
170 194 0
171 193 0
171 194 0
169 193 0
170 193 0
170 193 0
172 195 0
171 192 0
169 192 0
168 192 0
167 190 0
167 191 0
169 192 0
171 194 0
170 193 0
169 193 0
170 193 0
169 192 0
171 193 0
170 194 0
169 192 0
169 192 0
170 193 0
169 192 0
170 191 0
166 190 0
169 192 0
168 191 0
171 193 0
170 193 0
167 190 0
167 190 0
168 190 0
170 192 0
168 191 0
168 191 0
168 192 0
167 190 0
166 188 0
166 189 0
166 188 0
167 189 0
168 190 0
167 189 0
167 189 0
167 190 0
168 191 0
165 188 0
167 190 0
168 191 0
166 188 0
168 190 0
168 191 0
167 190 0
165 188 0
166 188 0
168 190 0
166 188 0
167 189 0
168 191 0
166 188 0
167 189 0
165 187 0
165 186 0
167 189 0
166 188 0
165 188 0
163 186 0
169 191 0
167 189 0
164 186 0
166 188 0
163 186 0
164 187 0
168 190 0
165 187 0
162 184 0
165 186 0
161 183 0
165 187 0
166 188 0
167 188 0
164 186 0
165 188 0
166 188 0
162 183 0
162 184 0
161 183 0
164 185 0
165 187 0
163 186 0
158 178 39
150 168 45
144 163 0
146 165 0
146 165 0
144 164 0
145 165 0
149 168 0
145 164 0
144 165 0
143 162 0
147 167 0
129 147 0
113 130 0
113 131 0
117 133 0
109 125 0
112 129 0
114 133 0
103 120 0
101 118 0
115 132 0
104 120 0
114 131 0
106 123 0
104 120 0
109 127 0
102 116 32
126 139 85
115 131 51
105 123 0
114 131 0
97 113 0
97 114 0
107 125 0
106 123 0
106 124 0
120 138 0
105 123 0
109 126 0
112 131 0
115 132 0
122 140 0
107 123 0
103 121 0
110 127 0
105 122 0
83 104 49
55 87 99
57 90 108
57 90 108
56 89 115
56 89 110
56 89 107
58 91 116
57 91 114
57 90 114
56 88 115
58 92 124
57 91 113
57 90 122
58 92 121
58 91 114
57 90 124
57 90 115
58 92 128
58 92 121
58 92 125
59 92 130
57 91 121
58 91 115
58 92 120
58 91 118
58 91 128
57 90 115
57 90 119
59 93 129
59 92 118
57 90 124
58 90 125
56 89 111
58 91 119
57 90 124
56 88 101
57 90 123
58 90 124
59 92 125
57 89 123
55 86 107
56 88 113
56 88 121
58 90 120
57 88 115
56 86 117
57 89 117
57 88 117
53 83 101
57 88 122
56 86 116
54 84 114
55 83 106
55 84 109
56 86 110
55 85 115
55 84 109
53 82 106
55 82 101
53 82 114
50 77 95
53 81 99
54 83 109
52 77 86
51 77 91
51 77 88
48 74 95
47 71 69
50 75 85
49 74 88
48 72 89
46 68 69
47 70 82
45 69 74
44 64 64
43 63 69
58 68 57
64 68 34
79 82 39
92 93 37
94 94 35
113 112 28
117 114 38
105 103 37
122 119 35
123 122 37
122 119 35
136 132 28
125 125 25
127 124 35
126 124 31
134 130 33
135 132 43
133 130 32
137 133 35
143 140 36
143 139 34
146 141 35
146 141 43
148 144 36
145 141 34
146 141 34
150 147 36
151 147 39
145 140 32
149 145 34
155 150 37
141 137 32
149 145 32
146 143 32
153 148 34
149 146 30
151 146 39
149 145 32
152 148 30
147 142 28
138 128 32
110 97 16
103 86 7
95 80 5
102 84 5
102 83 11
112 92 8
104 88 2
103 85 6
101 81 6
107 89 8
101 84 7
113 96 5
108 91 7
103 88 6
101 83 7
105 85 10
92 75 4
107 89 8
108 90 8
104 87 9
112 95 12
102 86 6
104 86 13
108 90 9
109 92 6
100 79 5
103 85 10
108 91 11
111 95 3
104 88 6
109 92 6
102 88 6
111 93 6
110 91 8
107 89 8
104 84 10
107 90 9
113 93 6
107 86 9
112 91 7
102 83 7
105 84 11
105 87 11
111 93 7
105 90 5
103 85 14
102 80 9
100 83 10
101 83 9
103 84 3
101 84 3
107 92 9
108 93 10
103 86 9
107 88 6
108 88 8
102 87 4
101 85 9
106 87 9
106 89 7
102 84 10
99 79 8
105 85 8
104 88 20
104 86 6
97 78 12
101 80 15
103 85 18
109 89 12
101 80 12
92 75 8
96 77 7
100 82 7
98 82 16
103 82 10
86 70 5
97 78 12
93 73 12
97 76 3
98 79 8
94 77 7
94 76 9
91 72 13
95 75 10
74 57 5
85 65 16
113 101 28
132 126 20
140 135 30
145 141 32
147 144 25
141 137 22
137 134 25
144 140 41
145 141 37
128 125 19
138 135 25
143 138 34
144 139 34
134 130 19
126 123 16
125 121 25
127 124 25
133 129 32
137 149 16
167 189 0
169 190 0
170 193 0
169 191 0
168 189 0
169 192 0
171 193 0
166 187 0
164 185 0
168 189 0
166 189 0
170 192 0
168 189 0
171 193 0
167 190 0
170 192 0
170 193 0
170 192 0
164 186 0
172 194 0
168 190 0
172 193 0
167 189 0
167 190 0
173 196 0
170 190 0
171 195 0
171 194 0
174 196 0
173 196 0
173 196 0
169 192 0
172 195 0
172 195 0
173 196 0
173 195 0
172 195 0
170 192 0
170 193 0
169 192 0
171 195 0
169 192 0
170 193 0
170 193 0
172 195 0
173 194 0
169 192 0
173 195 0
172 194 0
170 193 0
170 194 0
169 192 0
167 190 0
170 193 0
170 192 0
171 194 0
169 192 0
168 191 0
168 192 0
171 194 0
170 194 0
166 189 0
169 192 0
169 192 0
169 192 0
171 194 0
169 192 0
167 191 0
167 190 0
169 192 0
169 191 0
169 192 0
171 193 0
166 189 0
170 193 0
168 190 0
169 192 0
167 190 0
168 191 0
167 189 0
168 190 0
168 191 0
167 190 0
167 189 0
166 189 0
166 189 0
166 189 0
167 190 0
168 191 0
166 189 0
168 190 0
166 188 0
169 191 0
166 188 0
167 190 0
167 190 0
166 189 0
167 190 0
165 188 0
169 191 0
165 187 0
167 190 0
167 188 0
164 186 0
165 188 0
165 188 0
165 188 0
163 186 0
166 187 0
166 188 0
166 189 0
164 187 0
168 191 0
162 185 0
166 189 0
165 187 0
167 190 0
166 189 0
167 190 0
164 185 0
168 190 0
162 183 0
164 186 0
164 185 0
166 187 0
164 186 0
164 186 0
162 184 0
163 185 0
162 184 0
161 183 0
163 185 0
153 172 45
148 167 22
145 165 0
147 166 0
146 166 0
147 167 0
146 165 0
147 166 0
146 165 0
145 165 0
140 159 0
113 130 0
115 132 0
109 127 0
121 139 0
110 127 0
107 126 0
110 126 0
107 124 0
111 128 0
102 120 0
111 128 0
111 128 0
107 123 0
126 141 68
121 137 45
122 141 0
103 121 0
107 123 0
119 138 0
115 132 0
114 131 0
107 123 0
127 145 0
111 130 0
110 127 0
106 124 0
107 125 0
103 120 0
114 132 0
107 124 0
109 125 0
101 117 0
100 116 0
92 108 0
100 114 0
76 99 72
55 88 107
56 88 100
56 88 115
54 86 86
57 90 113
58 91 111
55 86 100
57 91 117
58 92 117
58 92 120
56 89 113
58 92 122
56 89 111
56 89 102
59 93 125
57 90 113
59 93 124
59 94 129
58 92 125
57 89 117
58 92 120
58 92 121
59 93 129
57 90 119
58 92 121
57 90 116
57 90 124
58 91 129
57 90 120
59 92 125
59 93 129
58 90 118
58 90 122
57 90 112
57 89 122
57 89 120
57 89 123
59 92 137
57 88 116
57 90 124
56 88 113
56 88 106
57 89 124
56 86 113
57 89 113
57 89 121
57 87 113
56 86 108
56 87 108
57 88 123
56 86 104
57 86 115
55 84 103
56 87 117
53 81 98
54 84 112
56 86 108
54 83 109
53 81 102
51 78 97
53 80 101
51 77 98
51 77 94
52 78 93
52 78 99
49 74 87
50 75 91
44 66 71
46 70 78
49 73 90
41 63 73
48 72 86
43 65 67
45 67 66
43 64 73
47 60 58
77 79 35
76 79 30
90 92 33
96 97 36
109 108 45
120 118 40
120 116 30
121 119 32
113 112 38
126 124 32
135 133 41
130 128 32
133 130 26
131 129 34
128 126 23
135 133 39
137 134 21
142 139 37
144 140 39
152 146 46
138 135 29
144 141 22
144 141 34
149 143 43
144 139 41
148 144 36
152 147 42
149 145 36
146 142 37
149 145 37
153 148 39
153 148 37
146 142 32
149 145 30
155 151 37
150 147 37
152 148 39
151 146 36
147 143 25
155 150 48
148 145 34
139 133 30
122 111 13
105 90 8
106 85 9
110 90 6
102 86 7
105 89 3
110 93 3
104 86 7
106 85 9
106 89 3
99 84 9
102 82 8
105 86 8
115 98 10
108 89 3
108 89 13
105 88 3
109 91 5
103 85 8
107 88 7
100 82 4
101 83 10
102 84 6
108 91 6
107 92 10
112 96 8
112 95 13
106 88 8
105 88 8
105 87 9
104 85 7
106 89 10
112 97 9
105 87 2
106 89 8
111 90 6
112 94 12
111 93 10
116 99 10
101 83 9
99 78 5
106 86 8
103 84 9
111 89 13
104 85 10
105 86 7
96 79 3
108 90 18
93 76 8
102 86 6
101 83 6
101 80 6
99 80 9
100 80 8
103 84 8
103 85 11
100 81 6
104 83 12
103 84 10
106 92 9
99 79 6
103 85 11
95 77 7
99 79 7
101 84 5
99 79 4
101 84 11
93 77 8
102 84 4
95 76 8
97 77 5
99 79 6
88 71 5
92 74 8
92 72 8
94 74 8
89 75 7
95 78 5
87 69 12
92 71 7
90 69 10
96 78 17
116 103 29
141 137 30
146 141 25
146 141 30
147 142 30
143 138 36
139 134 34
144 139 36
148 144 44
148 144 36
144 139 37
131 127 28
131 126 25
137 133 32
138 133 37
135 132 34
135 131 34
128 123 37
127 124 32
127 124 28
154 169 19
170 190 0
170 191 0
173 196 0
169 189 0
170 191 0
168 188 0
168 190 0
169 190 0
167 188 0
171 192 0
170 192 0
171 193 0
168 189 0
171 193 0
172 193 0
168 191 0
168 189 0
168 189 0
167 191 0
170 192 0
170 190 0
170 192 0
173 197 0
167 190 0
167 189 0
169 192 0
172 195 0
170 193 0
171 195 0
170 193 0
172 194 0
170 194 0
172 195 0
170 194 0
170 193 0
172 194 0
172 194 0
171 194 0
169 192 0
172 195 0
169 192 0
171 194 0
171 195 0
169 192 0
171 194 0
172 194 0
169 192 0
170 193 0
169 192 0
169 192 0
171 194 0
171 194 0
169 192 0
168 192 0
171 193 0
170 193 0
170 193 0
171 194 0
169 193 0
168 190 0
171 194 0
168 191 0
169 192 0
169 192 0
170 193 0
167 191 0
168 190 0
168 190 0
169 192 0
166 189 0
169 192 0
166 188 0
168 191 0
166 189 0
169 192 0
169 191 0
169 192 0
168 192 0
169 191 0
169 190 0
168 191 0
170 193 0
161 185 0
166 188 0
169 192 0
168 192 0
165 188 0
165 187 0
165 187 0
167 190 0
168 190 0
168 190 0
165 188 0
167 189 0
164 187 0
166 188 0
166 189 0
165 187 0
164 186 0
162 184 0
165 187 0
165 187 0
169 191 0
163 185 0
166 189 0
164 186 0
164 186 0
166 187 0
166 188 0
165 187 0
167 189 0
166 188 0
160 183 0
163 185 0
164 186 0
166 188 0
163 185 0
169 190 0
166 188 0
163 185 0
163 185 0
166 189 0
167 189 0
165 187 0
162 184 0
165 187 0
167 190 0
162 184 0
162 184 0
167 190 0
162 184 0
166 188 0
165 188 0
157 178 32
148 167 32
145 164 0
146 166 0
147 166 0
147 166 0
144 163 0
143 162 0
144 164 0
143 162 0
121 138 0
121 137 0
110 128 0
124 142 0
121 139 0
107 123 0
108 125 0
112 129 0
111 128 0
106 123 0
113 130 0
115 128 75
120 136 56
121 140 0
115 135 0
119 137 0
117 135 0
116 135 0
111 128 0
110 128 0
117 136 0
106 124 0
109 127 0
111 129 0
115 133 0
102 118 0
113 131 0
111 130 0
108 125 0
107 124 0
112 129 0
102 119 0
110 128 0
107 124 0
109 125 0
112 129 0
81 105 70
57 90 117
55 88 99
58 91 110
56 89 103
56 89 107
57 91 118
56 88 117
57 90 105
57 91 113
58 92 125
57 91 121
58 92 120
56 89 110
55 88 102
59 93 121
56 89 117
58 92 118
57 91 115
56 89 119
57 90 112
58 93 135
57 89 115
56 88 122
59 92 132
58 92 126
57 89 117
59 92 123
56 89 105
57 90 118
58 91 128
58 91 121
56 88 118
59 92 120
57 90 115
57 91 132
56 87 109
57 89 119
56 88 120
56 88 105
57 88 115
56 87 118
56 87 107
57 88 120
56 87 120
55 86 109
56 88 114
55 85 107
56 87 112
58 89 113
55 85 112
55 86 119
52 80 101
54 83 112
55 83 105
53 81 100
53 81 99
54 83 111
52 80 94
54 82 103
52 81 104
51 77 101
51 77 102
50 76 92
51 77 101
50 75 86
49 74 82
48 71 81
45 68 73
47 72 90
45 67 83
45 68 84
45 68 82
42 63 68
41 61 73
48 59 49
80 82 31
86 88 35
97 97 39
108 107 45
99 99 28
115 115 41
112 112 29
113 112 27
118 116 31
122 119 29
128 126 34
135 133 31
129 126 18
139 136 38
137 135 32
140 136 32
143 139 30
131 129 28
139 136 33
140 137 32
149 145 37
145 141 31
146 142 30
148 143 46
150 145 34
150 145 42
146 143 30
148 144 34
146 142 28
148 144 36
147 143 25
146 142 30
148 143 30
149 145 34
151 146 39
147 143 36
151 147 39
151 147 36
149 143 41
150 147 39
157 152 45
150 145 32
151 147 36
156 151 36
142 134 32
129 118 26
115 102 20
100 84 6
106 87 5
105 86 7
106 86 8
96 82 3
112 95 4
98 83 5
111 92 10
106 87 7
102 87 3
107 91 2
104 85 6
109 90 8
108 90 7
109 92 14
107 87 7
106 87 8
105 84 7
103 86 8
111 94 5
102 82 7
99 79 5
105 90 5
100 79 9
111 93 8
107 88 11
109 88 12
109 92 9
103 85 7
103 86 3
111 92 11
111 94 11
96 76 6
98 81 6
104 85 11
105 88 13
102 79 6
105 87 7
101 82 9
102 82 7
104 84 10
106 88 7
103 86 9
104 83 8
109 88 11
104 84 8
103 84 11
102 86 12
104 85 9
107 90 11
98 81 11
103 81 6
107 87 9
105 85 11
109 90 13
110 91 6
106 90 12
96 77 4
94 78 8
102 81 7
101 83 8
95 75 6
88 68 8
90 71 8
102 84 6
94 76 6
98 78 5
99 82 8
101 82 9
89 71 8
95 75 6
87 68 7
92 76 8
95 76 13
103 91 21
135 127 30
148 144 37
146 142 36
151 145 37
142 138 30
140 135 34
140 136 32
143 137 37
142 139 34
147 141 34
145 140 39
140 136 41
144 140 28
131 128 32
134 131 32
135 130 36
133 128 30
134 130 34
127 123 25
132 128 32
114 110 22
115 112 22
165 185 0
170 192 0
170 193 0
168 190 0
172 193 0
169 190 0
168 190 0
167 188 0
166 188 0
168 190 0
163 185 0
169 190 0
168 190 0
171 193 0
169 190 0
169 192 0
173 194 0
169 190 0
170 192 0
169 192 0
169 192 0
169 191 0
170 192 0
166 187 0
170 192 0
172 195 0
169 191 0
171 194 0
172 195 0
171 195 0
171 194 0
170 194 0
169 193 0
171 193 0
171 194 0
169 192 0
169 192 0
172 195 0
172 194 0
170 193 0
168 191 0
172 195 0
171 193 0
169 193 0
173 196 0
170 192 0
168 191 0
172 194 0
171 193 0
171 193 0
170 193 0
168 191 0
171 194 0
170 192 0
170 193 0
169 192 0
168 191 0
169 191 0
171 194 0
170 193 0
167 190 0
169 193 0
169 192 0
169 191 0
169 192 0
168 191 0
169 192 0
170 193 0
170 193 0
167 190 0
167 191 0
163 186 0
170 193 0
169 192 0
168 191 0
170 192 0
168 191 0
167 190 0
169 191 0
167 190 0
170 191 0
168 190 0
169 192 0
168 190 0
167 189 0
167 190 0
165 188 0
167 190 0
168 191 0
167 190 0
168 189 0
166 189 0
170 193 0
168 190 0
167 190 0
165 187 0
168 191 0
162 185 0
166 188 0
167 189 0
167 190 0
164 187 0
166 189 0
165 187 0
167 189 0
165 187 0
167 190 0
167 189 0
163 185 0
164 186 0
165 187 0
167 189 0
167 190 0
166 188 0
162 184 0
165 188 0
163 186 0
164 187 0
167 189 0
161 184 0
166 189 0
168 190 0
166 188 0
165 187 0
166 188 0
166 188 0
163 186 0
163 184 0
164 185 0
164 186 0
161 182 0
164 186 0
164 186 0
163 185 0
162 184 0
161 181 45
155 174 39
146 165 22
146 166 0
143 162 0
144 164 0
143 163 0
144 164 0
142 161 0
121 140 0
116 133 0
118 136 0
114 131 0
106 123 0
113 130 0
122 140 0
105 121 0
105 121 0
120 138 0
122 139 39
121 139 32
121 139 0
130 150 0
121 141 0
126 145 0
118 136 0
117 135 0
119 138 0
114 133 0
120 139 0
125 144 0
124 143 0
101 119 0
119 138 0
121 139 0
120 137 0
111 128 0
99 116 0
108 126 0
110 128 0
106 123 0
100 118 0
114 131 0
105 120 0
100 116 0
105 122 25
64 90 88
55 87 107
55 87 90
56 89 111
55 87 103
56 89 107
54 85 96
57 91 113
57 90 114
56 89 100
57 90 113
57 91 111
57 91 124
56 89 110
56 88 102
57 90 111
57 90 110
58 91 126
57 90 113
57 90 117
58 92 126
56 89 116
57 90 110
57 89 112
57 90 121
57 90 103
56 89 117
58 91 123
58 91 124
56 88 114
57 90 110
55 87 107
57 88 117
58 91 118
58 89 118
57 89 115
57 89 112
56 89 121
54 85 99
56 87 103
55 87 110
56 88 113
56 86 113
55 84 104
56 86 114
56 85 110
54 82 102
54 84 99
55 85 115
54 82 109
55 85 101
54 83 111
54 84 102
53 81 106
53 82 108
51 78 97
53 81 101
53 81 98
51 77 88
54 83 108
48 74 81
52 79 92
50 78 99
47 71 71
50 76 86
49 74 80
49 74 97
46 69 77
48 73 86
44 65 69
43 64 63
44 67 85
43 64 74
42 63 72
65 75 63
76 78 29
74 76 25
103 102 40
95 95 42
102 101 33
105 105 35
109 108 25
120 118 36
130 127 37
133 130 33
124 122 34
129 126 36
126 124 33
140 136 45
135 133 34
141 137 33
141 138 37
144 140 36
135 131 30
146 141 40
146 142 37
143 139 30
139 136 29
140 137 25
144 142 31
142 139 34
145 142 34
141 138 30
150 145 36
152 147 39
147 142 34
151 148 22
154 150 34
152 148 30
148 145 22
151 147 36
153 148 25
152 148 39
150 147 28
152 147 36
151 146 41
155 151 28
156 152 32
151 147 36
154 150 32
153 148 28
155 150 34
148 140 32
133 127 17
116 102 17
101 82 13
107 90 8
106 90 2
106 87 6
105 86 7
103 88 9
105 87 8
101 84 3
106 88 3
106 90 10
107 90 6
109 90 10
113 93 8
103 85 7
113 94 4
101 83 7
114 95 10
105 89 6
104 88 8
112 92 7
101 84 9
108 90 8
111 92 8
106 88 8
109 90 6
101 82 6
106 89 5
100 81 6
112 95 7
107 90 7
103 85 8
107 91 8
99 83 3
104 85 9
107 88 9
107 90 6
100 77 9
107 87 7
104 84 7
99 82 11
110 92 6
106 89 6
112 95 14
101 85 6
98 78 5
102 85 6
98 83 12
92 73 5
106 86 8
112 92 8
100 80 8
101 82 7
94 77 6
92 78 3
100 81 11
101 82 10
96 78 12
101 83 9
104 87 5
104 84 10
103 85 10
89 70 15
88 67 9
98 82 7
88 71 5
97 79 12
94 76 7
88 69 7
110 92 9
121 114 28
142 136 34
152 147 36
146 141 34
148 144 39
151 146 42
147 143 39
150 146 39
141 138 19
149 145 34
136 132 22
144 139 36
137 133 36
142 138 32
141 136 41
138 134 28
142 137 32
144 141 36
144 140 30
133 129 28
125 121 28
130 127 34
126 123 32
129 126 34
118 118 28
168 189 0
165 186 0
170 193 0
171 193 0
170 190 0
171 192 0
170 193 0
168 190 0
171 193 0
170 192 0
169 191 0
170 193 0
170 192 0
169 192 0
168 189 0
169 190 0
171 193 0
169 192 0
170 192 0
169 190 0
169 193 0
171 194 0
170 193 0
169 189 0
171 192 0
167 188 0
169 191 0
171 195 0
171 193 0
173 195 0
172 195 0
171 194 0
172 195 0
170 194 0
170 194 0
173 196 0
169 191 0
170 194 0
171 195 0
172 194 0
171 193 0
170 193 0
171 195 0
173 196 0
170 193 0
168 191 0
169 193 0
168 192 0
171 194 0
170 192 0
169 193 0
170 193 0
170 193 0
171 193 0
169 192 0
170 193 0
170 192 0
169 192 0
171 194 0
169 192 0
167 190 0
170 193 0
169 191 0
170 193 0
168 191 0
169 192 0
170 193 0
166 189 0
170 192 0
167 190 0
168 191 0
169 191 0
169 192 0
169 192 0
167 189 0
168 192 0
166 189 0
168 190 0
169 192 0
169 191 0
168 191 0
168 191 0
166 188 0
167 190 0
167 190 0
167 190 0
169 191 0
167 189 0
169 191 0
168 190 0
168 190 0
166 189 0
164 186 0
165 189 0
166 189 0
169 192 0
164 186 0
166 189 0
168 191 0
165 188 0
164 186 0
162 185 0
169 191 0
164 187 0
166 189 0
167 189 0
165 186 0
164 186 0
168 191 0
165 187 0
167 189 0
165 187 0
166 189 0
164 186 0
166 189 0
165 187 0
162 185 0
165 187 0
167 189 0
162 183 0
161 183 0
163 186 0
163 185 0
163 185 0
160 183 0
164 186 0
160 183 0
167 189 0
163 186 0
165 187 0
164 187 0
162 184 0
165 187 0
164 186 0
167 189 0
164 185 0
166 188 0
160 179 68
147 165 39
147 167 0
147 166 0
143 163 0
146 166 0
143 163 0
104 122 0
103 121 0
113 130 0
109 126 0
113 130 0
113 130 0
110 127 0
109 127 0
115 131 51
126 143 39
125 144 0
125 143 0
130 149 0
119 137 0
133 152 0
127 145 0
116 135 0
120 139 0
120 138 0
111 129 0
121 140 0
108 125 0
122 140 0
113 132 0
113 131 0
125 144 0
105 123 0
117 134 0
120 138 0
113 131 0
110 127 0
105 122 0
114 131 0
111 128 0
105 123 0
106 123 0
101 118 0
95 112 18
60 89 90
55 87 99
55 88 103
56 89 107
56 90 107
55 87 103
57 90 111
57 90 108
57 90 107
57 91 113
59 93 123
57 90 117
57 91 110
56 88 105
56 88 97
58 90 114
57 91 114
57 90 105
57 91 129
56 89 112
59 93 129
58 91 104
56 89 123
56 88 103
59 94 124
57 90 120
56 88 113
59 92 120
57 90 123
55 87 114
58 90 124
58 90 118
57 89 113
56 87 110
58 91 123
57 90 121
56 88 112
57 89 112
57 89 113
56 87 120
56 88 119
57 89 115
56 87 113
55 87 103
54 84 94
54 85 106
57 87 114
54 83 107
55 84 110
54 83 115
55 86 106
56 85 107
54 82 95
53 82 94
55 84 100
52 79 95
52 80 99
53 82 99
52 80 98
49 74 85
50 76 101
51 78 83
49 74 89
50 77 92
47 72 80
46 70 88
47 71 84
48 71 86
45 67 61
43 65 68
44 67 74
43 64 70
38 57 52
61 68 43
83 85 36
80 82 30
99 98 36
103 102 29
109 107 36
109 107 37
121 118 37
126 122 45
118 116 38
124 121 35
133 130 48
137 134 40
125 122 35
135 133 37
139 136 28
140 137 34
142 138 37
143 139 30
140 136 38
143 140 32
140 138 31
139 136 33
146 142 32
148 144 28
146 142 30
154 149 47
146 142 36
151 148 30
148 145 28
150 146 36
151 147 34
150 146 37
150 146 39
150 146 37
147 143 37
150 146 28
152 148 32
153 148 44
149 145 30
148 145 32
151 146 37
149 145 28
151 147 19
153 148 34
150 146 34
154 150 37
151 148 32
156 151 32
151 147 37
154 150 30
149 144 30
149 141 37
130 120 26
103 86 6
110 94 2
105 88 8
113 95 7
103 83 7
99 85 10
115 100 7
93 72 3
101 84 5
111 92 8
99 80 8
105 86 10
111 92 7
103 84 11
107 88 8
101 84 5
111 93 10
100 86 6
97 77 6
113 91 11
108 89 8
103 85 11
106 88 7
110 92 5
105 86 7
105 85 7
111 94 7
104 85 7
110 89 6
107 87 7
105 85 10
106 89 10
101 81 8
100 80 14
112 95 8
102 85 10
101 84 8
109 92 11
109 89 6
101 84 2
101 86 14
108 90 7
103 84 10
93 76 10
103 85 8
100 82 6
99 85 2
97 79 8
107 90 7
106 87 13
100 81 8
99 79 8
101 83 10
99 81 8
98 80 6
97 82 7
99 82 9
96 78 13
96 76 5
100 80 10
92 76 10
106 89 6
112 100 14
123 114 16
145 139 25
153 148 39
152 148 41
152 146 41
146 143 32
150 145 32
150 144 36
154 150 34
145 141 28
146 142 34
144 140 30
145 140 34
147 143 41
141 136 42
137 133 28
138 135 28
142 137 39
134 129 32
134 131 28
138 134 25
128 126 25
124 122 30
130 127 25
117 112 22
126 122 34
133 128 36
140 149 16
168 189 0
168 189 0
168 190 0
167 189 0
166 189 0
169 191 0
166 188 0
168 188 0
170 192 0
167 187 0
168 190 0
170 191 0
171 193 0
169 190 0
169 190 0
168 188 0
166 188 0
169 190 0
169 192 0
170 191 0
164 186 0
171 193 0
168 189 0
168 191 0
171 192 0
171 193 0
172 195 0
171 195 0
170 193 0
169 192 0
172 195 0
172 195 0
172 196 0
170 194 0
171 195 0
171 194 0
170 193 0
170 193 0
171 194 0
171 194 0
169 192 0
171 193 0
171 194 0
173 195 0
171 194 0
172 194 0
171 195 0
170 194 0
170 193 0
169 193 0
170 194 0
168 190 0
171 194 0
169 192 0
169 191 0
168 192 0
170 193 0
167 190 0
170 192 0
168 191 0
168 192 0
169 192 0
170 192 0
171 194 0
170 192 0
170 192 0
169 193 0
167 191 0
169 192 0
169 192 0
169 192 0
170 193 0
169 192 0
168 191 0
167 188 0
169 192 0
168 191 0
169 193 0
167 190 0
168 190 0
170 192 0
169 191 0
170 191 0
166 189 0
169 191 0
169 191 0
167 190 0
169 191 0
167 190 0
165 188 0
167 190 0
169 191 0
170 192 0
167 189 0
167 189 0
166 188 0
167 189 0
166 189 0
167 190 0
166 188 0
168 190 0
170 192 0
168 191 0
164 188 0
165 187 0
163 186 0
166 188 0
164 186 0
166 189 0
164 187 0
167 189 0
164 187 0
169 191 0
167 189 0
168 191 0
163 185 0
162 184 0
166 188 0
164 187 0
164 186 0
164 186 0
163 185 0
163 185 0
166 189 0
169 191 0
163 185 0
166 188 0
165 186 0
164 186 0
165 187 0
158 180 0
164 185 0
163 186 0
165 187 0
166 188 0
159 180 0
161 184 0
165 186 0
165 185 51
153 172 39
143 163 0
148 168 0
146 165 0
144 163 0
124 142 0
106 123 0
112 129 0
111 129 0
111 128 0
104 121 0
114 131 32
122 139 56
112 131 0
117 135 0
126 144 0
117 136 0
115 135 0
121 138 0
124 144 0
121 140 0
129 149 0
119 138 0
126 146 0
133 153 0
114 131 0
114 133 0
115 133 0
127 146 0
119 137 0
126 145 0
119 138 0
122 141 0
108 126 0
118 136 0
120 140 0
107 125 0
107 124 0
99 116 0
106 122 0
110 127 0
106 122 0
94 111 0
99 116 0
63 91 97
53 84 84
57 90 110
56 88 105
55 87 111
56 89 120
55 88 97
55 88 102
57 91 118
57 90 118
57 90 107
56 89 110
57 90 117
58 91 121
55 88 107
58 92 118
56 89 105
57 90 121
57 90 113
59 92 126
54 86 102
57 91 113
57 90 111
57 90 110
58 90 119
57 91 112
56 88 106
57 90 105
57 89 124
58 89 114
58 92 125
56 88 112
58 91 128
56 88 112
54 84 104
56 87 110
56 87 115
55 86 109
56 87 121
54 83 101
56 87 102
54 83 99
56 86 110
53 81 92
57 88 112
56 87 108
56 87 113
54 84 105
55 85 113
55 83 95
54 84 112
54 83 98
51 79 86
54 82 111
50 77 91
53 82 98
52 79 99
52 78 93
52 79 93
51 78 104
48 72 82
48 73 83
44 67 77
49 74 80
46 68 73
47 72 80
47 70 76
40 60 56
44 67 85
47 70 86
44 65 61
42 62 74
64 69 47
72 73 27
88 89 26
86 87 26
103 103 37
103 103 40
116 114 33
116 114 22
111 109 42
127 124 40
125 124 28
125 122 29
124 122 33
132 129 40
131 128 40
136 133 31
143 139 42
128 126 21
142 139 38
142 139 40
140 136 32
139 136 28
148 143 37
139 135 30
141 138 28
146 142 37
149 145 28
143 140 32
155 149 42
151 147 41
151 148 36
149 145 34
152 148 36
144 140 34
154 149 34
150 146 32
153 149 32
155 150 36
148 143 34
153 148 32
148 144 22
153 149 36
148 146 36
155 152 41
151 147 34
153 149 19
153 148 30
155 151 34
156 152 36
148 144 30
152 148 41
156 150 39
154 151 39
155 150 32
155 151 36
153 148 28
140 132 25
127 118 25
116 103 11
107 91 6
100 83 8
99 81 6
114 91 7
105 89 8
109 92 9
109 93 4
99 81 4
106 87 7
107 89 9
105 88 3
111 93 8
108 90 5
109 93 6
103 85 5
111 92 4
109 88 5
104 88 6
112 96 8
101 81 5
111 95 6
105 86 3
106 88 7
106 85 5
103 87 4
106 88 8
104 87 7
106 84 13
98 82 5
103 86 7
104 85 8
106 89 7
107 91 7
106 88 3
102 87 6
109 93 15
102 84 11
103 84 14
95 78 1
107 89 10
105 84 9
102 82 7
101 82 8
105 86 11
108 91 8
106 89 17
97 79 1
100 77 7
97 74 7
96 81 2
101 80 10
99 80 8
103 85 8
105 89 14
125 118 17
133 127 30
149 144 30
154 149 37
147 143 37
155 150 41
160 155 47
154 150 44
156 150 37
150 145 44
148 143 25
148 144 37
147 143 34
142 138 32
146 142 30
141 137 37
138 134 37
138 134 34
144 141 32
144 141 39
137 133 30
143 139 37
143 138 37
135 131 22
135 131 30
145 139 41
136 131 36
127 123 32
125 121 28
123 120 19
125 122 19
146 156 11
168 190 0
170 192 0
171 195 0
170 192 0
166 188 0
167 186 0
171 193 0
172 194 0
168 190 0
171 194 0
171 193 0
169 189 0
170 192 0
170 192 0
167 189 0
171 193 0
169 190 0
168 190 0
170 193 0
171 192 0
167 188 0
169 191 0
167 189 0
170 192 0
173 194 0
172 194 0
172 194 0
171 194 0
171 194 0
172 195 0
172 195 0
171 194 0
170 194 0
172 195 0
171 194 0
170 193 0
170 193 0
168 191 0
171 194 0
170 192 0
172 195 0
170 193 0
171 193 0
169 192 0
169 193 0
169 192 0
169 192 0
170 193 0
168 191 0
169 193 0
171 194 0
169 192 0
171 194 0
169 192 0
170 193 0
167 190 0
171 194 0
171 194 0
170 194 0
171 194 0
166 189 0
173 196 0
170 193 0
168 192 0
169 191 0
170 193 0
168 190 0
169 191 0
170 192 0
168 191 0
167 191 0
167 190 0
170 193 0
168 191 0
168 191 0
168 191 0
170 193 0
167 190 0
166 189 0
172 195 0
168 191 0
165 187 0
170 192 0
169 191 0
167 190 0
166 189 0
168 191 0
167 189 0
167 190 0
166 189 0
168 191 0
168 191 0
168 191 0
169 192 0
165 188 0
165 187 0
165 189 0
166 188 0
168 190 0
167 189 0
166 189 0
164 187 0
166 188 0
167 189 0
165 188 0
165 188 0
166 187 0
164 187 0
166 189 0
166 188 0
163 186 0
166 188 0
164 187 0
167 189 0
167 190 0
167 189 0
160 183 0
162 184 0
165 187 0
164 186 0
164 187 0
163 186 0
162 185 0
166 189 0
166 187 0
161 184 0
163 184 0
160 182 0
164 185 0
165 188 0
165 187 0
162 185 0
162 185 0
161 182 0
166 188 0
165 186 0
164 185 0
165 186 0
166 189 0
160 182 0
152 171 51
145 165 0
144 163 0
146 165 0
125 143 0
116 134 0
111 129 0
117 135 0
116 132 56
135 153 51
125 146 0
121 141 0
132 152 0
136 155 0
127 147 0
133 153 0
128 148 0
126 145 0
113 133 0
116 136 0
113 131 0
111 130 0
121 140 0
120 139 0
110 129 0
130 149 0
121 139 0
109 126 0
119 139 0
123 141 0
113 131 0
120 138 0
115 133 0
108 126 0
117 135 0
100 118 0
103 121 0
99 115 0
111 128 0
111 129 0
110 126 0
110 128 0
104 121 0
109 124 0
63 90 76
54 86 99
55 87 92
55 88 104
56 89 107
56 89 97
57 90 110
56 89 110
56 88 103
57 89 108
56 88 103
57 89 100
55 88 96
58 91 118
58 92 120
57 91 114
57 89 117
56 89 95
57 90 111
57 90 114
58 91 122
57 89 111
58 91 112
57 89 106
56 88 115
58 91 124
57 89 105
57 90 116
55 87 98
55 87 113
55 86 116
57 89 114
58 90 120
54 85 103
57 89 114
56 88 116
55 86 107
56 88 103
57 89 118
55 85 108
55 85 112
56 87 114
54 84 103
55 86 110
56 87 110
54 85 97
53 80 85
54 83 102
53 81 107
55 84 102
54 84 96
54 83 102
54 84 104
53 81 93
53 81 99
49 75 83
53 81 96
50 76 101
48 73 77
49 74 80
49 75 92
49 73 89
48 72 77
46 68 75
47 71 81
45 69 68
43 66 75
45 68 77
46 69 74
41 62 67
42 63 71
57 67 42
73 75 34
81 84 34
95 95 36
96 97 32
105 105 38
110 110 30
115 115 28
123 122 31
130 128 37
126 124 34
126 125 36
132 129 28
130 128 35
133 131 24
143 138 34
126 122 26
140 136 31
138 135 34
140 137 22
137 135 29
136 132 31
145 140 39
134 131 32
143 139 41
144 140 41
151 148 34
152 147 41
152 148 37
146 141 36
150 147 36
150 146 30
151 147 28
150 146 22
146 141 30
152 147 36
150 146 22
151 147 28
152 148 44
150 146 34
155 151 34
155 151 28
155 151 34
152 148 39
150 146 36
153 148 36
152 147 28
156 152 34
155 151 32
152 148 34
154 150 28
157 151 39
154 149 41
152 149 41
156 151 49
153 149 34
153 149 25
153 149 34
154 150 28
154 149 41
147 143 25
137 128 23
126 118 11
119 107 24
103 85 15
99 80 9
104 86 9
109 91 9
105 86 8
109 93 5
101 88 5
108 87 9
107 91 3
98 80 9
108 91 6
106 89 6
104 88 5
106 85 8
108 90 7
105 85 6
106 88 5
104 83 9
104 86 10
103 88 7
100 84 5
100 82 7
104 83 3
108 90 8
102 82 6
101 82 4
112 91 8
104 86 8
96 80 3
106 87 6
106 88 7
100 83 11
94 74 4
106 89 6
105 87 9
102 86 5
99 79 8
103 86 10
106 89 12
94 77 6
97 79 2
99 82 9
98 78 7
113 99 13
124 113 25
128 120 19
141 133 39
151 146 39
148 143 34
150 146 28
153 149 36
151 146 34
153 148 34
155 150 48
153 148 41
153 149 28
150 145 32
145 142 32
146 142 34
148 143 39
142 139 28
143 139 30
146 142 30
141 137 36
140 136 32
146 141 37
147 141 42
134 130 30
142 137 37
136 132 25
135 132 22
136 132 32
138 135 34
129 127 25
136 132 36
140 135 34
125 121 32
122 119 25
120 117 19
124 120 28
154 170 0
168 188 0
168 189 0
168 189 0
168 190 0
170 192 0
166 187 0
168 189 0
169 191 0
167 188 0
172 194 0
172 192 0
170 192 0
169 190 0
169 192 0
169 191 0
172 194 0
165 187 0
167 190 0
169 191 0
169 191 0
172 194 0
170 193 0
171 193 0
171 194 0
170 192 0
170 190 0
168 190 0
169 192 0
171 194 0
170 193 0
172 195 0
170 193 0
170 194 0
171 195 0
170 193 0
169 192 0
169 192 0
168 191 0
168 190 0
171 195 0
172 195 0
168 191 0
168 191 0
171 195 0
171 194 0
169 193 0
172 195 0
171 194 0
168 192 0
168 192 0
173 195 0
169 192 0
168 191 0
170 192 0
170 193 0
167 190 0
170 193 0
168 191 0
171 194 0
169 192 0
171 194 0
170 192 0
170 192 0
170 193 0
167 190 0
168 190 0
169 192 0
170 193 0
168 191 0
169 192 0
168 190 0
171 193 0
169 192 0
168 191 0
169 192 0
167 189 0
167 190 0
169 192 0
168 191 0
169 191 0
167 191 0
170 192 0
166 189 0
166 189 0
164 188 0
165 187 0
165 188 0
167 190 0
166 188 0
163 186 0
163 186 0
163 186 0
165 188 0
166 189 0
166 188 0
170 192 0
165 187 0
167 190 0
167 190 0
166 189 0
166 188 0
165 187 0
163 185 0
163 186 0
164 186 0
168 190 0
164 186 0
164 187 0
167 189 0
166 188 0
167 190 0
163 185 0
167 189 0
165 187 0
165 187 0
164 187 0
162 185 0
165 188 0
163 186 0
168 189 0
163 185 0
163 186 0
168 190 0
161 183 0
163 185 0
163 186 0
166 189 0
164 186 0
163 186 0
160 183 0
163 186 0
162 184 0
161 183 0
159 182 0
167 188 0
158 181 0
159 181 0
161 183 0
158 180 0
164 187 0
163 185 0
160 180 32
152 170 56
143 164 0
124 142 0
112 129 0
109 126 32
124 140 64
128 146 39
131 151 0
118 136 0
132 152 0
121 139 0
122 142 0
126 147 0
130 151 0
135 155 0
120 139 0
117 137 0
120 139 0
128 148 0
125 144 0
121 139 0
121 140 0
123 141 0
119 137 0
120 139 0
113 130 0
122 141 0
114 131 0
114 132 0
115 133 0
116 133 0
112 130 0
118 136 0
114 131 0
108 125 0
109 127 0
101 119 0
112 130 0
104 122 0
101 117 0
107 124 0
104 121 0
101 119 0
75 100 90
54 85 84
53 85 94
55 87 90
55 88 108
54 86 97
56 88 105
56 88 110
57 90 107
57 91 114
53 84 94
54 85 99
54 85 85
55 87 105
56 89 124
54 86 99
57 90 124
55 86 107
56 88 107
56 89 112
56 89 104
56 89 114
56 89 104
56 89 108
55 87 108
56 88 113
55 87 108
56 89 114
56 88 108
57 89 116
57 90 118
55 87 120
57 89 108
56 88 108
57 89 116
54 84 102
56 87 104
56 87 116
54 86 101
54 84 102
56 86 106
54 84 101
54 83 103
55 85 100
56 86 107
54 83 103
51 79 83
54 83 105
55 85 97
52 80 98
52 81 93
53 81 98
51 78 93
52 79 99
54 82 100
49 74 84
53 81 96
49 74 85
52 77 94
46 70 69
49 74 92
46 69 76
45 69 69
46 68 65
48 71 77
48 72 83
39 57 60
42 64 73
39 58 63
40 61 73
59 64 37
81 83 32
82 81 25
95 95 37
107 107 33
104 103 36
115 114 30
116 113 33
126 124 46
129 126 32
123 120 44
133 130 38
121 117 36
130 127 37
135 132 36
135 133 35
143 138 37
128 126 22
138 135 34
139 136 37
135 132 25
142 138 41
146 141 36
150 146 34
145 141 36
146 142 36
145 141 30
146 143 28
145 141 32
147 143 25
148 144 28
151 147 37
146 143 32
158 153 44
149 145 28
154 149 39
148 143 30
146 141 34
153 150 32
151 147 36
152 148 16
153 149 32
153 148 39
148 144 25
152 148 37
156 151 36
155 151 42
150 145 32
152 148 32
151 146 30
153 149 25
152 148 34
153 150 19
149 145 30
154 150 37
152 147 28
156 152 36
155 151 39
154 149 32
155 151 30
149 145 19
154 150 36
154 150 30
157 153 37
156 151 44
146 141 32
141 134 29
139 130 25
127 120 16
122 108 13
125 111 8
112 95 15
108 91 8
106 91 3
105 91 9
110 96 7
113 93 9
100 87 5
103 88 8
107 88 8
99 79 8
109 91 7
106 90 9
106 91 6
109 95 7
109 95 8
105 83 8
108 92 7
107 88 7
105 83 10
113 98 9
102 81 9
104 82 6
106 89 7
103 87 5
103 88 3
103 83 7
103 86 9
99 82 10
97 82 0
104 88 12
108 93 17
121 109 17
121 109 17
134 124 32
145 138 30
154 148 34
156 152 39
155 150 36
154 149 34
148 143 32
151 147 32
151 146 41
154 149 32
153 149 30
152 148 41
153 149 34
147 142 45
148 143 37
153 149 39
150 146 39
144 140 37
151 147 36
147 143 25
145 140 39
146 142 30
145 141 34
147 143 42
139 136 22
141 136 34
138 134 30
136 133 30
145 140 37
142 137 36
135 131 28
137 132 32
134 130 37
139 135 37
131 127 28
124 121 28
142 137 39
132 128 32
124 121 22
116 112 25
168 188 0
169 191 0
167 189 0
168 190 0
168 189 0
170 192 0
172 194 0
169 191 0
169 190 0
165 187 0
167 189 0
172 194 0
170 190 0
169 191 0
165 187 0
166 187 0
171 193 0
165 188 0
172 195 0
168 190 0
169 191 0
169 191 0
171 193 0
169 192 0
172 194 0
168 190 0
171 194 0
169 191 0
174 197 0
170 193 0
172 195 0
171 195 0
170 193 0
170 193 0
171 194 0
170 193 0
172 195 0
171 194 0
172 195 0
171 195 0
170 193 0
170 193 0
170 193 0
171 194 0
167 190 0
167 190 0
172 194 0
169 193 0
171 193 0
171 193 0
168 191 0
168 191 0
170 193 0
171 194 0
168 191 0
170 192 0
167 190 0
170 193 0
167 190 0
170 192 0
170 192 0
167 190 0
169 191 0
169 191 0
170 192 0
170 192 0
169 191 0
169 193 0
171 194 0
170 193 0
169 192 0
167 189 0
169 192 0
168 191 0
169 193 0
167 189 0
170 192 0
169 192 0
169 191 0
169 192 0
168 190 0
166 189 0
168 190 0
166 189 0
169 191 0
167 190 0
168 191 0
168 190 0
162 185 0
170 191 0
166 189 0
165 187 0
168 191 0
165 187 0
168 191 0
165 187 0
165 187 0
166 189 0
167 189 0
163 186 0
165 187 0
163 186 0
170 191 0
164 187 0
162 184 0
166 187 0
165 188 0
167 190 0
163 186 0
166 188 0
163 186 0
164 186 0
168 191 0
165 188 0
161 184 0
162 185 0
166 188 0
162 184 0
163 186 0
166 188 0
162 184 0
163 186 0
161 183 0
162 185 0
161 182 0
158 180 0
166 188 0
160 182 0
162 183 0
163 185 0
164 186 0
163 186 0
164 186 0
161 183 0
162 184 0
160 182 0
161 184 0
161 184 0
160 181 0
163 186 0
164 186 0
161 183 0
160 181 0
155 177 0
155 174 51
128 145 39
115 130 60
127 145 32
134 155 0
126 146 0
134 155 0
130 150 0
127 147 0
126 145 0
126 145 0
128 147 0
134 154 0
127 146 0
134 155 0
127 146 0
116 136 0
120 139 0
124 143 0
123 142 0
120 141 0
113 132 0
119 138 0
123 142 0
120 139 0
113 132 0
111 129 0
120 139 0
121 139 0
104 123 0
106 124 0
115 132 0
101 118 0
111 129 0
107 123 0
116 134 0
116 133 0
103 120 0
107 125 0
104 121 0
99 115 0
100 117 0
101 118 0
68 92 65
51 81 76
54 86 86
55 87 102
55 88 99
55 87 99
54 86 89
56 89 102
52 84 90
57 89 108
56 89 107
55 87 107
55 87 97
56 88 110
56 87 106
56 88 99
57 89 104
55 86 106
55 87 106
55 87 109
56 88 113
58 91 115
58 91 105
56 88 99
55 85 105
56 89 116
58 90 117
57 89 110
54 85 104
56 86 105
54 85 101
56 87 109
57 89 111
57 90 113
55 86 105
55 85 109
55 85 101
55 85 95
54 83 100
55 86 106
53 82 92
51 80 84
54 83 103
53 82 102
55 84 110
55 86 108
53 81 93
53 81 99
54 82 103
53 81 97
52 81 102
52 80 99
49 76 80
49 75 87
51 78 89
51 77 88
49 75 92
50 76 87
47 70 80
47 71 76
44 66 70
48 71 71
47 70 71
48 72 77
45 68 77
44 65 69
44 65 76
39 59 63
40 59 65
54 60 37
80 82 25
81 84 36
90 90 26
98 98 33
112 110 26
97 99 31
108 108 28
117 115 36
118 115 26
125 122 34
131 129 31
135 131 37
128 124 24
137 134 32
133 129 28
136 133 34
144 141 39
141 138 39
130 127 29
138 134 34
142 139 34
142 139 19
145 142 31
147 144 30
142 138 25
143 140 32
150 144 42
147 144 22
152 147 41
151 147 37
148 143 34
151 147 36
150 146 22
148 144 32
154 149 41
148 144 39
148 144 34
152 147 32
150 146 28
151 148 28
149 145 32
153 149 28
148 144 30
149 145 32
151 147 30
150 145 28
151 147 36
154 151 36
156 151 37
156 151 47
153 148 36
155 151 37
155 151 41
151 146 37
157 152 39
151 147 28
154 149 36
156 152 37
152 148 28
156 151 36
154 148 39
152 149 25
157 152 37
156 152 39
154 150 36
154 148 32
152 149 28
159 154 30
152 147 28
156 152 30
154 150 30
157 152 39
152 147 36
152 146 38
148 141 38
134 127 23
131 122 23
129 121 23
135 126 28
119 109 20
117 105 21
125 113 20
115 101 13
130 121 19
116 105 16
120 107 24
119 108 11
121 107 17
119 110 22
122 110 20
130 120 25
127 116 22
133 122 29
136 126 32
136 127 28
139 133 19
142 134 36
149 144 34
150 147 25
159 154 42
154 150 28
156 151 41
151 147 32
158 152 37
152 147 37
155 151 34
153 148 34
158 153 41
153 149 37
147 144 22
150 145 37
143 140 25
149 146 28
146 142 22
149 145 32
153 148 34
147 142 39
154 149 34
151 147 30
145 142 36
150 145 45
151 146 36
149 145 32
156 150 39
141 137 25
145 142 32
151 146 32
146 142 34
144 140 28
141 137 36
137 133 25
142 137 37
142 138 34
140 136 39
139 134 34
140 135 41
136 132 32
132 127 32
135 131 37
130 126 28
133 128 36
121 118 16
123 125 22
169 190 0
171 192 0
165 185 0
167 189 0
168 188 0
167 187 0
168 189 0
168 189 0
167 186 0
168 190 0
168 191 0
168 190 0
169 190 0
169 191 0
171 193 0
169 191 0
167 188 0
169 190 0
167 189 0
171 193 0
171 195 0
168 191 0
168 190 0
168 191 0
166 189 0
172 194 0
169 192 0
170 192 0
171 194 0
172 195 0
172 195 0
171 195 0
173 196 0
171 194 0
170 193 0
173 196 0
171 194 0
171 194 0
172 195 0
170 193 0
169 193 0
171 194 0
168 192 0
172 195 0
168 192 0
169 192 0
168 192 0
171 193 0
169 192 0
170 192 0
169 192 0
169 192 0
166 190 0
169 192 0
169 192 0
170 193 0
167 190 0
168 191 0
167 191 0
170 194 0
171 193 0
167 190 0
169 193 0
167 191 0
169 193 0
168 192 0
169 192 0
168 191 0
170 193 0
170 193 0
169 192 0
166 188 0
167 190 0
168 191 0
170 192 0
169 192 0
167 190 0
170 191 0
167 189 0
168 191 0
168 192 0
167 189 0
169 192 0
170 192 0
168 191 0
166 189 0
164 187 0
168 190 0
170 193 0
165 188 0
167 189 0
168 190 0
167 189 0
167 191 0
164 187 0
167 189 0
166 189 0
170 192 0
164 187 0
167 189 0
165 188 0
169 191 0
168 190 0
168 190 0
162 185 0
163 186 0
170 192 0
162 185 0
166 189 0
160 182 0
164 187 0
163 186 0
164 187 0
166 189 0
162 186 0
167 188 0
165 188 0
163 186 0
157 180 0
158 180 0
163 185 0
164 186 0
163 186 0
164 187 0
158 181 0
162 184 0
161 184 0
161 183 0
165 188 0
161 182 0
162 184 0
163 186 0
163 185 0
153 175 0
165 187 0
160 183 0
157 179 0
161 183 0
161 183 0
156 178 0
159 181 0
154 175 0
157 178 0
154 176 0
160 181 0
147 165 51
130 151 0
139 160 0
136 157 0
138 158 0
135 156 0
132 151 0
134 155 0
134 155 0
138 158 0
126 147 0
117 136 0
132 152 0
129 149 0
129 149 0
131 151 0
129 149 0
121 140 0
124 141 0
118 137 0
124 143 0
122 142 0
111 129 0
120 139 0
125 145 0
130 150 0
116 134 0
130 149 0
122 140 0
125 143 0
108 125 0
114 132 0
124 143 0
110 128 0
112 131 0
102 119 0
106 124 0
104 122 0
97 113 0
109 128 0
95 112 0
109 127 0
99 115 0
76 96 54
53 84 90
54 85 100
56 88 107
51 82 82
55 87 95
56 89 94
55 87 100
55 87 103
55 88 92
58 92 120
58 92 116
57 90 111
57 90 108
56 89 110
54 85 97
58 91 117
57 90 120
56 88 108
58 90 123
56 88 113
57 89 109
56 88 111
56 88 111
56 88 106
55 86 116
55 86 99
55 86 108
55 86 100
53 82 93
54 85 97
54 84 103
53 83 96
55 85 110
54 84 99
56 86 113
55 86 103
57 87 115
57 87 111
56 86 115
55 85 92
53 81 105
53 81 93
52 80 91
52 80 94
53 83 105
54 83 108
54 83 96
53 81 98
52 79 89
51 77 97
50 76 87
50 77 91
49 76 86
50 76 91
49 75 92
49 76 79
47 71 78
47 72 88
45 68 80
47 71 72
45 68 83
46 68 76
39 60 74
47 70 72
42 62 66
43 64 65
36 53 56
64 69 37
74 77 30
83 84 32
102 101 37
110 108 32
112 112 37
119 117 41
126 123 34
118 116 26
123 121 34
130 126 40
119 116 29
127 125 35
137 134 32
132 127 38
132 129 35
134 132 27
137 134 32
141 138 35
137 133 30
147 143 39
144 141 28
147 143 34
143 140 28
148 143 39
150 146 39
147 143 32
147 142 34
145 142 32
151 146 37
150 146 30
151 147 28
146 143 30
153 148 48
148 143 36
150 146 30
149 145 36
151 147 30
150 146 34
149 145 36
148 144 36
150 146 37
154 149 19
153 148 41
149 146 28
153 150 37
153 149 30
155 151 30
148 144 34
148 144 30
153 149 28
152 149 36
154 149 30
156 151 39
154 150 30
157 152 41
154 149 32
153 148 34
154 150 34
154 149 34
155 150 37
155 150 39
156 152 32
159 153 37
155 150 42
152 148 36
156 151 42
156 151 32
151 148 32
154 150 34
151 147 30
154 149 36
155 151 30
155 151 36
160 154 42
153 149 32
158 153 39
155 151 34
155 152 34
156 152 36
157 152 37
153 149 28
157 153 32
156 151 39
154 150 30
157 153 42
156 152 37
157 152 37
157 152 44
157 153 30
154 148 28
149 146 34
153 150 36
153 149 30
156 151 32
153 148 30
154 150 41
153 149 28
152 148 32
154 149 30
157 152 34
153 149 37
148 144 22
154 150 34
154 150 37
153 148 36
150 146 36
151 147 34
152 147 37
153 148 41
154 149 41
148 144 25
149 144 37
156 152 39
150 146 36
152 148 34
152 148 42
146 141 34
150 146 32
147 144 22
151 147 36
150 145 32
149 146 39
151 146 42
154 149 47
145 141 39
149 144 36
146 141 30
140 136 34
141 137 36
138 133 30
141 138 32
145 141 32
143 139 36
145 141 37
142 136 36
135 131 25
141 137 41
131 127 25
131 126 34
123 120 25
125 121 30
133 129 28
135 143 30
167 188 0
167 188 0
166 187 0
167 188 0
165 186 0
167 187 0
166 187 0
165 186 0
167 188 0
167 188 0
169 188 0
166 187 0
171 193 0
165 186 0
168 189 0
171 192 0
167 187 0
170 192 0
169 191 0
166 188 0
168 188 0
169 192 0
171 192 0
169 190 0
172 193 0
166 187 0
170 192 0
171 194 0
168 191 0
170 193 0
171 194 0
170 194 0
169 193 0
172 194 0
172 195 0
170 194 0
172 195 0
168 191 0
172 194 0
171 193 0
168 192 0
171 195 0
172 195 0
169 193 0
170 193 0
170 193 0
171 194 0
173 195 0
170 194 0
170 193 0
171 194 0
169 192 0
167 190 0
170 193 0
170 192 0
169 193 0
169 191 0
166 189 0
165 189 0
168 192 0
169 192 0
169 192 0
170 192 0
171 194 0
171 193 0
169 192 0
167 191 0
169 192 0
168 191 0
168 191 0
167 190 0
169 193 0
170 193 0
169 192 0
169 191 0
168 190 0
168 192 0
171 194 0
168 191 0
165 187 0
169 192 0
166 190 0
168 191 0
169 192 0
168 192 0
169 192 0
166 189 0
171 193 0
163 186 0
168 190 0
166 189 0
167 189 0
163 185 0
167 190 0
163 186 0
162 185 0
167 189 0
168 190 0
166 189 0
167 190 0
167 189 0
165 186 0
161 184 0
161 183 0
169 191 0
166 189 0
168 190 0
162 185 0
162 185 0
162 185 0
166 189 0
161 183 0
166 190 0
164 185 0
165 188 0
165 187 0
165 188 0
167 189 0
165 187 0
167 190 0
162 185 0
163 185 0
162 184 0
161 183 0
163 185 0
161 183 0
160 182 0
159 181 0
159 180 0
161 182 0
161 182 0
160 182 0
164 186 0
159 180 0
162 185 0
158 180 0
158 179 0
156 178 0
158 179 0
161 182 0
149 170 0
154 175 0
152 173 0
154 175 0
149 172 0
138 159 0
126 146 0
135 156 0
130 151 0
133 153 0
127 146 0
141 162 0
127 147 0
126 148 0
133 152 0
120 140 0
133 152 0
129 149 0
135 155 0
127 148 0
130 149 0
128 148 0
122 142 0
119 139 0
125 143 0
125 145 0
112 130 0
120 140 0
129 148 0
129 147 0
118 137 0
116 136 0
125 144 0
108 126 0
117 135 0
120 138 0
112 130 0
118 135 0
119 137 0
125 143 0
116 133 0
126 144 0
118 135 0
106 123 0
103 120 0
95 112 0
96 113 0
113 130 0
100 115 0
94 112 47
63 91 90
53 84 86
53 85 95
54 86 94
56 88 107
54 85 102
55 88 97
55 87 102
54 86 98
53 84 90
57 89 108
53 85 90
55 88 99
55 87 100
55 87 99
55 86 105
55 87 107
53 84 87
57 90 121
55 86 104
57 89 112
56 88 103
53 84 103
56 88 106
55 86 100
55 87 106
56 87 103
55 87 112
56 87 112
56 86 90
56 88 111
56 87 97
54 85 95
56 85 98
54 83 101
55 87 109
53 82 98
54 83 97
54 84 101
54 84 96
55 84 114
51 79 84
57 87 109
51 79 95
52 81 88
51 78 90
53 82 103
53 82 98
51 78 99
53 79 86
47 72 71
50 75 85
48 73 82
52 79 85
50 75 85
45 68 72
46 69 79
46 70 69
45 67 69
47 71 82
44 66 71
44 66 70
40 60 45
37 55 48
42 62 62
43 63 69
71 76 38
73 76 29
94 94 35
87 89 36
109 108 34
102 102 35
110 108 32
115 114 25
118 115 34
119 118 38
125 122 39
126 123 36
129 126 37
128 125 32
130 127 35
142 139 32
136 133 36
145 142 34
142 137 41
142 138 36
145 141 32
139 136 32
144 140 36
152 147 37
142 139 36
144 140 36
147 143 30
149 143 37
146 143 34
149 144 28
144 140 37
151 147 32
155 150 36
147 143 39
152 148 32
154 150 34
149 146 22
146 143 36
154 150 36
151 148 28
150 146 30
148 144 19
152 148 36
153 149 36
151 146 30
152 148 41
151 147 45
149 146 34
150 146 30
149 145 34
153 149 25
156 152 36
155 150 30
153 149 34
152 147 34
154 149 36
153 149 28
154 148 37
154 150 36
156 151 44
157 151 32
152 148 30
152 149 32
155 151 36
159 154 44
154 150 32
158 154 30
156 152 28
157 152 39
157 153 34
156 152 32
156 152 30
154 150 32
155 151 32
154 150 30
156 152 25
152 148 28
152 149 32
158 153 32
156 152 36
157 154 37
157 153 36
155 151 30
155 152 39
154 150 32
156 152 34
154 151 30
153 148 34
160 155 42
155 150 36
159 154 41
155 151 30
157 152 34
154 149 28
158 153 36
149 145 28
153 149 30
151 147 34
152 148 32
156 150 39
159 154 39
151 147 30
153 149 36
149 145 32
153 148 41
154 149 42
152 148 32
156 151 42
156 151 36
153 149 28
150 146 28
157 151 36
152 148 39
148 144 36
151 146 28
149 145 28
149 145 30
153 148 32
151 147 32
154 150 42
149 144 36
145 142 19
145 140 34
147 142 28
148 144 28
143 138 39
141 136 36
144 140 32
142 137 34
141 137 36
142 137 39
135 131 0
131 129 25
142 136 39
141 137 25
141 136 37
135 131 22
142 138 39
129 125 28
134 129 34
131 128 22
120 116 32
128 123 36
142 154 0
170 191 0
171 192 0
168 187 0
168 189 0
166 189 0
169 189 0
170 192 0
168 190 0
171 192 0
171 193 0
170 191 0
168 191 0
167 189 0
170 191 0
171 195 0
172 194 0
168 189 0
167 188 0
172 193 0
172 194 0
170 191 0
169 191 0
171 192 0
167 189 0
170 191 0
171 193 0
167 188 0
166 187 0
169 192 0
172 195 0
171 193 0
171 194 0
169 193 0
169 192 0
172 195 0
167 191 0
171 194 0
170 193 0
169 192 0
168 191 0
169 192 0
171 194 0
171 194 0
173 196 0
169 194 0
171 194 0
169 193 0
171 194 0
170 194 0
170 193 0
171 195 0
171 194 0
170 192 0
171 194 0
170 194 0
168 190 0
168 192 0
170 192 0
171 195 0
170 192 0
169 192 0
170 193 0
169 192 0
167 190 0
169 192 0
169 192 0
168 191 0
170 192 0
167 190 0
168 190 0
169 192 0
168 191 0
169 193 0
165 188 0
167 189 0
169 192 0
171 194 0
168 191 0
168 190 0
167 190 0
166 188 0
167 190 0
166 189 0
170 193 0
167 190 0
168 191 0
164 188 0
166 189 0
166 188 0
167 189 0
167 190 0
168 190 0
166 189 0
164 186 0
165 187 0
165 188 0
165 187 0
169 192 0
164 186 0
161 184 0
162 185 0
166 188 0
168 192 0
165 187 0
166 188 0
162 186 0
164 186 0
164 186 0
167 191 0
165 188 0
166 189 0
166 189 0
166 189 0
164 186 0
167 190 0
159 180 0
160 182 0
162 184 0
166 189 0
162 184 0
167 190 0
162 184 0
161 183 0
163 184 0
165 187 0
162 185 0
165 188 0
161 183 0
157 179 0
160 182 0
157 180 0
153 174 0
156 178 0
159 181 0
159 180 0
156 179 0
149 171 0
158 179 0
154 176 0
153 175 0
146 167 0
154 175 0
149 170 0
150 171 0
149 170 0
138 157 0
150 172 0
136 155 0
133 155 0
141 162 0
138 159 0
129 150 0
130 150 0
131 152 0
132 152 0
144 165 0
127 148 0
138 158 0
134 154 0
131 151 0
126 147 0
133 153 0
128 148 0
132 153 0
119 139 0
134 154 0
126 146 0
124 143 0
112 130 0
114 133 0
122 141 0
121 140 0
126 146 0
121 140 0
105 123 0
118 136 0
111 130 0
108 126 0
115 132 0
119 138 0
116 134 0
106 124 0
122 140 0
111 128 0
101 119 0
94 109 0
100 117 0
103 120 0
110 128 0
106 123 0
83 102 36
68 94 84
51 82 74
54 85 89
51 81 88
55 87 95
55 87 110
56 87 100
56 89 102
56 88 101
54 86 92
55 87 110
56 87 101
55 87 106
55 87 107
55 86 96
55 86 102
54 86 99
56 89 107
53 84 93
57 88 118
56 88 101
57 89 108
54 85 98
57 90 121
55 86 111
55 85 101
55 86 102
54 85 106
54 84 105
55 85 104
55 87 108
56 86 110
55 85 101
53 82 103
54 83 101
54 84 103
55 84 104
54 84 100
52 81 95
55 85 103
53 82 99
54 84 104
51 78 97
53 82 101
52 81 89
51 77 92
54 82 97
50 77 81
48 75 75
53 81 94
47 73 81
50 77 86
49 73 89
48 73 87
45 67 74
48 73 81
46 68 78
44 67 78
43 64 60
43 65 71
41 63 69
41 61 68
38 58 53
42 63 63
41 60 48
61 66 36
73 73 20
86 85 32
97 98 36
99 98 32
101 101 34
103 103 36
109 108 28
119 118 29
119 117 24
123 122 31
131 129 32
129 125 33
132 129 36
138 135 30
136 133 25
138 134 35
141 138 30
139 136 34
142 138 34
141 138 25
135 131 30
138 136 30
150 145 45
148 143 36
147 143 37
152 147 36
149 144 36
140 137 30
150 146 30
146 143 28
149 145 37
144 141 25
150 145 32
148 145 34
153 148 37
151 147 36
150 146 37
153 149 42
148 144 11
146 143 32
149 146 25
152 149 36
145 142 32
155 151 32
152 148 41
153 149 34
153 148 28
153 148 32
152 147 37
149 145 28
156 150 39
154 150 37
154 150 34
157 152 37
155 150 39
152 148 30
153 149 32
152 148 30
156 151 42
152 149 19
149 145 34
152 148 34
154 151 28
153 149 19
154 150 37
154 149 30
155 151 25
156 152 32
156 150 39
151 148 25
156 152 36
153 150 28
155 151 39
155 150 45
154 150 28
150 146 28
156 152 32
155 151 25
151 148 32
155 150 36
157 152 34
154 150 32
154 151 32
154 150 25
152 147 36
155 151 34
153 149 30
157 152 42
154 149 28
157 153 36
157 152 42
157 152 37
157 152 36
158 153 44
153 148 30
152 148 28
148 143 30
152 147 42
154 150 30
153 148 30
157 152 41
155 149 36
158 153 39
154 150 42
154 149 42
152 147 32
153 149 37
153 147 36
152 148 37
154 150 32
155 151 36
152 147 30
154 150 32
153 148 37
146 143 30
145 141 22
156 151 39
152 146 34
150 147 37
149 145 28
147 144 36
151 146 34
143 140 36
143 139 30
143 138 32
144 139 39
144 140 16
145 141 37
149 145 30
142 138 34
136 132 32
148 144 37
136 132 22
146 142 37
128 124 30
142 138 36
132 128 30
130 126 25
137 132 34
126 124 19
132 128 37
119 116 28
151 168 0
168 189 0
167 190 0
165 185 0
166 189 0
166 187 0
169 191 0
166 188 0
168 188 0
171 193 0
168 189 0
170 192 0
168 190 0
172 193 0
168 191 0
168 190 0
166 188 0
171 191 0
168 189 0
168 189 0
168 189 0
170 191 0
172 194 0
167 190 0
171 191 0
171 193 0
170 193 0
165 188 0
173 196 0
169 192 0
171 195 0
170 193 0
172 195 0
169 192 0
172 195 0
171 194 0
172 195 0
169 193 0
173 196 0
172 195 0
171 194 0
172 194 0
171 194 0
172 195 0
173 196 0
171 194 0
170 194 0
169 192 0
172 195 0
167 190 0
169 191 0
170 193 0
168 191 0
170 192 0
169 192 0
170 193 0
168 192 0
171 194 0
170 193 0
167 190 0
170 193 0
167 190 0
167 190 0
168 191 0
170 193 0
169 192 0
169 192 0
169 192 0
171 194 0
168 190 0
170 193 0
167 190 0
169 192 0
167 191 0
171 194 0
169 191 0
169 192 0
167 189 0
167 190 0
167 189 0
166 190 0
168 191 0
166 189 0
169 191 0
164 187 0
167 190 0
167 189 0
170 193 0
167 190 0
167 190 0
164 188 0
166 189 0
167 189 0
169 191 0
167 190 0
168 191 0
167 189 0
166 189 0
169 192 0
167 189 0
163 186 0
162 186 0
169 192 0
166 188 0
167 189 0
165 189 0
167 189 0
165 188 0
164 187 0
165 187 0
163 185 0
163 186 0
161 183 0
162 184 0
166 189 0
164 187 0
162 185 0
160 182 0
158 181 0
161 184 0
159 181 0
164 186 0
159 181 0
160 182 0
160 183 0
157 179 0
162 184 0
160 182 0
162 184 0
159 181 0
160 183 0
153 175 0
158 181 0
163 185 0
156 177 0
158 181 0
158 180 0
155 177 0
160 181 0
156 177 0
150 170 0
158 179 0
154 175 0
148 168 0
146 167 0
145 166 0
133 153 0
145 166 0
138 158 0
138 159 0
134 155 0
136 156 0
150 171 0
135 156 0
135 156 0
124 145 0
128 147 0
131 151 0
128 148 0
124 144 0
131 151 0
135 156 0
123 142 0
126 145 0
127 146 0
135 155 0
128 148 0
120 140 0
123 141 0
136 156 0
128 147 0
121 139 0
121 140 0
113 133 0
124 144 0
127 145 0
125 143 0
118 136 0
104 123 0
122 142 0
106 125 0
120 139 0
120 137 0
106 124 0
99 117 0
109 126 0
110 128 0
101 119 0
118 136 0
97 113 0
98 114 0
86 102 0
91 108 18
67 89 67
56 86 94
52 83 84
53 84 103
55 86 107
55 87 105
53 85 99
56 88 103
54 85 92
55 87 104
56 89 108
55 87 97
55 85 99
55 86 103
53 84 93
57 89 110
56 87 111
53 83 92
55 86 101
55 86 108
53 84 94
56 88 108
53 83 93
54 85 96
54 85 93
56 88 111
52 82 99
55 86 112
54 84 104
54 85 86
55 85 106
51 79 84
56 87 99
54 85 103
54 84 105
54 84 101
54 84 99
54 84 96
52 80 93
51 78 89
52 79 91
53 80 93
53 82 95
51 79 82
53 81 90
50 76 83
54 83 103
50 77 83
49 74 80
50 75 89
50 76 81
46 70 73
45 68 61
48 74 77
46 70 75
44 66 70
48 72 83
44 65 70
45 67 74
43 63 65
41 61 57
43 64 70
41 61 70
39 58 51
58 62 25
83 84 31
99 99 28
93 92 31
104 103 33
121 119 38
115 115 40
121 120 37
125 122 41
113 111 30
120 118 28
134 130 25
126 124 24
137 134 33
136 133 24
132 128 34
135 131 39
138 134 34
147 144 34
139 134 30
143 140 35
142 139 34
143 139 33
148 144 30
145 141 30
147 143 45
148 143 28
142 138 28
144 140 34
147 142 36
153 149 37
147 143 39
145 142 30
155 150 37
150 146 36
145 142 25
152 149 37
147 142 22
149 145 34
150 145 32
152 148 36
153 149 32
152 148 30
152 148 30
151 148 39
152 148 32
147 142 30
152 149 34
148 145 25
151 147 32
156 152 30
155 150 44
153 148 28
154 150 32
155 152 32
156 151 41
150 146 25
152 147 28
155 151 37
159 153 39
157 152 42
156 152 37
156 152 36
155 150 32
156 153 32
153 149 34
155 151 34
158 153 37
154 151 30
158 154 37
155 152 32
152 148 30
152 149 36
153 149 22
156 152 37
152 147 34
153 149 28
158 154 34
158 154 39
157 153 36
154 149 36
151 147 30
156 151 36
152 147 34
154 149 37
155 152 36
155 151 34
153 148 37
158 153 42
157 152 36
155 150 37
154 150 22
153 148 34
153 149 25
154 150 36
153 148 32
156 152 32
156 151 30
153 148 28
152 148 28
151 146 39
154 149 32
147 143 22
155 150 41
157 152 37
154 150 37
153 149 42
153 149 39
153 148 34
151 147 37
153 148 32
150 146 28
154 150 36
149 146 34
148 145 28
150 146 36
155 150 48
152 148 34
154 150 32
151 146 37
150 146 39
152 148 39
151 147 36
146 142 25
143 139 32
146 142 28
151 146 39
150 146 36
145 141 25
137 134 30
141 137 32
135 130 37
133 128 32
142 137 34
142 137 32
128 124 30
131 127 30
133 128 37
135 132 25
136 132 30
131 126 32
126 121 36
111 108 30
167 188 0
165 185 0
167 189 0
168 189 0
168 190 0
165 186 0
168 189 0
165 184 0
171 193 0
170 190 0
169 189 0
172 194 0
167 188 0
169 190 0
168 190 0
171 192 0
170 192 0
169 191 0
167 190 0
173 196 0
172 193 0
165 187 0
170 191 0
171 193 0
169 190 0
170 192 0
167 188 0
172 194 0
167 188 0
170 193 0
172 195 0
173 196 0
172 195 0
169 191 0
169 192 0
172 195 0
168 192 0
171 194 0
171 194 0
171 194 0
172 195 0
172 195 0
170 193 0
168 191 0
169 193 0
170 193 0
170 194 0
169 192 0
171 194 0
169 192 0
171 194 0
171 194 0
171 194 0
171 194 0
169 193 0
170 193 0
168 191 0
170 194 0
167 190 0
169 192 0
168 192 0
170 192 0
169 192 0
170 192 0
168 192 0
166 190 0
167 190 0
168 190 0
169 192 0
169 191 0
167 190 0
168 191 0
169 192 0
169 191 0
169 192 0
169 191 0
168 191 0
168 192 0
169 191 0
172 193 0
166 189 0
166 189 0
166 188 0
167 190 0
168 190 0
167 189 0
167 190 0
168 191 0
169 192 0
167 189 0
165 189 0
167 190 0
169 192 0
168 191 0
166 190 0
165 188 0
168 190 0
164 187 0
166 189 0
164 187 0
163 185 0
165 188 0
163 186 0
167 191 0
163 186 0
164 187 0
164 187 0
166 188 0
161 183 0
160 183 0
167 187 0
160 183 0
163 186 0
162 185 0
169 191 0
162 184 0
163 185 0
162 185 0
164 186 0
165 188 0
159 182 0
156 178 0
161 183 0
160 182 0
164 187 0
158 180 0
159 182 0
161 183 0
157 180 0
156 178 0
158 180 0
161 182 0
165 187 0
148 170 0
156 178 0
153 175 0
160 182 0
153 174 0
151 174 0
150 173 0
153 175 0
149 170 0
153 174 0
147 168 0
152 174 0
150 171 0
137 157 0
142 163 0
140 162 0
135 155 0
137 159 0
136 157 0
127 147 0
140 160 0
141 161 0
126 146 0
135 156 0
129 150 0
131 151 0
126 147 0
122 142 0
141 161 0
123 144 0
122 142 0
128 148 0
129 149 0
117 136 0
129 149 0
127 146 0
125 145 0
125 145 0
134 154 0
122 141 0
123 143 0
123 142 0
121 141 0
117 136 0
108 127 0
113 132 0
101 118 0
112 130 0
108 125 0
115 132 0
106 124 0
109 126 0
112 130 0
99 116 0
104 121 0
95 112 0
99 117 0
100 116 0
100 116 0
106 122 0
97 114 0
91 110 51
70 94 57
54 85 88
53 84 82
52 82 94
54 86 94
53 84 94
53 84 97
54 85 99
56 89 105
53 84 97
56 89 113
57 89 107
53 84 97
55 86 97
54 85 108
52 82 85
56 89 105
54 85 104
54 85 105
53 83 95
54 84 93
55 86 109
54 85 104
53 83 87
52 82 89
55 85 98
53 83 90
54 84 100
56 87 103
56 86 110
53 83 100
55 86 99
52 79 84
52 81 92
53 83 94
54 83 92
53 82 95
53 82 103
49 76 79
51 79 86
50 75 78
50 76 82
52 80 94
50 77 74
52 80 98
47 72 75
52 79 83
49 76 89
44 67 75
48 72 81
45 68 66
44 66 67
46 70 67
46 70 82
42 64 58
45 68 68
43 65 63
41 62 53
40 60 61
42 62 54
39 58 50
39 57 57
73 75 30
76 79 21
83 86 20
93 94 23
113 112 40
103 103 32
109 108 30
112 111 27
111 110 30
133 129 36
125 123 34
122 120 27
130 128 38
133 129 33
128 125 37
136 133 30
134 130 29
147 143 43
144 140 34
142 139 35
142 137 38
148 144 42
147 143 32
144 140 37
144 140 36
140 137 32
147 143 36
152 147 32
149 144 39
138 134 30
149 145 32
145 140 36
147 143 28
148 143 39
150 145 36
150 147 22
147 144 28
150 146 28
150 146 34
148 144 36
150 146 34
150 146 30
155 150 34
155 152 37
156 152 39
151 148 28
155 150 39
157 152 37
154 149 34
150 146 30
150 146 30
153 149 28
148 143 34
153 149 28
155 151 39
155 151 36
152 148 22
158 153 41
154 150 25
152 148 37
158 153 41
154 150 30
156 151 34
156 152 34
152 147 30
155 150 37
155 151 32
158 153 34
149 145 22
152 149 25
154 149 34
158 152 42
159 153 48
155 149 34
155 152 36
156 151 39
153 149 36
154 150 22
156 151 41
156 152 28
155 150 28
155 150 44
160 155 47
152 148 32
153 149 30
156 152 25
158 153 34
155 150 32
156 151 44
153 149 22
152 149 30
157 152 37
154 150 34
152 148 36
152 149 37
155 150 44
154 150 32
151 147 32
155 152 34
154 150 28
158 153 39
150 146 30
153 149 42
157 151 39
151 146 30
150 145 28
147 142 32
150 146 22
152 148 28
153 149 28
147 143 25
153 149 30
147 142 34
153 149 37
152 146 36
151 146 34
153 147 42
146 142 30
148 144 36
150 147 25
152 147 39
140 136 22
148 144 30
144 140 28
147 143 36
145 140 37
147 143 30
142 139 37
146 141 30
143 139 32
135 130 19
134 130 30
135 131 22
146 141 39
142 138 36
140 137 25
132 127 25
129 126 32
121 118 11
122 118 25
131 127 36
128 124 32
120 121 25
169 188 0
166 187 0
167 188 0
169 190 0
169 189 0
169 189 0
170 191 0
170 191 0
169 192 0
172 192 0
168 190 0
165 185 0
173 194 0
168 188 0
173 194 0
169 189 0
171 192 0
172 194 0
167 190 0
171 193 0
168 189 0
169 189 0
169 190 0
171 191 0
172 192 0
171 192 0
170 193 0
171 194 0
170 192 0
170 192 0
169 192 0
173 196 0
171 194 0
173 196 0
171 195 0
172 195 0
172 194 0
168 191 0
171 194 0
171 194 0
171 194 0
170 194 0
169 192 0
170 192 0
170 194 0
171 194 0
171 194 0
170 193 0
169 192 0
171 194 0
170 193 0
169 191 0
170 192 0
169 193 0
170 193 0
170 193 0
169 192 0
170 193 0
168 191 0
171 193 0
168 191 0
170 193 0
168 192 0
168 190 0
173 195 0
169 192 0
169 192 0
168 191 0
170 192 0
168 190 0
165 188 0
165 189 0
165 188 0
167 190 0
168 191 0
166 189 0
169 192 0
169 193 0
168 191 0
167 189 0
169 192 0
167 190 0
164 187 0
168 191 0
166 188 0
168 191 0
167 190 0
168 190 0
167 190 0
166 189 0
167 190 0
170 193 0
168 191 0
164 187 0
169 192 0
167 190 0
165 188 0
167 190 0
166 189 0
164 187 0
164 187 0
162 185 0
168 190 0
168 190 0
166 188 0
163 186 0
163 185 0
167 188 0
167 189 0
162 185 0
165 188 0
166 189 0
163 185 0
166 189 0
161 184 0
164 186 0
163 185 0
160 183 0
161 183 0
164 187 0
161 184 0
159 181 0
162 184 0
163 185 0
158 180 0
160 182 0
158 181 0
159 182 0
159 180 0
159 182 0
158 180 0
155 177 0
151 173 0
159 181 0
151 173 0
161 183 0
160 183 0
159 181 0
147 168 0
151 173 0
149 171 0
152 174 0
151 172 0
145 166 0
153 175 0
149 171 0
143 166 0
135 156 0
138 159 0
137 157 0
130 151 0
138 159 0
134 155 0
126 146 0
141 163 0
139 160 0
135 157 0
130 151 0
127 147 0
133 154 0
137 158 0
135 156 0
125 145 0
140 161 0
127 146 0
124 145 0
134 155 0
136 158 0
124 143 0
119 137 0
116 136 0
126 147 0
120 139 0
111 130 0
118 138 0
116 134 0
125 143 0
118 137 0
123 142 0
118 136 0
110 128 0
119 137 0
107 124 0
106 124 0
114 132 0
108 125 0
119 137 0
102 119 0
101 118 0
98 116 0
99 115 0
110 128 0
101 118 0
100 118 0
109 124 0
100 115 0
83 102 50
55 84 75
54 86 86
52 83 100
56 88 103
53 83 81
53 84 94
55 87 99
54 86 93
56 89 108
55 86 105
57 89 107
53 84 92
55 86 110
53 84 103
55 87 100
55 85 97
54 85 99
55 86 106
53 83 87
56 87 104
53 84 96
56 87 101
54 86 96
53 84 88
53 84 103
54 84 96
55 85 102
54 83 96
52 82 91
51 79 91
53 83 97
52 81 93
55 85 94
52 80 91
50 78 71
52 79 88
52 80 91
50 77 87
49 76 83
51 78 79
49 75 86
48 74 92
49 76 89
50 76 81
47 71 74
48 73 71
49 74 69
44 68 67
46 69 75
46 70 75
47 72 86
43 65 63
44 67 59
43 64 55
41 61 59
42 64 66
37 56 41
42 62 51
38 57 45
37 54 42
65 66 28
78 78 24
83 85 25
97 96 37
101 100 29
114 111 36
115 113 26
122 119 34
126 123 31
124 121 30
126 124 31
123 121 34
128 124 38
137 133 38
132 129 41
131 128 32
138 134 37
134 132 29
146 142 38
143 140 30
147 142 32
144 141 25
143 140 22
148 143 36
142 138 32
147 143 25
146 143 37
147 143 34
142 139 22
150 146 28
147 142 34
146 140 34
139 134 28
146 142 25
150 145 34
153 147 34
149 145 19
147 143 36
148 145 32
149 145 30
154 149 34
153 149 36
152 148 34
150 146 30
154 150 36
151 148 25
154 150 37
154 150 22
154 149 44
155 151 32
151 147 36
155 150 32
156 152 34
153 149 28
152 148 30
155 151 22
156 151 22
152 148 22
154 150 34
157 152 39
151 147 19
160 155 42
153 150 30
151 146 22
149 145 22
155 150 36
155 151 36
153 148 28
154 149 34
157 152 34
156 152 34
157 153 32
153 149 30
156 151 34
158 153 36
154 151 28
155 150 36
154 150 32
155 151 32
150 146 19
158 153 49
155 151 34
152 148 39
155 151 36
157 153 34
154 150 34
154 149 28
154 150 36
154 150 32
156 151 34
150 147 28
155 151 34
152 148 36
153 148 42
157 152 36
151 147 39
155 150 36
152 148 36
156 151 34
155 150 36
151 146 28
155 152 34
156 150 37
157 152 44
152 149 30
152 148 39
153 148 34
151 145 44
150 144 37
151 147 32
148 144 28
150 146 30
148 144 36
149 145 34
142 138 28
144 140 30
151 146 39
155 151 42
148 144 30
150 146 36
141 138 16
143 139 34
146 142 22
152 147 36
145 141 30
147 143 39
144 140 44
147 143 28
146 142 25
143 139 28
143 139 37
144 139 42
133 129 22
142 139 30
131 128 22
142 137 37
129 125 28
133 130 25
135 132 32
130 125 25
135 132 32
116 113 32
137 141 19
170 189 0
167 188 0
170 192 0
171 192 0
167 189 0
170 190 0
167 188 0
167 187 0
162 183 0
167 188 0
170 191 0
169 190 0
169 191 0
167 187 0
168 189 0
169 191 0
167 188 0
171 192 0
170 192 0
167 189 0
173 195 0
170 191 0
170 192 0
168 189 0
167 187 0
170 192 0
171 192 0
169 191 0
170 191 0
170 194 0
169 191 0
169 192 0
173 195 0
171 195 0
172 195 0
170 194 0
171 193 0
172 196 0
171 194 0
169 192 0
171 194 0
170 192 0
169 192 0
172 195 0
171 193 0
170 193 0
169 192 0
167 191 0
170 193 0
171 194 0
168 191 0
170 193 0
169 192 0
167 190 0
168 191 0
169 193 0
170 194 0
168 191 0
168 191 0
170 193 0
169 193 0
168 192 0
168 192 0
170 194 0
170 193 0
171 194 0
169 192 0
167 190 0
167 189 0
169 192 0
169 193 0
168 191 0
170 193 0
169 192 0
169 192 0
166 189 0
168 191 0
170 192 0
167 189 0
168 191 0
167 191 0
168 192 0
169 192 0
167 190 0
168 191 0
165 188 0
167 190 0
166 188 0
170 192 0
164 186 0
168 191 0
166 188 0
168 192 0
165 187 0
166 189 0
161 183 0
164 187 0
162 185 0
167 190 0
168 191 0
164 186 0
164 187 0
165 188 0
161 183 0
161 183 0
166 188 0
165 188 0
169 192 0
159 181 0
165 188 0
163 186 0
162 184 0
166 188 0
165 188 0
163 186 0
162 184 0
165 188 0
162 184 0
162 184 0
165 188 0
162 184 0
160 182 0
158 181 0
166 188 0
162 185 0
162 184 0
161 183 0
161 182 0
165 188 0
159 180 0
157 179 0
156 177 0
160 182 0
152 174 0
156 179 0
154 175 0
162 184 0
152 174 0
151 173 0
161 184 0
151 173 0
150 171 0
149 169 0
150 170 0
144 165 0
142 163 0
136 157 0
147 167 0
140 161 0
142 164 0
136 157 0
132 152 0
138 160 0
135 156 0
145 166 0
132 152 0
137 158 0
139 161 0
127 148 0
128 148 0
137 157 0
122 142 0
122 141 0
121 140 0
119 139 0
112 131 0
122 143 0
125 146 0
124 144 0
133 153 0
135 154 0
108 126 0
118 138 0
124 143 0
118 138 0
118 137 0
116 136 0
106 126 0
120 139 0
123 142 0
109 128 0
119 138 0
104 121 0
111 130 0
118 137 0
115 134 0
102 121 0
116 134 0
104 121 0
99 116 0
87 103 0
108 125 0
90 106 0
93 109 0
107 123 0
93 109 0
98 113 0
93 110 18
72 95 60
49 79 72
53 85 94
53 84 89
54 84 98
53 85 88
53 83 94
53 85 84
56 87 99
52 82 76
54 85 100
53 84 76
53 83 92
55 87 106
55 86 101
54 84 97
54 84 98
52 82 96
53 82 89
52 82 96
56 88 109
53 84 91
53 82 103
53 82 91
54 85 101
53 83 93
52 81 84
51 80 85
54 83 95
50 79 76
55 85 109
55 85 97
52 81 94
50 77 90
49 75 67
52 79 90
50 77 86
49 74 69
52 79 82
48 75 87
49 76 86
50 77 91
48 74 82
50 77 74
47 70 78
46 70 66
48 71 74
48 72 78
47 71 79
42 64 50
46 69 58
41 61 54
43 64 62
42 63 45
43 64 59
38 57 48
37 55 44
37 54 48
32 48 43
71 74 30
70 73 30
92 92 26
94 95 24
94 94 24
117 115 34
114 113 28
103 102 25
121 120 37
125 123 25
120 118 35
132 129 34
127 124 44
122 121 34
134 131 35
135 131 27
143 140 41
135 131 34
144 140 43
141 138 28
137 135 30
139 136 30
148 143 40
150 147 39
142 139 28
148 143 44
148 144 36
146 143 25
145 141 22
147 143 28
144 141 34
149 145 32
147 143 30
151 146 42
152 147 37
146 141 30
148 144 32
148 143 25
146 143 19
151 147 36
150 146 34
152 149 32
151 147 32
148 144 28
157 152 37
153 149 36
153 148 36
153 150 30
153 149 30
153 149 32
152 147 34
152 148 34
151 146 32
152 148 32
153 149 36
154 150 28
155 151 36
153 149 32
157 153 32
156 151 37
154 150 34
153 148 25
157 152 34
153 148 32
159 154 41
157 153 36
156 153 37
154 150 28
154 150 32
159 155 42
157 152 32
157 153 36
152 148 34
157 152 39
157 153 37
158 152 36
154 151 34
157 153 30
154 150 32
156 152 37
153 149 30
156 152 32
150 146 11
155 150 30
151 147 32
158 153 34
151 147 28
155 150 36
157 152 32
154 150 25
152 149 25
152 148 34
152 147 34
153 149 36
152 148 37
152 148 39
155 150 34
152 148 30
154 150 41
154 149 32
152 148 30
154 148 32
154 151 30
149 145 36
154 150 34
153 150 28
153 149 32
152 147 36
152 147 39
152 148 34
150 146 39
153 149 25
152 148 37
157 152 44
151 147 28
150 147 25
148 142 36
150 145 36
152 148 36
152 148 42
148 144 32
148 143 42
141 137 34
143 139 28
144 141 32
147 143 32
151 147 39
144 140 22
149 145 34
130 127 30
144 140 36
143 140 34
141 138 25
135 132 34
143 140 22
136 132 34
132 127 28
134 131 34
133 130 34
118 114 22
123 120 25
122 118 32
142 152 16
165 185 0
170 191 0
169 190 0
168 190 0
169 189 0
166 187 0
162 185 0
166 188 0
169 188 0
169 190 0
170 192 0
168 189 0
168 189 0
171 191 0
170 192 0
169 190 0
171 192 0
171 193 0
173 194 0
169 190 0
169 191 0
166 189 0
170 191 0
169 192 0
169 192 0
168 188 0
168 190 0
170 192 0
169 191 0
171 194 0
170 194 0
169 193 0
170 194 0
173 196 0
169 193 0
170 193 0
169 194 0
174 196 0
171 194 0
169 192 0
170 193 0
168 191 0
171 193 0
171 194 0
172 195 0
172 195 0
169 192 0
168 192 0
171 194 0
165 188 0
169 192 0
170 193 0
169 192 0
172 196 0
170 194 0
169 192 0
169 192 0
171 194 0
165 189 0
171 194 0
169 192 0
169 193 0
167 190 0
169 192 0
169 192 0
169 192 0
169 192 0
169 192 0
166 188 0
170 192 0
169 191 0
165 188 0
169 192 0
169 193 0
167 191 0
168 190 0
167 191 0
164 187 0
166 190 0
167 190 0
163 186 0
167 189 0
166 190 0
170 192 0
164 187 0
168 192 0
166 189 0
168 190 0
166 189 0
164 186 0
166 188 0
167 190 0
165 188 0
161 184 0
166 189 0
163 185 0
167 191 0
167 190 0
165 188 0
163 185 0
166 189 0
165 187 0
164 186 0
167 189 0
163 185 0
164 187 0
165 188 0
163 185 0
164 186 0
163 186 0
165 188 0
166 189 0
162 184 0
165 187 0
159 182 0
162 184 0
163 185 0
162 184 0
162 185 0
159 181 0
161 183 0
161 183 0
160 183 0
161 184 0
159 180 0
162 185 0
163 185 0
161 183 0
159 181 0
157 178 0
162 185 0
160 182 0
160 181 0
158 181 0
156 179 0
156 178 0
154 176 0
157 179 0
154 176 0
145 166 0
151 172 0
156 178 0
153 175 0
150 172 0
156 178 0
156 178 0
141 162 0
148 169 0
149 172 0
141 160 0
136 157 0
146 168 0
135 156 0
140 162 0
141 161 0
137 158 0
138 158 0
129 150 0
131 150 0
139 161 0
134 153 0
135 154 0
142 163 0
126 147 0
133 153 0
132 151 0
132 153 0
134 154 0
129 149 0
122 141 0
125 146 0
123 143 0
120 139 0
125 144 0
105 124 0
118 137 0
116 136 0
117 136 0
123 143 0
124 142 0
118 137 0
124 143 0
115 134 0
108 126 0
124 143 0
115 134 0
111 128 0
97 114 0
119 136 0
101 118 0
109 126 0
108 126 0
106 124 0
91 108 0
99 114 0
103 119 0
97 112 0
111 128 0
93 109 0
88 104 25
64 87 57
49 78 90
51 81 82
52 82 95
51 82 93
51 80 94
51 81 90
52 83 82
52 81 83
56 88 104
54 85 100
55 86 91
52 83 85
55 86 97
56 87 104
53 84 104
53 83 96
53 83 95
50 79 72
54 85 90
54 85 102
54 84 100
53 82 94
53 83 89
55 86 103
51 79 78
51 78 74
51 78 72
53 82 90
50 76 78
52 80 101
51 80 88
48 74 62
52 81 86
50 75 79
52 80 88
52 81 95
51 78 92
51 78 89
49 77 95
50 77 84
46 72 73
45 68 75
47 71 71
49 73 78
47 71 65
48 71 70
44 68 58
41 60 40
44 64 54
39 58 48
42 64 61
36 55 54
40 60 53
38 58 65
35 54 31
51 66 33
62 64 24
78 80 24
101 102 31
88 87 31
109 109 34
111 110 27
116 114 25
119 116 41
116 113 27
117 116 33
126 124 35
131 128 31
125 124 34
137 133 32
133 130 25
142 138 32
133 130 25
135 131 35
146 142 41
146 143 26
140 137 29
149 145 36
141 138 28
146 142 28
145 142 26
148 144 36
149 145 32
144 140 25
148 144 28
148 144 28
154 149 34
148 143 28
147 144 28
141 137 28
148 145 34
151 147 36
149 145 30
147 142 32
149 145 36
151 146 39
152 147 34
152 147 25
156 151 28
156 151 36
152 149 32
154 149 37
152 147 36
151 147 19
152 148 22
151 146 37
155 152 30
151 147 36
153 148 32
150 146 30
155 151 34
153 149 30
158 153 41
156 152 36
146 142 30
154 149 30
154 150 34
154 150 36
154 150 37
155 151 28
154 150 28
157 153 41
156 152 32
152 147 32
154 149 36
154 150 32
159 155 45
157 152 34
150 147 25
156 152 28
150 145 28
155 151 28
159 154 36
155 151 37
156 151 32
156 151 42
155 150 25
153 148 30
151 147 25
157 153 41
154 149 39
151 147 25
156 151 36
156 151 41
156 152 30
153 149 22
159 154 47
154 149 39
159 153 41
158 153 41
152 149 39
156 152 39
153 148 34
153 148 32
154 150 32
155 151 34
152 149 28
153 149 42
152 148 32
153 149 34
150 145 34
152 148 30
151 147 32
154 149 37
150 146 22
151 148 37
154 150 34
149 144 42
155 150 39
152 148 30
148 143 42
154 149 37
150 145 39
147 143 22
152 147 36
153 148 45
149 145 22
145 141 36
147 142 37
146 142 25
148 143 37
149 145 32
139 134 19
136 132 30
144 140 25
143 139 32
145 140 42
134 130 28
134 130 34
139 135 28
138 134 30
143 140 34
132 128 25
121 117 19
133 129 36
134 129 42
126 121 28
120 118 22
157 173 11
169 190 0
165 186 0
171 192 0
169 189 0
162 181 0
164 184 0
168 189 0
165 185 0
169 189 0
167 186 0
166 187 0
168 189 0
168 189 0
169 191 0
170 192 0
170 192 0
167 187 0
168 190 0
170 191 0
167 188 0
170 192 0
171 193 0
169 192 0
170 192 0
166 186 0
170 190 0
168 190 0
168 190 0
171 192 0
169 192 0
170 194 0
173 195 0
169 192 0
171 194 0
171 194 0
171 194 0
171 194 0
171 194 0
172 195 0
170 194 0
169 191 0
169 193 0
171 194 0
170 194 0
169 193 0
171 193 0
168 191 0
168 191 0
171 194 0
170 193 0
171 194 0
171 193 0
170 194 0
167 189 0
169 192 0
167 190 0
171 194 0
171 194 0
167 190 0
171 193 0
169 192 0
167 190 0
169 192 0
167 190 0
168 192 0
167 190 0
169 191 0
170 192 0
170 191 0
168 191 0
166 188 0
168 189 0
167 191 0
167 189 0
169 192 0
170 193 0
167 191 0
168 191 0
165 188 0
169 191 0
167 190 0
170 193 0
169 191 0
170 193 0
167 190 0
168 191 0
169 192 0
167 190 0
167 189 0
168 190 0
167 190 0
163 186 0
167 190 0
163 186 0
166 188 0
164 186 0
169 191 0
167 190 0
162 184 0
166 189 0
166 188 0
163 185 0
165 187 0
167 189 0
166 189 0
162 185 0
161 184 0
164 187 0
164 186 0
164 188 0
159 182 0
160 183 0
162 185 0
163 186 0
158 181 0
165 187 0
163 186 0
166 189 0
163 186 0
165 187 0
160 183 0
161 183 0
162 184 0
163 185 0
161 184 0
160 182 0
161 184 0
158 180 0
161 184 0
150 173 0
152 173 0
156 178 0
158 181 0
153 175 0
156 178 0
158 180 0
153 175 0
147 169 0
150 171 0
152 174 0
155 176 0
146 168 0
147 169 0
152 174 0
148 168 0
153 175 0
144 164 0
143 165 0
140 162 0
136 157 0
134 154 0
138 158 0
130 151 0
136 158 0
138 159 0
137 158 0
133 154 0
136 156 0
144 165 0
140 161 0
135 156 0
126 145 0
143 163 0
133 154 0
129 149 0
143 165 0
126 146 0
134 154 0
132 152 0
123 142 0
117 137 0
119 139 0
118 138 0
124 144 0
126 147 0
121 139 0
111 129 0
119 138 0
123 143 0
116 135 0
118 137 0
114 133 0
122 140 0
117 136 0
121 140 0
107 126 0
106 123 0
114 133 0
98 116 0
101 119 0
106 123 0
107 125 0
98 115 0
101 117 0
92 109 0
92 109 0
89 107 0
100 116 0
90 105 0
99 115 0
101 117 0
74 91 25
68 90 67
52 82 72
50 79 81
52 82 76
51 81 77
51 81 89
51 81 87
52 82 85
52 82 87
53 83 99
54 85 96
53 84 98
52 81 91
52 81 87
52 82 86
52 81 86
55 85 104
54 83 96
55 86 108
50 78 81
54 85 92
52 81 93
53 81 94
53 81 90
52 81 95
53 82 87
52 81 90
54 84 96
47 72 70
50 77 80
50 76 86
48 75 84
53 81 96
48 74 84
49 74 80
49 75 76
47 72 81
50 77 82
48 74 78
47 71 69
47 71 76
48 73 86
44 67 66
43 64 56
43 65 64
43 64 58
44 65 61
43 65 71
46 68 70
40 59 48
39 60 57
39 58 35
56 68 29
76 89 20
81 92 0
59 60 18
89 88 21
97 97 26
98 98 25
97 97 31
112 110 24
108 107 25
112 112 29
120 117 37
124 122 37
121 119 32
132 130 40
134 131 39
135 132 35
128 126 26
133 130 34
142 139 33
137 134 33
144 140 36
149 145 37
143 140 32
144 141 34
141 138 28
140 136 37
150 147 28
143 140 30
148 145 30
145 142 28
149 145 32
150 146 37
149 144 34
148 144 32
149 144 37
149 145 34
150 146 28
156 152 30
148 144 34
147 143 32
153 149 34
150 146 30
149 144 30
151 147 36
149 146 28
152 147 37
156 152 32
150 146 32
152 148 42
147 144 19
150 146 32
155 151 30
152 148 32
154 149 28
151 147 25
156 151 34
151 146 22
153 149 32
153 150 25
154 149 37
156 151 45
155 150 32
156 152 30
156 151 39
156 149 42
155 150 30
157 151 42
154 149 36
154 149 34
157 153 37
153 149 30
154 150 34
154 149 32
154 150 32
154 149 34
146 144 19
158 153 39
156 151 37
154 150 39
158 152 37
159 155 37
153 148 34
156 152 36
149 145 30
159 154 42
157 153 41
153 149 30
155 150 32
151 147 28
156 151 32
151 148 39
153 148 39
150 146 19
152 148 32
157 152 39
153 148 30
153 148 34
151 147 28
153 149 25
159 152 42
155 150 32
153 148 39
154 149 30
148 143 41
150 146 34
153 149 37
154 149 36
156 152 39
149 146 32
151 146 36
150 146 34
149 145 30
149 146 28
147 142 36
151 147 36
150 145 34
153 149 47
150 146 32
150 147 30
152 147 41
152 146 36
148 144 32
146 142 25
144 139 37
146 142 32
143 139 36
150 146 34
143 139 32
146 141 25
146 141 36
151 146 41
144 139 32
139 135 36
143 138 36
141 136 39
138 135 19
138 133 19
142 137 32
134 129 32
132 128 32
132 128 25
129 124 34
122 118 30
127 123 37
163 181 0
167 187 0
167 189 0
165 186 0
166 186 0
165 186 0
167 187 0
168 189 0
170 190 0
167 188 0
164 185 0
168 187 0
169 191 0
172 193 0
167 190 0
169 191 0
172 193 0
166 188 0
170 189 0
163 185 0
172 194 0
169 191 0
171 193 0
168 190 0
170 193 0
172 194 0
172 193 0
168 191 0
170 192 0
170 193 0
172 195 0
169 192 0
172 194 0
170 194 0
170 193 0
169 192 0
171 195 0
172 195 0
170 193 0
172 194 0
170 194 0
169 192 0
170 194 0
171 194 0
170 193 0
171 193 0
167 190 0
169 192 0
170 194 0
169 192 0
171 194 0
168 192 0
169 192 0
172 196 0
169 191 0
169 193 0
171 194 0
169 191 0
171 194 0
169 191 0
170 193 0
170 193 0
169 192 0
167 190 0
169 191 0
170 194 0
167 190 0
167 190 0
169 192 0
171 194 0
168 191 0
168 192 0
168 191 0
170 192 0
167 190 0
169 192 0
170 193 0
170 193 0
167 189 0
164 187 0
169 192 0
165 188 0
166 190 0
167 189 0
166 189 0
170 192 0
167 191 0
167 189 0
168 190 0
162 185 0
168 191 0
168 191 0
169 192 0
166 189 0
168 191 0
167 190 0
165 188 0
163 185 0
166 188 0
168 189 0
169 191 0
164 187 0
163 185 0
166 188 0
164 186 0
164 187 0
164 187 0
159 180 0
160 183 0
165 186 0
158 181 0
165 187 0
166 188 0
162 185 0
161 184 0
161 184 0
167 190 0
159 181 0
163 187 0
166 189 0
164 187 0
159 181 0
159 182 0
163 186 0
162 184 0
164 187 0
159 182 0
162 186 0
162 184 0
156 177 0
154 177 0
156 179 0
155 175 0
159 181 0
153 175 0
158 180 0
151 173 0
158 178 0
143 166 0
151 174 0
145 166 0
151 172 0
156 179 0
150 172 0
158 180 0
140 162 0
141 162 0
138 160 0
155 178 0
143 164 0
142 161 0
137 159 0
140 160 0
141 161 0
136 158 0
136 156 0
145 168 0
136 156 0
141 162 0
132 152 0
133 154 0
140 160 0
134 155 0
134 154 0
135 156 0
132 153 0
129 150 0
136 156 0
125 146 0
131 152 0
123 143 0
126 146 0
129 148 0
126 147 0
128 148 0
127 147 0
120 139 0
121 141 0
119 137 0
118 136 0
125 144 0
127 146 0
117 136 0
118 137 0
116 135 0
113 132 0
117 136 0
106 123 0
103 121 0
115 134 0
94 111 0
106 124 0
104 121 0
118 137 0
87 104 0
109 126 0
105 122 0
103 118 0
97 114 0
94 111 0
93 109 0
93 108 0
101 116 0
87 101 0
86 101 18
67 87 51
56 83 71
51 81 81
52 82 81
53 84 90
50 79 77
52 82 88
51 80 77
52 82 90
52 82 91
50 80 76
52 82 95
52 83 89
48 75 69
52 82 93
51 80 82
52 81 84
52 81 83
50 77 73
53 83 80
51 80 89
50 79 82
54 85 88
52 80 89
48 75 81
50 77 83
52 80 81
50 78 85
51 79 85
50 77 76
50 78 77
52 79 89
50 78 75
49 75 84
49 76 76
49 76 77
45 69 63
47 72 77
47 73 80
46 71 78
43 65 56
43 66 58
46 70 63
43 66 62
40 61 59
41 62 54
39 59 55
36 53 43
61 75 30
87 97 0
80 89 0
90 101 0
76 86 8
53 58 20
93 94 28
80 82 30
92 93 30
108 108 23
111 110 22
109 107 28
106 105 33
119 117 33
124 121 25
129 127 40
132 128 30
142 138 44
138 135 33
138 133 31
135 132 30
134 131 30
139 135 31
143 139 32
144 140 37
141 136 32
138 135 26
148 144 36
148 144 30
144 140 39
147 142 34
147 143 42
149 144 32
153 147 36
147 143 30
149 145 37
148 144 34
151 146 25
147 143 34
144 140 19
153 148 32
150 145 36
147 144 28
150 146 30
148 144 28
153 149 36
147 144 30
152 148 36
150 146 34
149 146 28
153 148 30
153 149 28
150 147 22
152 148 25
150 147 32
152 149 32
152 147 30
154 149 30
149 145 19
155 150 39
153 149 32
154 150 34
152 150 30
153 149 36
153 149 32
155 150 37
156 151 42
153 148 44
157 152 34
151 147 25
153 149 25
158 154 41
156 151 32
154 149 34
155 151 34
153 149 25
156 151 28
155 150 36
153 149 30
156 152 30
156 152 30
155 149 42
153 148 32
155 151 34
154 150 28
155 149 37
155 151 37
153 150 28
154 148 36
153 149 32
151 148 36
155 151 30
159 153 41
154 150 30
156 149 36
157 151 37
154 150 41
154 149 34
154 150 32
150 145 32
152 147 36
154 150 34
151 146 36
156 151 37
152 148 37
147 143 37
154 150 28
155 150 34
156 150 36
157 153 34
155 151 30
153 148 28
155 149 41
155 150 36
153 149 25
149 145 28
156 150 39
151 147 37
151 146 36
149 144 34
149 145 28
153 148 39
154 149 37
151 147 34
151 147 34
151 147 36
148 144 30
147 141 44
146 142 30
139 136 28
151 147 34
146 142 34
143 138 32
149 143 30
144 140 22
138 133 36
136 131 32
139 135 32
138 134 37
126 123 19
132 128 30
128 124 22
135 131 34
127 123 25
133 129 30
120 116 19
131 131 19
164 182 0
165 186 0
167 188 0
168 189 0
168 188 0
163 183 0
168 189 0
166 188 0
168 189 0
164 184 0
170 190 0
169 189 0
167 189 0
170 192 0
167 188 0
168 190 0
168 189 0
171 191 0
168 188 0
173 193 0
168 190 0
169 188 0
169 190 0
171 192 0
168 190 0
171 190 0
166 187 0
168 190 0
168 189 0
169 191 0
172 195 0
172 195 0
170 193 0
170 193 0
168 191 0
170 193 0
172 194 0
172 195 0
170 194 0
171 194 0
171 194 0
172 194 0
170 193 0
172 195 0
168 192 0
169 193 0
170 193 0
172 195 0
171 194 0
169 192 0
169 192 0
171 194 0
167 190 0
167 190 0
171 195 0
170 193 0
169 192 0
167 190 0
170 192 0
169 193 0
170 193 0
168 190 0
171 193 0
171 194 0
169 191 0
168 191 0
168 190 0
169 192 0
164 188 0
169 191 0
166 189 0
166 189 0
171 193 0
165 188 0
170 192 0
170 192 0
166 189 0
171 193 0
168 190 0
169 192 0
163 186 0
163 186 0
165 188 0
168 192 0
167 190 0
163 186 0
166 189 0
167 190 0
167 189 0
164 186 0
168 191 0
165 189 0
169 191 0
166 189 0
165 187 0
165 188 0
168 190 0
166 189 0
168 190 0
165 188 0
166 189 0
166 188 0
163 185 0
163 186 0
165 187 0
165 187 0
164 186 0
165 187 0
161 183 0
165 187 0
167 190 0
163 185 0
167 191 0
156 178 0
166 189 0
162 185 0
163 186 0
159 182 0
162 184 0
164 187 0
160 183 0
159 182 0
159 181 0
158 180 0
163 185 0
161 183 0
162 184 0
159 182 0
162 185 0
157 179 0
161 184 0
154 176 0
160 182 0
149 170 0
159 181 0
156 178 0
157 180 0
151 173 0
150 172 0
157 178 0
151 173 0
148 170 0
155 176 0
152 174 0
149 170 0
147 168 0
149 170 0
149 171 0
146 168 0
154 175 0
155 175 0
145 166 0
137 159 0
139 160 0
139 159 0
138 159 0
140 160 0
133 153 0
141 163 0
132 152 0
142 164 0
132 154 0
146 167 0
125 146 0
131 152 0
129 149 0
137 158 0
130 151 0
143 164 0
133 154 0
131 151 0
122 142 0
126 147 0
131 151 0
123 142 0
125 146 0
121 139 0
134 153 0
128 147 0
125 144 0
124 143 0
124 142 0
119 138 0
130 149 0
120 139 0
109 127 0
114 132 0
126 145 0
118 137 0
110 129 0
113 130 0
111 127 0
111 129 0
107 125 0
114 131 0
113 130 0
102 119 0
101 118 0
94 111 0
96 112 0
109 126 0
97 113 0
95 111 0
92 107 0
89 104 0
79 94 0
96 110 0
67 85 47
65 88 66
53 82 89
50 79 70
50 80 77
50 80 89
52 82 86
50 79 75
51 80 78
48 77 75
52 82 75
50 78 71
51 80 85
53 82 91
50 79 78
51 80 91
51 80 86
53 81 97
50 78 85
52 81 88
50 78 87
52 81 73
50 78 76
52 79 97
50 78 84
50 77 75
50 78 81
48 75 78
50 78 88
48 73 63
44 69 58
48 73 78
48 73 86
47 71 64
48 74 76
44 66 56
47 70 62
44 68 59
43 65 67
39 59 60
42 63 50
40 61 46
43 64 60
40 55 44
71 84 30
67 78 0
70 79 0
73 84 0
85 94 0
96 106 0
87 97 10
59 60 19
78 80 29
92 93 32
105 104 32
100 101 23
110 110 32
105 104 22
121 116 31
120 118 33
131 128 27
125 122 35
128 125 28
131 128 37
140 136 38
133 130 37
143 139 30
133 129 30
134 130 32
133 130 27
141 138 33
135 132 35
141 137 32
148 144 45
146 143 34
146 142 32
147 143 28
144 140 22
137 134 22
149 145 32
148 143 36
146 142 34
145 141 30
144 141 28
152 147 36
148 145 19
151 146 36
148 143 30
150 146 28
149 145 34
147 143 30
150 146 39
153 149 36
152 147 32
150 145 30
145 142 28
150 147 22
151 146 34
150 145 39
151 147 34
149 145 25
151 148 32
153 149 32
155 151 36
150 147 28
149 144 30
150 145 34
154 150 19
153 148 34
148 143 28
153 149 30
155 149 36
153 149 30
155 150 42
156 152 32
155 151 36
154 150 28
153 149 32
152 148 30
156 151 30
153 149 34
155 151 32
159 154 44
153 149 36
154 150 22
158 152 32
156 151 28
157 152 30
151 148 22
155 151 28
156 151 36
152 148 34
153 149 32
150 146 19
157 153 37
155 151 30
154 149 36
156 150 42
154 151 25
149 145 19
157 153 37
153 148 37
153 149 28
152 148 30
155 150 37
154 150 22
154 149 36
153 149 30
157 153 25
152 148 25
151 145 32
150 146 36
153 150 36
154 149 39
156 150 41
156 151 28
153 149 34
152 148 25
153 149 34
151 147 22
160 154 44
142 139 25
153 148 41
155 150 41
156 150 45
151 146 30
150 147 28
151 146 44
148 144 25
151 147 39
144 140 32
152 148 28
143 140 32
135 131 34
146 141 30
145 141 32
138 134 32
150 146 44
142 138 25
142 137 36
140 136 28
144 141 25
142 137 39
136 131 34
141 137 34
136 131 36
135 131 28
139 134 39
136 132 36
124 120 22
119 117 19
125 122 16
137 139 28
166 188 0
170 190 0
168 188 0
171 193 0
168 189 0
172 192 0
169 189 0
168 187 0
166 187 0
169 191 0
168 188 0
170 191 0
169 189 0
166 187 0
169 190 0
170 189 0
170 191 0
169 191 0
168 188 0
171 192 0
167 188 0
168 190 0
167 189 0
171 193 0
170 190 0
171 193 0
170 191 0
169 191 0
167 187 0
170 191 0
170 194 0
172 194 0
171 193 0
170 192 0
170 193 0
170 194 0
170 193 0
170 193 0
173 195 0
169 192 0
172 195 0
173 196 0
171 194 0
170 193 0
171 194 0
168 191 0
170 194 0
169 193 0
170 193 0
169 192 0
169 192 0
168 190 0
170 193 0
168 191 0
169 192 0
170 193 0
169 192 0
171 193 0
170 193 0
170 193 0
170 193 0
171 193 0
170 193 0
170 194 0
169 192 0
169 192 0
171 193 0
167 190 0
168 191 0
169 192 0
167 190 0
169 192 0
169 192 0
166 190 0
170 192 0
167 188 0
167 189 0
169 191 0
169 192 0
168 190 0
165 188 0
171 193 0
168 191 0
168 192 0
165 187 0
165 188 0
169 192 0
168 190 0
164 187 0
167 189 0
165 188 0
165 187 0
169 192 0
169 192 0
168 191 0
167 191 0
168 189 0
162 185 0
166 190 0
168 190 0
165 189 0
166 190 0
161 185 0
165 188 0
165 187 0
164 186 0
164 186 0
162 184 0
168 190 0
163 186 0
160 184 0
162 184 0
163 185 0
159 182 0
160 181 0
162 185 0
159 181 0
160 184 0
164 185 0
157 180 0
164 186 0
160 181 0
160 183 0
159 181 0
161 184 0
162 184 0
162 184 0
161 185 0
156 179 0
154 175 0
152 174 0
159 180 0
152 175 0
153 176 0
160 183 0
149 171 0
156 176 0
159 182 0
154 176 0
154 176 0
151 171 0
144 167 0
155 177 0
154 177 0
152 173 0
147 169 0
153 175 0
148 170 0
147 169 0
148 170 0
148 170 0
143 164 0
127 148 0
143 165 0
139 159 0
140 160 0
138 159 0
142 164 0
130 150 0
139 160 0
128 148 0
132 153 0
135 156 0
129 149 0
137 158 0
132 152 0
126 147 0
141 162 0
137 157 0
137 158 0
131 152 0
124 143 0
128 149 0
120 140 0
124 145 0
126 146 0
122 141 0
122 141 0
118 139 0
115 135 0
129 148 0
131 149 0
128 146 0
117 136 0
123 142 0
126 144 0
120 139 0
116 133 0
114 132 0
115 133 0
128 146 0
100 118 0
111 129 0
106 123 0
100 116 0
110 128 0
102 117 0
107 122 0
103 120 0
108 125 0
90 106 0
97 113 0
116 131 0
92 108 0
99 116 0
99 113 0
93 108 0
80 94 0
83 98 0
72 87 36
61 80 54
69 91 64
51 78 77
50 80 75
48 76 60
50 78 86
49 77 77
51 81 73
53 84 94
50 77 91
48 76 76
51 79 78
52 82 79
53 83 89
51 79 69
50 78 84
48 76 77
50 78 95
51 79 80
50 77 71
50 78 82
49 76 70
47 73 64
53 81 89
48 75 69
47 74 72
48 72 66
47 71 70
46 70 74
44 69 61
46 71 58
47 71 65
45 68 69
44 67 55
42 63 63
40 62 50
39 60 50
54 68 33
70 82 26
69 79 0
87 96 0
94 106 0
78 90 0
73 82 0
73 82 0
83 92 0
88 100 0
87 99 12
71 71 18
80 81 31
93 94 24
84 86 28
100 99 24
106 105 34
116 115 32
114 114 34
127 124 25
118 116 33
130 127 35
122 121 31
135 132 37
119 117 34
135 130 40
135 132 29
137 133 32
134 130 31
143 138 38
146 141 44
145 140 22
142 138 30
143 138 34
145 141 33
145 141 32
143 139 32
143 139 30
147 144 25
150 147 28
143 139 25
150 146 32
147 143 22
153 149 37
149 145 34
155 150 42
149 144 34
148 143 28
154 150 37
152 147 36
148 145 25
147 144 34
152 148 34
153 148 32
148 144 25
149 145 30
150 146 19
157 152 41
152 148 32
151 147 32
153 149 25
153 149 34
152 148 22
149 145 34
153 149 32
155 151 28
153 148 39
153 150 32
153 148 36
151 148 28
154 149 36
150 145 30
154 151 39
158 153 41
153 150 28
150 146 32
160 155 47
155 151 30
156 152 36
155 151 41
152 148 19
155 150 37
155 151 30
160 155 39
155 151 28
157 152 42
156 151 32
157 153 41
152 148 34
158 153 39
156 151 36
156 152 36
155 150 28
148 145 16
157 152 37
154 149 34
158 153 42
155 151 25
153 149 30
155 151 32
154 150 30
152 148 28
147 143 22
157 153 32
154 149 39
155 150 32
148 145 19
152 148 25
149 144 28
154 149 34
151 147 39
149 146 34
154 149 28
152 147 41
148 143 32
146 142 30
153 150 34
153 148 34
150 146 25
151 146 36
155 150 41
146 142 25
149 145 28
153 148 37
149 144 30
151 147 36
150 145 32
152 147 37
146 142 36
146 142 19
153 147 37
151 146 42
150 146 34
149 146 25
147 142 32
148 142 37
148 143 36
146 142 34
136 134 22
143 138 36
138 135 25
145 141 36
143 138 45
133 129 22
139 135 34
131 127 30
139 135 34
128 125 22
133 129 32
136 131 41
126 121 25
121 117 30
146 154 28
167 188 0
169 191 0
166 189 0
168 187 0
165 184 0
167 188 0
168 187 0
168 189 0
169 189 0
169 189 0
171 191 0
168 189 0
169 190 0
167 187 0
169 190 0
164 185 0
170 191 0
166 188 0
169 189 0
170 191 0
167 189 0
171 191 0
170 193 0
169 190 0
168 189 0
169 191 0
170 191 0
168 187 0
169 189 0
172 194 0
169 193 0
173 195 0
172 195 0
169 193 0
170 193 0
172 195 0
170 194 0
171 194 0
169 192 0
169 192 0
170 193 0
168 190 0
169 193 0
170 193 0
170 193 0
170 194 0
168 190 0
169 192 0
171 194 0
170 193 0
171 194 0
172 195 0
168 190 0
172 195 0
168 192 0
170 193 0
168 191 0
168 192 0
167 190 0
170 193 0
168 191 0
171 193 0
167 191 0
167 190 0
168 191 0
167 190 0
170 193 0
168 191 0
169 192 0
168 191 0
169 192 0
169 192 0
169 192 0
168 190 0
168 190 0
168 192 0
168 191 0
168 191 0
167 190 0
167 190 0
164 188 0
167 189 0
169 192 0
167 190 0
168 189 0
168 190 0
168 190 0
168 191 0
162 185 0
166 188 0
165 187 0
164 186 0
164 187 0
168 191 0
165 188 0
167 189 0
167 189 0
161 184 0
167 189 0
166 189 0
166 188 0
164 188 0
162 185 0
159 182 0
162 184 0
162 185 0
161 184 0
163 187 0
159 182 0
162 185 0
167 190 0
163 186 0
165 188 0
162 186 0
156 178 0
165 187 0
161 185 0
164 187 0
160 182 0
160 182 0
163 185 0
160 182 0
163 186 0
157 179 0
162 184 0
155 178 0
157 179 0
165 188 0
154 176 0
155 177 0
157 178 0
159 180 0
158 180 0
156 178 0
154 176 0
155 177 0
152 174 0
159 181 0
152 173 0
152 174 0
151 172 0
149 171 0
151 173 0
152 174 0
154 175 0
149 171 0
144 165 0
152 173 0
147 168 0
140 160 0
146 167 0
139 159 0
143 163 0
144 165 0
137 158 0
135 156 0
139 161 0
147 168 0
139 158 0
140 162 0
128 148 0
137 158 0
138 158 0
135 156 0
129 149 0
141 162 0
126 145 0
139 160 0
135 155 0
134 155 0
135 153 0
133 152 0
117 137 0
132 152 0
128 148 0
124 143 0
130 150 0
130 150 0
119 138 0
130 151 0
115 135 0
118 136 0
122 141 0
117 135 0
113 132 0
122 141 0
114 133 0
109 127 0
112 130 0
115 133 0
106 122 0
110 128 0
106 123 0
109 127 0
112 131 0
98 114 0
108 124 0
97 113 0
109 125 0
95 111 0
109 127 0
90 106 0
100 116 0
94 110 0
95 110 0
95 110 0
107 122 0
101 117 0
90 105 0
86 102 0
69 84 0
100 115 0
87 100 31
73 90 36
70 88 36
59 82 73
55 82 87
47 74 63
49 78 74
49 76 73
47 74 72
47 75 61
48 76 80
47 74 76
51 80 87
48 76 78
49 76 58
50 77 76
47 73 78
50 78 83
49 76 84
47 72 55
49 76 82
48 75 69
46 71 57
45 70 66
47 72 62
46 72 67
43 66 64
45 69 57
43 66 61
40 61 62
41 64 57
50 68 54
62 76 37
63 76 25
58 69 0
79 89 0
79 89 0
75 85 0
70 80 0
88 99 0
78 88 0
85 94 0
78 89 0
105 116 0
98 109 0
79 88 8
70 72 21
83 84 25
98 97 28
110 108 36
111 109 31
110 109 21
114 114 28
121 118 30
116 114 31
113 112 30
128 126 33
129 126 28
133 129 39
135 132 30
138 134 28
138 134 32
139 135 25
135 133 22
138 134 36
137 133 30
140 135 30
143 140 32
143 139 32
140 135 32
147 142 39
147 144 34
142 139 34
149 144 32
147 143 28
146 143 16
148 144 37
143 139 28
149 145 30
152 148 41
152 147 34
150 146 32
153 149 41
150 146 30
147 144 25
150 146 32
147 143 22
150 145 32
150 146 34
151 147 28
154 148 39
155 151 36
152 149 30
153 148 39
154 150 34
151 147 34
150 146 32
154 149 32
152 148 32
153 149 22
153 147 41
155 151 25
154 149 25
152 148 30
153 148 28
152 148 34
152 147 28
154 150 30
149 146 19
155 150 32
154 150 30
151 147 34
153 149 32
158 153 39
155 150 34
153 148 25
156 152 36
158 154 32
153 149 28
152 149 30
155 150 32
155 151 30
155 151 28
154 150 22
159 154 37
154 149 41
154 151 22
156 152 34
155 151 32
151 148 30
152 148 16
155 150 34
155 151 34
157 152 30
154 149 22
156 152 36
148 145 25
149 146 16
154 149 34
156 151 32
156 152 34
152 148 28
156 151 41
150 146 32
150 147 25
150 147 16
155 150 37
155 151 36
151 146 34
151 146 30
153 148 41
154 149 32
150 147 22
152 147 36
150 145 32
150 146 32
152 147 37
146 142 30
149 145 28
143 139 22
147 142 32
148 145 30
147 143 32
145 141 25
148 144 34
147 144 25
147 142 37
144 141 34
140 135 28
142 137 28
144 139 28
140 135 30
143 140 25
140 135 36
145 140 30
141 137 28
141 136 28
140 134 28
143 139 37
131 127 28
126 122 22
127 123 28
129 125 28
124 119 28
131 127 34
119 116 16
122 119 25
155 172 19
167 187 0
164 183 0
165 184 0
169 189 0
169 189 0
171 191 0
170 190 0
168 187 0
167 187 0
169 189 0
167 188 0
168 188 0
166 184 0
165 186 0
169 191 0
169 191 0
168 189 0
169 189 0
169 190 0
166 188 0
170 193 0
170 191 0
170 191 0
169 191 0
170 190 0
170 189 0
170 191 0
171 192 0
170 193 0
169 191 0
171 193 0
171 193 0
169 193 0
172 195 0
169 192 0
169 192 0
167 190 0
170 193 0
170 193 0
171 194 0
168 192 0
171 193 0
169 193 0
171 193 0
171 195 0
168 191 0
168 191 0
171 194 0
171 195 0
169 193 0
171 194 0
171 194 0
169 193 0
169 192 0
168 191 0
171 193 0
165 188 0
168 190 0
170 193 0
171 194 0
171 193 0
170 193 0
169 192 0
168 191 0
169 191 0
169 192 0
169 191 0
168 191 0
167 190 0
169 192 0
166 189 0
166 189 0
167 190 0
168 192 0
172 194 0
168 192 0
172 193 0
170 192 0
168 192 0
170 192 0
168 190 0
167 189 0
168 191 0
167 190 0
168 191 0
166 189 0
164 185 0
166 188 0
165 188 0
163 186 0
165 187 0
169 191 0
163 186 0
163 187 0
167 190 0
162 185 0
167 191 0
166 189 0
164 186 0
163 185 0
167 189 0
166 189 0
168 189 0
166 189 0
164 187 0
165 188 0
169 191 0
162 185 0
167 190 0
164 187 0
160 183 0
162 186 0
162 184 0
165 188 0
163 186 0
163 186 0
161 184 0
161 184 0
165 187 0
158 180 0
158 181 0
167 190 0
165 187 0
163 187 0
160 180 0
159 181 0
161 185 0
157 178 0
160 184 0
157 179 0
160 182 0
158 178 0
153 176 0
158 179 0
155 177 0
155 176 0
149 171 0
153 175 0
155 177 0
154 176 0
151 171 0
151 172 0
156 179 0
150 171 0
150 171 0
149 169 0
140 161 0
149 171 0
139 160 0
144 165 0
141 162 0
139 160 0
146 167 0
138 156 0
143 165 0
137 156 0
145 166 0
139 160 0
137 158 0
137 158 0
142 163 0
144 166 0
139 158 0
141 162 0
130 151 0
132 152 0
133 153 0
127 148 0
135 155 0
131 151 0
126 146 0
133 153 0
128 148 0
142 164 0
132 151 0
133 154 0
120 140 0
117 138 0
128 150 0
123 143 0
122 142 0
110 128 0
111 129 0
115 134 0
117 137 0
109 127 0
122 141 0
118 137 0
119 139 0
117 136 0
112 129 0
117 136 0
115 134 0
111 129 0
99 116 0
111 127 0
100 117 0
99 115 0
116 134 0
102 119 0
111 127 0
112 128 0
110 127 0
99 116 0
92 109 0
86 100 0
79 93 0
96 111 0
83 99 0
101 115 0
68 82 0
96 110 0
87 101 0
86 100 0
81 96 0
89 102 0
92 105 18
78 94 19
60 77 31
54 76 51
53 74 56
51 78 65
50 76 75
47 75 67
47 73 72
48 76 72
47 74 73
45 71 58
51 80 78
45 70 69
45 70 59
45 70 73
48 74 75
46 71 78
49 75 77
45 70 63
44 67 60
44 64 54
49 67 54
70 85 54
69 80 14
66 78 26
73 82 18
75 86 0
79 87 0
71 81 0
75 85 0
80 90 0
89 99 0
78 87 0
84 94 0
90 98 0
92 103 0
74 84 0
93 103 0
100 111 0
88 100 0
86 92 2
83 83 12
82 83 21
91 91 19
97 98 32
99 99 25
111 110 25
107 106 32
114 111 30
115 113 21
124 121 33
133 128 40
132 129 24
134 131 36
123 121 22
136 132 19
140 135 42
139 135 34
140 136 29
140 136 34
144 141 32
133 130 35
143 139 34
144 140 30
139 135 28
145 140 36
148 144 30
147 143 32
146 143 28
147 143 28
147 142 32
148 143 36
146 142 32
147 143 30
145 141 34
155 150 37
150 145 32
151 146 36
153 148 32
148 144 30
149 145 30
149 144 34
151 146 34
149 145 28
150 145 19
153 148 28
150 146 32
154 150 44
153 148 37
156 152 39
153 148 41
152 148 32
151 148 28
157 153 32
150 146 22
154 150 25
154 150 39
156 152 34
154 149 39
156 150 39
151 146 34
153 149 36
157 152 42
147 144 28
148 145 25
148 145 25
158 153 39
154 149 32
154 150 36
157 151 36
152 148 25
158 152 37
155 149 37
151 147 28
152 147 32
153 149 19
156 152 34
155 150 37
152 147 30
155 151 30
149 146 16
154 150 39
155 150 36
151 147 22
154 150 28
155 151 36
155 151 36
152 148 36
155 150 30
151 146 25
152 148 28
153 147 32
150 146 22
152 147 28
154 151 34
158 153 41
154 150 37
151 147 16
154 149 28
154 150 32
154 148 39
156 152 41
154 149 32
147 144 22
152 147 32
153 148 41
148 143 28
156 151 41
149 143 42
150 146 30
155 149 39
149 145 34
154 150 28
144 140 30
149 144 34
148 144 37
149 146 16
147 143 34
148 143 44
150 144 28
146 141 28
135 133 16
149 144 30
149 144 37
142 138 32
144 140 32
146 141 37
135 131 28
137 133 25
138 135 25
134 130 32
137 133 32
141 137 28
136 133 19
145 140 39
137 132 37
135 130 36
124 120 22
127 123 25
126 122 32
125 121 25
114 112 19
167 187 0
167 188 0
166 187 0
162 184 0
170 190 0
171 192 0
167 187 0
169 188 0
167 189 0
170 192 0
170 191 0
168 188 0
167 186 0
167 188 0
168 188 0
167 186 0
170 192 0
170 192 0
167 188 0
167 187 0
166 188 0
165 187 0
167 187 0
171 192 0
166 188 0
170 191 0
169 189 0
170 192 0
168 188 0
170 192 0
167 188 0
171 194 0
169 192 0
172 195 0
168 191 0
172 194 0
172 195 0
164 188 0
172 194 0
170 193 0
170 193 0
171 194 0
169 193 0
172 194 0
171 195 0
170 193 0
170 192 0
168 191 0
169 192 0
170 193 0
171 193 0
168 192 0
170 193 0
170 193 0
169 193 0
168 191 0
171 194 0
168 192 0
169 192 0
168 191 0
167 191 0
171 194 0
170 193 0
170 193 0
168 189 0
171 194 0
166 189 0
167 190 0
170 194 0
168 192 0
165 188 0
170 192 0
164 188 0
170 192 0
170 192 0
171 194 0
169 192 0
165 189 0
169 191 0
168 191 0
166 189 0
166 189 0
169 192 0
165 188 0
165 188 0
166 189 0
168 191 0
170 193 0
168 190 0
169 192 0
166 189 0
167 189 0
168 190 0
164 187 0
167 190 0
160 182 0
160 183 0
164 186 0
165 187 0
164 187 0
168 190 0
167 190 0
167 189 0
166 189 0
163 185 0
168 191 0
165 189 0
166 188 0
164 186 0
164 187 0
164 186 0
166 189 0
160 182 0
163 186 0
164 187 0
164 187 0
159 182 0
160 183 0
161 183 0
160 182 0
165 187 0
156 178 0
161 184 0
159 182 0
157 179 0
162 184 0
160 182 0
159 181 0
155 178 0
155 178 0
156 178 0
157 180 0
159 181 0
155 177 0
160 182 0
152 174 0
156 179 0
156 178 0
150 171 0
151 173 0
152 174 0
152 175 0
152 174 0
156 178 0
156 177 0
152 175 0
149 170 0
149 171 0
143 164 0
156 178 0
143 165 0
146 168 0
145 167 0
135 156 0
139 160 0
149 171 0
136 157 0
143 165 0
134 153 0
138 159 0
141 162 0
138 160 0
139 159 0
144 166 0
141 162 0
135 156 0
137 157 0
135 156 0
131 151 0
131 153 0
139 160 0
141 162 0
134 154 0
124 145 0
130 150 0
124 144 0
132 152 0
132 151 0
116 136 0
120 140 0
120 140 0
129 147 0
127 146 0
136 155 0
117 136 0
123 141 0
108 128 0
121 140 0
118 138 0
114 133 0
118 137 0
115 134 0
100 117 0
119 137 0
105 122 0
111 130 0
106 123 0
104 119 0
106 123 0
104 122 0
104 122 0
120 136 0
111 128 0
111 127 0
108 124 0
103 120 0
97 112 0
101 117 0
85 101 0
94 108 0
93 108 0
100 114 0
100 114 0
88 102 0
92 107 0
76 90 0
92 106 0
96 109 0
79 91 0
63 74 0
80 94 0
69 82 0
74 87 0
84 96 0
80 92 25
66 81 31
70 84 28
54 69 18
61 76 25
70 85 43
55 71 40
71 83 32
63 77 41
49 63 25
70 82 33
67 79 31
60 72 18
60 69 0
80 91 0
69 79 0
64 75 0
68 78 0
72 82 0
74 84 0
78 88 0
93 104 0
84 94 0
87 98 0
67 77 0
99 109 0
74 85 0
88 99 0
86 94 0
83 94 0
86 96 0
96 107 0
98 108 0
97 108 0
84 93 0
83 84 23
88 88 30
83 85 33
101 100 35
109 107 26
104 103 23
114 113 32
126 123 36
112 110 21
132 128 30
133 132 27
130 127 42
130 128 31
130 127 34
132 129 22
145 141 46
141 136 39
135 132 25
137 132 30
141 136 29
144 140 32
139 135 32
143 139 30
145 141 37
147 143 22
143 139 30
145 140 36
140 137 30
149 145 36
150 145 37
147 143 36
144 141 22
150 146 32
146 142 32
149 145 34
149 144 25
151 146 42
150 146 36
151 147 36
144 141 30
152 147 28
149 146 30
150 146 28
156 151 41
151 147 34
147 143 32
154 150 28
156 151 28
148 143 25
153 148 37
152 148 22
153 149 28
155 150 25
151 148 30
155 150 37
150 146 30
155 151 28
156 152 39
151 147 32
158 153 28
155 150 36
149 146 30
154 150 34
152 148 30
147 143 22
155 151 41
155 149 41
156 151 37
152 148 19
154 149 32
151 147 22
153 150 32
157 152 42
151 147 30
152 148 22
156 151 32
155 150 28
151 147 36
158 153 36
154 150 22
154 149 37
153 149 28
156 150 39
155 151 36
155 150 39
158 153 42
153 149 28
149 145 34
158 152 32
151 146 30
154 148 34
157 151 42
150 146 25
154 149 41
155 150 32
155 150 19
149 145 30
154 149 37
155 151 37
153 148 28
150 146 32
154 150 41
154 150 32
149 144 36
152 149 36
154 148 32
149 146 25
150 145 34
148 143 39
150 146 34
153 148 37
154 149 36
148 143 28
147 144 32
150 146 32
150 145 28
146 142 25
143 140 36
149 146 34
144 140 34
146 141 36
143 138 36
140 135 34
143 138 39
141 137 28
141 138 34
147 142 30
138 133 37
145 140 36
135 130 25
140 135 37
145 140 41
132 127 36
136 132 34
142 138 25
131 126 34
129 125 28
126 122 19
130 126 34
124 119 36
134 137 32
167 186 0
166 187 0
170 189 0
168 188 0
166 186 0
167 188 0
165 185 0
169 188 0
166 185 0
169 189 0
165 186 0
164 185 0
168 190 0
169 190 0
165 186 0
165 184 0
167 188 0
170 191 0
170 192 0
169 191 0
170 191 0
169 189 0
169 190 0
164 183 0
171 193 0
172 193 0
167 187 0
170 193 0
168 190 0
168 190 0
167 187 0
171 194 0
171 195 0
169 192 0
170 193 0
173 196 0
171 194 0
171 194 0
172 195 0
172 195 0
168 191 0
171 194 0
167 191 0
171 194 0
170 193 0
170 193 0
172 195 0
171 194 0
171 195 0
170 192 0
170 193 0
170 193 0
170 193 0
170 193 0
171 194 0
169 192 0
168 191 0
171 193 0
168 190 0
171 194 0
167 191 0
170 193 0
170 193 0
169 192 0
170 192 0
170 192 0
166 189 0
167 190 0
167 191 0
169 192 0
169 192 0
166 187 0
168 191 0
168 192 0
167 189 0
169 193 0
169 191 0
168 190 0
170 194 0
166 189 0
165 189 0
167 191 0
164 186 0
166 189 0
167 190 0
169 192 0
168 190 0
167 190 0
169 192 0
166 189 0
165 189 0
165 189 0
167 190 0
169 191 0
168 192 0
165 187 0
166 188 0
166 189 0
165 188 0
165 188 0
167 189 0
162 185 0
161 184 0
167 189 0
163 185 0
168 190 0
166 189 0
166 190 0
156 179 0
166 189 0
163 186 0
165 188 0
164 187 0
164 186 0
163 186 0
161 184 0
164 187 0
161 184 0
163 186 0
166 189 0
163 185 0
154 177 0
159 182 0
159 181 0
161 183 0
158 181 0
157 180 0
162 184 0
161 183 0
165 187 0
158 180 0
157 178 0
161 182 0
155 178 0
162 184 0
151 173 0
150 172 0
153 175 0
156 177 0
150 171 0
160 182 0
154 175 0
155 177 0
158 179 0
154 176 0
146 169 0
148 169 0
152 174 0
144 165 0
151 172 0
144 165 0
144 166 0
145 167 0
146 168 0
154 175 0
145 166 0
145 166 0
140 161 0
147 168 0
139 159 0
137 158 0
134 155 0
144 164 0
141 163 0
134 155 0
139 158 0
133 155 0
137 157 0
133 154 0
133 153 0
131 151 0
128 148 0
130 151 0
131 151 0
128 147 0
126 147 0
131 151 0
129 148 0
138 158 0
127 145 0
134 155 0
120 140 0
121 140 0
124 143 0
131 151 0
119 139 0
114 133 0
125 144 0
121 139 0
121 140 0
113 130 0
119 138 0
104 123 0
111 130 0
122 141 0
113 131 0
115 133 0
115 130 0
109 126 0
113 131 0
112 130 0
108 126 0
108 126 0
93 110 0
98 115 0
107 123 0
111 129 0
93 108 0
107 123 0
88 103 0
100 114 0
90 106 0
108 124 0
88 104 0
83 98 0
90 104 0
80 94 0
85 100 0
92 105 0
77 92 0
93 107 0
97 110 0
91 101 0
89 99 0
83 96 0
69 82 0
74 84 0
78 88 0
74 84 0
75 86 0
75 86 0
79 89 0
76 88 0
79 89 0
72 81 0
62 73 0
63 72 0
67 76 0
84 93 0
83 94 0
74 86 0
71 81 0
74 83 0
82 94 0
78 90 0
73 81 0
71 84 0
75 86 0
88 99 0
84 93 0
92 103 0
78 89 0
88 101 0
81 91 0
96 105 0
97 108 0
75 85 0
99 112 0
76 83 8
82 81 29
83 83 25
87 87 27
100 99 35
97 97 20
116 113 38
120 118 40
126 122 24
117 115 32
120 119 34
123 121 27
127 124 31
142 140 37
137 134 34
129 125 36
134 132 24
141 138 28
138 136 28
140 136 29
139 135 30
141 137 31
142 138 26
141 138 28
145 141 32
144 140 28
147 144 30
148 144 36
145 142 32
147 144 32
140 136 25
146 142 30
151 146 39
139 137 28
147 143 25
155 150 28
147 143 39
146 143 30
148 144 22
151 148 28
148 144 25
152 147 44
151 146 30
153 148 39
153 149 34
152 149 30
151 147 28
151 146 30
153 149 25
154 150 39
155 149 39
150 146 28
152 148 30
157 151 32
156 151 45
152 146 37
152 148 39
151 147 32
153 149 30
152 147 28
152 147 28
154 150 34
156 151 36
157 151 34
155 150 36
154 150 39
154 150 39
152 149 22
155 150 34
153 149 34
156 152 36
152 147 37
149 144 22
152 149 16
156 151 32
156 151 36
151 146 30
155 152 32
154 150 28
153 149 30
155 150 30
151 147 32
153 149 25
158 152 39
153 149 28
159 153 39
153 149 32
157 151 36
152 148 28
156 151 37
154 150 25
153 148 39
153 147 32
154 149 32
149 146 19
153 150 37
149 145 28
151 147 25
150 147 25
152 147 25
153 148 44
159 153 42
150 144 34
160 155 36
152 146 34
156 150 45
150 145 32
148 143 39
157 152 39
153 149 41
146 142 32
146 144 25
144 140 28
150 145 30
149 145 19
151 147 36
148 143 41
157 152 51
144 140 36
149 144 32
149 144 37
146 140 28
150 144 34
143 139 37
141 136 37
141 137 25
141 138 25
147 143 32
139 135 25
143 139 32
139 134 25
143 137 36
137 133 30
131 127 32
138 133 32
134 129 30
139 134 25
135 131 22
128 124 19
111 106 25
116 111 28
128 135 16
171 191 0
163 184 0
165 185 0
170 190 0
163 183 0
166 186 0
164 182 0
165 186 0
167 188 0
168 188 0
169 188 0
167 188 0
168 190 0
168 189 0
167 189 0
170 190 0
168 189 0
167 188 0
171 193 0
168 189 0
170 191 0
169 189 0
170 191 0
168 189 0
170 191 0
169 191 0
170 189 0
167 189 0
165 186 0
171 193 0
169 190 0
166 190 0
173 196 0
172 195 0
168 192 0
172 195 0
171 194 0
170 193 0
170 194 0
167 191 0
170 193 0
173 196 0
170 193 0
171 194 0
169 192 0
169 192 0
171 193 0
170 192 0
166 190 0
169 192 0
173 196 0
168 191 0
168 191 0
170 192 0
168 191 0
171 194 0
167 190 0
170 193 0
169 192 0
169 191 0
171 194 0
170 192 0
167 190 0
170 193 0
168 191 0
169 192 0
165 188 0
168 191 0
166 189 0
167 191 0
171 195 0
168 191 0
167 191 0
169 191 0
166 189 0
167 190 0
168 191 0
166 189 0
166 189 0
168 192 0
167 190 0
167 190 0
167 190 0
169 190 0
167 190 0
166 189 0
165 188 0
168 191 0
165 188 0
167 190 0
167 189 0
167 190 0
167 189 0
166 189 0
167 189 0
165 187 0
166 190 0
160 183 0
159 181 0
161 184 0
166 188 0
168 192 0
162 186 0
164 187 0
159 181 0
163 185 0
163 186 0
164 187 0
163 185 0
164 187 0
162 184 0
159 184 0
162 185 0
161 182 0
162 185 0
160 182 0
160 183 0
162 184 0
166 189 0
158 182 0
162 184 0
162 185 0
162 184 0
162 184 0
160 182 0
163 186 0
158 180 0
161 183 0
162 184 0
159 181 0
160 183 0
159 182 0
158 181 0
148 170 0
156 177 0
157 179 0
150 173 0
152 174 0
155 177 0
148 170 0
155 176 0
154 176 0
162 184 0
151 172 0
154 176 0
155 177 0
144 166 0
155 177 0
152 173 0
152 175 0
148 170 0
140 162 0
149 170 0
143 164 0
142 164 0
137 159 0
143 164 0
145 166 0
133 154 0
143 164 0
124 145 0
136 158 0
142 163 0
134 155 0
135 157 0
137 157 0
129 151 0
131 152 0
134 156 0
141 162 0
137 157 0
138 158 0
139 161 0
132 153 0
137 156 0
136 157 0
131 151 0
123 142 0
134 154 0
122 141 0
128 148 0
126 145 0
116 136 0
104 123 0
128 147 0
116 135 0
128 148 0
111 130 0
124 144 0
120 137 0
124 142 0
118 135 0
109 126 0
113 132 0
120 137 0
120 140 0
123 141 0
115 135 0
114 132 0
109 126 0
118 136 0
111 129 0
101 118 0
112 130 0
102 120 0
108 125 0
100 116 0
98 113 0
93 109 0
103 120 0
102 117 0
88 103 0
100 115 0
105 120 0
90 105 0
90 104 0
97 111 0
91 106 0
99 115 0
81 95 0
83 97 0
85 98 0
87 101 0
77 87 0
80 94 0
91 104 0
82 94 0
84 96 0
84 96 0
89 102 0
81 94 0
81 93 0
83 94 0
74 84 0
86 99 0
103 117 0
84 93 0
72 82 0
78 88 0
87 97 0
77 87 0
70 80 0
85 98 0
82 94 0
81 92 0
77 88 0
76 87 0
74 86 0
76 84 0
85 96 0
77 87 0
76 87 0
75 87 0
85 96 0
93 105 0
102 114 0
93 101 0
94 106 0
68 78 14
78 79 21
90 91 24
85 85 20
95 96 21
110 107 37
118 115 31
121 118 36
118 115 31
123 121 23
123 119 33
130 129 26
124 121 23
134 131 32
131 128 34
132 129 37
137 133 22
140 136 41
134 131 19
135 132 30
139 136 29
136 133 28
140 136 34
141 137 34
143 138 19
138 134 16
147 144 25
148 143 36
139 136 32
143 139 30
150 146 32
153 148 42
150 147 39
147 142 34
144 140 28
146 141 32
150 146 42
149 144 30
148 144 34
150 145 37
149 145 39
151 147 36
152 148 30
149 145 34
153 148 36
151 147 34
155 150 30
147 143 25
152 148 32
149 145 25
149 144 34
152 148 30
153 148 34
153 149 28
155 149 39
150 146 37
157 152 39
152 148 28
152 147 30
155 152 36
151 146 30
152 148 25
156 151 34
156 151 36
156 151 32
151 147 19
153 148 37
155 151 34
156 152 32
157 153 36
154 150 28
155 149 42
157 152 36
155 150 37
152 148 32
157 152 36
153 150 25
153 150 34
153 148 34
155 150 39
152 147 25
153 149 25
154 150 34
155 151 41
158 153 37
154 151 32
153 149 25
152 147 28
154 151 28
154 149 34
158 152 36
151 147 30
149 145 34
153 149 28
154 150 28
154 149 36
157 151 39
156 152 41
154 149 34
152 149 28
157 152 37
152 147 32
155 150 39
147 143 32
153 148 30
148 144 30
151 147 39
153 149 34
150 145 32
151 146 39
150 147 32
154 149 39
150 145 32
148 144 37
150 146 28
146 141 16
143 139 30
148 144 34
147 143 37
146 142 32
148 145 30
144 141 25
144 140 34
141 136 25
144 140 25
146 141 34
139 134 25
140 135 34
148 143 30
144 140 39
137 133 30
139 136 25
137 134 32
133 129 22
138 133 22
137 133 32
140 136 37
133 129 36
128 124 37
124 121 19
119 117 22
145 157 11
170 189 0
168 189 0
170 191 0
167 187 0
165 184 0
169 190 0
173 193 0
165 185 0
165 185 0
168 189 0
172 194 0
167 187 0
169 189 0
167 188 0
169 189 0
169 189 0
171 193 0
169 189 0
170 192 0
170 191 0
168 189 0
170 190 0
170 190 0
166 188 0
170 191 0
168 189 0
171 192 0
170 192 0
170 190 0
169 189 0
173 194 0
169 193 0
168 191 0
172 194 0
171 194 0
170 193 0
171 194 0
172 196 0
169 192 0
172 195 0
170 193 0
168 191 0
166 189 0
170 193 0
170 194 0
172 195 0
170 193 0
169 192 0
167 189 0
171 194 0
171 194 0
168 191 0
172 195 0
171 194 0
171 194 0
170 194 0
170 193 0
169 193 0
166 190 0
167 190 0
167 191 0
169 193 0
168 192 0
171 194 0
170 192 0
168 191 0
169 192 0
168 191 0
170 193 0
164 186 0
169 191 0
171 194 0
167 190 0
170 192 0
164 187 0
170 192 0
169 191 0
164 187 0
164 187 0
168 191 0
165 188 0
166 189 0
167 190 0
167 190 0
165 187 0
164 187 0
168 190 0
167 190 0
166 189 0
167 191 0
165 188 0
165 188 0
168 190 0
167 190 0
169 191 0
164 187 0
165 188 0
167 190 0
165 189 0
162 185 0
164 187 0
164 188 0
161 185 0
160 182 0
160 183 0
168 190 0
164 187 0
162 185 0
164 187 0
163 186 0
161 184 0
166 189 0
164 188 0
167 189 0
160 183 0
160 183 0
161 183 0
158 181 0
165 189 0
165 186 0
158 180 0
160 183 0
161 183 0
160 183 0
162 184 0
157 179 0
156 178 0
162 185 0
154 176 0
159 181 0
158 180 0
160 183 0
152 174 0
159 181 0
163 186 0
153 176 0
156 179 0
154 177 0
161 182 0
155 177 0
154 175 0
157 179 0
156 178 0
152 174 0
147 168 0
148 171 0
151 171 0
152 173 0
143 163 0
136 157 0
150 172 0
145 166 0
145 167 0
135 157 0
141 161 0
145 166 0
152 172 0
142 163 0
138 158 0
141 162 0
144 166 0
135 156 0
139 161 0
125 146 0
132 153 0
135 157 0
136 156 0
139 159 0
140 160 0
139 159 0
133 154 0
133 152 0
131 151 0
134 153 0
124 143 0
139 160 0
131 150 0
136 157 0
130 151 0
118 139 0
126 146 0
128 148 0
118 136 0
121 140 0
130 150 0
128 150 0
125 143 0
132 152 0
126 146 0
133 152 0
110 129 0
126 147 0
125 143 0
122 140 0
114 133 0
111 129 0
100 118 0
107 126 0
108 125 0
113 129 0
114 132 0
105 122 0
106 123 0
104 120 0
121 136 0
113 130 0
115 133 0
100 116 0
107 124 0
94 111 0
106 123 0
87 103 0
93 108 0
92 106 0
92 107 0
97 111 0
85 99 0
95 109 0
81 97 0
94 109 0
93 107 0
83 96 0
75 89 0
85 96 0
87 100 0
72 84 0
84 96 0
93 105 0
78 90 0
79 90 0
84 95 0
73 84 0
100 110 0
94 105 0
78 89 0
80 91 0
83 94 0
83 94 0
78 87 0
93 104 0
90 100 0
92 103 0
93 103 0
78 86 0
82 91 0
67 75 0
92 102 0
79 89 0
75 87 0
83 94 0
75 86 0
86 95 0
92 103 0
84 94 0
98 107 0
93 102 0
88 97 0
91 101 0
80 89 14
73 73 25
87 86 18
94 94 29
105 102 27
104 103 28
102 101 28
117 115 23
124 120 36
123 120 33
123 120 29
126 123 28
131 129 31
133 131 25
129 126 21
138 134 30
136 133 35
138 134 37
133 130 33
127 125 18
141 138 25
147 143 32
142 138 32
148 143 39
143 139 33
144 140 32
148 143 39
142 139 30
145 141 22
150 147 37
149 144 42
144 140 32
148 144 39
145 141 25
149 144 37
148 144 30
148 144 30
151 146 19
147 144 16
148 145 22
149 145 37
149 145 34
146 143 34
150 146 19
153 148 42
149 146 25
146 141 32
151 148 28
152 149 25
155 151 30
150 146 34
152 148 37
155 152 25
154 150 32
147 143 25
152 149 32
154 150 30
156 151 34
150 147 30
150 147 25
151 148 16
151 147 22
156 151 39
156 151 34
155 150 34
151 147 28
154 149 34
155 152 30
156 151 28
157 152 39
155 151 34
154 150 22
153 147 36
156 152 39
152 148 25
157 152 34
157 151 37
150 146 30
161 155 44
148 144 32
154 149 32
156 152 39
153 148 28
156 151 37
158 153 30
152 148 36
156 152 34
150 144 34
153 148 39
152 147 37
152 148 25
151 147 25
148 145 30
151 146 36
154 149 37
152 149 36
149 145 28
152 147 22
150 145 34
151 147 32
154 149 32
152 147 37
148 144 28
152 148 30
151 147 28
154 151 32
145 142 30
147 142 30
154 149 42
151 146 41
149 145 28
149 145 37
148 145 32
150 146 30
150 147 32
150 144 34
151 146 32
146 141 30
141 137 25
145 141 34
150 145 39
140 136 30
150 146 36
151 145 48
148 145 34
150 145 37
147 141 41
147 143 42
143 138 36
142 138 16
133 128 28
143 137 30
137 132 28
140 135 34
137 133 25
132 128 34
132 128 28
129 125 30
131 126 28
119 115 30
124 122 30
158 173 11
165 185 0
168 188 0
165 185 0
170 188 0
166 186 0
166 187 0
170 190 0
167 188 0
171 192 0
170 191 0
168 191 0
169 190 0
168 188 0
169 189 0
170 192 0
170 192 0
166 186 0
166 187 0
171 192 0
167 187 0
167 186 0
172 194 0
168 188 0
171 192 0
170 191 0
170 190 0
171 193 0
170 191 0
171 193 0
166 189 0
167 188 0
173 196 0
170 194 0
174 196 0
170 194 0
171 195 0
170 193 0
170 192 0
168 191 0
171 193 0
169 192 0
170 193 0
171 195 0
171 194 0
171 194 0
170 194 0
169 192 0
170 193 0
168 191 0
171 195 0
169 193 0
171 194 0
168 191 0
171 194 0
170 193 0
171 194 0
168 192 0
169 193 0
168 191 0
172 194 0
167 189 0
171 194 0
166 188 0
171 194 0
169 192 0
166 189 0
170 193 0
164 188 0
167 190 0
167 191 0
169 191 0
169 192 0
168 190 0
166 189 0
170 193 0
167 191 0
168 191 0
171 193 0
168 191 0
166 189 0
167 190 0
166 188 0
166 188 0
167 191 0
165 189 0
167 189 0
168 191 0
164 187 0
167 190 0
168 191 0
167 189 0
165 188 0
163 185 0
168 189 0
165 187 0
166 190 0
165 189 0
161 185 0
164 187 0
163 185 0
166 189 0
162 185 0
165 188 0
171 194 0
163 187 0
158 181 0
170 193 0
165 188 0
165 187 0
166 189 0
159 182 0
163 186 0
163 184 0
162 185 0
163 186 0
165 188 0
166 188 0
163 185 0
164 186 0
163 186 0
163 185 0
162 184 0
159 181 0
162 184 0
162 185 0
162 184 0
161 182 0
154 176 0
158 180 0
154 176 0
156 179 0
159 181 0
158 181 0
157 180 0
151 174 0
156 179 0
157 179 0
149 170 0
157 179 0
151 173 0
155 177 0
148 169 0
154 176 0
156 177 0
151 173 0
153 175 0
140 161 0
152 172 0
147 168 0
154 176 0
153 174 0
142 164 0
152 175 0
153 176 0
143 164 0
149 171 0
148 169 0
140 162 0
144 166 0
138 158 0
145 166 0
134 154 0
139 159 0
129 148 0
135 156 0
135 156 0
129 150 0
140 161 0
131 152 0
140 160 0
133 154 0
137 159 0
132 152 0
133 153 0
137 157 0
130 151 0
137 157 0
129 149 0
134 154 0
126 146 0
131 151 0
113 132 0
132 152 0
129 149 0
131 150 0
124 144 0
122 140 0
118 137 0
127 146 0
120 140 0
117 135 0
124 143 0
121 140 0
125 145 0
114 132 0
109 127 0
112 131 0
122 139 0
106 123 0
113 132 0
104 122 0
108 126 0
121 139 0
114 129 0
115 131 0
103 122 0
110 128 0
108 125 0
108 123 0
113 130 0
109 125 0
114 131 0
92 107 0
88 103 0
96 111 0
102 118 0
89 104 0
99 114 0
97 113 0
96 111 0
95 110 0
84 98 0
85 99 0
80 92 0
88 100 0
74 86 0
77 91 0
90 102 0
84 95 0
97 110 0
97 109 0
91 101 0
87 100 0
81 93 0
94 108 0
84 94 0
90 101 0
82 94 0
62 72 0
101 113 0
88 99 0
82 94 0
84 96 0
84 95 0
73 85 0
81 92 0
86 96 0
81 91 0
92 104 0
91 104 0
94 104 0
93 104 0
91 101 0
90 101 0
101 111 0
98 109 0
78 88 0
101 113 0
81 89 11
82 82 18
84 84 21
101 100 20
93 93 15
104 103 23
115 113 26
115 114 27
118 115 23
119 116 28
134 130 36
124 122 28
128 124 25
139 135 41
134 131 31
131 128 29
142 138 37
138 136 30
132 128 38
142 138 19
140 137 34
142 137 30
149 147 25
141 138 31
148 143 39
145 141 25
143 139 22
140 136 25
145 141 28
146 143 22
149 145 30
149 145 32
150 145 42
148 143 36
149 145 32
149 144 28
143 139 22
151 146 36
155 150 39
150 146 34
150 145 28
153 148 28
151 147 30
149 145 34
151 146 37
147 142 32
153 148 39
151 147 30
150 146 36
155 151 36
154 151 30
153 149 25
152 148 32
150 146 25
154 150 32
154 148 34
158 153 37
153 148 30
155 151 28
156 151 36
150 147 28
153 150 25
153 148 36
155 150 34
152 147 34
154 149 41
154 149 36
152 147 32
152 148 22
156 151 32
151 147 30
152 146 28
154 150 19
154 150 34
153 149 22
150 145 32
150 146 30
152 148 32
154 150 34
153 149 32
150 146 30
154 149 34
154 149 36
152 147 30
154 149 30
152 149 22
156 151 32
158 153 34
152 147 30
152 148 34
150 146 25
154 150 28
152 147 34
155 151 32
152 148 32
155 152 36
150 145 34
154 148 36
155 151 30
153 148 34
152 148 25
158 152 42
154 149 37
149 143 32
156 152 37
150 146 32
151 148 28
149 144 30
153 148 34
150 146 22
146 142 28
152 148 22
152 147 42
152 147 32
145 141 28
148 145 30
150 145 37
147 142 36
142 137 36
148 143 32
137 134 30
146 142 36
146 142 19
143 139 32
142 137 36
143 137 30
143 140 22
144 139 39
143 140 28
142 137 30
142 138 30
138 134 30
137 132 30
132 127 22
134 130 25
132 129 22
133 129 22
132 127 36
131 126 30
125 122 22
114 111 28
164 182 0
166 186 0
166 187 0
164 183 0
168 188 0
168 187 0
167 188 0
169 188 0
166 186 0
169 189 0
170 191 0
169 188 0
171 191 0
163 181 0
169 190 0
170 190 0
167 188 0
171 192 0
169 191 0
170 191 0
166 188 0
173 195 0
169 188 0
167 189 0
169 190 0
165 186 0
167 189 0
169 191 0
171 192 0
172 193 0
169 190 0
167 189 0
171 194 0
171 194 0
170 194 0
172 195 0
170 193 0
172 195 0
169 192 0
170 194 0
171 195 0
172 195 0
170 193 0
170 193 0
169 192 0
170 193 0
171 195 0
171 194 0
170 193 0
171 194 0
169 193 0
171 194 0
172 195 0
167 191 0
172 195 0
173 195 0
168 191 0
171 194 0
168 191 0
168 191 0
169 191 0
169 192 0
169 193 0
166 189 0
169 192 0
170 193 0
165 188 0
167 190 0
171 193 0
168 191 0
166 189 0
168 191 0
166 189 0
166 189 0
169 192 0
166 190 0
166 189 0
169 193 0
171 193 0
166 189 0
166 190 0
164 186 0
171 194 0
166 190 0
165 188 0
168 191 0
169 192 0
165 187 0
166 190 0
166 189 0
163 184 0
160 182 0
166 188 0
167 189 0
167 189 0
164 186 0
167 191 0
170 193 0
165 188 0
162 183 0
162 185 0
162 186 0
171 193 0
164 186 0
163 185 0
164 187 0
162 185 0
161 184 0
165 187 0
163 185 0
166 189 0
168 191 0
162 185 0
162 183 0
163 185 0
162 184 0
166 189 0
163 186 0
161 184 0
164 186 0
163 186 0
161 183 0
159 183 0
162 184 0
156 178 0
159 182 0
164 186 0
160 182 0
159 183 0
157 180 0
165 186 0
156 178 0
156 178 0
164 187 0
157 179 0
153 175 0
147 170 0
159 181 0
152 174 0
151 173 0
157 178 0
153 175 0
159 182 0
159 181 0
157 178 0
155 176 0
153 175 0
152 173 0
150 171 0
155 178 0
154 176 0
152 174 0
147 168 0
146 168 0
136 157 0
147 166 0
148 170 0
142 164 0
147 169 0
137 158 0
141 161 0
138 160 0
131 151 0
137 158 0
132 153 0
147 168 0
142 162 0
133 154 0
140 161 0
127 148 0
142 163 0
128 149 0
144 164 0
139 160 0
134 153 0
138 160 0
128 147 0
142 161 0
140 161 0
134 154 0
131 150 0
124 144 0
130 150 0
132 152 0
135 154 0
129 149 0
116 134 0
128 147 0
127 145 0
129 148 0
133 153 0
125 144 0
112 131 0
131 150 0
116 136 0
118 137 0
121 138 0
123 141 0
113 132 0
119 137 0
110 128 0
112 131 0
122 140 0
122 139 0
111 128 0
116 133 0
119 137 0
115 133 0
108 126 0
115 132 0
103 119 0
109 125 0
108 125 0
98 114 0
115 130 0
104 121 0
103 118 0
107 122 0
100 115 0
107 122 0
98 113 0
89 104 0
90 104 0
84 99 0
86 100 0
98 110 0
80 94 0
93 108 0
90 106 0
75 87 0
89 102 0
80 92 0
82 94 0
85 99 0
96 109 0
95 107 0
95 107 0
74 87 0
90 102 0
71 83 0
82 93 0
86 99 0
97 110 0
86 97 0
84 94 0
92 101 0
98 109 0
99 109 0
81 91 0
92 104 0
85 96 0
85 95 0
92 103 0
79 89 0
86 98 0
104 115 0
92 104 0
91 104 0
92 103 0
88 92 10
78 78 22
90 90 23
90 88 18
98 96 14
114 112 31
127 123 33
104 103 14
114 113 22
118 115 31
135 131 41
127 123 30
127 124 33
127 123 31
121 119 21
135 131 36
137 133 21
140 136 37
132 128 35
144 139 37
140 136 34
137 133 41
143 139 37
145 140 30
144 139 25
144 140 36
145 141 30
148 145 32
148 144 22
152 147 32
147 144 19
144 140 25
146 141 25
147 143 25
146 143 32
146 142 34
149 144 37
151 147 30
147 144 32
148 145 30
152 148 34
152 148 34
145 142 22
152 148 30
149 145 30
152 147 36
150 146 28
152 147 32
153 149 28
152 148 36
150 146 28
155 151 25
156 151 37
153 149 28
151 148 34
152 149 34
150 146 19
153 148 32
157 152 22
151 146 19
155 151 34
149 146 25
154 149 32
157 152 36
155 151 30
152 148 22
152 148 30
154 150 34
152 148 30
154 150 28
153 148 34
154 150 22
153 149 30
150 147 28
156 151 28
158 153 45
155 151 37
156 151 32
155 151 32
156 150 41
156 151 34
154 149 25
154 150 37
153 149 30
154 148 25
154 150 30
151 146 28
150 146 25
150 146 28
156 150 42
156 151 39
157 152 32
151 147 34
158 152 34
154 149 37
149 144 28
151 148 30
155 150 28
148 144 28
151 147 37
153 149 32
149 146 16
150 146 28
151 148 30
154 149 39
154 150 39
149 145 34
147 143 28
149 145 25
145 141 28
145 141 25
152 147 37
147 142 25
150 145 39
148 144 32
144 140 28
143 138 37
151 146 28
148 144 34
150 145 25
141 137 22
151 145 37
142 137 28
147 142 36
142 139 30
146 140 32
145 141 28
141 136 25
137 132 30
146 141 25
135 131 34
130 127 30
128 125 19
132 129 19
134 129 42
132 128 36
122 118 22
128 124 30
130 126 28
114 111 28
128 130 28
167 186 0
167 187 0
167 188 0
169 190 0
166 183 0
168 187 0
165 186 0
166 185 0
164 183 0
166 187 0
165 186 0
167 189 0
165 186 0
167 188 0
168 188 0
165 184 0
169 189 0
171 192 0
169 188 0
170 190 0
171 192 0
171 191 0
170 192 0
169 189 0
173 194 0
168 189 0
171 192 0
172 194 0
168 188 0
170 191 0
170 191 0
172 194 0
169 193 0
169 193 0
170 193 0
171 194 0
171 194 0
171 193 0
169 192 0
174 196 0
170 193 0
171 194 0
172 194 0
172 195 0
171 194 0
173 195 0
172 195 0
171 193 0
164 187 0
168 192 0
169 192 0
171 194 0
170 193 0
170 194 0
170 194 0
168 190 0
169 192 0
169 191 0
173 196 0
168 191 0
169 193 0
171 194 0
166 189 0
170 193 0
168 190 0
171 194 0
169 192 0
170 193 0
169 191 0
170 193 0
169 191 0
168 191 0
170 192 0
169 192 0
168 192 0
168 191 0
167 189 0
169 192 0
168 189 0
169 191 0
168 191 0
167 191 0
167 188 0
168 191 0
164 187 0
169 191 0
170 193 0
166 189 0
166 189 0
166 189 0
167 190 0
164 187 0
164 185 0
164 188 0
167 190 0
164 187 0
169 192 0
167 189 0
162 185 0
163 186 0
164 186 0
166 189 0
165 188 0
169 190 0
168 190 0
164 188 0
163 185 0
166 189 0
163 185 0
164 186 0
164 185 0
162 185 0
166 187 0
166 188 0
162 186 0
164 186 0
165 187 0
165 186 0
161 184 0
163 186 0
160 182 0
158 181 0
160 182 0
160 183 0
158 181 0
164 186 0
160 182 0
161 183 0
161 183 0
161 184 0
158 180 0
161 184 0
158 181 0
149 171 0
156 178 0
154 175 0
152 174 0
159 182 0
158 180 0
153 175 0
150 172 0
157 179 0
154 176 0
150 172 0
156 179 0
154 175 0
154 177 0
155 178 0
144 165 0
153 175 0
156 178 0
138 158 0
153 175 0
151 172 0
142 164 0
140 162 0
141 162 0
154 175 0
150 171 0
150 171 0
138 160 0
139 161 0
143 165 0
145 167 0
143 164 0
146 167 0
144 165 0
141 161 0
137 157 0
143 164 0
139 160 0
137 157 0
132 154 0
139 160 0
139 160 0
132 153 0
134 155 0
134 155 0
135 156 0
129 149 0
131 151 0
138 159 0
127 146 0
129 150 0
131 151 0
128 148 0
128 148 0
126 145 0
127 146 0
131 151 0
129 149 0
131 151 0
137 155 0
120 138 0
116 133 0
114 133 0
132 150 0
119 139 0
117 137 0
118 138 0
114 131 0
109 126 0
111 130 0
115 131 0
108 124 0
109 125 0
109 125 0
111 127 0
113 130 0
110 127 0
102 120 0
115 131 0
95 111 0
108 123 0
98 114 0
96 112 0
103 117 0
104 118 0
106 121 0
95 111 0
101 115 0
92 107 0
106 121 0
98 111 0
96 110 0
96 110 0
90 105 0
101 116 0
93 106 0
81 93 0
86 99 0
93 107 0
88 100 0
98 111 0
96 109 0
78 89 0
89 101 0
87 98 0
65 77 0
96 108 0
95 107 0
96 108 0
86 97 0
100 112 0
99 110 0
86 98 0
85 96 0
96 106 0
93 104 0
85 94 0
89 101 0
88 99 0
101 114 0
84 94 0
89 100 0
80 91 0
93 103 0
77 87 0
80 91 0
79 87 8
86 85 26
87 87 31
93 93 23
100 99 27
107 105 20
105 105 26
113 111 31
118 115 25
116 115 28
118 116 22
124 120 33
122 119 35
137 133 36
129 126 19
129 126 30
133 130 29
134 130 25
132 129 22
139 136 18
135 132 28
145 140 35
139 135 22
141 137 28
148 145 36
143 140 22
152 147 37
148 143 32
150 146 37
145 143 25
141 138 32
139 137 19
144 140 32
149 145 28
149 143 37
149 144 34
148 144 30
153 148 30
146 142 30
153 149 32
147 144 30
150 146 39
153 148 37
150 145 28
153 148 37
151 147 25
155 150 30
150 146 37
155 151 37
153 148 28
153 148 22
152 148 32
151 147 32
150 146 30
154 151 25
155 151 34
153 149 32
152 147 32
150 146 28
155 150 37
153 149 28
153 148 32
150 147 28
155 150 25
158 153 39
152 147 30
151 146 30
156 151 32
156 151 41
152 148 25
155 151 36
154 148 37
155 151 30
151 148 28
155 151 28
153 148 28
154 150 25
152 148 30
156 151 36
151 146 25
151 147 16
154 150 25
157 152 32
157 153 34
155 150 37
156 151 37
153 148 30
152 147 36
155 151 30
155 151 37
154 148 32
150 145 32
153 150 28
153 150 30
154 150 32
151 147 28
151 147 34
154 149 28
149 145 28
151 147 32
148 144 32
144 139 30
148 145 34
150 146 34
154 149 41
153 148 28
155 149 37
149 145 25
151 146 36
150 145 37
148 143 30
150 146 30
152 148 32
150 146 37
151 146 36
140 136 19
148 144 25
149 144 34
148 143 34
143 139 34
146 141 30
140 137 30
147 143 37
147 143 30
144 139 32
140 135 39
144 140 25
140 136 34
143 139 28
144 139 41
141 136 37
139 135 19
140 135 36
135 130 28
126 123 25
135 131 25
135 129 39
122 118 22
120 116 30
116 113 25
136 143 11
169 188 0
169 189 0
163 181 0
168 188 0
163 180 0
168 189 0
164 183 0
168 186 0
168 188 0
165 185 0
168 189 0
168 188 0
166 185 0
165 186 0
167 188 0
166 185 0
166 187 0
168 189 0
165 184 0
169 190 0
167 188 0
172 193 0
166 187 0
166 185 0
168 188 0
168 188 0
170 190 0
171 192 0
170 191 0
171 192 0
170 190 0
170 191 0
170 192 0
170 194 0
171 194 0
169 192 0
170 193 0
168 192 0
172 195 0
171 194 0
171 195 0
172 195 0
168 192 0
172 195 0
171 194 0
169 193 0
170 193 0
170 192 0
168 193 0
171 194 0
167 189 0
170 193 0
170 193 0
171 193 0
170 193 0
168 192 0
170 193 0
170 193 0
168 191 0
168 192 0
170 193 0
163 186 0
169 192 0
170 193 0
167 191 0
166 189 0
168 189 0
167 190 0
170 193 0
165 188 0
167 191 0
171 193 0
167 190 0
168 191 0
165 187 0
167 190 0
168 191 0
166 189 0
164 188 0
168 191 0
167 191 0
169 192 0
167 190 0
166 188 0
170 194 0
166 187 0
168 192 0
167 190 0
166 189 0
166 189 0
170 193 0
166 189 0
163 184 0
165 188 0
167 190 0
170 194 0
164 187 0
167 191 0
164 187 0
161 184 0
166 189 0
167 189 0
167 189 0
166 189 0
165 187 0
161 185 0
166 189 0
162 185 0
165 188 0
162 185 0
164 187 0
162 185 0
169 191 0
159 181 0
165 189 0
161 184 0
160 181 0
163 185 0
162 184 0
159 182 0
157 180 0
155 178 0
165 187 0
155 177 0
164 187 0
164 187 0
165 188 0
159 183 0
164 186 0
158 181 0
160 182 0
155 177 0
157 178 0
158 180 0
157 180 0
150 172 0
155 178 0
155 178 0
155 177 0
152 174 0
155 178 0
156 177 0
152 174 0
154 176 0
154 176 0
152 175 0
147 169 0
154 176 0
147 169 0
147 171 0
153 176 0
153 176 0
151 173 0
146 166 0
148 169 0
151 173 0
152 174 0
143 164 0
154 175 0
152 175 0
140 162 0
151 173 0
147 168 0
147 167 0
140 162 0
143 163 0
134 155 0
144 164 0
129 150 0
139 160 0
141 161 0
141 161 0
144 165 0
140 161 0
140 161 0
136 156 0
128 148 0
143 164 0
136 157 0
137 158 0
136 155 0
121 141 0
138 159 0
129 149 0
138 158 0
132 153 0
127 148 0
131 151 0
123 143 0
128 147 0
123 141 0
119 139 0
120 139 0
127 145 0
129 146 0
123 142 0
119 136 0
118 136 0
119 137 0
117 134 0
121 140 0
111 129 0
119 137 0
113 130 0
119 137 0
117 135 0
117 135 0
102 119 0
104 121 0
122 139 0
103 120 0
107 123 0
118 134 0
104 120 0
102 117 0
110 126 0
111 127 0
103 119 0
105 122 0
104 118 0
112 127 0
108 123 0
98 112 0
95 110 0
115 129 0
99 115 0
107 123 0
98 113 0
98 110 0
89 103 0
102 116 0
107 121 0
104 118 0
102 116 0
96 109 0
97 109 0
91 102 0
85 100 0
95 108 0
103 113 0
86 98 0
83 95 0
71 82 0
102 114 0
89 99 0
97 111 0
104 115 0
100 111 0
98 110 0
104 116 0
81 92 0
97 109 0
91 103 0
94 106 0
95 107 0
104 116 0
103 115 0
90 102 0
97 108 0
81 85 14
63 67 20
86 85 25
91 92 24
100 100 27
103 102 25
102 100 21
115 113 32
112 111 24
123 120 28
124 122 31
125 122 35
126 124 31
126 124 28
132 129 29
133 130 33
144 140 40
135 131 22
145 141 38
138 135 29
138 135 25
145 141 36
136 133 28
146 141 32
145 141 36
142 139 32
137 134 32
141 138 0
146 141 28
147 143 28
142 138 16
156 151 36
147 142 37
148 143 42
144 139 19
141 138 19
153 148 42
149 145 32
152 147 30
147 142 25
151 147 34
148 143 37
148 145 25
152 146 41
150 146 30
149 144 37
146 143 32
145 141 19
149 146 36
153 148 36
153 149 36
149 144 32
152 146 25
157 152 37
151 147 28
153 147 19
151 147 25
152 147 25
150 146 30
153 148 25
150 147 25
153 149 25
153 149 22
156 151 34
150 145 28
155 151 37
156 152 32
154 149 22
156 151 32
150 146 28
154 149 39
152 149 32
148 144 28
156 152 34
154 149 28
150 146 34
157 151 34
155 149 34
153 147 28
155 150 32
157 152 42
155 149 42
153 149 28
154 149 30
154 150 34
154 149 32
150 145 11
154 150 32
151 147 34
155 151 36
157 151 37
152 148 30
155 150 36
150 145 28
153 149 39
156 151 39
157 152 28
155 150 34
152 147 34
153 150 36
155 151 37
145 141 25
152 148 37
153 148 37
151 147 25
152 148 28
150 146 37
155 150 37
147 142 25
154 149 32
152 148 28
145 142 22
148 143 37
147 142 30
151 147 36
147 142 25
147 143 36
143 140 19
149 145 32
140 136 28
145 140 34
149 145 34
139 135 32
142 138 28
139 135 25
144 139 36
145 141 28
140 136 32
146 140 39
134 130 28
140 136 32
144 140 39
145 139 39
131 127 36
131 127 22
128 124 32
134 130 32
121 118 19
129 125 25
127 122 30
147 161 0
168 188 0
167 188 0
167 186 0
166 185 0
164 183 0
163 183 0
173 195 0
161 179 0
169 188 0
163 182 0
165 185 0
165 184 0
165 185 0
170 192 0
171 190 0
170 189 0
170 191 0
167 186 0
168 186 0
171 192 0
169 190 0
168 189 0
168 188 0
168 189 0
165 184 0
168 189 0
168 189 0
167 187 0
167 188 0
171 193 0
169 189 0
167 189 0
170 192 0
170 194 0
170 193 0
172 194 0
171 194 0
170 193 0
169 192 0
170 193 0
169 193 0
168 190 0
168 190 0
172 194 0
168 191 0
170 192 0
170 193 0
170 193 0
173 195 0
170 193 0
171 194 0
169 192 0
169 192 0
171 194 0
168 192 0
169 191 0
169 192 0
169 192 0
170 193 0
169 192 0
169 193 0
170 193 0
165 188 0
169 192 0
170 193 0
168 192 0
168 192 0
167 190 0
167 190 0
167 190 0
167 190 0
169 191 0
169 192 0
168 192 0
169 192 0
167 191 0
170 193 0
169 193 0
167 191 0
168 191 0
167 189 0
165 189 0
168 191 0
169 192 0
166 189 0
170 192 0
169 192 0
170 193 0
165 187 0
168 190 0
169 192 0
170 193 0
166 189 0
164 187 0
165 189 0
167 190 0
164 187 0
168 191 0
163 185 0
164 189 0
166 187 0
167 190 0
161 183 0
165 189 0
163 186 0
169 191 0
166 190 0
164 187 0
163 186 0
161 183 0
161 183 0
164 186 0
168 190 0
171 194 0
160 182 0
165 189 0
164 186 0
167 189 0
161 184 0
164 187 0
160 182 0
163 184 0
162 185 0
163 186 0
160 183 0
161 183 0
161 183 0
160 182 0
164 187 0
160 182 0
157 181 0
159 180 0
160 182 0
155 177 0
159 182 0
152 175 0
159 181 0
152 175 0
153 175 0
154 177 0
160 183 0
152 173 0
156 179 0
151 173 0
152 174 0
155 177 0
159 181 0
151 172 0
147 169 0
154 176 0
155 178 0
148 170 0
146 168 0
155 177 0
140 161 0
154 175 0
147 168 0
147 170 0
142 164 0
143 165 0
145 167 0
133 155 0
149 170 0
144 166 0
142 163 0
137 159 0
140 161 0
144 166 0
139 159 0
138 159 0
148 170 0
141 162 0
127 146 0
140 160 0
142 164 0
142 163 0
137 157 0
132 153 0
139 159 0
137 157 0
132 154 0
142 163 0
129 148 0
124 144 0
131 152 0
132 153 0
132 152 0
121 140 0
125 145 0
128 148 0
122 142 0
134 154 0
122 141 0
127 146 0
124 143 0
127 147 0
115 134 0
124 145 0
119 139 0
112 131 0
124 143 0
113 129 0
115 133 0
125 143 0
112 130 0
111 128 0
120 138 0
112 129 0
112 130 0
118 134 0
117 136 0
107 123 0
110 127 0
103 120 0
108 124 0
114 130 0
96 109 0
110 127 0
112 128 0
108 123 0
109 125 0
85 100 0
97 112 0
101 116 0
113 127 0
106 121 0
113 129 0
103 117 0
98 111 0
102 115 0
91 102 0
106 120 0
87 100 0
99 112 0
88 101 0
105 121 0
96 108 0
102 115 0
88 101 0
93 106 0
93 106 0
82 95 0
108 120 0
103 115 0
101 112 0
91 103 0
95 108 0
102 115 0
93 104 0
95 108 0
98 110 0
110 122 0
100 112 0
90 100 0
102 116 0
96 109 0
99 110 0
68 77 0
104 115 0
87 95 18
75 73 21
92 91 25
95 94 26
94 93 16
103 101 28
114 113 37
110 109 25
120 118 36
123 121 34
131 127 28
124 122 30
134 130 30
136 132 28
130 126 23
131 128 25
133 130 30
132 128 34
143 139 39
138 134 32
143 139 28
137 134 30
139 135 28
144 140 37
145 141 34
140 136 19
142 139 30
141 137 25
150 145 30
145 141 22
148 145 36
146 141 30
146 143 16
146 142 32
144 140 28
141 137 30
151 146 32
143 140 32
151 147 34
150 144 30
152 148 39
147 143 34
147 142 30
154 147 34
146 142 25
148 143 19
150 147 30
154 149 36
157 153 30
155 150 30
153 150 25
151 147 25
152 149 28
155 150 28
157 152 34
154 150 30
152 147 25
152 149 34
153 149 30
152 148 16
151 147 34
151 146 19
153 149 19
153 150 37
153 148 28
155 150 34
154 151 25
154 150 25
158 154 30
154 149 36
153 148 30
154 149 36
152 147 30
151 147 28
158 153 39
154 150 25
149 146 25
151 147 28
155 150 36
152 148 37
155 151 28
156 152 37
155 150 30
155 149 37
156 151 37
153 148 32
154 150 28
154 151 22
150 146 25
150 144 30
154 150 34
155 151 36
152 149 32
155 149 41
156 151 36
149 144 32
148 143 30
150 146 32
155 150 25
148 145 22
155 151 32
152 147 39
152 147 25
152 148 25
152 148 25
150 147 30
145 142 30
151 146 36
150 147 30
156 151 30
148 144 34
149 145 32
154 150 32
147 143 34
148 143 39
145 141 41
146 142 39
145 141 28
150 144 32
141 137 19
150 144 37
146 141 37
142 138 30
141 138 28
142 138 32
138 133 36
148 144 34
144 141 32
131 127 28
138 135 28
132 127 22
142 137 30
131 127 25
131 127 30
135 130 22
137 133 19
123 119 28
130 125 25
122 119 36
111 108 16
162 179 0
166 185 0
166 185 0
166 186 0
166 186 0
168 187 0
167 186 0
162 181 0
167 187 0
167 186 0
168 187 0
166 187 0
167 186 0
169 189 0
167 187 0
169 189 0
171 191 0
168 189 0
170 191 0
166 186 0
168 187 0
168 187 0
166 186 0
169 190 0
168 190 0
166 185 0
168 190 0
171 191 0
170 190 0
165 188 0
166 188 0
167 187 0
169 188 0
169 193 0
168 191 0
169 193 0
169 192 0
170 193 0
169 192 0
170 193 0
169 192 0
170 194 0
168 192 0
168 191 0
171 194 0
171 194 0
172 194 0
168 191 0
168 191 0
169 193 0
170 193 0
168 191 0
172 195 0
171 194 0
171 195 0
171 193 0
165 188 0
169 191 0
167 189 0
170 193 0
168 190 0
170 193 0
170 192 0
172 195 0
169 192 0
170 194 0
171 194 0
166 189 0
168 192 0
170 193 0
170 193 0
167 190 0
169 192 0
166 190 0
168 190 0
170 193 0
170 192 0
168 192 0
167 190 0
166 189 0
165 188 0
166 190 0
166 189 0
167 189 0
170 193 0
168 191 0
169 192 0
164 188 0
170 192 0
167 189 0
166 190 0
166 189 0
165 187 0
167 190 0
165 189 0
164 187 0
164 188 0
164 187 0
166 188 0
164 186 0
167 189 0
162 185 0
163 185 0
162 184 0
166 188 0
166 189 0
165 187 0
166 188 0
165 187 0
165 188 0
162 185 0
165 188 0
165 188 0
164 187 0
164 187 0
162 184 0
166 188 0
164 187 0
161 183 0
162 186 0
162 184 0
159 182 0
168 191 0
162 184 0
162 184 0
163 185 0
162 184 0
157 180 0
165 188 0
155 178 0
163 186 0
160 182 0
153 175 0
156 178 0
149 172 0
157 179 0
155 177 0
151 173 0
160 182 0
149 171 0
152 173 0
156 177 0
153 175 0
147 168 0
156 178 0
154 176 0
160 182 0
155 177 0
152 173 0
151 173 0
148 170 0
150 170 0
154 175 0
139 161 0
151 173 0
146 168 0
144 165 0
148 169 0
143 164 0
157 179 0
152 173 0
141 162 0
153 174 0
144 166 0
141 163 0
147 169 0
141 162 0
139 160 0
142 162 0
140 160 0
147 168 0
138 159 0
151 171 0
134 155 0
131 152 0
146 167 0
130 150 0
139 160 0
140 160 0
139 160 0
142 163 0
135 155 0
134 155 0
134 154 0
127 147 0
145 165 0
141 162 0
129 149 0
128 146 0
126 146 0
132 152 0
131 151 0
127 146 0
136 156 0
124 142 0
129 149 0
124 143 0
116 135 0
128 146 0
126 145 0
119 137 0
123 140 0
123 140 0
122 142 0
114 133 0
109 128 0
106 124 0
122 141 0
124 142 0
122 140 0
112 129 0
112 128 0
110 127 0
124 140 0
111 127 0
101 118 0
116 132 0
108 124 0
105 122 0
110 125 0
105 120 0
104 121 0
107 122 0
111 126 0
98 115 0
102 118 0
114 129 0
97 113 0
96 112 0
114 128 0
97 111 0
94 107 0
88 102 0
110 123 0
86 99 0
91 103 0
98 113 0
102 115 0
99 112 0
100 114 0
102 114 0
106 118 0
108 121 0
106 120 0
94 106 0
101 115 0
104 117 0
97 109 0
101 115 0
102 115 0
107 118 0
106 118 0
105 118 0
95 108 0
103 116 0
97 110 0
101 112 0
106 117 0
91 104 0
92 105 0
79 83 14
84 82 20
73 73 14
94 94 22
99 99 29
107 104 26
110 107 31
114 112 26
118 114 29
114 112 34
128 124 28
116 114 31
117 115 32
132 128 30
128 125 22
128 125 30
136 133 36
140 137 30
132 130 26
143 138 37
136 132 22
143 138 37
142 137 28
143 138 36
137 134 32
144 140 25
144 140 32
148 144 30
148 145 25
149 143 32
149 146 36
148 145 36
144 140 34
150 146 32
148 144 36
149 145 34
155 150 32
150 146 32
153 148 28
154 150 32
148 145 28
144 141 22
148 144 25
155 149 44
149 145 32
153 148 32
152 148 25
152 148 25
152 148 32
152 148 28
154 150 37
155 150 32
149 145 22
155 150 36
150 146 36
151 147 36
155 151 34
149 146 22
151 146 28
151 148 34
151 146 32
151 146 25
153 149 28
152 148 32
155 151 28
153 149 28
148 144 19
149 145 30
151 147 19
154 149 32
153 148 19
154 151 30
155 151 22
153 148 34
152 148 37
156 152 25
158 154 39
154 150 25
156 151 36
157 153 30
156 151 30
153 150 28
151 148 25
155 150 39
153 148 39
156 151 36
153 148 37
149 144 30
153 148 19
155 149 34
158 153 32
154 149 30
158 153 39
155 151 36
160 155 37
153 150 25
153 149 25
151 146 32
150 145 30
153 149 28
152 147 28
146 142 25
152 147 30
152 147 25
146 142 30
150 146 32
151 147 42
156 152 37
153 148 28
153 148 37
151 146 30
145 140 36
143 138 25
149 145 28
153 149 32
147 144 28
147 142 32
146 142 30
152 147 36
145 140 30
143 139 32
140 135 32
137 133 28
143 138 39
141 136 25
144 140 22
140 136 32
134 129 32
142 136 36
134 130 28
138 134 25
138 134 32
132 128 30
132 129 32
128 125 22
116 113 32
127 123 32
124 118 32
128 126 28
117 113 22
158 178 0
164 183 0
169 188 0
167 187 0
166 185 0
163 183 0
169 189 0
166 186 0
164 185 0
164 182 0
166 186 0
171 192 0
166 185 0
168 188 0
166 183 0
172 191 0
167 186 0
169 190 0
167 187 0
170 191 0
168 187 0
170 190 0
168 187 0
172 193 0
173 194 0
170 190 0
170 190 0
172 192 0
169 191 0
168 187 0
169 191 0
173 194 0
172 193 0
172 195 0
171 194 0
170 193 0
172 195 0
172 195 0
171 195 0
171 193 0
168 192 0
170 192 0
170 193 0
165 189 0
169 193 0
170 191 0
171 194 0
170 193 0
166 190 0
169 192 0
170 193 0
169 192 0
170 194 0
171 195 0
169 192 0
170 192 0
168 192 0
167 189 0
169 192 0
170 192 0
171 195 0
170 192 0
166 189 0
169 192 0
171 194 0
167 190 0
168 190 0
169 192 0
169 192 0
172 195 0
169 192 0
168 191 0
167 190 0
165 188 0
166 189 0
170 193 0
167 189 0
169 192 0
165 189 0
166 188 0
166 189 0
167 189 0
170 191 0
165 188 0
163 187 0
168 191 0
165 189 0
169 191 0
168 192 0
164 187 0
166 189 0
170 193 0
167 191 0
167 191 0
167 190 0
163 185 0
162 185 0
167 190 0
167 190 0
165 188 0
166 189 0
164 188 0
165 187 0
165 187 0
162 185 0
167 190 0
163 184 0
166 189 0
169 192 0
163 185 0
167 189 0
167 190 0
167 189 0
165 189 0
163 186 0
163 186 0
162 185 0
164 187 0
167 190 0
165 188 0
160 183 0
166 188 0
159 182 0
160 182 0
156 178 0
152 174 0
162 185 0
158 180 0
162 184 0
153 176 0
154 176 0
157 179 0
157 179 0
160 183 0
153 176 0
159 181 0
155 177 0
161 184 0
155 176 0
156 177 0
149 171 0
157 180 0
154 176 0
157 179 0
156 178 0
156 178 0
152 173 0
150 172 0
146 169 0
155 177 0
154 177 0
146 168 0
159 182 0
154 175 0
138 159 0
149 172 0
152 174 0
145 166 0
147 168 0
150 171 0
138 159 0
150 171 0
139 160 0
145 167 0
143 164 0
143 164 0
147 169 0
141 162 0
151 173 0
142 164 0
152 174 0
136 156 0
144 163 0
137 158 0
138 158 0
144 164 0
143 165 0
133 154 0
139 159 0
134 154 0
147 167 0
140 159 0
139 160 0
138 156 0
136 157 0
124 143 0
131 150 0
135 155 0
139 160 0
141 161 0
141 160 0
132 152 0
120 140 0
121 141 0
120 138 0
131 148 0
115 133 0
127 146 0
136 155 0
127 146 0
107 126 0
120 140 0
129 147 0
130 148 0
121 138 0
112 129 0
118 136 0
112 130 0
117 136 0
118 134 0
118 136 0
123 140 0
135 152 0
116 133 0
113 131 0
127 143 0
104 121 0
114 130 0
111 125 0
115 132 0
119 135 0
93 109 0
110 122 0
114 128 0
106 122 0
99 114 0
108 123 0
102 117 0
101 115 0
111 124 0
102 116 0
106 119 0
106 119 0
98 112 0
93 107 0
109 125 0
103 117 0
96 108 0
94 109 0
106 118 0
96 109 0
96 107 0
100 115 0
89 102 0
86 99 0
112 126 0
97 110 0
105 116 0
98 109 0
108 120 0
106 119 0
97 108 0
94 106 0
107 117 0
89 101 0
99 109 0
102 115 0
93 104 0
105 116 0
99 112 0
95 102 8
79 79 14
84 85 12
93 93 27
100 99 24
100 99 36
112 111 21
110 109 26
118 115 27
126 123 34
122 119 24
127 124 29
127 124 29
129 126 32
137 133 27
129 126 22
138 135 34
139 134 42
135 131 19
137 132 32
144 140 29
138 136 19
146 142 34
145 142 30
145 140 36
148 145 34
138 135 19
144 141 28
142 138 32
151 147 39
150 146 32
147 143 28
144 140 22
144 139 30
147 142 32
155 149 36
147 144 32
150 145 30
152 147 30
147 143 32
151 148 32
153 149 32
152 149 32
154 149 36
149 146 19
154 149 39
151 147 28
149 144 32
154 149 32
152 148 30
153 148 28
153 149 30
148 144 32
149 144 32
153 149 32
150 145 30
150 145 34
153 148 32
155 150 28
153 149 32
155 150 32
154 149 36
156 150 39
153 149 36
153 149 30
154 149 37
151 147 28
155 151 25
158 153 37
152 148 28
151 146 22
150 146 25
151 146 22
153 149 34
150 145 25
153 148 25
151 147 28
156 152 25
157 152 47
152 148 25
151 146 30
154 150 28
154 150 34
154 149 37
154 148 25
153 148 30
152 148 30
155 151 30
155 150 30
155 150 25
153 149 34
149 145 36
156 151 37
150 146 28
148 144 16
154 150 32
150 147 30
155 150 37
153 149 36
153 149 22
157 152 32
157 152 39
153 148 34
151 147 30
151 146 39
148 143 34
153 148 36
150 145 39
149 145 28
152 148 28
152 147 37
146 141 41
147 143 28
146 142 36
146 142 34
144 140 32
141 138 36
145 141 32
145 141 30
146 141 36
143 138 32
142 138 25
147 143 25
145 142 25
138 135 30
147 143 37
139 134 30
134 130 25
131 126 36
138 132 34
140 135 32
138 135 30
140 135 34
132 128 30
136 131 42
128 124 28
133 127 32
120 117 19
119 116 22
125 124 28
166 184 0
167 186 0
164 186 0
167 184 0
167 185 0
169 190 0
166 184 0
170 190 0
169 188 0
169 190 0
166 185 0
166 188 0
169 188 0
167 187 0
167 186 0
165 183 0
168 188 0
168 189 0
172 192 0
168 188 0
171 191 0
170 191 0
165 186 0
167 187 0
170 190 0
169 189 0
169 190 0
172 194 0
166 186 0
172 194 0
168 190 0
169 190 0
169 190 0
173 196 0
172 194 0
170 192 0
173 196 0
168 192 0
168 191 0
169 192 0
170 194 0
168 192 0
171 194 0
169 191 0
170 193 0
170 193 0
171 194 0
170 192 0
168 191 0
170 193 0
171 193 0
169 192 0
172 194 0
172 195 0
171 194 0
169 193 0
167 189 0
169 192 0
169 192 0
171 194 0
172 195 0
169 191 0
171 195 0
170 194 0
167 190 0
168 191 0
169 192 0
169 192 0
171 195 0
168 191 0
169 191 0
169 192 0
168 191 0
170 193 0
167 190 0
171 194 0
167 190 0
168 191 0
165 186 0
168 191 0
170 193 0
166 189 0
168 191 0
167 190 0
164 186 0
172 195 0
166 189 0
170 194 0
167 191 0
163 186 0
167 190 0
165 186 0
169 192 0
167 190 0
166 190 0
166 188 0
166 188 0
167 189 0
168 192 0
164 187 0
165 188 0
164 187 0
166 189 0
165 187 0
165 188 0
167 190 0
165 188 0
165 188 0
164 186 0
162 184 0
164 186 0
163 185 0
164 185 0
165 188 0
165 187 0
165 186 0
163 185 0
163 185 0
161 185 0
162 186 0
158 180 0
160 182 0
157 179 0
160 182 0
161 183 0
164 187 0
161 184 0
157 181 0
158 179 0
162 184 0
158 180 0
166 188 0
152 174 0
160 182 0
158 180 0
156 178 0
160 182 0
165 188 0
155 178 0
158 181 0
158 180 0
151 173 0
151 173 0
157 179 0
159 180 0
155 177 0
154 176 0
151 172 0
152 173 0
153 176 0
149 170 0
153 176 0
146 168 0
151 172 0
158 179 0
146 167 0
149 169 0
148 168 0
150 172 0
144 166 0
152 174 0
145 167 0
136 157 0
139 160 0
141 161 0
149 171 0
144 166 0
151 172 0
135 156 0
145 167 0
141 163 0
133 154 0
139 159 0
144 165 0
146 166 0
140 162 0
137 157 0
131 152 0
135 156 0
151 172 0
138 160 0
143 162 0
126 145 0
128 148 0
133 153 0
139 160 0
133 154 0
124 143 0
141 162 0
129 148 0
123 143 0
129 149 0
122 142 0
137 157 0
134 153 0
134 154 0
123 143 0
119 138 0
124 141 0
120 139 0
115 134 0
123 143 0
111 129 0
122 141 0
126 145 0
126 145 0
110 128 0
132 150 0
126 144 0
113 131 0
127 146 0
113 131 0
121 139 0
114 132 0
111 127 0
110 125 0
116 133 0
105 122 0
111 127 0
107 122 0
112 128 0
114 128 0
112 127 0
100 115 0
116 132 0
102 115 0
115 130 0
104 120 0
104 118 0
106 119 0
110 124 0
106 118 0
110 127 0
102 116 0
103 117 0
108 122 0
104 118 0
103 117 0
95 111 0
101 116 0
112 126 0
99 112 0
104 117 0
81 93 0
92 104 0
105 117 0
110 123 0
103 118 0
107 122 0
95 107 0
89 102 0
98 112 0
100 112 0
93 107 0
102 114 0
100 110 0
103 115 0
102 115 0
112 124 0
97 109 0
90 96 14
71 70 22
98 97 11
89 89 19
102 101 22
115 112 33
115 112 37
115 113 25
111 109 21
126 123 41
131 127 37
126 123 33
128 125 25
124 122 28
131 127 25
128 125 12
137 132 30
137 133 32
147 144 39
133 129 19
139 135 30
135 132 30
139 134 28
146 142 36
146 141 32
138 135 34
146 142 22
141 138 30
145 141 36
151 148 30
142 138 30
147 143 25
148 145 32
146 142 25
147 143 30
148 143 30
152 148 25
152 147 36
154 150 36
147 142 30
146 141 30
148 144 36
153 149 32
150 146 32
149 145 36
147 143 25
148 144 28
151 145 41
152 148 30
152 148 32
153 148 36
150 147 30
150 146 30
150 145 30
150 145 25
151 147 28
152 148 25
153 149 37
149 144 30
153 149 28
149 143 22
154 149 36
152 147 28
155 150 32
156 150 36
155 151 32
153 148 28
155 150 36
154 150 28
153 150 34
149 145 28
157 152 39
151 147 37
155 150 32
155 152 37
155 151 32
151 148 22
157 151 34
156 152 34
156 151 34
152 148 32
155 151 34
150 145 25
155 150 34
153 148 32
150 147 19
152 148 34
148 143 28
153 148 36
152 148 36
154 150 41
152 148 34
145 141 22
152 148 36
156 150 39
153 148 36
148 143 30
153 148 28
151 146 37
155 151 39
151 147 25
152 147 36
149 146 28
153 148 34
153 148 36
151 147 39
150 147 25
150 145 30
149 144 28
147 141 30
147 142 30
150 144 37
153 147 44
144 140 28
143 138 30
146 140 37
148 143 34
141 136 34
147 143 28
150 146 22
142 137 36
148 143 22
142 138 25
147 143 36
134 129 19
143 138 34
136 131 34
140 135 39
139 134 32
136 132 22
140 136 28
133 127 16
128 124 32
133 130 25
126 123 22
125 122 25
131 127 30
126 122 34
124 120 34
144 151 19
164 183 0
163 181 0
166 187 0
165 183 0
167 186 0
165 185 0
166 184 0
164 182 0
165 185 0
169 190 0
170 189 0
166 185 0
170 191 0
167 189 0
170 190 0
169 189 0
169 189 0
171 191 0
170 190 0
168 189 0
171 193 0
166 187 0
172 193 0
171 191 0
167 189 0
167 189 0
170 192 0
168 188 0
169 191 0
168 188 0
169 188 0
168 189 0
171 192 0
170 193 0
171 194 0
172 194 0
169 193 0
171 195 0
170 193 0
171 193 0
171 194 0
170 194 0
169 191 0
171 194 0
170 193 0
169 192 0
169 192 0
171 193 0
170 193 0
171 194 0
169 192 0
168 191 0
170 194 0
170 193 0
167 191 0
170 193 0
169 193 0
170 192 0
169 192 0
173 195 0
169 192 0
168 192 0
169 192 0
168 190 0
171 194 0
170 192 0
170 193 0
171 193 0
165 189 0
171 194 0
167 190 0
170 192 0
169 192 0
168 191 0
166 189 0
169 193 0
169 193 0
167 191 0
169 192 0
169 193 0
168 191 0
169 191 0
167 191 0
167 190 0
172 195 0
169 192 0
169 192 0
171 193 0
167 190 0
168 190 0
166 189 0
171 194 0
167 190 0
167 191 0
164 187 0
166 189 0
166 189 0
166 189 0
168 191 0
165 188 0
167 189 0
165 187 0
167 190 0
170 192 0
163 185 0
165 186 0
168 190 0
166 188 0
163 186 0
159 182 0
164 187 0
169 191 0
165 188 0
166 188 0
160 181 0
157 178 0
164 187 0
164 187 0
162 185 0
164 186 0
163 185 0
162 185 0
161 184 0
159 182 0
164 185 0
163 185 0
161 183 0
160 183 0
161 184 0
156 177 0
159 181 0
161 183 0
156 178 0
162 185 0
159 181 0
161 185 0
155 176 0
155 177 0
159 181 0
153 175 0
148 169 0
156 178 0
162 185 0
154 175 0
151 172 0
157 179 0
156 178 0
147 169 0
149 171 0
150 171 0
159 182 0
154 175 0
149 170 0
154 177 0
154 176 0
148 169 0
141 162 0
146 169 0
148 170 0
151 173 0
145 166 0
156 178 0
147 168 0
134 155 0
142 162 0
138 160 0
156 178 0
147 168 0
145 166 0
140 161 0
144 165 0
138 159 0
149 171 0
148 169 0
139 159 0
135 158 0
137 157 0
141 162 0
139 159 0
138 159 0
141 161 0
137 157 0
136 155 0
138 159 0
141 163 0
139 160 0
132 153 0
131 152 0
143 163 0
133 155 0
137 158 0
139 160 0
133 152 0
126 146 0
131 151 0
128 147 0
127 147 0
134 154 0
125 143 0
136 153 0
118 137 0
128 147 0
121 141 0
129 147 0
129 148 0
122 141 0
126 144 0
120 138 0
127 146 0
119 137 0
121 140 0
123 142 0
110 128 0
117 135 0
131 148 0
123 141 0
114 130 0
122 139 0
114 131 0
101 118 0
116 136 0
123 139 0
123 139 0
115 130 0
111 126 0
119 137 0
112 126 0
124 140 0
106 123 0
95 109 0
112 126 0
107 121 0
118 133 0
105 120 0
114 130 0
111 124 0
105 119 0
96 109 0
105 118 0
103 117 0
98 111 0
106 119 0
109 122 0
88 101 0
106 119 0
103 117 0
93 107 0
107 120 0
104 115 0
95 107 0
106 119 0
113 127 0
110 123 0
97 108 0
107 120 0
113 126 0
103 117 0
97 110 0
104 115 0
103 115 0
86 90 15
82 81 6
101 99 25
90 88 21
91 90 28
102 100 26
112 111 24
114 111 23
118 116 20
113 110 29
123 120 25
129 126 31
129 127 30
135 132 30
134 130 31
133 131 25
138 134 34
133 129 37
137 132 34
139 135 34
139 135 22
138 135 32
133 130 24
133 130 11
141 137 25
147 142 36
149 146 36
147 140 36
144 139 32
144 140 32
150 145 32
141 137 30
142 138 28
143 139 30
153 149 39
147 143 32
150 146 34
149 144 32
153 150 37
150 146 25
151 147 28
148 144 25
152 148 30
150 146 19
148 144 36
151 146 22
150 147 22
149 145 34
145 141 25
151 147 32
150 146 28
155 149 34
156 150 42
149 145 22
153 148 36
150 146 28
156 151 32
153 148 37
147 144 25
150 145 30
151 147 32
149 145 34
153 148 32
155 150 34
154 150 34
155 150 37
158 152 36
153 148 28
151 148 28
154 150 34
154 149 32
153 148 32
150 145 34
158 153 42
151 147 34
154 150 28
151 148 32
156 151 36
151 147 19
150 146 22
158 152 41
152 148 28
148 144 30
149 146 28
155 151 37
152 147 34
155 150 32
149 145 34
151 145 28
153 148 32
150 146 25
152 147 25
156 150 37
154 149 34
154 149 36
149 145 42
152 148 37
156 152 37
154 149 25
152 148 25
150 145 36
154 149 32
149 145 22
149 145 28
151 148 28
154 149 34
149 145 30
150 147 25
151 148 22
149 144 32
151 146 30
152 147 32
145 142 22
153 148 37
147 142 32
147 142 34
150 146 32
148 142 34
151 146 39
149 144 37
145 139 30
142 139 34
140 136 28
140 136 34
143 139 25
141 137 36
142 137 28
141 137 32
144 139 44
137 133 32
136 132 16
140 136 16
141 136 28
132 127 22
132 128 22
130 125 0
122 118 34
128 125 30
133 128 34
146 157 16
163 181 0
171 192 0
169 189 0
166 187 0
170 191 0
166 186 0
171 189 0
166 185 0
168 186 0
169 187 0
171 192 0
169 190 0
167 187 0
171 190 0
168 187 0
166 188 0
166 187 0
167 187 0
169 188 0
167 188 0
168 189 0
169 191 0
169 189 0
169 189 0
169 188 0
169 190 0
168 190 0
170 190 0
171 192 0
169 189 0
168 188 0
171 192 0
171 189 0
170 194 0
169 192 0
172 194 0
169 193 0
171 195 0
171 195 0
170 194 0
170 192 0
171 194 0
171 194 0
170 193 0
168 192 0
170 195 0
170 193 0
172 194 0
170 194 0
171 195 0
167 191 0
171 195 0
170 193 0
169 192 0
168 191 0
171 194 0
171 194 0
168 192 0
170 192 0
167 189 0
172 195 0
170 193 0
165 189 0
170 193 0
171 194 0
169 192 0
171 194 0
170 193 0
169 192 0
166 189 0
170 194 0
171 194 0
169 192 0
168 192 0
169 192 0
164 187 0
169 192 0
171 195 0
169 191 0
171 193 0
168 191 0
167 190 0
168 191 0
170 192 0
164 185 0
167 190 0
167 190 0
165 189 0
166 189 0
167 190 0
164 188 0
166 189 0
170 193 0
165 188 0
167 191 0
165 188 0
164 187 0
159 182 0
167 189 0
159 182 0
162 184 0
163 186 0
165 188 0
164 186 0
168 192 0
164 187 0
168 191 0
164 186 0
167 189 0
163 186 0
165 188 0
161 184 0
167 189 0
160 183 0
160 182 0
161 184 0
155 178 0
160 183 0
163 185 0
164 186 0
159 181 0
164 187 0
161 183 0
159 181 0
158 181 0
157 179 0
157 179 0
163 186 0
158 181 0
159 183 0
160 182 0
156 178 0
164 186 0
151 174 0
160 182 0
164 186 0
163 185 0
161 183 0
158 179 0
154 177 0
157 179 0
154 176 0
156 178 0
153 174 0
156 179 0
153 175 0
151 174 0
154 175 0
153 176 0
158 179 0
152 174 0
149 171 0
153 174 0
154 176 0
152 175 0
154 176 0
151 172 0
148 170 0
146 166 0
146 169 0
144 166 0
135 155 0
146 167 0
151 173 0
146 168 0
145 165 0
150 171 0
141 162 0
144 165 0
146 167 0
143 165 0
145 166 0
138 159 0
142 164 0
131 152 0
141 163 0
142 162 0
136 157 0
132 152 0
135 156 0
135 156 0
133 154 0
135 155 0
133 153 0
136 157 0
136 156 0
137 156 0
122 142 0
127 148 0
129 149 0
120 139 0
143 163 0
134 154 0
131 151 0
130 150 0
125 143 0
138 159 0
135 155 0
126 146 0
132 151 0
130 149 0
131 149 0
136 154 0
123 142 0
125 143 0
125 144 0
123 141 0
122 140 0
117 135 0
125 144 0
117 137 0
128 146 0
114 131 0
114 131 0
119 135 0
118 135 0
108 125 0
113 131 0
117 134 0
114 130 0
117 134 0
120 136 0
114 129 0
114 130 0
117 133 0
107 122 0
116 132 0
119 136 0
94 108 0
127 143 0
110 126 0
111 126 0
107 122 0
114 130 0
103 117 0
110 125 0
94 109 0
110 123 0
109 123 0
121 135 0
113 127 0
103 115 0
93 106 0
102 115 0
103 116 0
106 117 0
103 116 0
107 118 0
111 124 0
101 114 0
95 107 0
95 106 0
110 123 0
112 126 0
103 115 0
94 107 0
106 117 0
104 116 0
89 102 0
94 107 0
80 86 0
85 85 20
81 82 19
97 95 16
101 98 28
97 95 24
109 107 25
106 104 14
103 102 18
119 116 26
126 122 33
130 126 29
120 118 16
129 125 16
137 133 30
134 130 31
140 135 40
142 137 40
133 129 28
140 137 25
143 139 30
141 138 31
143 139 25
142 137 22
144 139 30
142 138 32
147 143 22
141 136 32
140 137 28
145 139 34
146 142 30
145 141 28
141 138 19
152 146 36
148 143 32
146 142 28
148 143 34
146 142 28
144 139 32
148 144 32
150 146 30
150 146 32
152 148 34
155 151 36
150 145 36
157 152 36
149 144 34
154 148 37
152 147 30
152 148 30
153 148 34
151 147 34
152 148 25
157 152 41
148 144 19
153 148 41
150 146 25
155 150 22
156 150 44
150 147 28
150 147 28
154 150 28
150 146 19
152 148 28
153 149 30
150 146 22
153 147 36
155 149 36
153 148 22
155 151 30
155 150 39
157 152 45
152 148 30
150 146 25
152 148 37
150 147 30
153 150 19
155 151 22
152 148 32
152 148 30
156 151 34
147 143 22
150 146 30
151 147 36
149 145 30
151 147 28
151 146 22
151 147 16
155 150 34
153 149 30
141 138 19
148 145 22
151 147 22
152 148 37
154 149 34
152 147 32
154 149 28
152 149 30
155 152 34
149 146 30
149 144 34
153 148 36
154 149 37
147 142 37
150 147 30
149 144 36
147 143 25
150 145 34
151 145 37
152 148 28
145 141 25
144 139 36
149 145 28
148 144 32
149 144 32
147 143 25
149 145 39
143 139 19
148 144 22
147 142 32
141 136 32
149 145 36
143 139 25
147 142 32
134 131 32
137 132 25
140 135 22
142 136 39
137 132 39
126 123 25
134 130 22
142 137 37
134 131 19
136 132 25
128 124 22
124 120 34
126 122 30
121 117 25
122 117 30
153 164 16
167 188 0
166 186 0
163 181 0
167 186 0
167 186 0
165 183 0
168 188 0
166 184 0
162 181 0
167 186 0
170 188 0
166 185 0
166 186 0
165 187 0
165 183 0
167 186 0
168 188 0
169 188 0
166 187 0
169 189 0
167 187 0
170 190 0
170 192 0
169 191 0
164 184 0
170 191 0
165 184 0
166 186 0
168 187 0
164 185 0
170 191 0
168 187 0
171 191 0
174 197 0
169 192 0
170 193 0
170 193 0
168 190 0
172 195 0
170 193 0
171 194 0
170 193 0
172 195 0
169 191 0
170 193 0
170 193 0
169 193 0
168 191 0
168 191 0
170 193 0
169 191 0
167 190 0
169 193 0
169 193 0
168 191 0
168 192 0
170 193 0
168 191 0
170 194 0
171 194 0
167 189 0
169 193 0
171 194 0
170 192 0
167 190 0
168 191 0
170 192 0
172 194 0
169 191 0
169 193 0
170 192 0
171 194 0
166 189 0
168 191 0
169 192 0
167 190 0
169 192 0
166 190 0
168 190 0
165 188 0
164 187 0
170 194 0
167 190 0
163 186 0
168 189 0
166 189 0
167 190 0
170 193 0
169 192 0
169 191 0
167 190 0
164 187 0
164 187 0
165 187 0
169 190 0
168 191 0
168 190 0
162 186 0
166 189 0
165 188 0
169 192 0
165 188 0
165 187 0
167 188 0
162 184 0
166 189 0
164 187 0
170 192 0
161 184 0
164 186 0
167 190 0
154 176 0
165 187 0
161 184 0
166 188 0
168 189 0
165 187 0
159 181 0
163 184 0
159 181 0
164 187 0
166 190 0
158 180 0
163 186 0
162 185 0
163 186 0
164 185 0
164 187 0
163 187 0
165 187 0
158 180 0
157 179 0
156 178 0
158 180 0
153 177 0
159 181 0
160 182 0
154 176 0
155 178 0
154 175 0
155 178 0
155 178 0
160 183 0
155 178 0
147 169 0
152 172 0
155 177 0
151 173 0
150 172 0
155 177 0
153 174 0
141 162 0
148 169 0
152 175 0
150 172 0
151 174 0
155 176 0
148 169 0
150 172 0
146 167 0
150 171 0
150 171 0
141 163 0
149 169 0
148 169 0
148 170 0
145 166 0
144 164 0
144 166 0
135 156 0
144 164 0
146 167 0
145 166 0
146 168 0
142 163 0
141 160 0
143 163 0
144 165 0
128 149 0
133 153 0
135 156 0
140 159 0
130 151 0
129 149 0
131 151 0
134 155 0
125 145 0
136 158 0
128 149 0
128 148 0
134 155 0
138 157 0
135 152 0
132 152 0
131 151 0
139 159 0
128 147 0
133 153 0
117 136 0
131 150 0
135 153 0
133 154 0
126 145 0
127 146 0
123 142 0
129 147 0
143 161 0
127 146 0
121 140 0
113 129 0
127 142 0
123 140 0
114 132 0
131 151 0
116 135 0
131 149 0
118 135 0
113 128 0
117 134 0
114 129 0
116 132 0
119 137 0
112 129 0
119 133 0
108 123 0
109 125 0
112 128 0
114 130 0
103 119 0
112 129 0
101 114 0
121 136 0
116 128 0
120 135 0
99 113 0
97 112 0
103 116 0
106 121 0
111 126 0
113 127 0
114 127 0
95 109 0
116 131 0
109 122 0
102 115 0
104 119 0
105 117 0
90 103 0
105 118 0
101 114 0
100 113 0
98 110 0
109 121 0
106 118 0
114 127 0
109 124 0
111 122 0
100 111 0
106 120 0
114 124 0
89 93 14
81 82 14
95 93 28
94 92 24
98 96 24
113 110 22
116 113 28
117 115 25
115 114 24
117 114 25
113 111 16
122 119 26
133 129 37
131 129 25
120 118 14
139 135 30
139 135 29
135 132 33
137 133 33
142 137 34
138 134 33
136 132 25
138 133 28
143 138 39
145 139 32
143 137 28
140 136 25
147 143 36
146 143 34
145 140 34
145 140 30
141 137 25
146 143 32
147 143 30
147 142 28
150 146 30
147 142 34
142 139 28
148 143 39
152 147 39
147 143 36
150 145 30
151 147 30
151 146 30
152 148 19
150 146 37
149 145 32
153 149 34
150 146 32
148 143 22
146 141 30
149 144 34
154 150 32
151 146 28
146 143 22
147 143 28
149 144 41
154 149 37
153 148 25
150 145 32
154 149 28
150 146 36
150 145 30
155 150 28
154 149 25
154 150 34
153 149 30
155 150 39
150 147 19
155 150 32
149 145 22
152 148 34
150 145 28
150 146 22
153 149 28
158 152 39
154 149 28
149 145 22
155 149 30
157 152 42
157 153 32
157 153 36
156 151 37
157 152 34
152 147 34
154 149 34
151 147 22
153 149 34
150 146 30
157 152 39
154 150 32
152 147 34
152 148 28
150 145 36
157 152 37
156 150 28
153 148 30
155 150 22
153 149 34
157 152 41
152 147 37
145 140 34
148 144 25
150 146 34
151 147 25
152 147 32
149 144 32
147 143 25
149 144 30
152 147 45
150 146 28
150 145 25
147 143 32
150 145 32
145 141 22
149 144 30
153 149 28
145 140 32
153 148 39
141 137 19
145 141 30
146 142 36
142 137 22
139 135 30
138 133 32
142 138 34
138 134 25
140 135 25
135 130 28
144 138 36
137 132 34
133 130 34
133 129 28
130 125 28
137 132 37
129 124 28
120 116 19
118 114 25
114 114 19
165 184 0
166 186 0
163 182 0
165 184 0
169 188 0
166 185 0
168 187 0
165 182 0
166 185 0
169 189 0
172 192 0
165 184 0
167 187 0
170 191 0
165 183 0
168 187 0
168 188 0
169 188 0
169 189 0
170 190 0
167 186 0
168 190 0
164 184 0
171 190 0
164 184 0
167 186 0
169 189 0
169 188 0
168 189 0
170 190 0
168 188 0
169 189 0
168 188 0
172 192 0
172 195 0
170 192 0
174 197 0
169 191 0
172 195 0
168 190 0
169 192 0
169 193 0
170 192 0
170 194 0
169 192 0
170 194 0
171 194 0
171 194 0
168 192 0
170 193 0
173 196 0
169 193 0
171 194 0
170 194 0
169 193 0
169 192 0
168 192 0
171 194 0
168 191 0
171 193 0
169 192 0
167 191 0
171 195 0
168 191 0
170 192 0
169 193 0
167 190 0
168 190 0
170 193 0
167 190 0
165 187 0
170 193 0
171 194 0
167 190 0
168 191 0
167 190 0
168 191 0
168 191 0
167 190 0
170 193 0
169 193 0
167 191 0
165 187 0
170 193 0
167 189 0
170 193 0
170 193 0
170 193 0
168 190 0
170 192 0
168 191 0
166 190 0
164 187 0
169 193 0
164 187 0
164 186 0
165 187 0
164 186 0
164 187 0
162 184 0
164 188 0
168 191 0
160 183 0
166 188 0
168 192 0
168 190 0
166 189 0
164 187 0
168 190 0
163 186 0
165 188 0
165 187 0
167 189 0
166 188 0
166 190 0
163 185 0
164 187 0
162 185 0
158 180 0
158 179 0
162 184 0
163 185 0
163 186 0
161 183 0
160 182 0
161 182 0
163 186 0
155 177 0
160 183 0
167 189 0
160 183 0
163 186 0
159 181 0
158 181 0
159 183 0
161 182 0
153 176 0
155 178 0
154 177 0
156 177 0
161 184 0
152 175 0
153 176 0
156 179 0
156 178 0
159 181 0
158 181 0
153 175 0
151 174 0
156 179 0
152 173 0
151 173 0
151 173 0
154 176 0
145 166 0
149 170 0
150 172 0
154 176 0
146 166 0
146 169 0
146 168 0
151 172 0
143 165 0
145 167 0
147 170 0
152 174 0
142 163 0
143 164 0
148 168 0
142 163 0
147 169 0
144 166 0
151 172 0
146 169 0
142 163 0
135 156 0
138 157 0
139 159 0
145 165 0
135 157 0
135 155 0
145 166 0
142 162 0
141 161 0
127 147 0
141 162 0
135 156 0
139 160 0
132 153 0
131 151 0
137 157 0
138 158 0
132 151 0
132 151 0
126 145 0
136 156 0
134 155 0
139 160 0
128 147 0
128 147 0
131 150 0
115 134 0
135 154 0
119 137 0
120 139 0
125 144 0
128 148 0
127 144 0
115 133 0
125 145 0
127 144 0
123 140 0
134 150 0
125 142 0
118 135 0
117 135 0
119 135 0
124 141 0
126 144 0
116 132 0
111 128 0
118 136 0
118 134 0
114 132 0
107 122 0
105 122 0
109 124 0
113 128 0
116 132 0
112 127 0
120 134 0
116 131 0
110 124 0
114 129 0
118 133 0
108 125 0
108 122 0
117 132 0
99 111 0
116 130 0
110 125 0
113 129 0
106 119 0
107 119 0
111 125 0
107 121 0
105 116 0
106 120 0
111 123 0
106 120 0
99 110 0
106 119 0
95 109 0
103 114 0
114 126 0
110 122 0
105 117 0
116 127 0
117 130 0
103 116 0
103 114 0
89 90 3
78 76 20
92 89 24
93 92 25
100 98 30
97 95 21
105 103 20
106 103 12
119 115 29
126 123 26
121 118 32
122 118 25
132 128 30
128 124 24
129 126 26
140 136 35
136 132 35
135 131 34
136 133 26
139 135 28
145 140 36
141 138 29
137 134 25
145 142 22
149 146 34
147 142 37
146 142 30
145 141 32
147 143 32
149 145 32
146 142 22
143 139 16
144 141 22
150 145 25
152 146 30
147 143 32
151 146 30
146 142 25
144 140 34
152 147 36
150 145 30
156 152 42
151 147 36
149 145 32
156 152 30
154 149 42
150 147 25
156 152 41
155 151 37
154 150 32
154 149 19
151 147 36
154 148 32
151 147 30
150 147 22
150 147 32
153 148 28
153 147 32
156 151 39
150 146 19
149 145 30
153 148 30
155 150 28
152 147 32
156 152 39
158 153 36
149 145 34
151 148 22
153 149 32
151 147 30
154 149 28
151 148 28
156 151 32
154 149 30
154 150 34
152 148 11
154 150 37
156 151 32
147 142 25
155 152 28
155 150 34
156 151 36
152 148 36
154 150 28
154 149 37
152 147 30
150 146 22
149 145 30
151 147 28
154 149 36
156 151 36
152 147 32
149 146 32
149 144 30
150 145 34
151 146 36
153 148 19
151 146 32
148 145 32
153 148 32
151 145 32
146 141 32
153 148 30
152 147 36
152 147 41
153 148 32
154 149 32
151 148 25
154 149 39
147 143 30
149 144 28
149 145 25
145 141 34
147 142 36
149 145 36
146 142 28
144 140 30
144 141 25
148 143 44
143 140 22
149 146 28
139 134 22
147 141 37
146 141 32
139 135 28
141 137 34
138 134 34
140 136 25
140 136 32
132 127 30
133 129 22
137 132 28
134 130 30
134 130 32
139 135 37
130 126 28
127 122 22
122 117 30
127 129 22
168 186 0
164 181 0
167 186 0
165 182 0
166 187 0
169 188 0
168 190 0
169 189 0
167 183 0
165 183 0
166 185 0
169 188 0
164 183 0
167 187 0
167 186 0
164 183 0
170 191 0
168 186 0
168 187 0
168 188 0
170 190 0
170 190 0
171 190 0
168 188 0
166 186 0
170 189 0
167 187 0
168 190 0
168 187 0
171 192 0
171 191 0
169 189 0
171 192 0
166 185 0
172 195 0
170 193 0
171 194 0
169 191 0
170 193 0
169 192 0
170 193 0
169 193 0
172 194 0
169 192 0
168 191 0
171 194 0
170 194 0
170 193 0
171 195 0
172 195 0
171 195 0
171 194 0
170 194 0
170 194 0
169 193 0
172 195 0
171 194 0
165 189 0
172 195 0
170 194 0
169 193 0
165 188 0
169 192 0
170 193 0
168 192 0
171 193 0
169 193 0
167 190 0
168 191 0
168 192 0
169 192 0
165 188 0
167 190 0
166 188 0
170 193 0
166 188 0
161 185 0
168 191 0
167 191 0
169 192 0
165 188 0
167 190 0
166 190 0
167 190 0
167 190 0
168 191 0
169 192 0
167 190 0
170 193 0
165 188 0
169 191 0
163 186 0
168 191 0
166 189 0
164 187 0
165 188 0
168 191 0
167 191 0
164 186 0
168 191 0
165 189 0
166 190 0
165 189 0
167 190 0
163 186 0
166 189 0
167 190 0
163 187 0
168 190 0
164 188 0
164 187 0
164 187 0
166 189 0
164 186 0
163 186 0
159 182 0
164 187 0
162 184 0
160 181 0
164 187 0
167 190 0
165 187 0
160 182 0
161 184 0
160 182 0
162 185 0
157 179 0
159 181 0
160 183 0
160 182 0
159 182 0
163 185 0
159 180 0
158 180 0
158 181 0
162 183 0
156 178 0
159 182 0
152 175 0
157 180 0
159 180 0
158 180 0
160 182 0
156 178 0
155 178 0
156 177 0
155 176 0
142 164 0
155 176 0
148 168 0
152 173 0
156 179 0
153 176 0
156 177 0
155 178 0
151 171 0
153 174 0
152 174 0
150 173 0
145 166 0
149 171 0
154 175 0
149 171 0
150 172 0
152 173 0
141 163 0
147 167 0
148 169 0
142 164 0
147 168 0
145 168 0
150 172 0
143 163 0
140 161 0
144 165 0
142 164 0
139 160 0
142 163 0
142 164 0
140 161 0
149 169 0
140 160 0
144 164 0
135 155 0
141 163 0
134 153 0
133 155 0
134 156 0
145 166 0
129 148 0
142 163 0
133 152 0
142 163 0
136 153 0
137 154 0
138 159 0
133 154 0
126 145 0
140 158 0
123 141 0
126 145 0
133 152 0
132 151 0
140 159 0
126 144 0
118 137 0
135 154 0
128 146 0
123 143 0
127 147 0
122 141 0
127 143 0
122 139 0
124 141 0
118 136 0
122 141 0
132 152 0
118 136 0
121 137 0
131 150 0
114 131 0
116 132 0
119 134 0
126 143 0
104 122 0
117 134 0
127 145 0
109 124 0
111 127 0
130 145 0
120 133 0
112 127 0
123 138 0
116 130 0
117 131 0
124 140 0
109 123 0
112 128 0
117 133 0
107 121 0
100 115 0
119 132 0
111 126 0
115 128 0
108 123 0
111 126 0
89 104 0
106 117 0
107 120 0
96 110 0
116 129 0
121 135 0
111 124 0
94 107 0
108 121 0
114 128 0
99 113 0
105 116 0
98 109 0
100 112 0
114 126 0
88 89 8
85 85 29
85 85 21
102 102 21
107 106 33
107 106 22
113 112 22
113 112 28
114 111 31
126 123 21
119 117 25
128 125 21
138 134 25
136 130 42
134 132 31
127 123 37
130 126 30
141 137 37
138 133 27
138 133 21
140 135 43
143 139 26
147 142 39
144 141 19
143 139 25
146 142 32
138 133 36
141 137 25
150 145 32
145 142 28
144 139 36
141 138 28
144 139 36
149 146 28
151 146 36
147 143 25
139 135 30
145 141 30
148 144 41
149 146 25
152 148 32
150 145 28
152 148 34
147 143 28
147 144 30
152 147 28
155 148 36
153 149 34
153 149 34
149 145 28
148 145 28
151 146 32
151 147 32
150 145 32
149 145 34
154 149 39
153 149 41
151 148 34
153 148 30
156 150 30
156 151 36
157 153 37
155 152 34
152 148 30
150 147 25
153 148 32
154 148 34
154 149 30
156 152 34
154 149 37
153 150 28
149 143 28
154 149 37
155 150 30
152 148 28
153 149 30
148 144 25
154 150 36
155 150 37
154 150 32
156 150 32
151 148 25
155 150 25
153 148 37
152 146 32
156 151 37
146 144 19
153 147 30
152 149 28
152 148 30
149 145 25
153 149 28
154 150 30
148 144 34
154 149 34
146 143 11
151 146 30
149 144 36
150 145 28
154 150 39
151 146 19
151 147 25
155 150 37
155 151 36
149 144 28
151 148 25
145 140 28
152 148 36
154 149 32
154 148 37
144 140 32
156 150 36
151 145 34
155 149 37
145 140 30
149 145 34
146 141 25
151 146 39
146 142 25
146 141 32
144 139 28
152 146 39
145 140 32
147 142 37
138 134 22
142 138 22
138 134 25
138 134 34
131 127 19
134 129 32
132 127 30
139 135 30
130 124 32
132 129 28
125 122 25
131 126 28
127 122 34
120 117 19
135 142 19
165 185 0
166 184 0
166 185 0
165 184 0
165 183 0
164 181 0
164 184 0
166 185 0
165 185 0
170 191 0
166 187 0
167 186 0
165 184 0
171 190 0
165 184 0
167 186 0
172 192 0
167 186 0
167 187 0
169 189 0
168 189 0
166 185 0
167 187 0
167 184 0
169 189 0
172 192 0
169 188 0
170 190 0
168 189 0
167 186 0
169 190 0
167 185 0
167 187 0
171 192 0
170 193 0
169 192 0
171 195 0
170 193 0
169 192 0
168 192 0
169 192 0
169 192 0
171 194 0
169 192 0
172 196 0
170 193 0
171 194 0
173 196 0
171 194 0
170 194 0
167 191 0
172 195 0
171 195 0
170 194 0
167 191 0
171 194 0
166 189 0
172 194 0
168 192 0
170 193 0
168 191 0
168 191 0
166 188 0
169 192 0
169 193 0
170 193 0
167 189 0
167 190 0
166 189 0
167 189 0
169 193 0
168 192 0
170 192 0
168 192 0
170 192 0
167 189 0
169 191 0
167 191 0
169 192 0
169 192 0
167 190 0
169 191 0
168 191 0
166 189 0
167 190 0
167 189 0
170 194 0
169 192 0
164 186 0
167 191 0
168 191 0
169 191 0
169 193 0
165 188 0
169 192 0
166 189 0
166 188 0
166 189 0
162 184 0
169 192 0
166 188 0
163 186 0
161 183 0
164 188 0
169 191 0
163 186 0
161 184 0
165 187 0
168 192 0
164 186 0
165 189 0
163 185 0
167 190 0
163 186 0
160 183 0
159 182 0
162 184 0
168 191 0
163 186 0
167 189 0
163 185 0
161 184 0
157 179 0
163 185 0
164 186 0
163 185 0
163 186 0
163 185 0
160 182 0
161 185 0
155 176 0
157 178 0
158 179 0
165 189 0
157 179 0
149 171 0
163 185 0
151 173 0
156 178 0
157 178 0
152 174 0
160 182 0
159 181 0
155 176 0
158 180 0
154 176 0
150 171 0
154 177 0
148 170 0
156 178 0
151 173 0
152 174 0
154 176 0
152 175 0
153 175 0
148 170 0
147 167 0
146 168 0
149 171 0
148 169 0
151 174 0
151 173 0
150 172 0
145 167 0
143 163 0
147 168 0
153 175 0
148 169 0
150 172 0
146 167 0
154 176 0
143 164 0
150 173 0
134 155 0
149 169 0
143 164 0
146 168 0
138 160 0
143 164 0
138 158 0
144 166 0
138 157 0
151 171 0
142 163 0
139 158 0
140 159 0
139 159 0
134 155 0
146 167 0
137 157 0
141 162 0
137 158 0
138 157 0
127 146 0
137 157 0
138 157 0
134 152 0
136 157 0
136 154 0
131 150 0
132 151 0
136 156 0
130 148 0
131 150 0
126 144 0
126 144 0
125 143 0
126 144 0
127 145 0
130 149 0
136 155 0
130 149 0
127 143 0
123 141 0
124 139 0
113 130 0
139 158 0
130 147 0
123 141 0
126 144 0
118 135 0
117 134 0
115 131 0
131 148 0
122 138 0
121 137 0
118 132 0
125 142 0
118 135 0
119 135 0
121 137 0
125 141 0
124 140 0
119 134 0
108 123 0
111 126 0
115 130 0
103 121 0
115 131 0
104 119 0
119 135 0
121 135 0
115 131 0
118 133 0
118 134 0
117 130 0
109 123 0
110 124 0
111 126 0
119 133 0
124 138 0
109 120 0
110 122 0
113 127 0
117 129 0
112 126 0
104 117 0
114 126 0
108 120 0
117 130 0
110 121 0
72 76 11
91 91 11
84 83 20
94 93 23
107 105 21
107 104 24
107 105 16
114 112 21
122 120 25
118 117 27
122 119 26
118 116 28
124 121 22
125 122 24
129 126 28
136 131 34
134 130 34
134 130 25
136 132 31
137 134 28
136 132 28
146 142 32
146 140 37
139 137 22
143 139 28
142 138 28
139 136 28
145 141 25
139 135 28
139 137 22
147 144 30
147 142 32
148 143 19
155 150 41
153 148 34
150 146 36
152 148 25
151 146 32
151 146 30
150 147 30
154 149 36
148 144 32
150 144 30
153 148 34
146 143 25
148 144 22
149 145 25
153 149 39
154 150 30
148 144 30
155 150 36
153 148 30
150 146 32
152 148 28
153 149 30
156 151 30
152 147 22
151 147 34
149 146 25
150 146 22
158 153 39
151 146 30
154 150 32
150 145 16
157 151 37
154 149 28
149 146 16
151 148 28
151 146 28
154 149 36
155 149 32
150 145 16
153 149 32
154 149 30
148 144 28
156 150 42
150 146 30
156 151 37
152 147 30
152 148 28
153 148 32
158 153 30
153 148 36
147 143 19
153 148 36
153 149 32
154 150 28
151 147 34
158 153 37
151 146 19
152 148 22
152 147 30
154 150 25
153 149 30
150 145 16
154 149 36
152 147 39
157 151 47
156 151 42
151 145 32
152 147 28
154 150 28
147 143 28
155 150 44
148 145 16
148 144 30
150 145 30
149 144 34
149 146 25
143 139 28
148 144 28
144 140 25
147 141 36
154 149 37
147 143 30
144 139 19
150 147 32
149 145 28
151 146 36
142 138 22
146 141 32
144 140 37
144 140 30
151 146 32
138 134 25
145 139 34
142 137 30
142 137 28
137 133 25
141 137 39
135 130 32
127 124 22
131 126 30
126 121 30
134 129 30
122 120 19
127 121 25
129 124 32
156 168 11
170 188 0
167 184 0
162 178 0
163 181 0
166 184 0
167 184 0
168 187 0
169 189 0
166 185 0
166 186 0
168 188 0
166 186 0
168 185 0
169 187 0
168 187 0
168 189 0
170 189 0
170 189 0
163 181 0
166 183 0
170 189 0
165 186 0
169 190 0
170 190 0
170 191 0
167 187 0
168 188 0
170 189 0
170 189 0
168 189 0
168 189 0
170 191 0
173 193 0
168 189 0
173 196 0
171 194 0
168 191 0
169 192 0
171 194 0
168 191 0
170 193 0
170 193 0
169 193 0
171 193 0
170 193 0
169 193 0
166 190 0
172 196 0
168 191 0
168 191 0
167 190 0
167 190 0
170 193 0
168 191 0
171 194 0
169 193 0
170 192 0
168 190 0
171 194 0
170 191 0
171 194 0
170 193 0
170 193 0
165 189 0
168 191 0
168 191 0
171 193 0
168 190 0
171 193 0
169 192 0
166 190 0
168 191 0
168 191 0
167 190 0
170 193 0
169 191 0
168 190 0
166 189 0
169 192 0
165 189 0
167 190 0
168 191 0
167 190 0
172 194 0
167 189 0
162 184 0
165 187 0
169 192 0
168 191 0
167 189 0
168 192 0
168 191 0
165 188 0
167 189 0
166 189 0
166 189 0
168 191 0
169 192 0
167 190 0
166 189 0
167 190 0
165 188 0
167 190 0
169 191 0
167 190 0
163 186 0
167 189 0
158 179 0
160 182 0
161 183 0
164 186 0
164 188 0
159 181 0
162 183 0
165 187 0
165 188 0
164 186 0
165 186 0
159 180 0
162 184 0
164 186 0
164 187 0
164 187 0
156 178 0
167 189 0
161 185 0
161 184 0
157 178 0
161 183 0
157 180 0
161 182 0
161 183 0
163 186 0
158 182 0
162 183 0
158 180 0
160 182 0
159 181 0
158 178 0
160 182 0
162 184 0
154 177 0
158 180 0
155 177 0
157 179 0
161 184 0
158 181 0
156 179 0
148 169 0
152 174 0
153 176 0
152 175 0
155 177 0
148 171 0
150 173 0
146 167 0
154 177 0
154 176 0
153 174 0
149 171 0
149 171 0
145 167 0
147 170 0
149 170 0
150 170 0
148 170 0
146 168 0
144 165 0
149 171 0
147 169 0
144 164 0
148 170 0
143 164 0
157 179 0
142 161 0
148 171 0
141 163 0
149 170 0
140 160 0
142 163 0
153 175 0
139 159 0
145 165 0
143 163 0
138 160 0
138 159 0
137 157 0
144 165 0
140 161 0
146 168 0
142 162 0
137 158 0
137 157 0
125 146 0
140 160 0
130 150 0
131 150 0
138 158 0
129 149 0
126 143 0
129 150 0
129 148 0
130 148 0
138 156 0
131 150 0
130 149 0
121 140 0
124 144 0
127 146 0
125 144 0
125 142 0
128 148 0
136 156 0
134 153 0
116 134 0
127 148 0
132 151 0
135 154 0
129 147 0
120 138 0
119 136 0
127 145 0
116 132 0
128 144 0
125 142 0
121 138 0
126 143 0
110 127 0
117 134 0
125 142 0
118 133 0
125 140 0
111 126 0
109 127 0
108 123 0
105 120 0
114 127 0
120 136 0
113 127 0
110 124 0
112 128 0
119 134 0
126 140 0
120 135 0
114 128 0
114 129 0
124 139 0
110 125 0
110 125 0
113 128 0
118 132 0
116 130 0
109 123 0
126 140 0
109 121 0
103 117 0
107 117 0
97 109 0
111 122 0
105 117 0
107 121 0
84 85 16
95 92 19
88 88 21
91 90 21
106 105 23
111 109 32
107 105 20
111 110 20
116 114 20
129 124 34
127 123 29
126 122 31
124 121 18
127 123 28
136 131 30
127 124 19
132 128 22
129 126 34
134 130 30
137 133 33
137 133 34
135 134 19
137 133 22
139 135 25
140 136 34
141 136 32
140 135 22
148 144 16
145 140 19
146 142 32
156 151 41
136 132 30
144 140 25
148 144 30
148 144 34
144 139 32
149 144 36
153 148 32
142 138 28
151 146 37
146 141 28
148 143 32
149 146 32
151 146 30
148 144 28
152 148 32
149 145 28
151 146 32
154 149 37
155 150 30
153 148 34
149 145 34
152 148 28
151 147 28
155 150 41
154 149 37
145 141 28
149 146 28
152 148 28
151 148 19
148 145 19
155 151 36
149 145 30
153 148 22
154 150 37
149 144 36
155 151 34
149 146 22
154 150 28
153 149 28
155 150 34
154 149 32
150 147 32
155 151 39
149 146 22
151 147 28
147 143 30
149 145 32
157 153 28
153 149 28
154 149 39
158 153 37
156 151 37
151 146 25
152 147 25
150 147 32
151 147 34
154 150 32
156 151 34
152 147 37
151 147 16
158 152 37
151 147 34
150 146 25
153 149 30
151 146 30
147 142 25
147 143 22
150 146 30
152 148 34
152 148 30
146 142 22
151 146 36
148 144 34
150 145 32
150 145 32
154 149 37
150 146 28
147 143 28
149 143 32
148 143 36
147 142 42
146 141 19
152 148 30
152 147 32
145 140 22
148 144 37
146 141 42
138 134 22
146 142 28
148 143 32
145 141 39
148 141 39
139 134 22
138 133 32
143 139 41
136 132 22
139 134 30
134 130 28
136 130 36
135 130 25
132 128 25
121 118 30
128 123 32
129 126 22
130 125 22
129 125 30
120 116 25
161 179 11
162 180 0
170 188 0
168 187 0
168 188 0
163 180 0
168 186 0
165 182 0
163 182 0
167 186 0
170 190 0
168 187 0
170 190 0
167 186 0
169 188 0
168 187 0
165 184 0
166 184 0
164 182 0
172 191 0
169 189 0
169 188 0
166 186 0
167 188 0
167 188 0
167 187 0
171 191 0
169 189 0
172 192 0
166 188 0
167 189 0
168 187 0
170 190 0
167 186 0
171 191 0
171 194 0
173 195 0
169 192 0
172 195 0
169 192 0
170 193 0
173 196 0
170 193 0
171 196 0
172 193 0
173 196 0
169 192 0
168 191 0
167 190 0
169 193 0
170 193 0
169 193 0
172 195 0
170 193 0
172 195 0
170 194 0
169 192 0
171 194 0
170 193 0
171 193 0
167 190 0
167 191 0
169 192 0
172 196 0
169 192 0
168 191 0
166 188 0
168 190 0
169 192 0
170 192 0
166 189 0
171 194 0
166 188 0
171 194 0
168 191 0
168 191 0
168 191 0
169 192 0
165 188 0
166 188 0
168 192 0
170 193 0
168 190 0
167 190 0
165 188 0
170 192 0
168 192 0
163 186 0
166 188 0
167 190 0
166 189 0
165 188 0
167 190 0
165 187 0
169 192 0
168 191 0
169 192 0
163 186 0
164 187 0
171 194 0
164 187 0
162 185 0
167 189 0
164 186 0
166 189 0
167 190 0
166 188 0
164 187 0
163 185 0
164 186 0
166 189 0
169 191 0
163 186 0
167 188 0
158 181 0
164 186 0
164 187 0
160 182 0
161 185 0
162 185 0
156 178 0
166 188 0
166 188 0
165 188 0
159 183 0
160 183 0
161 184 0
165 187 0
155 178 0
158 179 0
158 181 0
155 177 0
162 184 0
160 183 0
158 180 0
162 184 0
157 179 0
159 181 0
155 178 0
160 183 0
159 182 0
159 182 0
154 176 0
159 182 0
156 178 0
150 172 0
153 175 0
158 180 0
154 177 0
154 175 0
155 178 0
156 178 0
149 171 0
158 180 0
145 167 0
152 174 0
146 168 0
148 170 0
155 177 0
154 176 0
149 171 0
151 171 0
159 181 0
149 171 0
151 171 0
152 173 0
146 165 0
148 169 0
152 175 0
145 166 0
143 164 0
146 167 0
145 166 0
141 163 0
149 171 0
149 171 0
142 163 0
141 161 0
143 164 0
135 156 0
146 167 0
143 164 0
139 159 0
145 167 0
146 167 0
139 160 0
141 162 0
142 163 0
145 165 0
138 160 0
147 168 0
134 154 0
136 155 0
143 164 0
133 154 0
136 156 0
129 149 0
133 153 0
128 146 0
136 156 0
125 145 0
137 159 0
145 165 0
129 147 0
131 148 0
120 138 0
133 153 0
134 154 0
137 156 0
129 148 0
130 150 0
134 152 0
123 141 0
128 147 0
123 143 0
124 141 0
119 136 0
108 126 0
134 152 0
126 143 0
114 130 0
126 144 0
121 137 0
122 140 0
134 151 0
125 144 0
129 146 0
126 142 0
125 144 0
121 139 0
127 145 0
119 135 0
110 126 0
108 122 0
122 137 0
120 135 0
119 133 0
114 129 0
110 124 0
126 143 0
115 130 0
120 135 0
121 135 0
110 124 0
112 125 0
123 136 0
119 134 0
116 130 0
108 122 0
109 121 0
115 128 0
109 123 0
94 108 0
110 124 0
115 128 0
122 136 0
107 118 0
119 133 0
106 119 0
116 129 0
111 124 0
112 123 0
86 85 13
91 89 20
93 91 12
94 93 23
98 97 28
101 100 21
120 118 24
108 107 22
114 111 20
120 117 26
124 121 28
125 122 31
134 131 33
127 124 19
129 126 24
140 137 29
141 138 25
137 133 24
130 127 26
135 133 18
140 137 26
140 137 26
143 140 25
137 134 19
139 135 34
137 134 34
149 143 39
143 138 36
142 139 28
149 145 22
139 136 25
147 143 22
151 145 25
146 141 30
144 140 28
141 137 30
148 144 30
148 143 28
150 146 34
148 143 25
152 147 34
144 141 25
146 142 28
150 146 22
150 146 28
149 145 28
144 141 28
146 143 22
154 148 41
157 153 32
150 146 28
150 147 28
154 149 36
153 149 30
152 148 32
152 147 41
150 145 30
148 145 25
151 147 22
152 146 34
151 147 25
153 149 32
154 151 36
149 144 25
149 145 25
153 147 32
150 146 30
155 149 30
152 148 36
155 150 36
149 145 19
150 147 28
153 148 39
153 148 37
152 149 32
155 150 34
154 150 22
151 147 28
154 150 30
158 152 37
154 149 28
149 146 28
151 147 28
155 150 34
152 147 39
147 143 28
150 146 30
147 143 22
148 144 22
150 146 16
156 150 36
152 147 30
154 149 36
150 146 16
155 151 28
154 149 37
149 144 37
147 143 19
152 148 28
153 149 36
151 147 36
146 143 22
153 148 30
151 147 32
151 147 25
153 148 34
147 143 30
151 145 36
150 144 22
150 146 25
139 135 25
145 141 30
149 144 36
144 139 30
141 138 25
146 143 28
147 143 28
146 141 32
140 137 28
140 135 32
140 135 30
148 143 36
141 137 28
143 140 25
137 133 28
141 137 25
138 134 32
135 131 16
128 123 22
135 130 25
136 132 19
138 134 28
129 124 30
132 128 25
130 126 30
133 128 28
125 120 34
115 112 19
165 183 0
167 184 0
167 186 0
166 184 0
170 189 0
165 183 0
165 183 0
168 189 0
169 188 0
165 184 0
163 181 0
168 188 0
169 192 0
166 186 0
166 186 0
168 188 0
162 182 0
167 186 0
166 185 0
170 189 0
169 190 0
170 190 0
167 186 0
170 190 0
168 188 0
168 188 0
169 190 0
166 187 0
170 191 0
168 187 0
169 189 0
168 189 0
170 190 0
170 191 0
169 189 0
171 194 0
170 193 0
172 195 0
169 193 0
170 193 0
170 194 0
170 193 0
168 190 0
171 194 0
168 192 0
168 192 0
169 192 0
169 191 0
172 196 0
173 195 0
170 193 0
165 188 0
171 193 0
172 195 0
170 193 0
168 191 0
169 192 0
167 190 0
168 191 0
170 193 0
172 195 0
168 190 0
171 193 0
169 192 0
169 192 0
168 191 0
168 191 0
166 188 0
171 194 0
170 193 0
168 191 0
172 195 0
169 192 0
170 193 0
166 190 0
171 195 0
170 192 0
168 191 0
167 190 0
164 186 0
168 191 0
169 191 0
168 190 0
169 192 0
166 189 0
167 190 0
168 192 0
166 189 0
167 191 0
167 190 0
168 191 0
166 189 0
165 188 0
169 191 0
167 189 0
163 186 0
167 190 0
168 189 0
164 187 0
164 186 0
166 189 0
166 189 0
164 186 0
166 190 0
167 191 0
168 191 0
165 188 0
164 187 0
164 187 0
165 187 0
164 188 0
166 188 0
166 189 0
164 187 0
166 189 0
161 184 0
159 182 0
164 187 0
163 184 0
162 185 0
165 188 0
164 186 0
163 186 0
160 183 0
166 189 0
159 181 0
162 185 0
160 183 0
164 186 0
164 187 0
159 182 0
158 180 0
162 184 0
160 183 0
161 184 0
161 183 0
158 181 0
156 178 0
155 178 0
157 180 0
156 180 0
158 181 0
166 188 0
153 176 0
160 183 0
161 184 0
153 175 0
149 171 0
155 177 0
153 175 0
152 175 0
158 180 0
158 180 0
152 174 0
157 178 0
157 178 0
153 175 0
148 170 0
156 178 0
155 177 0
150 173 0
153 175 0
146 166 0
145 167 0
153 176 0
155 177 0
149 170 0
155 175 0
150 171 0
145 167 0
146 165 0
147 168 0
144 165 0
150 172 0
149 169 0
142 163 0
145 167 0
151 171 0
142 162 0
147 168 0
151 170 0
146 167 0
141 162 0
147 169 0
137 157 0
138 159 0
144 164 0
145 167 0
139 160 0
140 161 0
136 156 0
138 159 0
132 151 0
131 151 0
134 153 0
138 158 0
149 169 0
136 156 0
141 161 0
142 160 0
139 159 0
131 150 0
135 153 0
135 155 0
130 148 0
134 152 0
129 148 0
125 143 0
133 150 0
139 157 0
133 154 0
133 151 0
135 152 0
134 152 0
134 152 0
131 152 0
126 146 0
131 148 0
131 147 0
126 143 0
139 155 0
130 148 0
130 148 0
118 135 0
125 142 0
123 140 0
116 132 0
121 136 0
121 135 0
129 147 0
127 143 0
123 139 0
125 140 0
131 147 0
121 136 0
121 137 0
132 148 0
119 133 0
123 140 0
116 132 0
129 145 0
126 140 0
125 140 0
124 139 0
113 128 0
115 129 0
110 124 0
112 126 0
114 127 0
123 135 0
115 128 0
123 139 0
110 124 0
120 133 0
128 141 0
117 129 0
119 133 0
115 128 0
117 129 0
107 118 0
104 116 0
108 121 0
67 68 0
76 76 14
100 98 22
88 88 16
108 106 20
111 108 14
109 107 22
112 109 12
127 122 30
125 121 38
124 122 22
123 121 19
124 120 24
134 130 35
135 132 31
126 123 25
129 126 28
131 128 29
140 137 26
139 135 32
142 139 32
141 137 22
143 138 34
144 140 32
142 138 28
151 146 34
150 146 30
144 139 22
149 143 34
142 138 19
148 145 25
150 144 25
151 146 39
142 138 37
146 143 25
144 141 22
143 140 25
150 147 41
149 144 30
151 146 32
150 146 30
148 143 28
148 143 30
150 146 28
150 146 22
146 141 34
150 146 19
152 148 34
152 148 28
151 146 36
152 148 30
153 149 28
150 145 34
150 146 32
146 142 28
150 145 32
150 146 25
154 150 30
151 147 25
154 149 34
154 150 32
152 147 34
155 151 37
155 151 30
147 143 25
152 147 32
152 148 28
152 148 22
148 144 19
154 150 32
155 150 32
155 152 34
153 149 37
155 150 32
151 146 22
154 148 36
145 141 28
153 148 28
154 149 41
151 147 37
152 148 32
152 148 32
154 149 36
151 147 30
159 154 39
149 143 28
154 148 36
146 142 28
148 144 30
149 145 22
151 147 28
153 149 30
148 144 32
148 143 28
152 146 22
149 144 25
149 145 25
147 142 30
151 146 32
148 144 28
143 139 28
150 145 32
151 147 25
151 147 25
149 144 30
150 146 28
154 149 34
145 140 19
151 146 25
149 145 39
151 146 32
150 144 34
146 142 28
146 142 25
152 147 37
146 141 34
146 140 32
149 144 41
145 140 39
136 132 11
146 141 39
147 143 28
143 139 30
146 142 39
139 135 28
135 130 19
141 136 28
132 127 28
139 135 41
133 130 30
137 133 25
133 128 25
132 128 39
124 119 25
130 126 25
132 128 34
132 127 30
125 127 19
164 182 0
170 190 0
163 184 0
166 185 0
169 189 0
163 181 0
167 186 0
161 180 0
164 182 0
168 188 0
167 186 0
165 182 0
170 188 0
167 186 0
164 183 0
170 190 0
168 188 0
167 186 0
169 188 0
168 188 0
168 186 0
166 184 0
167 186 0
169 187 0
166 185 0
169 189 0
169 189 0
166 186 0
167 187 0
169 189 0
168 188 0
167 187 0
168 188 0
169 190 0
168 189 0
171 195 0
172 195 0
172 196 0
170 194 0
169 192 0
171 194 0
168 191 0
170 193 0
166 188 0
171 194 0
170 193 0
171 195 0
167 191 0
170 193 0
169 193 0
167 190 0
171 194 0
172 195 0
168 191 0
171 195 0
170 193 0
168 192 0
167 190 0
171 194 0
169 192 0
171 194 0
169 192 0
170 193 0
165 189 0
169 192 0
169 193 0
168 191 0
170 193 0
168 190 0
166 189 0
170 194 0
168 191 0
170 194 0
170 193 0
167 190 0
167 191 0
167 190 0
167 190 0
167 190 0
167 190 0
168 191 0
167 190 0
167 190 0
166 189 0
165 188 0
168 191 0
166 188 0
169 192 0
166 188 0
167 190 0
168 191 0
166 188 0
167 190 0
166 188 0
164 188 0
164 188 0
169 192 0
166 189 0
165 188 0
169 191 0
165 189 0
167 189 0
160 184 0
164 188 0
165 188 0
164 187 0
165 188 0
167 190 0
163 184 0
169 193 0
162 184 0
166 187 0
163 186 0
165 187 0
165 188 0
162 185 0
159 180 0
163 186 0
160 184 0
160 183 0
165 188 0
156 179 0
162 183 0
162 184 0
165 188 0
158 181 0
162 185 0
165 188 0
158 180 0
167 190 0
162 185 0
157 179 0
161 183 0
154 175 0
160 183 0
159 180 0
162 185 0
160 182 0
157 180 0
159 182 0
160 181 0
161 183 0
153 174 0
150 172 0
159 182 0
156 177 0
159 181 0
159 180 0
152 174 0
163 184 0
154 177 0
153 175 0
162 184 0
155 177 0
157 179 0
160 182 0
149 170 0
151 173 0
158 180 0
159 182 0
158 180 0
160 182 0
155 178 0
152 175 0
151 174 0
152 175 0
155 176 0
151 173 0
150 171 0
153 175 0
149 171 0
153 175 0
149 169 0
142 162 0
143 165 0
151 173 0
153 173 0
133 154 0
136 154 0
150 172 0
144 164 0
133 153 0
144 165 0
146 166 0
140 162 0
150 171 0
132 150 0
132 153 0
135 155 0
132 152 0
138 157 0
132 151 0
136 157 0
131 151 0
143 164 0
140 161 0
122 141 0
134 155 0
142 161 0
145 165 0
139 159 0
133 153 0
141 160 0
139 156 0
145 164 0
141 158 0
136 156 0
137 157 0
124 143 0
131 151 0
121 139 0
131 149 0
130 149 0
129 148 0
145 165 0
124 142 0
126 144 0
126 142 0
124 142 0
135 153 0
122 139 0
132 151 0
119 133 0
126 144 0
128 145 0
136 156 0
123 138 0
128 146 0
128 145 0
128 146 0
129 145 0
125 143 0
116 132 0
130 149 0
126 142 0
114 131 0
126 142 0
119 133 0
115 129 0
123 139 0
119 134 0
115 128 0
124 138 0
126 141 0
129 144 0
125 139 0
124 139 0
111 125 0
127 142 0
124 139 0
111 125 0
122 135 0
119 131 0
115 131 0
116 130 0
113 126 0
105 119 0
101 115 0
110 122 0
94 107 0
108 120 0
116 128 0
80 79 14
87 86 12
90 88 8
115 111 21
107 107 16
109 107 26
120 118 25
115 113 34
119 117 14
111 109 25
127 124 21
118 116 19
125 122 33
128 126 24
131 127 25
132 128 22
129 126 26
141 137 39
140 136 37
134 131 11
136 133 32
133 128 28
146 141 36
141 137 30
136 132 19
146 141 37
146 141 30
147 144 25
146 141 36
140 135 30
142 139 25
144 141 32
148 143 28
149 144 32
146 141 34
148 143 32
148 143 39
150 146 25
145 141 22
151 146 32
149 145 30
152 147 30
151 148 34
143 138 25
147 143 28
142 139 28
152 147 30
148 145 28
151 146 19
150 146 28
152 147 37
151 147 32
150 146 28
148 143 22
152 148 25
152 147 39
153 149 30
153 149 36
145 141 22
155 150 32
155 150 44
151 146 34
155 151 36
150 146 22
150 145 34
155 151 32
153 148 37
157 151 37
151 146 34
151 147 36
155 150 34
151 147 28
155 151 32
149 144 32
149 145 22
154 148 30
154 149 34
153 148 30
155 151 30
154 149 25
149 145 30
149 146 16
154 149 32
154 148 22
152 147 32
156 152 39
149 145 37
154 149 28
154 149 30
150 146 32
151 147 32
149 144 19
153 148 36
151 147 34
154 149 34
150 147 32
155 150 36
151 146 28
147 142 34
151 146 30
153 149 30
153 148 32
154 149 34
148 143 34
149 145 19
152 148 30
142 137 22
148 143 28
151 145 44
144 141 28
144 139 28
150 146 32
138 133 25
150 145 30
145 140 34
140 136 30
144 140 34
145 141 28
144 141 34
144 140 32
143 138 32
140 136 28
145 139 36
132 129 32
139 135 28
143 140 30
141 136 37
138 133 32
142 136 34
133 127 32
139 134 37
134 129 25
123 120 22
130 124 28
123 120 32
129 124 30
122 117 32
141 147 16
165 183 0
168 185 0
164 181 0
167 186 0
171 190 0
168 185 0
166 184 0
166 185 0
164 183 0
167 183 0
168 186 0
172 191 0
164 183 0
165 185 0
168 187 0
170 189 0
168 187 0
171 192 0
167 187 0
170 189 0
170 190 0
171 191 0
163 183 0
171 192 0
170 191 0
167 186 0
170 191 0
167 188 0
166 186 0
166 185 0
168 188 0
169 189 0
168 188 0
166 186 0
167 187 0
168 192 0
169 192 0
170 194 0
172 195 0
170 193 0
170 193 0
172 195 0
172 194 0
172 195 0
170 194 0
171 194 0
170 193 0
169 192 0
171 194 0
171 194 0
170 194 0
169 192 0
172 194 0
167 190 0
165 189 0
168 192 0
169 192 0
169 192 0
169 192 0
172 195 0
169 191 0
171 194 0
174 197 0
166 190 0
169 193 0
171 193 0
168 191 0
171 195 0
170 193 0
169 192 0
166 188 0
167 189 0
170 193 0
166 189 0
165 188 0
168 190 0
170 193 0
169 192 0
166 189 0
168 191 0
167 191 0
167 190 0
167 190 0
167 189 0
168 191 0
166 189 0
166 189 0
170 193 0
166 190 0
166 189 0
168 191 0
166 189 0
164 187 0
169 191 0
160 182 0
165 187 0
167 190 0
165 188 0
169 190 0
164 187 0
163 186 0
167 190 0
167 189 0
165 188 0
164 187 0
168 190 0
167 189 0
166 189 0
166 189 0
166 189 0
163 185 0
166 189 0
164 188 0
163 186 0
167 190 0
161 184 0
168 190 0
162 185 0
159 182 0
160 183 0
162 184 0
163 185 0
160 181 0
168 191 0
163 186 0
157 180 0
164 187 0
163 186 0
163 187 0
165 187 0
158 181 0
164 186 0
160 183 0
156 179 0
154 177 0
162 184 0
162 184 0
159 181 0
161 184 0
158 180 0
161 184 0
154 176 0
156 179 0
163 184 0
163 185 0
158 180 0
159 182 0
160 182 0
155 178 0
154 176 0
160 183 0
153 177 0
159 181 0
157 179 0
155 177 0
151 172 0
154 177 0
151 173 0
155 177 0
146 168 0
154 176 0
155 177 0
154 176 0
151 172 0
146 169 0
152 175 0
150 171 0
155 176 0
155 175 0
151 174 0
151 173 0
148 169 0
149 171 0
153 175 0
147 168 0
142 161 0
146 168 0
154 176 0
144 165 0
145 166 0
147 169 0
152 173 0
142 161 0
143 164 0
146 167 0
149 171 0
143 164 0
140 160 0
138 160 0
145 164 0
134 152 0
143 164 0
143 162 0
141 162 0
132 152 0
136 155 0
138 158 0
138 158 0
146 166 0
145 165 0
134 154 0
134 153 0
133 153 0
132 151 0
134 153 0
133 153 0
136 155 0
126 145 0
134 154 0
140 161 0
139 159 0
141 158 0
129 147 0
129 148 0
125 144 0
132 151 0
136 154 0
127 144 0
133 153 0
136 155 0
144 162 0
124 141 0
121 139 0
125 142 0
133 151 0
127 143 0
129 147 0
134 152 0
120 135 0
127 143 0
124 139 0
131 147 0
122 137 0
123 139 0
124 142 0
121 138 0
130 146 0
128 144 0
117 133 0
118 131 0
126 141 0
134 149 0
132 148 0
121 136 0
119 133 0
122 135 0
123 138 0
123 137 0
132 147 0
107 120 0
121 137 0
121 134 0
116 132 0
121 133 0
113 127 0
121 135 0
110 123 0
111 125 0
111 123 0
96 106 0
109 124 0
109 119 0
75 74 12
81 79 12
100 98 22
102 99 24
115 112 30
106 104 26
113 111 19
115 110 19
129 125 34
122 119 26
116 112 20
126 123 16
132 130 28
131 127 29
129 124 25
134 129 33
140 135 32
134 129 28
139 135 36
139 135 32
141 137 32
141 137 32
140 135 26
137 133 32
143 140 30
146 142 30
140 137 28
141 138 30
151 146 32
147 142 36
148 143 39
144 140 25
145 140 30
145 142 16
145 141 25
153 147 34
148 144 32
151 147 30
150 145 28
151 146 28
147 143 28
143 139 25
154 150 32
151 147 30
153 148 30
149 145 28
150 146 34
153 148 30
147 145 22
152 148 34
149 144 16
153 149 28
152 147 41
153 148 36
156 151 32
149 143 36
153 148 34
150 145 30
157 152 37
153 148 34
151 146 34
152 147 32
148 145 28
153 149 34
152 148 34
156 151 37
153 149 30
153 149 22
151 146 25
152 147 28
151 146 37
154 149 28
152 146 34
153 148 36
152 147 36
152 148 25
150 145 28
151 146 11
156 152 25
150 146 19
148 145 28
155 150 34
157 152 32
151 146 34
153 148 34
149 145 28
153 149 30
152 148 34
149 145 25
148 144 25
154 149 32
154 149 32
146 142 19
151 147 22
151 147 19
152 148 36
153 147 34
151 147 32
146 141 25
152 148 36
151 146 36
150 145 37
152 148 28
148 143 30
149 144 36
152 147 28
150 144 25
147 143 32
152 147 34
149 145 32
150 146 34
144 139 28
149 143 28
147 143 19
143 138 30
145 141 25
143 139 25
141 137 28
143 140 22
148 142 36
147 143 30
135 131 34
139 136 25
143 137 34
135 131 28
138 133 36
135 132 25
137 133 34
137 134 30
141 137 36
141 136 22
134 129 30
127 123 22
135 130 28
128 125 22
116 111 25
126 122 22
149 161 11
167 185 0
163 182 0
167 183 0
164 182 0
168 187 0
167 184 0
164 181 0
170 189 0
161 180 0
168 186 0
167 185 0
167 185 0
167 185 0
169 188 0
167 188 0
168 187 0
169 187 0
163 184 0
170 188 0
170 189 0
167 186 0
168 188 0
168 187 0
164 183 0
170 190 0
169 191 0
171 191 0
168 187 0
171 192 0
167 188 0
168 188 0
169 189 0
167 187 0
168 187 0
168 189 0
170 194 0
171 194 0
172 196 0
171 193 0
170 194 0
171 195 0
173 196 0
170 193 0
170 194 0
168 191 0
171 194 0
170 192 0
171 195 0
170 193 0
170 194 0
171 194 0
169 192 0
172 195 0
168 191 0
171 195 0
170 194 0
170 193 0
172 194 0
171 195 0
173 196 0
166 190 0
168 190 0
171 194 0
167 191 0
170 193 0
168 191 0
168 191 0
169 192 0
169 192 0
170 194 0
170 193 0
170 192 0
171 195 0
167 191 0
169 191 0
170 192 0
169 192 0
169 193 0
169 192 0
168 191 0
167 190 0
166 189 0
164 187 0
170 193 0
169 192 0
170 193 0
166 188 0
166 189 0
169 192 0
166 191 0
168 191 0
166 190 0
164 187 0
168 192 0
168 192 0
168 191 0
167 189 0
170 193 0
163 186 0
164 188 0
163 186 0
165 188 0
167 191 0
169 191 0
165 189 0
160 183 0
168 191 0
164 187 0
164 187 0
160 183 0
169 193 0
161 183 0
159 182 0
166 188 0
169 192 0
167 190 0
164 187 0
160 182 0
161 184 0
160 183 0
165 187 0
164 187 0
156 178 0
159 183 0
160 182 0
165 188 0
156 180 0
158 181 0
165 187 0
161 183 0
161 183 0
163 185 0
162 185 0
158 181 0
164 187 0
156 180 0
162 185 0
160 182 0
160 182 0
161 184 0
151 173 0
160 182 0
162 184 0
160 183 0
159 181 0
162 183 0
158 181 0
155 177 0
159 180 0
156 179 0
151 173 0
158 180 0
154 177 0
156 177 0
162 184 0
148 169 0
149 170 0
153 175 0
152 174 0
156 178 0
155 177 0
159 182 0
155 178 0
149 170 0
152 174 0
147 169 0
149 171 0
155 178 0
150 171 0
151 172 0
146 168 0
153 174 0
157 179 0
149 169 0
142 163 0
152 174 0
154 175 0
149 171 0
141 162 0
144 166 0
146 166 0
144 165 0
146 166 0
133 155 0
146 167 0
143 164 0
147 167 0
143 164 0
147 168 0
152 174 0
146 167 0
149 168 0
146 167 0
141 160 0
138 157 0
139 157 0
138 157 0
138 158 0
139 158 0
139 160 0
135 154 0
136 155 0
143 163 0
139 159 0
128 148 0
140 158 0
140 161 0
130 148 0
140 159 0
132 151 0
143 163 0
138 156 0
136 155 0
139 158 0
136 155 0
131 150 0
134 152 0
135 153 0
123 142 0
132 149 0
131 150 0
129 148 0
131 148 0
134 150 0
129 146 0
134 152 0
118 133 0
123 139 0
126 143 0
138 156 0
129 146 0
121 138 0
121 137 0
135 152 0
120 136 0
131 149 0
127 143 0
123 137 0
118 132 0
121 137 0
115 129 0
124 140 0
116 130 0
128 143 0
121 136 0
125 140 0
122 137 0
117 132 0
126 142 0
125 140 0
122 136 0
118 133 0
119 132 0
113 125 0
118 130 0
116 131 0
123 136 0
111 123 0
120 132 0
114 126 0
125 138 0
115 127 0
81 80 18
94 93 14
95 94 20
92 90 13
100 99 19
106 103 19
103 101 14
112 111 16
119 115 30
122 120 26
128 125 21
126 122 24
128 124 34
132 128 29
127 122 28
140 136 37
139 135 38
138 136 25
138 134 25
133 128 30
139 135 28
146 142 36
142 137 37
139 134 30
139 135 32
147 142 30
146 141 30
148 143 41
144 139 28
145 141 22
149 144 32
146 141 37
145 141 32
144 141 30
150 145 25
150 145 36
150 146 36
150 145 28
151 147 22
148 144 19
149 144 25
149 144 32
152 148 28
152 147 30
156 151 25
152 147 22
149 145 28
150 146 28
154 150 36
152 147 32
153 148 25
148 143 22
150 145 28
154 149 30
151 147 30
150 145 22
153 148 30
154 149 30
153 150 25
148 145 30
152 147 19
152 148 28
150 145 30
151 147 32
156 152 34
158 152 37
154 148 32
153 149 30
153 148 30
153 149 34
153 150 22
158 153 37
145 141 30
153 148 28
150 145 25
151 147 25
153 148 36
147 142 32
151 146 25
150 146 25
153 148 30
151 146 36
152 148 34
152 148 32
150 146 32
153 148 37
154 149 22
152 146 34
153 149 25
150 145 28
158 153 45
151 147 30
151 147 25
150 145 22
155 149 34
153 148 19
156 151 28
156 150 32
155 150 30
152 146 32
149 145 30
151 147 36
152 148 30
151 147 34
148 143 34
145 141 28
148 143 39
146 142 25
146 140 37
144 139 28
143 140 19
144 139 28
143 139 22
152 147 32
141 137 19
148 144 32
146 142 34
140 135 25
145 141 44
144 139 37
142 138 34
139 134 34
151 146 45
147 142 34
137 134 25
133 129 28
133 130 19
135 131 19
136 131 28
139 134 34
129 126 30
130 125 32
119 114 19
123 119 25
129 124 28
125 121 25
122 118 28
159 173 0
161 177 0
167 185 0
170 189 0
166 184 0
170 189 0
165 183 0
163 182 0
166 184 0
167 187 0
169 188 0
166 184 0
166 183 0
168 188 0
165 185 0
170 187 0
168 186 0
168 186 0
166 186 0
168 188 0
170 190 0
171 190 0
165 184 0
168 189 0
167 187 0
167 188 0
168 188 0
165 186 0
169 189 0
167 184 0
168 187 0
169 190 0
171 191 0
169 190 0
168 188 0
170 189 0
170 193 0
172 195 0
170 194 0
169 193 0
168 192 0
169 193 0
169 192 0
173 195 0
171 195 0
169 192 0
169 193 0
171 193 0
172 195 0
168 191 0
171 193 0
169 193 0
168 192 0
170 193 0
170 193 0
171 193 0
167 190 0
166 189 0
171 195 0
168 191 0
169 191 0
168 192 0
170 193 0
170 194 0
171 194 0
168 191 0
170 192 0
170 194 0
169 192 0
170 192 0
168 191 0
166 189 0
169 192 0
170 193 0
166 189 0
170 194 0
166 189 0
168 191 0
166 188 0
168 192 0
167 190 0
167 190 0
168 191 0
167 189 0
168 191 0
170 192 0
172 196 0
166 190 0
164 187 0
167 190 0
168 190 0
167 189 0
165 189 0
167 190 0
168 191 0
167 189 0
171 193 0
167 189 0
163 186 0
167 191 0
168 191 0
164 187 0
162 185 0
167 189 0
161 183 0
164 186 0
162 184 0
169 192 0
167 190 0
167 190 0
166 188 0
166 189 0
166 188 0
166 189 0
166 188 0
164 187 0
169 191 0
165 187 0
165 187 0
163 186 0
164 186 0
163 186 0
167 189 0
163 185 0
162 185 0
165 187 0
166 189 0
159 181 0
161 184 0
161 184 0
161 183 0
166 189 0
159 181 0
165 188 0
159 182 0
161 183 0
157 179 0
156 178 0
156 178 0
159 181 0
162 184 0
160 183 0
155 178 0
160 183 0
158 179 0
161 182 0
159 182 0
161 184 0
158 181 0
157 179 0
163 186 0
161 182 0
157 179 0
150 172 0
153 174 0
155 176 0
154 176 0
156 178 0
155 177 0
150 172 0
151 174 0
159 182 0
153 176 0
146 168 0
149 172 0
157 178 0
152 173 0
150 171 0
151 172 0
153 173 0
139 160 0
154 175 0
144 167 0
149 171 0
142 163 0
151 172 0
149 169 0
149 171 0
144 167 0
141 161 0
139 160 0
146 165 0
144 164 0
145 166 0
144 164 0
141 163 0
142 162 0
149 171 0
143 163 0
145 167 0
144 165 0
151 172 0
137 158 0
150 170 0
145 167 0
133 152 0
132 150 0
141 161 0
140 160 0
131 149 0
143 162 0
143 162 0
146 166 0
127 144 0
139 159 0
139 158 0
135 154 0
124 142 0
134 153 0
143 162 0
127 146 0
135 155 0
142 162 0
132 151 0
129 146 0
124 144 0
139 159 0
137 156 0
130 149 0
134 153 0
134 152 0
126 145 0
132 150 0
127 147 0
137 155 0
122 139 0
137 153 0
123 141 0
127 145 0
129 147 0
113 131 0
133 151 0
134 150 0
140 160 0
119 137 0
126 142 0
129 144 0
113 127 0
130 147 0
125 142 0
135 151 0
122 139 0
120 136 0
117 132 0
123 137 0
124 138 0
114 130 0
126 142 0
120 133 0
131 145 0
112 128 0
112 125 0
115 129 0
114 127 0
118 134 0
121 135 0
128 140 0
111 124 0
117 127 0
116 130 0
111 125 0
108 121 0
113 126 0
89 87 11
88 86 11
102 100 16
103 101 21
106 103 19
103 102 20
107 105 16
111 108 25
118 114 31
114 111 24
121 118 22
121 118 24
131 128 29
134 130 22
134 130 30
131 127 28
136 132 32
142 137 36
136 132 25
140 137 22
134 130 28
142 138 28
145 140 25
144 139 28
142 139 19
146 142 34
145 142 25
142 138 30
144 140 30
141 137 19
146 141 34
146 142 19
144 139 22
148 143 32
148 144 30
149 144 37
145 140 28
141 136 25
151 147 30
148 142 28
145 141 32
149 146 34
146 141 25
151 146 28
150 146 30
149 144 25
150 146 25
157 153 34
149 144 30
152 148 32
152 148 30
152 147 28
156 151 32
150 146 22
151 147 22
155 151 28
150 144 25
147 143 32
149 144 19
150 146 32
152 148 39
148 143 22
151 147 30
149 145 28
150 145 19
153 149 34
151 146 36
156 152 30
155 150 30
157 152 32
150 147 25
153 149 28
154 150 36
153 148 25
152 148 22
155 150 37
156 151 34
153 148 32
154 149 28
153 148 34
152 146 41
149 145 28
154 151 32
151 147 36
150 145 32
153 149 34
158 153 37
149 144 30
150 146 28
149 144 32
151 145 36
150 146 25
148 144 22
152 148 30
147 143 22
149 145 28
151 147 37
150 146 28
151 147 22
150 146 28
155 150 41
151 146 30
149 144 25
148 143 28
152 147 30
154 149 34
151 147 32
146 141 30
150 146 19
153 147 39
141 136 32
151 147 36
153 148 42
151 146 42
142 138 37
152 147 34
147 142 28
146 142 22
146 141 36
142 137 25
139 133 28
143 138 25
134 129 25
137 133 16
135 130 30
140 136 34
131 127 28
141 136 30
140 136 30
136 131 30
138 133 30
131 125 30
124 121 30
131 127 30
124 120 16
116 112 11
116 113 19
165 184 0
168 184 0
160 177 0
166 184 0
164 184 0
168 188 0
165 184 0
169 189 0
169 187 0
164 183 0
169 188 0
167 185 0
168 186 0
168 189 0
167 184 0
171 190 0
168 187 0
166 187 0
167 185 0
165 185 0
168 187 0
170 191 0
167 186 0
167 186 0
170 190 0
167 186 0
168 188 0
169 188 0
167 185 0
170 190 0
168 188 0
168 189 0
168 188 0
170 190 0
170 191 0
172 194 0
170 193 0
171 195 0
170 193 0
169 192 0
172 195 0
168 192 0
169 192 0
172 195 0
170 193 0
171 195 0
171 193 0
168 191 0
171 194 0
170 194 0
169 193 0
168 191 0
170 194 0
170 193 0
169 192 0
170 193 0
168 192 0
172 195 0
171 194 0
171 194 0
171 194 0
170 192 0
169 191 0
170 194 0
170 193 0
167 190 0
168 192 0
167 191 0
168 191 0
171 194 0
170 194 0
170 192 0
168 191 0
167 190 0
168 190 0
172 194 0
170 193 0
164 186 0
167 190 0
168 191 0
168 191 0
165 187 0
167 190 0
163 187 0
163 187 0
170 194 0
166 189 0
169 191 0
167 188 0
170 193 0
170 192 0
165 187 0
169 193 0
169 192 0
166 190 0
167 189 0
164 187 0
167 190 0
163 186 0
166 189 0
165 188 0
166 189 0
167 190 0
167 190 0
168 191 0
163 186 0
166 189 0
170 194 0
168 191 0
166 189 0
164 187 0
158 181 0
164 187 0
165 188 0
165 188 0
167 190 0
165 188 0
165 188 0
168 190 0
165 186 0
168 191 0
163 187 0
162 184 0
159 183 0
161 184 0
154 177 0
161 183 0
166 189 0
165 188 0
161 183 0
158 179 0
162 184 0
161 184 0
161 183 0
157 178 0
160 183 0
155 176 0
149 172 0
157 179 0
161 183 0
159 181 0
165 187 0
158 181 0
158 181 0
159 181 0
160 182 0
156 179 0
154 175 0
158 180 0
162 184 0
153 176 0
161 184 0
156 177 0
156 178 0
159 180 0
161 182 0
157 180 0
158 181 0
156 178 0
158 180 0
154 176 0
158 179 0
155 175 0
151 172 0
152 173 0
149 171 0
157 178 0
152 174 0
155 177 0
151 172 0
155 176 0
151 173 0
155 176 0
149 171 0
146 167 0
155 177 0
150 172 0
149 170 0
145 166 0
149 169 0
149 171 0
145 167 0
149 170 0
144 166 0
148 168 0
141 161 0
149 171 0
136 158 0
144 165 0
140 160 0
145 164 0
141 162 0
138 159 0
149 170 0
141 160 0
152 173 0
133 152 0
137 157 0
133 154 0
131 149 0
150 170 0
146 166 0
145 163 0
136 155 0
135 156 0
139 158 0
138 158 0
150 171 0
140 160 0
130 149 0
137 155 0
136 155 0
138 156 0
138 156 0
146 165 0
135 154 0
142 163 0
140 158 0
128 145 0
135 155 0
133 152 0
135 154 0
136 155 0
143 162 0
123 141 0
135 153 0
125 142 0
125 142 0
132 151 0
132 148 0
131 147 0
131 149 0
125 142 0
114 131 0
137 152 0
130 147 0
131 146 0
134 151 0
126 142 0
123 138 0
128 146 0
122 137 0
113 130 0
125 139 0
122 138 0
128 142 0
121 135 0
121 135 0
116 131 0
127 144 0
124 140 0
123 139 0
123 139 0
119 134 0
114 127 0
121 135 0
121 133 0
117 130 0
128 142 0
124 138 0
118 131 0
120 133 0
126 140 0
84 82 14
73 75 16
93 93 14
104 101 21
103 102 9
105 102 29
105 102 16
118 115 30
121 119 24
121 116 24
116 113 26
126 123 25
125 123 25
132 129 31
121 119 24
133 128 28
131 128 19
140 137 31
145 141 34
143 138 30
143 138 34
140 136 30
141 137 28
140 136 28
139 136 28
142 138 25
142 138 28
142 138 25
140 135 22
143 140 30
148 142 39
147 141 22
148 144 30
143 139 36
147 142 25
146 142 36
150 146 25
148 144 30
150 145 37
145 141 30
148 144 28
147 141 32
146 142 22
148 144 25
151 147 30
148 144 30
156 152 39
148 144 19
147 142 19
148 144 16
145 140 28
150 146 22
150 145 28
151 148 19
151 146 30
150 145 28
145 141 32
155 150 37
152 147 39
149 144 34
152 148 36
152 147 30
154 148 32
157 151 41
155 151 34
149 145 30
151 147 28
148 144 30
155 151 30
153 149 36
155 150 37
152 145 28
152 147 34
149 145 25
155 150 32
152 147 25
151 146 32
155 150 36
152 147 34
156 150 34
151 145 36
153 148 25
155 151 30
152 148 32
150 146 22
149 145 25
151 146 32
153 149 28
151 146 36
152 147 25
154 150 36
153 149 36
151 147 25
149 145 30
154 149 36
148 144 22
149 146 28
147 142 28
153 148 34
147 142 30
148 143 25
146 142 19
148 144 30
149 144 30
153 149 32
152 148 30
147 143 37
147 143 28
150 146 25
144 139 32
149 144 36
147 142 30
143 139 19
149 143 32
141 136 36
143 139 28
143 138 19
141 136 36
144 140 32
146 141 32
154 149 30
143 139 19
137 133 34
143 138 37
143 139 34
137 133 25
135 130 28
136 131 22
139 134 37
131 128 28
133 128 25
139 135 32
131 126 28
136 133 28
125 120 32
128 124 30
129 131 19
163 181 0
167 187 0
165 183 0
164 180 0
166 184 0
170 187 0
166 186 0
166 184 0
170 190 0
168 186 0
169 190 0
166 182 0
167 186 0
167 186 0
168 186 0
165 185 0
166 185 0
166 185 0
167 187 0
169 188 0
167 186 0
165 184 0
169 189 0
171 192 0
167 186 0
167 188 0
173 193 0
167 187 0
170 190 0
168 188 0
165 184 0
169 188 0
168 186 0
163 182 0
164 184 0
172 194 0
171 193 0
172 194 0
172 194 0
170 193 0
171 193 0
172 195 0
171 194 0
171 194 0
168 191 0
170 193 0
170 193 0
172 196 0
168 191 0
171 194 0
171 195 0
169 193 0
168 192 0
170 193 0
168 192 0
166 189 0
166 188 0
171 193 0
168 191 0
169 192 0
172 195 0
168 191 0
171 193 0
166 188 0
167 189 0
170 193 0
169 192 0
167 190 0
168 191 0
166 189 0
168 191 0
169 192 0
169 192 0
170 192 0
167 191 0
169 193 0
167 191 0
167 190 0
168 190 0
170 192 0
169 191 0
173 195 0
170 193 0
167 190 0
168 191 0
166 189 0
169 192 0
165 189 0
169 192 0
170 193 0
163 186 0
167 191 0
168 191 0
166 187 0
169 193 0
162 184 0
164 188 0
166 189 0
166 190 0
165 189 0
167 190 0
169 192 0
167 189 0
166 190 0
165 188 0
165 188 0
164 186 0
166 188 0
165 189 0
167 189 0
162 186 0
163 187 0
162 185 0
163 187 0
168 191 0
166 189 0
163 186 0
166 189 0
166 188 0
165 189 0
161 184 0
158 181 0
160 183 0
166 190 0
158 181 0
163 186 0
164 188 0
163 187 0
158 180 0
161 184 0
166 189 0
158 182 0
164 185 0
165 189 0
163 186 0
161 183 0
159 181 0
156 178 0
163 186 0
154 177 0
162 185 0
161 184 0
162 184 0
155 178 0
153 174 0
160 183 0
160 182 0
158 180 0
156 177 0
158 180 0
155 178 0
153 176 0
161 184 0
158 179 0
156 178 0
155 177 0
155 177 0
163 186 0
157 178 0
154 175 0
152 174 0
152 173 0
155 177 0
156 178 0
157 180 0
161 184 0
150 171 0
151 173 0
147 170 0
154 175 0
152 172 0
151 173 0
150 171 0
150 169 0
150 171 0
147 169 0
151 171 0
144 166 0
147 169 0
153 174 0
147 168 0
155 177 0
136 156 0
146 168 0
148 169 0
144 165 0
146 167 0
135 155 0
153 174 0
140 161 0
142 163 0
141 161 0
151 172 0
145 165 0
151 172 0
145 165 0
146 164 0
150 168 0
144 163 0
137 156 0
139 160 0
151 171 0
138 158 0
137 157 0
142 161 0
140 159 0
143 163 0
135 155 0
135 152 0
134 154 0
141 162 0
141 159 0
134 153 0
141 161 0
138 157 0
132 151 0
136 156 0
130 148 0
132 151 0
128 145 0
139 157 0
140 158 0
136 154 0
128 145 0
132 150 0
141 159 0
132 150 0
136 155 0
123 142 0
126 143 0
131 148 0
131 150 0
130 148 0
123 138 0
135 152 0
135 152 0
124 139 0
131 147 0
127 142 0
120 136 0
139 155 0
121 135 0
131 146 0
126 143 0
128 144 0
125 139 0
126 142 0
124 139 0
129 142 0
132 147 0
118 133 0
127 143 0
127 142 0
126 139 0
117 131 0
120 135 0
118 132 0
119 130 0
120 131 0
120 136 0
122 134 0
117 129 0
109 122 0
78 78 16
98 95 14
97 94 25
95 93 8
116 111 32
112 110 25
112 110 12
115 113 25
112 110 8
112 110 24
115 112 19
122 118 16
127 125 24
130 127 25
131 126 22
135 130 22
136 131 41
135 131 30
136 132 22
140 136 25
139 134 30
140 136 30
138 135 32
139 136 25
144 138 22
135 132 16
144 140 28
142 139 25
140 135 30
143 139 25
146 141 28
152 147 41
148 144 19
148 143 30
147 143 28
143 139 22
149 145 30
147 142 22
152 147 30
149 144 19
142 138 28
148 144 28
150 145 32
149 145 34
150 146 32
146 141 28
151 146 28
149 145 37
142 138 28
149 145 34
152 147 30
153 148 25
147 141 36
151 146 28
154 149 34
155 150 37
150 146 28
152 147 34
149 146 30
148 143 19
152 148 25
151 148 32
151 147 28
154 150 41
154 149 34
152 148 22
148 145 25
153 149 32
150 146 22
151 147 37
148 143 30
149 144 30
154 149 30
156 152 36
151 146 25
147 142 30
157 152 36
148 144 19
152 148 32
151 147 34
151 147 36
156 150 44
157 152 22
159 155 37
156 152 30
147 144 30
151 147 22
149 144 34
151 147 32
150 147 25
148 144 32
151 146 22
149 144 32
150 144 30
155 149 34
145 142 28
148 144 34
148 144 22
154 150 28
149 145 30
149 145 34
149 145 28
151 146 34
151 146 34
146 142 28
147 142 30
151 146 32
146 141 25
147 141 32
150 146 36
153 149 37
149 146 25
154 149 42
144 140 28
138 132 30
144 139 32
138 134 28
147 141 34
149 145 25
142 137 32
146 141 32
144 140 28
139 135 19
141 136 37
144 140 30
134 130 25
141 137 25
135 131 22
133 129 16
127 122 25
137 132 28
133 128 19
133 128 28
127 121 22
130 125 30
113 109 22
133 140 11
168 187 0
167 184 0
168 185 0
166 183 0
167 186 0
166 184 0
166 185 0
168 184 0
171 189 0
166 183 0
169 189 0
168 187 0
169 187 0
166 185 0
165 184 0
169 188 0
162 182 0
168 188 0
169 188 0
167 185 0
169 190 0
169 189 0
167 186 0
166 185 0
165 186 0
168 188 0
170 191 0
168 187 0
166 186 0
169 187 0
170 189 0
170 191 0
169 190 0
172 193 0
168 187 0
167 188 0
169 192 0
171 193 0
171 194 0
171 194 0
168 192 0
172 195 0
170 193 0
167 190 0
169 193 0
168 192 0
171 195 0
170 194 0
173 196 0
169 193 0
170 194 0
168 191 0
172 195 0
169 193 0
167 191 0
169 192 0
167 191 0
170 193 0
172 195 0
168 190 0
170 193 0
172 195 0
168 192 0
171 194 0
171 194 0
169 192 0
168 191 0
169 192 0
171 194 0
170 192 0
161 185 0
169 191 0
167 191 0
169 191 0
169 192 0
169 191 0
167 190 0
170 192 0
167 191 0
167 190 0
170 192 0
166 189 0
165 188 0
170 192 0
167 190 0
167 190 0
168 191 0
168 193 0
169 193 0
165 188 0
169 193 0
166 190 0
166 188 0
166 187 0
163 187 0
168 190 0
165 188 0
168 192 0
169 191 0
162 185 0
168 191 0
167 190 0
168 192 0
166 189 0
166 189 0
163 186 0
166 189 0
165 188 0
168 192 0
165 188 0
164 187 0
164 187 0
165 187 0
165 189 0
167 191 0
165 188 0
163 187 0
163 185 0
162 183 0
162 184 0
163 186 0
159 182 0
166 187 0
165 187 0
167 189 0
166 188 0
160 182 0
164 188 0
163 186 0
161 183 0
159 182 0
161 183 0
165 189 0
165 187 0
165 187 0
160 182 0
152 174 0
161 183 0
162 185 0
160 183 0
161 184 0
162 184 0
163 185 0
161 183 0
157 180 0
159 183 0
159 183 0
154 176 0
158 181 0
155 177 0
154 176 0
161 183 0
158 181 0
157 179 0
158 180 0
151 173 0
149 170 0
154 176 0
152 173 0
154 176 0
158 181 0
155 177 0
160 182 0
154 175 0
157 178 0
156 177 0
148 169 0
146 167 0
147 168 0
149 170 0
153 174 0
154 177 0
145 166 0
150 172 0
150 171 0
152 173 0
149 171 0
148 170 0
151 173 0
150 171 0
150 171 0
146 168 0
145 166 0
150 171 0
146 167 0
146 165 0
147 168 0
148 170 0
147 168 0
144 165 0
142 162 0
140 161 0
136 156 0
143 163 0
144 164 0
140 161 0
139 160 0
141 161 0
145 165 0
135 154 0
147 167 0
137 159 0
137 157 0
139 157 0
137 157 0
136 155 0
145 166 0
141 161 0
140 159 0
133 152 0
135 153 0
143 160 0
139 159 0
143 162 0
130 148 0
123 142 0
128 146 0
130 148 0
135 154 0
141 159 0
129 147 0
135 153 0
138 156 0
144 163 0
122 140 0
124 140 0
131 147 0
134 151 0
133 150 0
131 148 0
127 145 0
134 152 0
126 143 0
129 145 0
123 140 0
133 149 0
134 150 0
127 144 0
122 139 0
131 147 0
144 159 0
122 139 0
129 146 0
119 135 0
129 144 0
116 131 0
132 150 0
128 144 0
113 128 0
134 150 0
128 144 0
122 139 0
128 143 0
127 141 0
117 132 0
127 142 0
124 138 0
132 146 0
124 136 0
129 144 0
125 137 0
125 140 0
114 121 0
80 80 12
95 92 8
88 86 5
102 101 16
108 104 25
109 107 28
114 111 26
117 113 32
113 110 16
121 118 32
127 124 35
127 123 16
140 136 30
127 123 21
139 136 28
136 132 30
138 135 34
141 136 28
136 132 34
141 136 22
145 140 25
137 134 25
142 138 11
148 143 25
140 136 25
140 135 25
142 139 25
147 143 30
141 136 22
147 143 34
147 144 34
150 146 39
150 145 37
144 139 36
149 145 28
148 144 25
151 146 36
146 141 36
146 142 28
151 146 22
150 146 30
149 144 25
147 142 19
149 144 32
155 150 36
146 143 25
153 148 30
151 147 32
150 146 25
153 148 28
151 146 25
150 146 28
148 143 32
151 146 25
151 146 32
153 149 32
152 146 32
150 147 25
154 149 36
155 151 37
150 146 28
157 151 36
148 144 34
151 147 25
156 150 39
148 145 22
153 149 34
154 148 25
151 146 30
148 145 19
153 148 30
150 145 30
152 147 28
148 143 19
150 146 30
156 151 28
153 147 37
155 151 39
151 146 19
149 144 30
152 147 22
152 149 28
151 147 30
151 147 34
148 143 28
152 148 19
151 147 32
151 147 22
155 149 39
153 148 28
152 147 25
156 151 28
155 151 25
148 144 30
147 142 30
154 149 36
154 148 32
146 142 32
152 147 36
151 146 22
147 143 25
148 144 22
152 147 32
147 143 25
152 147 32
150 146 16
151 146 22
149 144 25
148 143 22
142 137 30
151 146 34
148 143 41
153 148 44
143 139 19
143 139 30
141 137 19
137 133 22
143 138 28
140 136 28
144 139 41
143 138 25
145 141 28
137 134 22
142 137 25
139 133 32
133 130 16
137 132 30
132 128 25
131 126 32
135 129 34
130 125 28
121 117 19
125 120 28
117 114 16
131 125 34
117 113 19
145 156 16
168 186 0
166 182 0
165 179 0
167 184 0
167 184 0
162 179 0
170 188 0
160 178 0
168 187 0
165 183 0
169 189 0
165 183 0
165 183 0
164 182 0
169 189 0
170 189 0
167 187 0
167 187 0
166 186 0
170 188 0
167 186 0
168 188 0
169 188 0
169 189 0
167 186 0
169 190 0
167 188 0
168 189 0
170 190 0
167 188 0
170 192 0
169 190 0
171 191 0
170 191 0
170 191 0
170 187 0
172 195 0
169 193 0
172 195 0
170 194 0
171 194 0
170 193 0
175 198 0
169 192 0
171 194 0
170 194 0
173 195 0
169 192 0
170 193 0
170 194 0
171 194 0
170 193 0
172 195 0
170 193 0
168 190 0
172 194 0
170 194 0
171 194 0
170 193 0
169 192 0
170 193 0
168 191 0
170 193 0
169 192 0
169 190 0
170 193 0
166 188 0
169 192 0
168 190 0
171 194 0
168 191 0
166 189 0
167 190 0
168 191 0
168 191 0
168 191 0
170 193 0
166 187 0
169 193 0
165 188 0
170 192 0
168 190 0
165 188 0
168 191 0
165 188 0
165 188 0
169 191 0
167 190 0
167 190 0
169 192 0
167 190 0
168 192 0
170 192 0
166 189 0
166 189 0
169 191 0
167 190 0
167 191 0
166 189 0
169 191 0
169 191 0
168 190 0
166 188 0
166 188 0
168 191 0
160 183 0
165 188 0
159 181 0
166 188 0
167 191 0
168 190 0
168 190 0
163 187 0
170 192 0
165 189 0
167 190 0
166 189 0
164 187 0
164 188 0
164 186 0
162 184 0
165 187 0
164 187 0
165 189 0
162 184 0
162 185 0
159 181 0
164 187 0
162 184 0
163 185 0
159 182 0
167 191 0
158 181 0
163 186 0
160 184 0
161 184 0
156 179 0
155 177 0
158 181 0
161 184 0
155 177 0
153 175 0
160 182 0
156 178 0
159 181 0
152 174 0
161 182 0
160 183 0
160 183 0
158 180 0
157 178 0
153 176 0
159 181 0
152 173 0
162 183 0
153 174 0
151 173 0
155 177 0
156 179 0
159 181 0
150 171 0
150 171 0
150 171 0
156 178 0
155 176 0
158 180 0
159 181 0
150 172 0
151 171 0
156 178 0
154 175 0
152 174 0
154 176 0
153 175 0
151 172 0
148 170 0
142 162 0
151 173 0
146 167 0
153 173 0
153 174 0
152 174 0
149 169 0
147 167 0
150 171 0
141 163 0
147 168 0
147 166 0
150 171 0
146 168 0
146 167 0
148 168 0
141 162 0
146 166 0
135 156 0
143 164 0
138 157 0
140 161 0
141 161 0
137 157 0
143 163 0
139 159 0
146 167 0
136 155 0
146 167 0
145 165 0
142 161 0
144 163 0
144 162 0
143 163 0
147 166 0
152 172 0
141 161 0
136 157 0
133 151 0
138 156 0
141 159 0
138 157 0
141 159 0
141 161 0
136 152 0
128 146 0
139 156 0
141 159 0
137 155 0
139 158 0
135 153 0
138 155 0
133 150 0
140 157 0
128 145 0
135 151 0
137 155 0
138 155 0
136 153 0
133 150 0
140 157 0
122 139 0
140 157 0
127 143 0
131 146 0
131 147 0
130 145 0
130 145 0
125 140 0
128 143 0
128 142 0
122 135 0
124 139 0
125 138 0
126 140 0
127 141 0
132 149 0
134 149 0
132 147 0
118 133 0
114 128 0
119 132 0
120 132 0
120 132 0
120 134 0
115 128 0
110 119 0
78 76 12
91 88 25
99 96 16
103 101 19
103 100 22
105 105 21
113 111 19
118 116 25
115 112 21
118 115 16
129 125 30
122 118 28
129 126 31
126 124 19
133 128 36
128 126 30
132 128 28
138 135 25
136 132 30
143 137 34
139 135 28
140 138 28
128 124 25
139 135 30
144 140 28
142 138 32
139 136 30
139 134 36
142 137 32
150 145 30
147 142 30
144 140 30
142 137 28
145 141 22
142 138 22
143 139 32
142 138 25
146 143 25
150 146 28
150 145 28
150 145 30
147 143 32
145 140 19
155 150 34
155 150 32
148 143 25
150 145 34
151 147 39
150 147 34
153 148 34
152 147 30
150 145 30
148 144 30
154 150 32
150 145 32
152 147 28
151 147 32
148 143 25
149 145 30
154 149 32
149 144 28
148 143 16
149 143 28
151 147 30
149 145 32
154 150 30
151 146 32
150 147 25
156 151 30
153 148 34
157 152 34
154 148 37
154 149 30
148 144 22
152 146 30
152 147 41
152 147 25
152 148 34
153 147 36
153 147 32
152 146 32
152 147 22
151 146 19
152 148 25
152 148 37
148 145 28
151 145 30
151 146 37
156 152 42
151 147 22
151 147 25
151 148 30
148 143 39
152 147 39
150 145 25
157 151 34
149 144 34
152 148 34
152 147 11
148 143 30
146 142 25
151 146 39
147 143 19
150 146 36
147 142 22
152 146 34
147 144 19
143 140 22
152 147 32
149 144 37
144 139 34
148 142 36
147 142 34
148 144 30
149 144 32
143 137 22
149 143 28
145 140 36
145 139 25
141 137 25
133 128 36
137 133 22
145 140 25
143 138 32
142 137 30
139 134 32
141 136 28
139 135 25
130 125 28
133 128 32
131 126 30
126 122 25
118 114 19
120 117 16
110 107 11
125 120 34
154 169 0
167 186 0
163 179 0
166 185 0
163 181 0
169 187 0
167 183 0
168 185 0
167 186 0
164 183 0
166 183 0
165 184 0
166 183 0
163 181 0
167 185 0
169 187 0
168 187 0
168 189 0
169 187 0
169 188 0
166 185 0
168 188 0
169 188 0
169 189 0
170 192 0
172 193 0
167 187 0
170 190 0
168 188 0
168 188 0
164 183 0
166 184 0
172 192 0
170 191 0
166 187 0
166 187 0
171 192 0
172 195 0
169 191 0
169 192 0
172 195 0
171 193 0
167 191 0
170 193 0
168 191 0
171 195 0
170 194 0
170 193 0
171 195 0
171 193 0
171 194 0
169 191 0
165 186 0
171 195 0
170 194 0
170 193 0
169 192 0
172 194 0
166 189 0
172 195 0
168 191 0
171 195 0
168 191 0
169 193 0
166 190 0
166 189 0
166 189 0
162 185 0
171 193 0
171 194 0
170 193 0
164 187 0
169 192 0
171 194 0
169 193 0
168 192 0
169 192 0
170 192 0
170 193 0
170 192 0
164 188 0
168 191 0
170 193 0
169 193 0
170 192 0
169 192 0
167 190 0
163 186 0
166 189 0
166 189 0
169 192 0
166 189 0
168 191 0
171 194 0
169 192 0
165 188 0
167 190 0
167 190 0
167 190 0
167 189 0
163 186 0
165 189 0
169 192 0
166 189 0
164 187 0
168 192 0
169 192 0
164 187 0
164 187 0
161 185 0
164 186 0
166 188 0
165 188 0
161 184 0
169 192 0
168 191 0
164 186 0
163 185 0
162 186 0
161 183 0
167 190 0
166 188 0
163 185 0
167 190 0
163 187 0
162 185 0
162 185 0
158 182 0
165 187 0
168 191 0
165 188 0
164 186 0
163 185 0
162 185 0
158 180 0
162 184 0
161 184 0
156 178 0
160 183 0
163 186 0
167 189 0
161 185 0
161 184 0
160 182 0
152 175 0
155 178 0
155 176 0
159 182 0
160 182 0
154 177 0
159 181 0
156 178 0
150 173 0
160 182 0
156 177 0
155 177 0
151 173 0
156 179 0
151 172 0
157 180 0
158 180 0
154 177 0
154 176 0
150 173 0
149 170 0
151 174 0
156 178 0
153 174 0
150 170 0
159 180 0
151 172 0
150 172 0
152 173 0
152 173 0
147 168 0
159 178 0
148 169 0
150 171 0
150 170 0
157 179 0
144 166 0
151 171 0
150 170 0
153 175 0
141 164 0
146 169 0
152 173 0
152 173 0
138 158 0
150 171 0
147 167 0
150 171 0
152 173 0
145 166 0
142 161 0
147 167 0
140 158 0
151 171 0
138 159 0
148 167 0
138 157 0
142 162 0
148 168 0
144 163 0
149 170 0
139 159 0
148 168 0
142 162 0
137 158 0
139 158 0
152 171 0
131 149 0
142 161 0
144 165 0
132 151 0
138 158 0
141 160 0
138 153 0
137 155 0
141 160 0
144 162 0
139 157 0
137 156 0
139 157 0
134 154 0
135 153 0
126 143 0
131 150 0
122 139 0
135 150 0
133 150 0
143 162 0
130 147 0
137 156 0
138 156 0
135 153 0
131 148 0
133 149 0
137 156 0
127 144 0
136 153 0
141 156 0
141 159 0
131 147 0
119 136 0
134 147 0
130 146 0
123 139 0
127 143 0
134 148 0
128 143 0
132 148 0
121 134 0
123 137 0
126 141 0
117 131 0
114 126 0
136 150 0
119 133 0
124 138 0
123 137 0
124 137 0
115 125 0
111 120 0
94 92 11
102 99 14
89 87 12
101 100 18
107 105 26
107 105 25
111 108 30
118 114 16
128 124 34
117 113 19
128 125 21
125 121 25
127 123 28
131 128 18
133 129 28
131 130 25
128 124 32
131 127 30
135 131 28
138 135 22
142 138 34
145 140 34
137 132 34
139 134 22
138 134 30
145 140 32
141 135 32
145 140 30
145 140 28
147 143 39
145 140 28
149 144 39
147 142 28
143 138 30
145 141 25
151 147 30
145 140 32
146 141 32
149 144 30
148 143 32
146 140 28
152 145 41
149 146 22
154 149 32
146 141 34
149 145 28
146 141 22
147 143 28
153 148 30
150 146 34
155 149 42
152 147 30
145 142 22
153 147 39
145 141 19
152 148 19
151 147 25
150 145 25
152 147 28
153 149 37
153 148 30
156 151 25
151 147 32
150 145 28
153 147 34
152 147 34
149 144 28
155 151 39
153 147 34
154 149 32
154 149 36
152 147 28
147 143 19
154 149 28
150 145 30
154 149 32
151 146 22
153 149 36
155 151 19
153 149 25
152 149 25
155 150 32
153 147 28
152 147 28
151 146 28
154 149 32
154 148 42
145 140 30
154 150 22
155 149 34
152 147 30
156 151 25
154 149 32
152 147 25
147 144 28
153 149 30
152 148 30
145 141 32
150 146 19
150 144 34
144 139 32
152 148 32
148 144 25
146 143 28
150 146 32
151 146 25
148 144 30
142 138 16
146 140 32
152 147 34
145 141 22
148 145 25
143 140 28
144 137 36
137 132 28
147 143 34
146 142 22
140 137 25
149 143 32
139 135 16
146 142 25
141 136 22
134 130 25
145 141 32
138 133 36
133 129 16
136 130 32
137 132 28
134 130 34
139 134 22
132 128 25
138 132 32
130 125 32
129 125 28
118 114 16
124 121 28
166 183 0
168 186 0
166 184 0
166 183 0
163 182 0
164 182 0
162 178 0
165 184 0
165 182 0
169 187 0
163 182 0
166 184 0
169 189 0
165 183 0
167 186 0
169 187 0
167 185 0
167 185 0
167 185 0
169 188 0
168 187 0
165 183 0
168 187 0
166 185 0
166 184 0
169 188 0
169 186 0
171 192 0
170 190 0
171 190 0
166 185 0
169 187 0
168 187 0
169 190 0
170 190 0
168 189 0
167 187 0
171 194 0
172 194 0
170 194 0
169 193 0
172 195 0
171 194 0
169 193 0
170 194 0
169 193 0
173 196 0
171 194 0
171 194 0
171 196 0
169 193 0
168 191 0
169 192 0
172 195 0
170 193 0
171 194 0
172 195 0
171 193 0
172 195 0
171 194 0
168 192 0
172 195 0
173 195 0
166 189 0
172 195 0
166 190 0
171 196 0
166 189 0
167 191 0
171 194 0
170 192 0
169 192 0
172 194 0
171 194 0
166 189 0
167 190 0
166 191 0
168 191 0
169 193 0
172 194 0
171 194 0
164 187 0
165 187 0
167 189 0
172 195 0
165 188 0
169 192 0
167 190 0
170 193 0
170 194 0
165 189 0
165 188 0
165 188 0
170 192 0
167 190 0
167 189 0
168 192 0
164 187 0
169 191 0
166 189 0
164 185 0
168 191 0
168 191 0
169 192 0
160 183 0
161 182 0
166 189 0
165 189 0
163 186 0
168 191 0
161 183 0
164 187 0
164 187 0
164 187 0
163 186 0
159 181 0
161 183 0
168 191 0
169 191 0
164 187 0
167 190 0
168 190 0
160 183 0
161 184 0
164 185 0
160 184 0
163 185 0
162 185 0
162 183 0
162 184 0
160 183 0
161 182 0
161 184 0
167 189 0
159 180 0
161 184 0
162 185 0
159 181 0
153 174 0
160 183 0
159 181 0
155 177 0
156 178 0
161 184 0
160 183 0
158 182 0
166 189 0
155 177 0
158 180 0
157 179 0
151 172 0
161 184 0
153 175 0
158 179 0
160 182 0
155 178 0
148 170 0
160 183 0
153 176 0
152 174 0
153 174 0
157 180 0
158 179 0
156 178 0
157 180 0
153 174 0
149 171 0
157 178 0
152 174 0
151 172 0
152 174 0
152 174 0
150 172 0
154 175 0
146 167 0
148 170 0
157 177 0
149 171 0
149 169 0
150 173 0
151 171 0
150 171 0
155 176 0
148 169 0
148 169 0
150 171 0
144 165 0
149 170 0
144 166 0
149 169 0
150 171 0
150 172 0
144 163 0
141 162 0
147 167 0
144 165 0
143 164 0
150 168 0
146 166 0
147 168 0
153 174 0
146 166 0
149 169 0
138 157 0
150 170 0
136 157 0
139 158 0
140 160 0
130 150 0
145 166 0
143 162 0
133 152 0
149 170 0
145 165 0
133 151 0
133 151 0
139 159 0
135 154 0
142 161 0
134 151 0
131 150 0
130 146 0
139 158 0
138 157 0
144 164 0
126 142 0
135 153 0
144 164 0
138 154 0
141 158 0
136 152 0
124 141 0
135 150 0
135 152 0
136 154 0
132 150 0
135 151 0
124 141 0
124 140 0
128 144 0
135 150 0
132 148 0
132 150 0
145 162 0
133 149 0
139 155 0
133 150 0
126 141 0
122 137 0
141 157 0
129 143 0
123 140 0
122 136 0
127 144 0
135 149 0
128 143 0
128 143 0
128 142 0
125 138 0
131 147 0
126 135 0
118 128 0
132 144 0
122 133 0
85 84 16
94 92 16
94 93 21
103 100 16
109 106 24
123 119 21
114 111 26
121 117 30
122 118 26
125 122 28
124 120 22
132 129 31
129 125 25
126 123 29
142 136 32
135 130 34
127 124 16
126 123 25
138 133 32
143 140 28
137 133 30
128 125 16
135 132 28
144 139 36
144 139 28
135 132 19
144 138 37
146 141 28
142 138 28
140 136 16
147 142 25
154 149 39
144 140 28
137 134 16
149 145 30
151 145 28
140 136 32
145 141 32
149 144 25
152 147 36
146 141 30
151 146 30
145 140 36
151 147 30
149 145 28
152 147 34
150 146 34
153 148 28
145 140 30
148 144 22
155 150 42
153 148 32
148 142 28
152 146 36
151 145 36
150 146 30
148 142 28
152 147 25
152 148 32
153 148 30
157 152 39
152 146 30
151 146 22
152 148 25
151 146 25
154 149 32
148 143 30
153 148 30
156 152 34
153 149 32
145 142 22
151 148 22
143 139 25
150 145 30
153 148 39
149 144 22
152 146 22
152 148 22
151 147 25
154 148 36
153 148 34
149 145 22
152 147 32
153 148 32
151 147 25
147 143 32
155 149 41
152 148 30
153 148 34
156 151 34
151 146 22
154 148 30
155 150 32
150 146 25
149 144 22
151 146 25
146 142 28
151 147 32
149 144 32
145 140 22
148 144 30
144 141 25
153 149 28
147 142 28
144 139 25
148 143 30
148 144 32
141 136 22
145 140 32
147 143 28
151 146 34
153 148 30
152 147 32
146 142 28
146 141 22
137 133 22
147 141 25
145 140 22
148 144 39
147 143 30
140 134 36
140 137 25
131 127 28
141 136 32
143 139 28
136 131 30
142 137 36
126 122 16
133 127 34
121 118 22
137 132 25
117 113 25
128 124 28
124 120 28
126 121 32
132 136 19
162 179 0
166 184 0
165 180 0
164 184 0
166 183 0
166 185 0
169 187 0
164 182 0
172 190 0
166 185 0
166 183 0
164 182 0
169 188 0
167 183 0
168 188 0
166 186 0
169 189 0
169 187 0
164 184 0
168 187 0
166 185 0
169 189 0
165 186 0
167 185 0
166 185 0
167 186 0
167 187 0
170 189 0
169 189 0
166 185 0
165 183 0
170 192 0
168 187 0
165 187 0
167 187 0
168 188 0
169 189 0
167 191 0
173 196 0
172 195 0
167 191 0
169 193 0
167 189 0
172 195 0
171 194 0
169 192 0
171 194 0
172 195 0
169 194 0
174 196 0
169 193 0
174 197 0
171 195 0
171 194 0
170 193 0
169 193 0
168 191 0
170 193 0
171 194 0
167 191 0
168 190 0
167 190 0
169 193 0
170 194 0
171 194 0
166 190 0
171 194 0
170 193 0
168 191 0
168 191 0
169 192 0
169 193 0
169 192 0
170 194 0
169 193 0
167 190 0
171 195 0
171 193 0
168 191 0
169 192 0
166 189 0
166 188 0
168 190 0
168 191 0
168 191 0
166 188 0
168 190 0
168 192 0
169 192 0
168 190 0
166 189 0
168 191 0
167 189 0
167 189 0
166 190 0
168 191 0
167 190 0
164 187 0
166 189 0
163 185 0
166 189 0
163 186 0
165 188 0
166 190 0
163 186 0
163 185 0
163 186 0
167 188 0
165 187 0
166 190 0
164 187 0
168 189 0
166 189 0
163 186 0
162 185 0
164 186 0
169 192 0
160 183 0
161 184 0
159 182 0
164 187 0
164 186 0
163 187 0
167 189 0
165 187 0
162 185 0
165 188 0
163 185 0
159 181 0
163 185 0
159 181 0
161 184 0
163 185 0
165 187 0
161 183 0
165 188 0
164 186 0
160 183 0
156 178 0
165 187 0
160 182 0
162 184 0
163 185 0
165 187 0
161 184 0
157 179 0
159 182 0
156 179 0
163 185 0
155 178 0
158 180 0
158 180 0
160 183 0
154 176 0
155 176 0
162 184 0
160 181 0
155 178 0
158 180 0
161 183 0
158 180 0
157 180 0
155 177 0
159 181 0
153 175 0
154 176 0
152 173 0
161 183 0
157 180 0
156 178 0
155 178 0
149 171 0
158 179 0
158 181 0
151 174 0
137 158 0
152 173 0
150 170 0
148 169 0
148 170 0
154 174 0
153 174 0
154 176 0
154 176 0
144 165 0
146 166 0
145 166 0
151 172 0
143 163 0
140 161 0
144 165 0
148 167 0
150 171 0
137 159 0
142 163 0
153 173 0
145 166 0
149 169 0
144 165 0
146 166 0
144 165 0
145 164 0
144 164 0
148 169 0
141 160 0
146 166 0
147 167 0
147 167 0
137 156 0
146 167 0
141 159 0
139 157 0
146 164 0
135 155 0
145 164 0
131 149 0
142 162 0
145 163 0
141 162 0
144 164 0
149 169 0
142 160 0
141 158 0
145 162 0
144 163 0
143 161 0
133 150 0
133 152 0
143 160 0
136 153 0
131 148 0
128 144 0
138 155 0
130 146 0
127 145 0
133 150 0
141 159 0
134 150 0
133 150 0
131 148 0
136 154 0
131 147 0
131 147 0
124 139 0
129 144 0
140 153 0
129 144 0
124 140 0
127 143 0
125 140 0
129 144 0
131 146 0
124 137 0
127 141 0
132 147 0
137 152 0
122 138 0
134 146 0
125 137 0
119 133 0
121 134 0
114 128 0
125 138 0
111 120 11
87 83 0
98 95 14
103 100 21
103 99 25
104 102 24
112 110 23
122 118 22
108 105 26
121 117 37
121 118 26
128 124 32
127 123 19
129 125 25
127 123 19
130 126 22
142 139 26
138 135 28
122 118 16
136 131 30
136 132 22
140 136 26
139 134 28
136 131 30
142 139 28
144 140 19
141 137 25
143 138 28
145 141 34
147 143 32
146 142 28
145 141 28
143 140 16
148 143 30
149 144 32
143 139 22
146 141 32
146 142 25
150 146 30
145 141 19
147 142 34
150 146 32
152 146 41
146 141 25
144 141 22
153 148 37
153 147 36
151 147 28
156 151 34
153 148 28
152 147 36
150 146 25
150 146 22
152 148 19
152 149 41
148 143 25
154 148 28
147 142 22
151 147 25
151 147 25
156 150 37
154 149 25
154 149 28
149 145 28
152 148 25
149 145 19
151 146 32
150 146 28
153 150 25
150 145 22
150 145 34
153 149 34
150 147 25
157 153 37
148 145 30
154 149 37
148 144 32
148 142 25
156 151 30
151 146 25
155 150 34
154 149 32
149 144 36
151 146 28
151 147 36
153 148 32
155 151 32
151 146 28
154 149 22
150 146 30
149 144 30
151 146 28
147 144 22
149 144 32
151 145 37
149 144 37
150 146 22
151 146 30
153 148 32
147 143 16
153 149 32
147 144 28
145 141 34
150 145 36
147 143 19
148 143 25
155 149 30
145 141 16
145 141 32
144 140 25
148 142 37
146 142 25
145 140 32
147 142 34
145 140 32
151 146 32
145 140 25
145 141 25
146 141 37
142 137 25
143 138 28
140 135 19
147 142 30
136 131 25
136 131 28
130 127 25
133 129 19
132 128 32
135 130 22
127 123 22
119 115 11
127 122 28
129 122 34
130 126 22
129 124 32
118 114 28
135 140 19
161 176 0
165 182 0
168 185 0
167 184 0
167 186 0
166 184 0
162 180 0
166 184 0
163 179 0
169 189 0
166 185 0
167 184 0
169 188 0
164 183 0
166 185 0
169 187 0
167 186 0
168 186 0
169 187 0
172 191 0
167 185 0
169 188 0
165 182 0
169 187 0
169 187 0
169 188 0
168 188 0
173 193 0
168 187 0
169 188 0
170 190 0
165 184 0
167 186 0
168 188 0
170 190 0
166 185 0
172 192 0
172 196 0
169 193 0
169 193 0
172 195 0
173 196 0
168 190 0
173 196 0
173 195 0
170 192 0
168 191 0
171 194 0
168 190 0
172 195 0
170 194 0
170 192 0
173 195 0
168 191 0
172 196 0
170 193 0
171 194 0
171 193 0
168 192 0
170 194 0
173 196 0
171 194 0
170 193 0
168 190 0
172 195 0
169 191 0
167 190 0
171 193 0
168 191 0
169 192 0
168 192 0
168 191 0
170 193 0
168 191 0
168 191 0
170 193 0
168 192 0
170 193 0
167 190 0
169 192 0
170 192 0
166 190 0
167 190 0
170 192 0
168 191 0
170 193 0
164 187 0
169 192 0
167 190 0
170 193 0
169 192 0
165 188 0
170 193 0
167 189 0
169 192 0
167 190 0
166 190 0
166 190 0
168 191 0
167 190 0
157 179 0
163 186 0
163 186 0
165 188 0
169 192 0
167 191 0
166 189 0
166 190 0
168 191 0
166 188 0
167 190 0
164 187 0
166 189 0
164 187 0
169 193 0
165 188 0
167 190 0
169 191 0
163 185 0
163 185 0
164 188 0
164 188 0
167 188 0
163 187 0
167 191 0
168 191 0
165 188 0
163 186 0
166 189 0
166 189 0
167 190 0
157 180 0
165 188 0
162 184 0
158 181 0
164 186 0
158 179 0
156 178 0
162 185 0
164 187 0
162 183 0
161 183 0
161 184 0
158 179 0
158 181 0
161 183 0
160 183 0
161 183 0
160 182 0
161 183 0
159 180 0
161 183 0
161 183 0
153 175 0
159 182 0
157 178 0
159 181 0
152 175 0
159 181 0
160 182 0
156 179 0
156 178 0
159 182 0
157 179 0
156 178 0
154 176 0
154 176 0
153 173 0
153 175 0
154 176 0
157 179 0
151 173 0
148 169 0
150 170 0
148 169 0
158 179 0
149 172 0
144 164 0
152 173 0
152 173 0
143 165 0
158 180 0
149 169 0
153 175 0
153 172 0
144 165 0
141 162 0
148 168 0
147 168 0
150 171 0
149 169 0
150 171 0
147 167 0
143 163 0
151 172 0
147 169 0
147 168 0
150 171 0
142 160 0
146 167 0
139 159 0
138 157 0
157 179 0
151 168 0
147 166 0
138 158 0
138 156 0
141 159 0
143 161 0
142 161 0
149 169 0
143 163 0
129 149 0
131 149 0
143 162 0
141 161 0
142 160 0
137 156 0
133 154 0
142 160 0
130 147 0
141 159 0
135 153 0
136 154 0
130 148 0
146 162 0
146 165 0
138 157 0
134 152 0
137 153 0
138 157 0
131 149 0
135 153 0
141 157 0
137 155 0
135 153 0
134 150 0
140 157 0
130 144 0
137 153 0
128 145 0
134 152 0
130 146 0
123 137 0
136 152 0
123 137 0
125 143 0
137 154 0
130 146 0
127 141 0
120 133 0
137 153 0
134 151 0
130 144 0
131 146 0
134 147 0
127 143 0
133 145 0
138 153 0
132 148 0
119 133 0
126 139 0
119 130 0
118 128 0
88 86 3
86 82 16
96 93 0
104 101 20
110 108 19
105 104 16
121 119 24
116 114 25
121 117 25
126 123 14
134 129 31
123 120 16
122 117 29
123 120 22
128 125 21
129 126 22
129 125 28
142 137 32
142 138 30
134 130 19
139 135 31
139 134 16
142 139 34
140 137 28
142 138 28
144 140 30
147 143 28
148 141 37
147 143 19
146 142 30
148 143 32
143 138 25
148 143 25
149 144 32
148 144 30
147 143 32
144 139 28
150 146 36
143 139 32
151 147 41
148 143 25
149 143 36
146 142 19
151 146 41
151 146 37
150 144 28
154 149 34
154 150 39
147 143 34
151 146 25
152 148 22
152 147 32
153 149 34
154 150 28
154 149 25
151 145 28
147 142 19
153 148 37
147 142 25
151 146 19
152 147 37
150 145 16
152 147 32
151 146 32
150 146 28
152 147 32
153 149 32
151 147 28
148 145 30
152 149 28
151 147 25
155 150 36
150 144 22
149 145 22
155 149 34
155 149 36
150 145 30
151 145 34
150 144 28
149 144 28
153 147 30
155 150 22
149 145 19
150 145 25
153 147 32
150 146 32
145 142 32
152 148 28
153 148 28
153 149 28
154 150 32
153 148 39
151 146 28
149 145 28
148 144 39
150 146 28
151 146 37
156 151 36
146 141 22
152 147 41
148 144 28
143 138 32
150 145 28
143 138 25
150 145 30
152 147 34
152 146 28
145 141 22
146 142 32
145 139 30
146 139 28
143 138 25
144 139 28
144 139 32
140 134 19
146 142 32
144 139 30
140 136 25
142 138 32
139 135 32
144 140 32
141 136 32
140 137 22
147 141 34
141 136 30
136 132 22
134 128 30
135 131 28
136 132 22
123 119 16
123 119 19
132 127 28
123 119 28
126 121 34
119 115 19
145 154 16
164 181 0
166 183 0
160 174 0
165 182 0
163 177 0
164 181 0
162 178 0
168 186 0
169 187 0
164 184 0
164 180 0
167 184 0
167 183 0
169 186 0
167 185 0
167 186 0
164 184 0
171 187 0
168 186 0
170 187 0
166 185 0
171 190 0
171 192 0
170 189 0
166 186 0
168 188 0
169 188 0
170 188 0
163 182 0
172 191 0
168 186 0
168 188 0
168 187 0
167 187 0
167 187 0
169 189 0
167 186 0
166 190 0
172 196 0
170 193 0
173 196 0
172 195 0
168 191 0
168 191 0
173 195 0
169 193 0
169 192 0
172 196 0
171 194 0
169 193 0
170 193 0
170 193 0
170 194 0
167 191 0
170 193 0
168 191 0
170 194 0
168 191 0
169 191 0
170 193 0
170 194 0
171 194 0
167 191 0
170 193 0
168 191 0
169 192 0
169 193 0
167 190 0
171 194 0
170 193 0
171 193 0
171 193 0
169 191 0
168 192 0
167 190 0
170 192 0
169 192 0
167 189 0
165 188 0
169 192 0
166 190 0
170 192 0
166 189 0
168 192 0
170 194 0
170 193 0
168 191 0
168 190 0
166 190 0
167 189 0
169 192 0
171 194 0
167 190 0
169 193 0
166 190 0
169 192 0
168 192 0
167 190 0
165 188 0
170 193 0
169 191 0
166 188 0
167 189 0
166 189 0
166 189 0
167 189 0
164 188 0
166 189 0
164 188 0
167 190 0
167 189 0
166 190 0
162 185 0
162 185 0
165 187 0
170 192 0
165 188 0
166 190 0
163 185 0
162 185 0
163 185 0
161 184 0
162 185 0
165 187 0
165 188 0
157 179 0
163 185 0
158 179 0
163 185 0
166 189 0
164 187 0
158 180 0
165 187 0
159 181 0
158 181 0
163 186 0
160 181 0
161 182 0
156 178 0
161 183 0
153 174 0
159 182 0
162 184 0
161 184 0
157 181 0
158 180 0
166 187 0
162 185 0
157 180 0
163 185 0
158 180 0
155 176 0
160 181 0
168 190 0
157 178 0
153 176 0
158 180 0
149 172 0
155 177 0
154 176 0
161 184 0
152 174 0
157 178 0
158 181 0
151 173 0
152 173 0
147 169 0
152 174 0
162 183 0
154 176 0
149 171 0
161 182 0
150 172 0
159 182 0
154 175 0
152 174 0
147 169 0
150 171 0
144 164 0
155 176 0
160 182 0
150 171 0
150 171 0
152 173 0
155 176 0
147 168 0
148 168 0
151 172 0
154 174 0
152 173 0
155 176 0
151 173 0
148 168 0
144 163 0
146 167 0
147 167 0
143 163 0
148 166 0
147 167 0
144 165 0
144 163 0
144 164 0
151 172 0
142 161 0
148 168 0
139 156 0
147 168 0
140 161 0
134 151 0
144 163 0
139 159 0
143 162 0
142 161 0
139 157 0
150 169 0
139 159 0
144 163 0
144 163 0
143 161 0
144 164 0
141 159 0
128 146 0
146 164 0
134 151 0
128 146 0
141 157 0
144 162 0
139 157 0
135 153 0
138 157 0
136 154 0
139 158 0
139 156 0
141 158 0
125 142 0
134 150 0
133 150 0
133 147 0
134 150 0
139 156 0
133 151 0
137 155 0
136 152 0
133 150 0
131 147 0
130 145 0
141 158 0
127 140 0
131 145 0
131 146 0
134 150 0
133 150 0
121 135 0
131 146 0
131 145 0
127 141 0
122 137 0
124 138 0
133 147 0
140 156 0
125 135 0
121 130 0
135 148 0
111 120 0
95 93 8
101 97 0
102 101 16
109 107 14
95 93 11
109 106 24
120 117 18
121 119 34
114 110 24
122 118 19
121 119 21
127 122 25
135 131 24
126 123 19
126 122 22
134 129 32
138 133 37
135 130 34
133 129 24
130 126 22
129 126 25
134 129 30
140 135 32
136 132 25
145 141 30
143 139 25
139 133 28
147 143 25
138 133 28
145 139 39
148 143 11
144 140 22
150 146 32
146 142 36
148 144 25
148 142 32
147 143 22
146 142 22
144 140 28
149 144 36
149 144 36
147 142 22
150 145 34
147 143 19
151 147 32
146 143 19
153 148 34
147 143 22
155 151 37
149 145 34
147 144 25
146 142 25
151 146 30
146 143 16
153 148 36
153 147 30
153 148 34
152 149 30
147 142 19
148 144 25
151 147 36
152 148 28
156 151 32
149 144 30
158 153 37
157 153 32
152 147 34
151 147 32
152 146 34
150 145 28
153 148 36
152 147 36
153 149 22
148 143 25
154 149 41
151 146 28
154 149 30
150 145 28
150 144 34
152 147 37
151 146 36
157 152 34
147 142 34
152 148 30
151 146 32
148 145 28
149 145 30
150 146 25
150 145 34
156 151 34
153 148 32
150 145 32
152 147 25
153 148 32
148 143 28
151 147 25
152 147 34
152 148 22
147 143 28
151 146 32
151 147 25
150 146 28
147 142 28
148 144 25
146 141 30
149 144 32
149 143 28
148 143 30
148 144 34
146 142 25
147 143 22
139 135 25
143 139 28
146 140 19
147 142 34
138 132 19
143 139 34
140 136 34
145 140 28
142 137 28
145 141 34
141 138 28
140 135 30
150 144 34
144 138 32
132 129 11
133 127 28
142 137 37
133 128 19
129 124 28
122 118 25
118 115 25
119 115 19
124 119 28
121 117 25
154 166 11
169 185 0
167 185 0
169 185 0
167 185 0
164 181 0
162 178 0
166 185 0
169 186 0
170 189 0
167 187 0
167 184 0
165 182 0
166 185 0
168 185 0
170 190 0
168 185 0
170 186 0
169 187 0
166 183 0
168 187 0
167 184 0
169 189 0
168 188 0
168 187 0
166 185 0
169 189 0
170 189 0
170 191 0
169 189 0
168 187 0
166 186 0
168 189 0
169 188 0
165 184 0
169 190 0
167 187 0
170 190 0
171 194 0
170 193 0
173 195 0
169 193 0
172 194 0
171 195 0
168 192 0
170 194 0
169 191 0
171 194 0
170 194 0
167 190 0
171 194 0
171 195 0
170 194 0
169 192 0
170 193 0
168 192 0
171 194 0
170 193 0
169 193 0
169 192 0
171 194 0
167 190 0
169 192 0
170 193 0
170 193 0
169 193 0
170 193 0
170 193 0
168 191 0
170 193 0
169 193 0
170 193 0
172 195 0
170 193 0
171 193 0
170 193 0
167 190 0
167 189 0
168 192 0
168 191 0
167 191 0
168 191 0
170 194 0
166 189 0
169 192 0
167 190 0
168 191 0
167 190 0
169 192 0
170 193 0
169 192 0
167 190 0
167 190 0
163 186 0
165 188 0
169 192 0
169 191 0
166 189 0
163 186 0
168 190 0
167 190 0
166 190 0
166 188 0
164 187 0
170 193 0
161 185 0
167 189 0
166 190 0
168 191 0
167 189 0
168 190 0
165 188 0
170 192 0
166 188 0
164 187 0
166 187 0
167 190 0
163 186 0
160 181 0
164 186 0
165 188 0
165 188 0
163 185 0
165 189 0
163 186 0
167 190 0
165 188 0
164 188 0
158 180 0
162 185 0
168 190 0
164 186 0
161 184 0
160 182 0
160 183 0
163 185 0
165 188 0
164 187 0
160 182 0
159 181 0
160 183 0
164 188 0
158 180 0
160 183 0
155 177 0
159 181 0
157 178 0
157 179 0
154 177 0
161 183 0
154 176 0
160 181 0
155 177 0
161 184 0
163 185 0
150 172 0
158 180 0
160 182 0
155 177 0
152 175 0
160 183 0
159 182 0
151 173 0
157 178 0
158 180 0
159 182 0
152 174 0
159 181 0
156 178 0
149 171 0
150 172 0
154 175 0
153 174 0
151 173 0
152 174 0
155 176 0
157 178 0
158 180 0
146 168 0
153 173 0
151 172 0
144 164 0
151 172 0
145 166 0
159 181 0
157 178 0
152 173 0
154 175 0
149 170 0
154 175 0
151 172 0
158 179 0
149 170 0
148 170 0
153 173 0
144 164 0
149 169 0
150 171 0
153 173 0
148 169 0
147 167 0
146 166 0
138 158 0
141 160 0
142 159 0
145 165 0
144 165 0
143 161 0
149 169 0
145 162 0
150 168 0
148 167 0
142 161 0
138 157 0
143 163 0
154 175 0
127 146 0
140 159 0
145 165 0
144 163 0
140 158 0
143 163 0
147 167 0
143 162 0
144 162 0
138 155 0
141 160 0
138 154 0
146 162 0
136 154 0
131 148 0
130 146 0
140 157 0
135 152 0
141 160 0
143 162 0
139 156 0
144 161 0
127 143 0
131 147 0
141 160 0
138 154 0
139 157 0
142 156 0
132 148 0
140 156 0
133 149 0
140 155 0
127 144 0
142 159 0
136 151 0
139 153 0
128 144 0
136 152 0
132 146 0
129 144 0
128 142 0
129 144 0
128 142 0
137 151 0
130 143 0
130 144 0
119 132 0
132 145 0
101 109 0
84 80 0
78 77 18
91 89 16
108 104 25
102 98 22
121 117 25
120 117 25
118 113 25
121 118 18
126 122 30
126 122 29
125 121 16
130 125 22
123 118 24
131 127 22
132 128 34
134 130 22
137 132 34
135 130 16
139 135 25
135 131 37
136 131 25
142 138 36
144 139 30
140 136 34
144 139 28
146 140 34
142 137 32
144 140 32
139 136 28
150 145 30
137 132 22
144 140 25
141 137 30
142 139 16
140 137 22
140 135 30
149 143 30
150 146 28
148 144 25
149 145 32
153 149 30
150 146 30
145 140 19
145 140 30
152 147 32
151 146 32
144 140 22
145 142 0
153 148 30
147 144 28
150 145 30
151 145 28
155 150 32
150 145 32
154 149 28
150 145 30
153 148 25
148 144 28
153 149 36
147 144 22
149 144 28
149 146 22
150 147 19
150 146 32
149 145 34
153 148 30
152 147 30
150 145 28
151 147 28
152 148 25
150 144 37
152 148 28
148 144 16
153 147 41
149 145 25
152 146 36
152 147 30
155 151 30
150 145 32
152 146 36
155 150 36
147 142 22
153 149 36
150 146 25
156 150 42
152 145 16
151 145 28
150 146 30
151 146 36
150 145 30
152 146 39
146 142 28
152 146 34
148 143 32
147 142 22
154 148 42
145 141 30
153 150 28
151 146 30
149 144 28
150 145 34
147 142 34
149 144 32
148 143 30
151 146 19
148 143 34
147 142 19
147 141 30
150 145 34
144 139 30
148 143 25
141 136 32
150 145 34
147 144 25
143 138 28
141 136 22
144 140 32
140 136 28
141 136 28
141 136 25
136 131 36
139 134 25
134 130 22
137 133 25
136 131 36
138 134 32
129 125 19
122 118 28
130 127 0
138 133 37
119 115 11
124 119 30
122 117 25
122 117 22
160 177 0
162 179 0
164 181 0
162 180 0
161 178 0
167 183 0
168 187 0
167 185 0
164 181 0
167 184 0
169 185 0
167 185 0
168 186 0
166 185 0
167 184 0
166 184 0
168 188 0
168 188 0
169 188 0
169 187 0
167 187 0
167 187 0
168 185 0
166 187 0
168 186 0
168 187 0
167 187 0
166 185 0
169 187 0
172 193 0
172 192 0
169 189 0
166 186 0
168 187 0
169 189 0
169 189 0
171 191 0
167 186 0
168 192 0
170 192 0
171 195 0
167 191 0
171 194 0
169 193 0
169 192 0
171 194 0
168 192 0
169 192 0
166 190 0
170 194 0
174 197 0
173 195 0
170 194 0
170 192 0
170 193 0
172 195 0
170 193 0
168 192 0
171 194 0
171 194 0
169 192 0
172 195 0
168 191 0
167 191 0
169 192 0
168 191 0
170 193 0
169 193 0
165 188 0
174 197 0
166 190 0
167 190 0
171 195 0
168 191 0
171 194 0
169 193 0
165 189 0
166 189 0
166 190 0
166 189 0
168 191 0
171 194 0
167 189 0
169 192 0
165 189 0
169 192 0
169 192 0
168 191 0
169 192 0
170 193 0
166 190 0
165 188 0
169 191 0
165 188 0
166 189 0
169 192 0
166 189 0
166 189 0
169 192 0
159 183 0
169 192 0
168 191 0
171 195 0
164 187 0
169 192 0
165 187 0
164 187 0
168 191 0
160 181 0
167 190 0
170 192 0
163 184 0
167 191 0
162 185 0
163 187 0
161 182 0
165 188 0
167 189 0
166 189 0
167 191 0
162 184 0
164 186 0
160 183 0
163 186 0
164 185 0
167 189 0
163 185 0
165 188 0
163 185 0
163 185 0
160 183 0
166 189 0
165 188 0
163 186 0
160 182 0
162 184 0
163 185 0
163 185 0
162 183 0
160 183 0
158 179 0
159 181 0
154 175 0
158 181 0
160 183 0
160 182 0
163 186 0
159 180 0
158 178 0
165 187 0
157 180 0
164 187 0
153 175 0
164 187 0
162 184 0
161 183 0
162 184 0
157 180 0
158 181 0
157 179 0
161 184 0
161 182 0
157 178 0
158 179 0
159 181 0
160 183 0
153 174 0
159 183 0
156 176 0
162 183 0
154 174 0
159 182 0
159 181 0
157 179 0
154 176 0
154 176 0
160 182 0
150 171 0
156 178 0
155 177 0
153 173 0
148 171 0
155 176 0
149 170 0
149 170 0
151 173 0
152 173 0
152 174 0
156 176 0
156 177 0
145 166 0
147 168 0
148 168 0
151 171 0
142 163 0
147 168 0
151 172 0
148 168 0
146 166 0
146 167 0
150 171 0
155 175 0
138 157 0
144 165 0
144 163 0
147 166 0
149 168 0
143 163 0
142 162 0
141 162 0
140 158 0
147 167 0
147 167 0
147 166 0
138 156 0
139 157 0
142 160 0
150 169 0
151 169 0
138 157 0
138 157 0
146 165 0
148 166 0
142 160 0
144 163 0
140 158 0
130 148 0
145 164 0
142 159 0
146 163 0
140 160 0
137 154 0
138 155 0
140 156 0
125 141 0
146 164 0
131 148 0
123 140 0
130 147 0
139 157 0
149 167 0
142 158 0
141 157 0
140 157 0
142 159 0
132 149 0
136 151 0
126 142 0
134 148 0
137 153 0
133 149 0
137 148 0
135 151 0
133 150 0
127 143 0
138 152 0
135 150 0
125 140 0
136 150 0
131 146 0
126 139 0
130 145 0
144 158 0
125 134 0
110 115 8
92 91 8
106 103 22
86 86 19
98 96 16
107 103 28
106 104 14
121 118 22
105 103 25
122 118 16
125 122 28
124 120 28
127 123 22
126 121 32
131 127 22
137 133 28
138 133 25
132 128 26
140 136 34
136 132 28
140 135 30
132 129 19
129 126 32
140 136 34
144 139 22
137 133 32
140 136 32
145 141 32
143 139 34
150 146 30
143 139 22
147 144 30
147 143 28
146 142 28
144 140 39
144 139 25
150 144 34
147 141 32
150 145 37
148 143 28
145 141 22
148 144 25
151 146 32
149 145 28
154 148 37
146 141 32
150 144 32
152 147 32
153 149 32
154 150 30
149 143 34
153 149 28
146 143 22
150 146 34
154 148 32
147 143 30
149 144 25
151 146 36
148 143 32
148 143 30
152 149 30
149 145 19
150 144 30
156 151 32
150 146 34
149 145 34
149 144 34
153 149 28
150 146 30
148 144 30
150 145 28
153 148 28
149 146 16
153 147 34
154 148 32
157 152 28
152 147 32
148 145 19
150 146 30
155 149 25
153 148 32
148 143 28
155 150 28
150 144 34
146 142 22
147 142 28
151 147 19
151 146 30
158 152 36
148 143 22
151 147 32
149 146 16
153 149 30
154 148 30
149 144 30
153 148 32
151 146 25
151 147 30
146 140 30
155 150 41
149 143 36
145 141 25
148 143 30
148 143 32
151 146 36
145 141 22
144 139 36
147 142 36
140 136 28
148 145 30
143 138 22
147 142 28
150 144 30
142 138 22
141 137 22
145 141 36
138 134 25
144 138 37
147 143 30
140 136 19
141 136 22
140 135 32
145 139 37
137 131 25
138 134 28
144 139 37
136 131 22
136 131 25
129 124 25
129 124 22
134 130 30
127 122 22
128 124 19
121 116 30
126 121 16
127 128 28
163 177 0
162 175 0
166 184 0
163 178 0
162 178 0
165 183 0
163 178 0
166 182 0
169 187 0
165 181 0
168 186 0
167 185 0
166 185 0
166 184 0
168 186 0
168 187 0
166 183 0
168 186 0
167 186 0
171 189 0
168 187 0
167 187 0
168 187 0
170 189 0
168 189 0
167 186 0
169 187 0
168 188 0
168 188 0
169 189 0
169 190 0
166 184 0
169 188 0
170 189 0
172 191 0
171 191 0
172 192 0
169 188 0
174 197 0
173 196 0
171 195 0
168 190 0
171 195 0
171 195 0
170 193 0
171 195 0
171 194 0
171 195 0
170 194 0
168 191 0
169 193 0
167 189 0
170 193 0
169 192 0
173 197 0
171 194 0
168 191 0
166 190 0
171 195 0
171 194 0
171 194 0
168 191 0
167 190 0
171 194 0
170 193 0
169 193 0
173 195 0
168 191 0
170 193 0
169 192 0
170 193 0
170 193 0
170 193 0
168 191 0
171 194 0
171 194 0
169 192 0
169 192 0
167 191 0
168 190 0
170 192 0
165 189 0
165 188 0
172 195 0
169 192 0
167 190 0
165 188 0
168 190 0
165 188 0
166 189 0
166 190 0
170 193 0
168 192 0
170 194 0
165 189 0
168 192 0
166 189 0
168 191 0
166 190 0
170 193 0
167 189 0
169 193 0
166 189 0
168 191 0
171 193 0
168 191 0
166 189 0
165 189 0
166 189 0
169 192 0
160 183 0
164 187 0
167 189 0
164 186 0
164 186 0
164 186 0
163 185 0
165 188 0
169 191 0
162 186 0
169 192 0
167 190 0
165 188 0
166 189 0
167 190 0
165 189 0
162 184 0
164 187 0
162 184 0
163 186 0
168 189 0
163 186 0
162 186 0
161 184 0
157 179 0
163 185 0
168 191 0
157 179 0
162 184 0
156 178 0
161 184 0
163 186 0
163 185 0
162 184 0
161 183 0
163 186 0
155 178 0
159 182 0
160 182 0
156 178 0
160 182 0
157 179 0
156 178 0
159 181 0
152 173 0
156 177 0
155 176 0
161 183 0
144 166 0
161 182 0
156 179 0
156 177 0
156 178 0
163 187 0
156 178 0
148 168 0
152 173 0
154 175 0
153 175 0
155 177 0
155 177 0
155 176 0
148 171 0
154 177 0
158 180 0
149 171 0
153 172 0
147 167 0
158 180 0
149 169 0
153 174 0
149 171 0
155 177 0
154 176 0
146 168 0
157 179 0
150 171 0
147 169 0
156 176 0
157 179 0
153 175 0
155 177 0
153 175 0
150 172 0
137 157 0
146 166 0
148 168 0
155 176 0
151 171 0
140 161 0
153 174 0
140 160 0
149 171 0
153 173 0
145 165 0
149 169 0
155 175 0
143 164 0
154 173 0
141 161 0
145 165 0
147 167 0
143 162 0
140 160 0
141 159 0
143 163 0
143 163 0
142 162 0
142 161 0
134 153 0
143 161 0
143 162 0
141 160 0
143 161 0
136 153 0
143 161 0
138 156 0
147 167 0
139 159 0
136 156 0
132 148 0
138 158 0
144 164 0
144 160 0
142 161 0
136 153 0
150 167 0
137 154 0
150 167 0
135 153 0
136 152 0
143 161 0
142 158 0
130 146 0
143 158 0
137 152 0
133 147 0
136 153 0
140 155 0
137 155 0
137 151 0
142 158 0
133 149 0
128 142 0
133 149 0
130 144 0
135 148 0
134 149 0
129 140 0
128 141 0
129 140 0
133 144 0
136 151 0
128 139 0
107 114 0
98 93 22
99 96 15
105 102 19
102 98 19
108 105 27
118 116 22
114 110 26
126 122 28
128 124 25
126 123 33
123 119 11
119 115 16
126 121 30
137 130 25
130 127 29
135 131 24
130 126 19
137 133 25
130 127 28
136 133 25
135 131 25
140 136 25
137 133 19
142 138 22
137 134 16
149 145 34
141 137 22
147 142 19
143 136 34
142 137 30
140 135 19
140 137 28
148 144 34
148 144 30
146 143 22
144 140 34
141 138 25
146 141 22
143 139 36
147 142 22
149 144 30
153 149 30
148 143 36
150 147 28
150 145 32
147 141 32
149 144 28
145 141 19
149 144 25
149 144 32
150 145 22
149 144 25
148 144 30
149 145 25
153 148 34
150 144 28
153 148 28
151 145 34
153 147 28
154 148 28
147 142 16
153 149 25
153 148 34
152 147 30
152 147 34
151 147 32
153 148 37
154 149 34
150 146 32
153 148 22
154 150 32
151 147 22
155 149 34
150 145 30
153 148 34
152 147 28
153 148 30
152 149 22
150 146 25
151 146 32
148 143 28
149 145 28
150 147 30
148 144 22
152 148 34
151 146 36
149 145 22
148 144 19
149 145 30
150 146 32
148 142 30
150 145 28
154 149 36
151 146 28
148 143 28
152 147 28
152 148 25
154 149 37
148 143 28
150 144 37
147 143 28
147 142 22
151 146 30
152 146 28
148 143 34
145 139 36
144 140 30
150 145 28
148 143 32
140 135 22
147 143 25
146 141 25
148 144 28
146 141 28
153 147 39
147 143 16
141 137 16
141 136 25
143 138 37
146 140 25
146 140 32
145 139 34
138 133 22
134 130 28
136 132 30
135 131 30
139 135 28
139 134 30
139 133 30
139 134 30
119 114 25
131 125 22
124 120 32
119 115 19
134 141 11
165 180 0
162 180 0
169 186 0
164 179 0
161 176 0
165 184 0
166 181 0
162 179 0
167 182 0
163 180 0
168 186 0
167 185 0
166 182 0
168 186 0
169 186 0
167 184 0
168 185 0
168 187 0
165 183 0
169 188 0
171 191 0
167 187 0
170 189 0
165 185 0
169 188 0
169 189 0
171 192 0
169 185 0
170 191 0
167 186 0
169 188 0
171 190 0
171 192 0
169 190 0
171 191 0
167 186 0
171 191 0
168 189 0
171 193 0
172 195 0
170 194 0
173 195 0
169 191 0
172 195 0
171 194 0
172 195 0
170 193 0
168 190 0
170 194 0
173 196 0
171 194 0
167 191 0
167 190 0
171 194 0
168 192 0
171 194 0
171 194 0
169 192 0
172 194 0
169 192 0
170 192 0
171 195 0
167 191 0
170 193 0
170 193 0
172 195 0
168 190 0
168 191 0
172 195 0
170 193 0
173 196 0
167 191 0
166 189 0
171 193 0
167 189 0
171 193 0
166 188 0
167 190 0
171 194 0
169 191 0
169 191 0
172 194 0
170 192 0
167 190 0
166 190 0
172 196 0
167 190 0
171 194 0
171 193 0
171 193 0
167 190 0
166 189 0
169 192 0
169 191 0
167 189 0
167 190 0
168 191 0
167 189 0
167 190 0
167 189 0
171 194 0
166 188 0
170 194 0
168 191 0
165 188 0
164 188 0
166 189 0
165 188 0
166 189 0
163 186 0
164 186 0
167 189 0
164 187 0
164 186 0
168 190 0
164 186 0
162 184 0
160 182 0
160 182 0
162 185 0
167 188 0
163 185 0
165 188 0
168 190 0
160 183 0
165 187 0
165 188 0
164 187 0
163 185 0
161 184 0
159 181 0
158 180 0
163 187 0
159 181 0
163 186 0
163 185 0
156 179 0
163 185 0
155 178 0
161 184 0
160 183 0
162 184 0
165 187 0
159 181 0
159 181 0
160 182 0
162 185 0
163 186 0
161 183 0
155 176 0
161 182 0
163 184 0
162 184 0
165 188 0
159 182 0
156 177 0
157 179 0
156 178 0
157 178 0
160 182 0
161 183 0
160 183 0
158 179 0
152 174 0
158 180 0
157 179 0
154 177 0
160 182 0
158 181 0
150 171 0
149 170 0
150 172 0
150 173 0
158 180 0
151 174 0
148 169 0
149 170 0
154 177 0
158 180 0
153 173 0
146 167 0
160 182 0
151 172 0
151 171 0
152 174 0
152 173 0
150 170 0
148 169 0
156 178 0
154 176 0
149 169 0
143 164 0
142 163 0
149 171 0
150 169 0
147 165 0
136 156 0
151 171 0
150 170 0
147 167 0
146 167 0
144 165 0
149 170 0
145 165 0
148 165 0
150 171 0
146 167 0
143 164 0
145 165 0
144 164 0
143 161 0
146 165 0
148 167 0
153 173 0
143 162 0
153 172 0
149 168 0
133 152 0
144 163 0
149 168 0
154 174 0
146 162 0
149 167 0
136 154 0
143 161 0
150 168 0
143 162 0
142 158 0
137 154 0
137 155 0
144 162 0
145 162 0
143 162 0
145 161 0
138 156 0
139 156 0
135 151 0
135 152 0
145 161 0
143 158 0
140 155 0
144 161 0
138 155 0
137 155 0
140 157 0
141 156 0
137 152 0
140 155 0
135 150 0
131 146 0
131 147 0
141 155 0
142 157 0
141 157 0
136 147 0
140 155 0
127 139 0
133 147 0
137 152 0
132 147 0
127 138 0
127 142 0
134 148 0
126 137 0
102 109 0
94 90 8
105 102 11
104 101 17
109 105 28
112 109 23
116 111 16
120 115 28
116 112 25
110 107 16
116 112 18
123 119 16
127 122 24
120 116 34
131 127 19
133 130 25
128 123 30
134 130 30
128 124 25
135 131 30
130 126 22
140 137 30
142 139 25
140 136 19
139 135 28
141 136 16
142 138 25
141 135 32
141 137 32
147 142 36
144 139 34
142 137 30
146 142 19
146 141 30
145 140 25
147 143 34
147 144 25
147 143 22
147 143 22
144 140 22
151 146 25
145 142 22
148 143 25
144 139 32
147 143 32
143 139 28
144 139 30
152 146 34
149 144 36
146 141 25
150 145 32
155 149 36
150 145 25
152 147 28
153 147 34
149 144 25
155 149 39
151 146 30
152 146 34
148 143 25
153 148 34
151 147 25
146 142 25
150 146 25
151 147 28
152 147 22
149 144 32
154 149 36
154 150 32
151 146 30
153 148 39
152 146 32
151 148 28
150 145 28
149 145 16
146 141 16
150 145 30
151 147 22
148 144 19
149 144 16
152 148 30
149 145 22
151 145 25
151 147 22
153 148 25
152 147 22
154 148 28
154 148 25
148 144 25
148 143 22
150 146 25
151 146 34
152 146 22
149 145 22
149 144 28
154 149 37
146 142 25
145 142 11
149 145 28
153 148 30
145 142 25
151 147 36
155 148 25
152 146 25
150 146 28
145 140 19
149 145 30
143 139 19
146 143 19
143 138 22
145 139 34
148 142 30
149 145 25
139 135 32
147 143 25
141 136 30
144 139 30
142 137 28
146 142 25
145 140 39
147 142 37
145 140 25
143 136 22
142 137 32
132 128 34
140 135 25
141 136 32
139 134 25
134 129 28
132 129 28
127 123 16
125 120 28
117 112 25
128 123 28
118 112 22
156 168 16
166 180 0
164 181 0
166 184 0
165 183 0
160 177 0
167 185 0
168 184 0
168 186 0
167 184 0
167 184 0
167 184 0
168 187 0
167 184 0
169 186 0
165 183 0
163 179 0
166 185 0
167 187 0
165 182 0
167 186 0
163 182 0
170 187 0
160 178 0
167 187 0
165 185 0
166 186 0
169 189 0
168 186 0
169 187 0
170 190 0
165 183 0
170 189 0
167 188 0
169 188 0
167 186 0
169 190 0
168 188 0
164 184 0
172 196 0
168 191 0
172 194 0
170 193 0
168 191 0
173 196 0
170 193 0
170 193 0
168 191 0
170 194 0
168 191 0
174 196 0
167 190 0
170 193 0
171 194 0
168 191 0
170 193 0
171 195 0
167 190 0
170 193 0
169 192 0
167 190 0
171 194 0
167 190 0
171 194 0
169 192 0
167 191 0
170 193 0
172 195 0
171 194 0
171 193 0
167 191 0
169 192 0
163 186 0
169 191 0
169 193 0
166 190 0
169 192 0
167 191 0
169 191 0
171 194 0
172 195 0
168 191 0
169 192 0
166 189 0
165 188 0
170 193 0
168 192 0
169 191 0
170 193 0
166 189 0
166 189 0
170 194 0
167 190 0
165 188 0
169 192 0
168 190 0
167 190 0
167 190 0
168 191 0
166 189 0
162 184 0
170 192 0
168 191 0
168 190 0
167 190 0
164 186 0
168 190 0
168 191 0
165 188 0
165 189 0
169 192 0
166 190 0
164 187 0
164 189 0
163 185 0
166 189 0
166 188 0
171 194 0
167 190 0
161 184 0
164 187 0
164 188 0
158 181 0
164 187 0
168 190 0
163 186 0
164 186 0
159 182 0
167 189 0
161 183 0
163 185 0
161 183 0
161 183 0
164 186 0
167 189 0
164 187 0
161 184 0
165 188 0
162 184 0
162 184 0
164 187 0
159 181 0
162 184 0
164 187 0
163 185 0
165 187 0
155 178 0
160 182 0
164 186 0
161 183 0
161 184 0
158 180 0
160 182 0
160 182 0
157 180 0
162 184 0
153 174 0
160 182 0
160 182 0
158 180 0
157 179 0
160 182 0
161 183 0
156 179 0
161 183 0
160 182 0
159 181 0
152 175 0
159 179 0
156 177 0
154 175 0
159 180 0
151 173 0
153 175 0
154 175 0
154 175 0
161 182 0
151 172 0
153 174 0
159 181 0
159 181 0
152 173 0
152 173 0
153 173 0
147 167 0
150 172 0
158 179 0
152 174 0
155 178 0
148 169 0
158 180 0
156 177 0
152 173 0
144 163 0
154 174 0
152 173 0
149 169 0
153 174 0
153 175 0
150 172 0
153 173 0
144 163 0
146 166 0
153 174 0
146 165 0
144 163 0
151 172 0
145 165 0
156 176 0
157 179 0
142 161 0
150 169 0
153 173 0
145 164 0
150 170 0
143 161 0
144 162 0
143 163 0
143 162 0
149 168 0
150 167 0
146 167 0
143 163 0
140 158 0
143 162 0
139 159 0
141 159 0
148 166 0
141 158 0
139 157 0
132 150 0
150 169 0
149 165 0
149 168 0
143 160 0
133 147 0
137 155 0
139 157 0
144 163 0
146 162 0
142 160 0
127 143 0
138 152 0
143 158 0
142 160 0
140 157 0
138 155 0
142 160 0
144 160 0
139 157 0
146 161 0
136 152 0
142 157 0
143 158 0
133 148 0
139 154 0
136 151 0
129 145 0
142 158 0
134 149 0
126 141 0
133 147 0
128 139 0
130 143 0
128 140 0
115 118 0
89 86 14
96 92 13
113 109 26
95 91 18
101 98 19
106 104 16
120 116 22
115 111 28
118 115 22
126 123 18
133 129 32
132 127 25
130 126 31
137 133 36
130 124 29
134 130 25
133 129 28
129 127 26
140 136 30
130 125 28
139 134 32
144 140 25
137 132 30
149 145 41
143 139 22
136 131 28
146 142 28
134 130 16
145 138 37
141 135 25
145 141 30
143 138 32
148 143 32
143 139 22
151 146 25
141 138 25
148 144 19
146 142 22
147 142 25
145 141 22
149 144 30
143 139 19
143 139 11
149 145 19
142 138 32
148 143 36
151 145 22
151 146 25
153 149 22
151 147 19
147 142 28
153 148 28
150 144 34
155 149 34
148 143 25
150 145 32
150 145 30
156 151 30
144 140 19
149 144 16
150 146 32
146 141 32
155 150 34
150 145 19
151 147 32
149 144 22
153 147 32
157 151 32
152 147 30
152 146 28
153 148 34
150 144 32
150 145 37
153 148 34
147 143 11
152 148 28
150 145 28
154 148 36
157 151 36
153 146 25
153 148 32
147 143 25
153 148 34
149 144 25
150 146 28
153 148 41
152 147 22
151 147 22
148 144 25
149 145 19
155 149 36
152 147 28
151 147 30
148 143 25
149 144 30
148 144 19
151 145 28
147 141 30
152 146 25
146 142 30
146 141 32
151 146 19
152 147 36
151 147 25
144 140 32
146 141 34
145 142 36
146 141 25
148 144 30
144 139 22
145 139 36
144 140 22
147 142 36
143 138 28
142 137 30
142 137 37
146 140 28
140 135 34
145 141 30
146 141 36
141 136 25
138 134 30
137 133 25
141 135 28
128 124 16
130 125 28
132 127 25
129 124 30
127 121 22
136 131 28
123 119 28
132 127 30
117 111 16
104 101 22
155 170 16
166 181 0
167 183 0
165 177 0
164 180 0
166 184 0
165 182 0
161 179 0
164 181 0
168 186 0
165 181 0
167 185 0
165 183 0
169 186 0
169 187 0
167 186 0
163 181 0
162 180 0
166 186 0
169 188 0
166 184 0
167 185 0
165 185 0
167 185 0
173 193 0
168 187 0
169 189 0
169 190 0
169 189 0
168 186 0
165 186 0
169 188 0
165 182 0
167 187 0
168 186 0
168 187 0
169 190 0
169 187 0
167 187 0
171 194 0
170 192 0
171 195 0
170 194 0
169 192 0
171 193 0
170 194 0
167 191 0
172 195 0
172 194 0
171 194 0
166 189 0
168 191 0
171 194 0
172 195 0
168 192 0
171 194 0
168 190 0
172 195 0
168 191 0
170 194 0
172 195 0
167 190 0
167 191 0
167 192 0
168 192 0
169 194 0
168 191 0
170 193 0
170 193 0
167 190 0
172 194 0
169 193 0
171 195 0
168 192 0
167 190 0
170 194 0
168 190 0
170 193 0
168 190 0
167 190 0
169 192 0
168 192 0
167 191 0
168 190 0
170 193 0
169 192 0
169 192 0
167 190 0
171 194 0
170 192 0
167 189 0
165 188 0
163 186 0
168 191 0
167 189 0
167 191 0
167 188 0
167 190 0
167 190 0
171 193 0
167 190 0
168 191 0
165 188 0
162 185 0
171 193 0
165 188 0
165 188 0
165 188 0
166 189 0
170 193 0
168 191 0
171 194 0
161 183 0
161 183 0
162 184 0
164 187 0
169 191 0
163 185 0
167 189 0
167 189 0
165 187 0
166 189 0
164 186 0
166 188 0
164 187 0
159 182 0
163 186 0
164 186 0
161 183 0
165 188 0
163 186 0
163 186 0
157 180 0
162 184 0
159 181 0
155 178 0
161 182 0
161 185 0
165 187 0
164 187 0
156 178 0
159 181 0
161 183 0
160 183 0
157 180 0
158 180 0
163 185 0
160 183 0
157 179 0
158 181 0
165 188 0
158 181 0
159 182 0
157 180 0
160 182 0
163 185 0
160 183 0
161 183 0
158 180 0
161 184 0
156 178 0
161 182 0
151 173 0
160 183 0
154 177 0
156 177 0
163 186 0
154 175 0
152 174 0
163 185 0
162 183 0
156 177 0
159 181 0
157 178 0
150 172 0
162 184 0
155 176 0
153 175 0
153 175 0
151 172 0
152 171 0
154 175 0
152 172 0
159 180 0
157 179 0
158 178 0
155 176 0
156 178 0
151 173 0
149 171 0
150 171 0
150 172 0
151 171 0
151 172 0
148 169 0
150 171 0
152 174 0
145 163 0
148 169 0
145 165 0
143 164 0
148 170 0
147 169 0
145 164 0
151 172 0
143 163 0
144 162 0
147 167 0
148 167 0
147 166 0
152 172 0
155 175 0
154 174 0
146 165 0
159 179 0
150 168 0
148 167 0
148 166 0
151 170 0
148 167 0
141 160 0
152 173 0
152 171 0
143 162 0
137 154 0
150 170 0
145 163 0
141 160 0
143 161 0
140 156 0
139 157 0
144 160 0
147 165 0
150 166 0
142 159 0
150 170 0
139 157 0
139 155 0
141 157 0
147 164 0
145 162 0
142 159 0
138 155 0
138 156 0
142 160 0
141 159 0
142 159 0
134 151 0
141 158 0
141 156 0
131 146 0
137 151 0
142 157 0
132 147 0
132 149 0
134 151 0
133 147 0
137 150 0
133 145 0
128 142 0
134 147 0
129 141 0
138 151 0
132 144 0
126 137 0
114 122 0
95 91 0
102 98 14
88 86 14
96 94 14
118 114 14
109 108 21
116 112 22
116 112 16
126 122 24
125 122 22
121 116 28
120 117 16
127 123 16
129 125 21
129 127 14
131 125 26
138 135 30
127 123 30
133 127 30
142 138 32
131 128 16
139 134 32
133 128 28
138 134 28
136 133 19
144 140 19
140 135 28
141 137 32
142 138 28
144 140 25
147 142 32
148 142 37
147 142 32
144 140 30
150 145 36
140 135 30
145 140 25
143 138 32
148 143 34
145 141 32
148 144 22
145 141 28
145 141 22
142 138 28
150 145 32
150 144 30
152 148 30
145 140 22
153 148 34
155 150 30
149 144 28
144 139 28
151 145 30
153 149 30
148 144 28
149 144 22
150 145 34
148 144 32
147 143 25
153 148 32
152 147 37
152 146 39
152 148 22
149 144 30
150 146 25
151 145 34
147 142 19
151 146 28
154 148 30
148 143 34
148 143 22
151 148 28
148 144 22
148 143 28
151 147 22
150 145 28
149 145 30
155 151 37
152 148 28
152 147 28
150 145 25
150 144 19
149 145 22
151 145 36
147 143 16
148 144 19
151 145 25
155 149 32
149 143 30
152 148 32
149 146 11
147 143 25
149 145 34
149 145 30
148 143 30
154 149 30
146 141 30
145 140 22
147 143 19
149 143 28
141 138 22
153 146 34
147 142 30
147 141 30
151 147 36
149 143 30
147 142 34
145 141 25
146 142 37
147 142 32
141 137 32
143 139 25
144 140 22
139 134 28
141 137 28
150 144 25
148 145 30
140 135 30
144 140 28
140 135 28
144 139 28
143 139 25
126 122 22
147 143 30
135 130 30
132 127 28
140 135 32
133 128 25
129 124 34
129 126 19
129 125 30
131 126 25
121 116 37
121 117 22
168 186 0
163 180 0
165 182 0
161 179 0
164 180 0
164 180 0
164 181 0
164 181 0
164 181 0
165 183 0
165 181 0
165 181 0
167 184 0
168 186 0
170 191 0
165 180 0
167 186 0
165 183 0
168 186 0
170 190 0
165 184 0
168 186 0
171 188 0
169 186 0
167 187 0
170 188 0
171 189 0
170 189 0
166 185 0
170 187 0
165 184 0
168 186 0
168 187 0
165 185 0
169 187 0
164 183 0
168 185 0
165 184 0
171 190 0
171 194 0
171 193 0
171 195 0
172 196 0
170 193 0
170 193 0
170 193 0
169 192 0
169 193 0
169 192 0
168 191 0
171 194 0
170 193 0
168 192 0
170 192 0
173 195 0
171 196 0
172 194 0
170 192 0
170 194 0
170 193 0
171 194 0
169 191 0
169 192 0
170 193 0
167 190 0
171 194 0
172 196 0
169 192 0
165 189 0
170 193 0
170 192 0
167 189 0
168 191 0
170 193 0
169 193 0
170 193 0
172 195 0
167 190 0
171 194 0
169 192 0
165 188 0
165 188 0
171 194 0
170 192 0
163 186 0
171 194 0
167 189 0
169 192 0
169 192 0
168 192 0
167 190 0
167 190 0
170 194 0
165 188 0
164 188 0
167 189 0
169 192 0
166 188 0
169 191 0
168 190 0
166 189 0
167 190 0
160 183 0
165 187 0
167 190 0
170 193 0
165 188 0
165 188 0
164 188 0
166 189 0
167 189 0
167 191 0
164 186 0
170 193 0
163 186 0
167 189 0
166 190 0
160 183 0
167 189 0
163 184 0
169 193 0
161 184 0
171 194 0
162 185 0
170 192 0
163 186 0
166 188 0
163 186 0
168 190 0
163 185 0
162 185 0
157 179 0
165 188 0
163 186 0
163 185 0
167 190 0
163 186 0
164 186 0
166 188 0
158 180 0
158 179 0
157 179 0
160 182 0
161 182 0
165 187 0
164 187 0
154 176 0
160 181 0
159 182 0
159 181 0
158 180 0
159 183 0
161 185 0
162 185 0
159 180 0
158 180 0
157 177 0
155 177 0
150 172 0
158 180 0
154 175 0
166 187 0
151 173 0
159 180 0
149 170 0
157 179 0
156 179 0
162 182 0
155 177 0
153 176 0
155 177 0
160 183 0
159 180 0
154 176 0
163 185 0
152 174 0
158 179 0
155 176 0
155 177 0
154 177 0
159 180 0
159 180 0
152 173 0
157 179 0
149 171 0
161 182 0
155 177 0
152 173 0
150 170 0
151 173 0
152 173 0
149 168 0
157 178 0
158 178 0
148 169 0
148 168 0
153 175 0
151 172 0
150 172 0
152 174 0
150 170 0
151 171 0
157 178 0
149 168 0
145 166 0
155 177 0
147 167 0
136 155 0
148 168 0
153 174 0
153 173 0
147 167 0
143 164 0
145 165 0
146 164 0
150 171 0
147 166 0
145 165 0
144 164 0
148 167 0
145 166 0
144 160 0
150 168 0
146 165 0
143 163 0
144 163 0
148 169 0
136 154 0
138 156 0
144 163 0
141 158 0
146 162 0
141 158 0
140 159 0
149 169 0
141 159 0
149 167 0
146 164 0
148 168 0
140 154 0
138 154 0
139 157 0
143 160 0
143 160 0
146 162 0
135 151 0
138 154 0
141 158 0
142 158 0
143 158 0
139 154 0
134 150 0
139 155 0
143 160 0
133 147 0
139 152 0
146 160 0
131 145 0
143 156 0
139 152 0
132 145 0
143 155 0
136 149 0
132 147 0
130 142 0
102 106 4
91 87 12
84 82 8
91 90 10
103 99 11
117 113 31
115 111 33
117 112 28
118 115 21
115 114 19
114 110 11
122 117 27
127 122 19
123 119 32
132 129 22
130 126 22
131 125 28
142 135 28
134 129 28
139 134 37
143 138 32
141 136 32
135 130 22
134 129 11
145 140 28
140 137 19
142 138 28
141 137 28
145 140 34
148 143 28
142 137 25
143 139 22
145 141 25
150 145 34
147 142 25
145 140 25
148 143 37
140 135 19
149 145 30
145 142 16
144 141 19
149 145 32
149 145 28
150 146 28
145 140 19
146 141 30
146 140 30
150 145 28
152 147 28
143 138 22
149 145 28
150 146 30
150 147 32
152 147 22
147 142 32
149 145 22
148 144 25
150 146 25
153 149 28
149 144 19
148 144 28
151 146 28
145 139 19
153 148 28
152 146 36
158 153 39
152 146 28
147 143 11
151 146 25
150 145 37
153 148 37
150 146 28
155 151 19
151 146 22
154 148 32
149 145 19
147 143 32
155 151 28
151 147 30
151 147 28
152 146 30
147 142 22
152 147 30
154 148 25
156 151 36
148 143 25
153 148 22
150 146 34
151 145 36
145 141 28
153 148 34
149 145 30
150 145 32
148 144 22
147 142 22
152 145 22
153 150 34
149 144 28
146 141 30
149 144 34
150 145 30
155 149 37
155 148 28
150 145 39
146 141 28
149 144 28
147 143 32
148 143 34
145 139 25
144 140 22
145 140 22
140 136 25
150 146 25
141 136 34
147 141 34
147 143 22
139 135 36
141 137 25
143 138 28
141 136 34
142 136 41
139 133 22
138 133 36
132 127 30
141 136 30
139 134 47
123 119 22
141 135 36
127 123 19
115 112 19
123 118 16
120 116 22
126 120 25
104 99 19
133 133 28
164 179 0
164 177 0
170 187 0
166 183 0
165 182 0
166 181 0
163 180 0
163 180 0
164 180 0
164 181 0
171 189 0
166 183 0
166 183 0
168 185 0
171 189 0
168 188 0
167 185 0
167 186 0
164 182 0
169 186 0
165 184 0
168 186 0
168 184 0
169 188 0
170 189 0
170 188 0
166 186 0
170 188 0
168 187 0
169 187 0
165 182 0
170 188 0
170 189 0
169 190 0
166 185 0
172 191 0
167 188 0
170 189 0
168 188 0
172 195 0
170 193 0
172 194 0
170 193 0
169 193 0
171 194 0
171 195 0
171 194 0
171 195 0
171 195 0
170 193 0
168 192 0
169 192 0
170 194 0
170 194 0
170 193 0
169 193 0
170 194 0
170 193 0
167 191 0
172 195 0
168 192 0
169 194 0
172 195 0
166 188 0
171 195 0
171 193 0
166 189 0
169 191 0
170 193 0
172 194 0
168 191 0
166 189 0
168 191 0
167 191 0
168 191 0
165 188 0
169 192 0
173 196 0
169 193 0
166 190 0
168 191 0
168 191 0
170 193 0
170 193 0
169 192 0
164 187 0
166 190 0
169 193 0
165 188 0
166 189 0
169 192 0
167 189 0
168 191 0
167 189 0
167 190 0
166 190 0
166 189 0
164 188 0
169 191 0
167 190 0
168 190 0
165 189 0
166 189 0
165 187 0
166 189 0
169 191 0
169 193 0
165 187 0
165 188 0
164 188 0
165 188 0
164 187 0
162 185 0
166 188 0
164 187 0
167 191 0
158 180 0
163 185 0
169 192 0
165 188 0
169 191 0
165 188 0
167 190 0
163 185 0
164 186 0
163 186 0
155 178 0
162 185 0
166 188 0
162 184 0
165 187 0
164 187 0
165 187 0
167 189 0
162 184 0
168 192 0
164 186 0
160 180 0
161 184 0
160 182 0
162 183 0
158 180 0
164 185 0
161 184 0
158 180 0
164 186 0
164 188 0
159 180 0
156 178 0
158 180 0
157 179 0
159 181 0
158 180 0
164 186 0
160 182 0
160 183 0
160 182 0
165 188 0
159 181 0
160 181 0
158 179 0
154 175 0
158 179 0
158 181 0
156 176 0
157 177 0
151 174 0
158 179 0
159 180 0
162 185 0
158 180 0
160 181 0
156 177 0
160 182 0
158 179 0
151 173 0
159 181 0
160 183 0
156 177 0
149 171 0
154 176 0
153 174 0
159 180 0
151 172 0
159 182 0
153 174 0
152 172 0
155 176 0
150 170 0
156 176 0
150 171 0
159 181 0
157 178 0
151 173 0
150 169 0
158 178 0
153 173 0
147 166 0
158 180 0
158 179 0
148 169 0
161 183 0
153 173 0
148 169 0
148 169 0
146 165 0
160 181 0
152 173 0
136 157 0
147 167 0
146 166 0
146 165 0
146 165 0
161 181 0
150 170 0
144 164 0
142 161 0
146 164 0
147 165 0
151 170 0
143 160 0
150 168 0
148 167 0
145 163 0
148 168 0
142 160 0
147 166 0
139 158 0
146 163 0
147 167 0
144 163 0
134 153 0
137 156 0
139 159 0
140 156 0
148 165 0
141 158 0
138 155 0
143 162 0
150 166 0
142 161 0
148 165 0
143 160 0
141 160 0
144 163 0
135 150 0
142 159 0
135 151 0
139 155 0
145 160 0
132 146 0
145 161 0
144 160 0
142 157 0
143 156 0
144 161 0
136 149 0
135 148 0
135 151 0
133 148 0
128 140 0
138 153 0
137 152 0
129 141 0
132 146 0
103 104 8
92 88 3
91 85 19
102 99 20
101 96 23
113 111 18
112 110 21
115 111 26
118 114 0
121 118 21
118 113 21
120 115 23
113 110 8
123 119 21
135 130 31
130 125 22
132 129 28
136 131 30
124 120 16
136 134 19
141 135 37
143 139 32
142 138 28
135 131 25
146 142 34
134 129 11
136 131 22
141 135 22
147 142 30
142 138 19
147 142 25
143 138 22
149 145 22
143 138 25
145 141 25
145 142 11
146 141 28
148 141 34
149 144 25
140 136 28
142 137 32
144 139 30
151 146 34
148 143 28
147 144 28
142 136 25
148 143 30
152 148 28
152 147 39
148 143 28
149 144 36
153 148 28
148 143 30
149 145 22
149 146 25
154 149 32
148 143 19
149 144 19
147 142 19
145 141 22
145 141 22
150 146 22
154 148 37
151 146 28
152 147 32
149 145 30
156 150 39
152 148 28
151 146 28
149 145 22
155 150 25
152 146 28
151 147 28
152 145 25
150 146 32
149 145 25
147 143 16
153 148 22
151 147 22
149 145 22
153 148 28
154 149 30
151 146 19
153 147 32
151 146 28
151 146 44
151 147 22
148 144 16
150 145 28
153 148 34
152 146 39
153 146 37
151 148 30
148 143 19
147 143 22
151 146 25
145 142 16
146 142 16
147 142 32
150 145 22
153 147 25
147 142 25
148 143 30
144 138 32
142 138 28
149 144 25
147 141 22
142 136 30
145 140 28
142 136 32
149 143 34
140 135 28
147 143 30
151 145 42
143 137 30
142 136 28
139 134 30
139 133 30
137 132 22
139 135 11
150 145 32
145 140 34
136 132 25
140 134 37
139 135 25
133 129 22
138 132 37
129 125 25
121 117 11
134 128 32
130 125 22
125 119 25
111 107 25
115 109 22
142 151 19
162 178 0
165 181 0
161 178 0
164 179 0
162 177 0
164 181 0
164 180 0
167 183 0
162 178 0
166 183 0
165 184 0
167 185 0
166 183 0
163 180 0
167 185 0
163 182 0
167 186 0
168 184 0
168 185 0
166 184 0
166 183 0
168 186 0
165 183 0
167 186 0
169 189 0
167 184 0
168 187 0
167 184 0
166 184 0
170 189 0
163 182 0
171 192 0
167 189 0
168 187 0
169 189 0
168 187 0
171 190 0
167 186 0
168 187 0
172 195 0
170 193 0
171 194 0
167 191 0
168 192 0
171 194 0
171 194 0
169 192 0
172 196 0
171 195 0
171 194 0
170 193 0
170 193 0
170 194 0
170 194 0
171 195 0
168 190 0
167 190 0
167 191 0
169 192 0
172 194 0
171 194 0
172 195 0
171 194 0
170 193 0
170 193 0
165 188 0
171 195 0
171 195 0
171 193 0
169 193 0
171 194 0
169 190 0
169 192 0
167 190 0
169 191 0
167 191 0
168 192 0
170 193 0
168 191 0
165 188 0
166 189 0
172 194 0
172 195 0
165 189 0
170 193 0
170 192 0
164 187 0
168 190 0
170 194 0
168 191 0
169 192 0
167 190 0
162 185 0
169 192 0
168 191 0
166 190 0
167 191 0
166 189 0
165 187 0
162 184 0
171 194 0
169 192 0
166 189 0
168 190 0
162 185 0
169 193 0
168 190 0
162 185 0
168 191 0
164 186 0
164 186 0
163 187 0
167 190 0
166 190 0
164 186 0
166 188 0
170 193 0
164 187 0
167 190 0
168 191 0
161 183 0
162 186 0
167 190 0
169 191 0
163 186 0
163 186 0
164 186 0
163 186 0
161 183 0
159 182 0
163 186 0
166 188 0
166 190 0
166 189 0
169 193 0
162 184 0
165 187 0
164 187 0
165 186 0
168 190 0
165 187 0
160 183 0
163 185 0
160 183 0
163 184 0
162 184 0
162 184 0
161 184 0
161 184 0
155 177 0
165 187 0
156 179 0
159 183 0
164 187 0
166 188 0
167 188 0
157 179 0
152 175 0
161 184 0
163 184 0
159 181 0
157 180 0
160 182 0
160 182 0
157 180 0
161 183 0
163 186 0
163 185 0
163 184 0
158 179 0
156 177 0
158 181 0
154 176 0
158 178 0
158 179 0
155 177 0
157 179 0
153 174 0
157 178 0
164 185 0
145 167 0
154 175 0
152 173 0
160 180 0
155 176 0
156 178 0
160 183 0
152 172 0
153 176 0
149 170 0
153 173 0
153 175 0
151 171 0
153 174 0
149 170 0
163 184 0
153 173 0
148 170 0
150 171 0
153 173 0
153 172 0
152 173 0
151 173 0
143 163 0
153 175 0
144 164 0
145 164 0
143 162 0
152 173 0
142 163 0
151 172 0
151 170 0
146 165 0
141 160 0
139 159 0
149 169 0
151 170 0
147 166 0
147 169 0
147 165 0
140 158 0
149 169 0
154 173 0
156 173 0
142 159 0
153 171 0
155 175 0
138 156 0
147 164 0
135 153 0
145 165 0
147 164 0
144 164 0
145 163 0
151 170 0
147 166 0
157 176 0
148 166 0
144 162 0
149 168 0
143 159 0
147 163 0
145 164 0
152 168 0
150 167 0
145 162 0
147 161 0
145 158 0
141 157 0
144 161 0
139 155 0
148 168 0
134 150 0
142 156 0
136 154 0
147 162 0
143 158 0
145 160 0
141 155 0
129 141 0
137 151 0
138 151 0
132 143 0
136 145 0
135 147 0
112 114 0
92 87 0
101 96 11
95 92 0
107 103 26
112 109 16
119 115 22
108 104 19
126 122 25
119 115 11
125 122 28
133 129 22
132 126 26
122 119 16
129 126 25
129 124 26
135 131 29
134 130 28
136 131 30
138 133 32
144 140 26
135 130 23
136 132 22
135 131 11
145 140 32
139 134 28
147 142 30
137 133 22
142 136 30
137 131 16
144 140 30
147 143 25
146 142 37
146 140 28
141 136 25
146 141 25
140 136 22
144 140 22
145 140 25
147 143 28
150 145 36
146 143 16
144 139 28
153 149 32
146 142 30
146 140 34
148 142 25
147 142 30
150 146 30
148 143 30
149 146 28
150 146 28
146 142 19
155 150 30
149 145 25
149 143 30
147 141 28
147 143 34
153 147 36
152 148 19
151 146 19
150 145 30
154 149 30
152 147 32
153 147 32
149 145 30
152 148 28
152 147 32
153 149 37
150 146 28
149 144 28
152 148 25
153 149 22
147 142 16
152 147 34
148 143 30
150 147 19
153 148 25
150 146 22
149 145 22
153 147 32
150 145 32
147 143 11
150 145 28
153 148 34
150 146 19
151 147 22
154 149 30
156 151 34
152 147 28
150 146 28
145 140 28
152 147 28
149 144 37
149 145 30
149 144 28
155 150 25
152 148 32
144 140 25
150 145 25
153 148 39
142 139 0
146 141 28
149 144 39
151 146 36
141 137 28
146 143 28
146 142 30
145 140 11
138 133 25
143 137 19
143 139 25
143 139 16
145 139 32
135 131 28
148 143 37
137 132 22
147 140 36
146 141 34
135 130 19
142 137 36
138 134 16
138 133 19
136 133 11
138 134 22
134 130 28
129 125 25
124 121 19
124 118 22
134 129 25
136 131 28
127 122 28
128 123 22
117 112 22
138 147 11
165 179 0
158 172 0
167 183 0
166 182 0
162 178 0
163 178 0
161 174 0
165 183 0
166 182 0
166 184 0
164 179 0
164 179 0
166 183 0
166 183 0
166 186 0
162 178 0
166 184 0
167 185 0
166 181 0
163 180 0
167 185 0
165 181 0
165 184 0
168 186 0
163 181 0
168 187 0
168 186 0
169 187 0
168 189 0
163 182 0
168 187 0
170 190 0
168 188 0
171 189 0
170 191 0
168 188 0
171 190 0
170 187 0
169 188 0
169 193 0
174 196 0
171 195 0
168 191 0
171 195 0
172 195 0
169 194 0
170 194 0
170 192 0
170 193 0
170 194 0
168 190 0
169 192 0
171 194 0
170 192 0
172 195 0
170 194 0
173 196 0
171 194 0
173 195 0
170 194 0
172 195 0
171 194 0
172 195 0
172 195 0
169 191 0
170 193 0
169 192 0
171 194 0
167 191 0
170 193 0
170 194 0
172 196 0
169 192 0
169 192 0
170 192 0
169 193 0
172 195 0
169 192 0
167 189 0
168 191 0
172 195 0
170 193 0
168 192 0
165 188 0
168 190 0
168 191 0
167 190 0
167 190 0
167 190 0
166 189 0
167 190 0
165 188 0
168 190 0
170 193 0
170 193 0
168 191 0
168 192 0
169 192 0
167 189 0
164 186 0
168 192 0
168 191 0
166 188 0
169 193 0
164 187 0
166 189 0
164 186 0
168 192 0
168 191 0
166 189 0
168 191 0
164 187 0
164 187 0
166 189 0
169 191 0
164 186 0
163 186 0
167 190 0
166 189 0
166 189 0
166 190 0
170 193 0
165 188 0
165 188 0
167 188 0
164 188 0
168 190 0
158 181 0
164 185 0
167 190 0
164 188 0
163 186 0
163 186 0
166 188 0
165 188 0
160 183 0
166 190 0
160 182 0
165 188 0
162 186 0
159 180 0
159 181 0
164 186 0
166 188 0
159 180 0
165 187 0
158 181 0
161 182 0
160 181 0
162 185 0
159 181 0
152 174 0
161 184 0
162 185 0
160 182 0
161 183 0
162 184 0
166 188 0
159 182 0
157 179 0
157 179 0
159 181 0
157 177 0
161 182 0
161 182 0
155 177 0
156 178 0
157 179 0
157 176 0
160 182 0
157 177 0
158 179 0
155 178 0
150 173 0
154 176 0
153 175 0
150 172 0
151 172 0
155 177 0
162 185 0
153 175 0
155 177 0
149 171 0
156 178 0
154 176 0
149 169 0
153 174 0
151 170 0
154 177 0
156 177 0
154 175 0
154 174 0
157 179 0
152 172 0
156 177 0
149 169 0
150 171 0
151 172 0
148 169 0
147 168 0
157 176 0
150 171 0
142 161 0
151 171 0
155 176 0
153 173 0
151 173 0
144 165 0
148 168 0
146 165 0
156 177 0
150 169 0
152 173 0
151 171 0
148 168 0
141 161 0
145 165 0
144 162 0
153 169 0
151 171 0
146 165 0
145 164 0
153 171 0
138 156 0
148 167 0
157 177 0
143 161 0
144 162 0
148 167 0
143 162 0
148 167 0
148 166 0
143 163 0
142 158 0
140 156 0
142 160 0
148 165 0
146 165 0
152 168 0
153 170 0
140 155 0
145 161 0
147 164 0
140 157 0
145 164 0
138 156 0
138 154 0
144 161 0
145 163 0
146 162 0
138 154 0
147 164 0
137 151 0
131 146 0
141 156 0
137 152 0
136 149 0
146 161 0
132 146 0
141 156 0
141 156 0
133 147 0
140 153 0
132 145 0
138 149 0
121 123 11
103 98 18
97 91 11
100 95 0
104 100 26
115 111 25
106 102 11
127 120 28
124 120 22
112 108 14
125 121 31
130 123 31
127 122 34
132 127 25
129 124 19
132 129 28
135 131 27
134 131 30
126 122 36
137 133 25
131 127 25
134 130 19
139 134 22
138 133 34
143 140 30
144 139 28
141 136 30
138 135 19
147 142 32
146 142 32
144 140 32
140 136 25
146 142 25
148 142 34
148 144 30
150 146 25
140 136 16
146 141 25
139 135 22
148 142 28
153 147 34
148 143 28
145 141 22
148 143 28
149 144 32
143 140 11
151 146 34
151 146 30
153 148 28
145 140 22
149 145 25
151 146 28
152 145 32
143 139 22
149 145 25
149 145 32
149 144 28
153 149 28
148 143 30
150 145 30
153 148 32
150 146 22
151 147 32
150 145 28
153 149 28
151 146 22
151 145 32
151 147 19
147 142 28
154 148 28
151 147 25
151 145 22
145 140 22
151 147 28
154 149 28
154 149 32
153 147 34
154 148 32
151 144 25
154 149 39
151 146 28
153 149 30
151 146 25
154 150 30
151 145 32
150 145 32
147 143 25
152 147 11
150 145 28
149 144 22
152 146 37
152 147 34
150 144 30
148 143 28
148 144 22
151 146 34
143 138 30
147 141 25
147 142 30
140 136 28
149 144 34
150 145 32
145 141 28
147 141 36
143 138 28
146 141 30
144 139 30
150 145 44
148 143 25
145 140 28
147 143 19
143 138 22
147 141 28
147 141 34
139 134 16
145 139 22
138 133 39
137 131 25
139 135 28
138 134 25
139 135 19
138 132 22
137 131 37
135 128 28
135 130 32
134 130 32
130 125 34
125 120 19
136 131 19
132 126 22
117 113 22
128 121 25
117 112 22
112 107 11
154 164 0
165 179 0
159 176 0
163 179 0
163 177 0
163 180 0
164 181 0
162 176 0
168 186 0
163 176 0
167 185 0
167 184 0
168 184 0
167 184 0
165 183 0
167 184 0
169 187 0
164 181 0
167 186 0
168 186 0
166 183 0
167 186 0
168 186 0
166 184 0
168 187 0
169 187 0
167 187 0
165 183 0
167 186 0
169 188 0
169 189 0
167 188 0
170 190 0
166 186 0
170 191 0
168 188 0
168 187 0
168 187 0
170 189 0
171 190 0
170 194 0
168 192 0
171 194 0
169 193 0
171 193 0
170 193 0
171 194 0
171 195 0
172 194 0
169 192 0
169 191 0
172 195 0
171 195 0
169 192 0
172 195 0
170 193 0
169 191 0
170 193 0
166 189 0
172 194 0
172 196 0
168 191 0
170 193 0
169 192 0
170 193 0
171 194 0
170 193 0
169 193 0
170 193 0
167 190 0
169 193 0
168 191 0
170 193 0
167 190 0
171 193 0
173 195 0
168 191 0
167 190 0
171 194 0
169 192 0
167 191 0
168 191 0
173 196 0
168 192 0
171 194 0
170 193 0
165 189 0
171 193 0
171 194 0
167 190 0
167 190 0
168 191 0
169 192 0
169 193 0
169 192 0
168 191 0
167 189 0
167 191 0
168 190 0
164 187 0
167 191 0
165 188 0
165 188 0
170 193 0
167 190 0
168 191 0
168 192 0
164 187 0
168 191 0
166 189 0
169 191 0
168 191 0
164 187 0
168 191 0
164 187 0
164 185 0
168 191 0
167 190 0
167 190 0
164 186 0
166 189 0
166 188 0
168 190 0
168 190 0
162 185 0
161 184 0
167 190 0
166 189 0
162 184 0
160 183 0
164 186 0
168 190 0
161 184 0
163 185 0
166 189 0
166 188 0
162 185 0
169 192 0
163 185 0
161 183 0
163 186 0
164 187 0
162 186 0
160 183 0
163 186 0
161 182 0
160 182 0
158 181 0
163 185 0
158 180 0
165 187 0
166 189 0
165 186 0
165 186 0
162 184 0
153 175 0
156 177 0
158 180 0
153 175 0
156 178 0
161 183 0
157 179 0
161 185 0
156 178 0
159 180 0
158 180 0
158 179 0
157 177 0
160 182 0
158 180 0
160 182 0
158 178 0
157 179 0
154 176 0
157 179 0
157 179 0
160 180 0
156 178 0
156 178 0
154 176 0
159 181 0
161 182 0
148 170 0
157 177 0
155 177 0
154 176 0
159 180 0
153 175 0
152 174 0
155 175 0
159 180 0
152 173 0
152 172 0
153 173 0
160 181 0
147 167 0
154 176 0
146 165 0
157 177 0
159 180 0
153 174 0
155 175 0
152 174 0
153 172 0
145 164 0
150 169 0
152 171 0
152 174 0
148 168 0
150 169 0
149 169 0
155 174 0
153 173 0
154 172 0
152 172 0
149 167 0
150 173 0
148 169 0
151 171 0
152 172 0
149 168 0
149 169 0
152 171 0
153 172 0
148 165 0
144 163 0
150 170 0
146 163 0
152 171 0
150 170 0
143 161 0
145 162 0
145 165 0
146 166 0
152 171 0
147 165 0
152 170 0
154 173 0
148 166 0
136 153 0
149 165 0
149 167 0
142 160 0
150 166 0
150 167 0
143 158 0
141 158 0
151 168 0
140 156 0
147 164 0
140 155 0
139 154 0
148 161 0
139 155 0
143 159 0
150 169 0
143 156 0
145 161 0
137 152 0
141 155 0
144 157 0
150 162 0
132 148 0
131 143 0
141 156 0
138 151 0
116 119 0
87 83 18
87 84 11
100 96 20
97 95 19
100 97 0
123 119 24
120 117 24
114 110 22
125 120 31
124 120 22
135 131 28
136 128 30
122 119 16
127 123 22
133 130 23
135 129 25
137 132 37
133 128 26
136 130 22
130 125 28
133 129 19
137 133 25
139 133 32
138 135 30
141 136 22
138 133 19
140 135 22
141 138 16
141 136 32
145 140 28
145 141 22
148 143 19
144 138 37
152 145 32
140 134 28
148 143 28
142 137 25
147 142 30
145 140 28
148 144 30
150 146 32
147 142 34
150 144 25
143 139 32
149 145 19
151 145 25
149 144 28
151 146 28
153 147 37
147 143 19
149 145 25
149 143 37
155 150 32
151 145 34
150 144 28
149 144 34
151 146 30
151 146 28
152 148 28
149 144 25
152 148 25
150 145 25
146 142 32
148 143 30
153 147 22
155 149 37
154 149 32
151 147 28
151 147 22
152 146 32
146 143 22
145 140 25
150 146 22
151 145 34
151 146 30
149 145 25
148 144 30
151 146 34
150 145 25
151 147 28
153 148 37
148 144 28
152 147 30
154 148 32
149 145 34
147 142 19
150 144 32
153 147 32
152 148 19
151 147 30
153 148 34
149 145 22
147 141 28
152 148 28
155 150 34
147 143 28
151 146 32
148 143 22
151 145 37
143 138 22
153 146 32
147 142 34
150 145 28
146 142 19
154 149 32
142 137 22
138 134 19
139 135 19
154 148 34
147 142 36
142 138 16
140 135 25
139 134 22
151 146 37
133 129 19
139 134 34
139 135 28
136 132 11
132 128 16
137 132 30
141 135 28
135 130 28
143 138 25
135 129 30
136 130 28
135 129 28
126 121 30
128 124 30
131 127 22
130 125 22
127 122 19
124 120 22
121 117 28
165 179 0
168 184 0
160 173 0
163 177 0
165 179 0
160 175 0
165 183 0
164 182 0
164 177 0
165 182 0
165 182 0
163 179 0
165 182 0
164 183 0
166 181 0
164 179 0
170 187 0
167 187 0
168 183 0
163 181 0
168 188 0
167 186 0
166 184 0
168 186 0
169 188 0
169 186 0
170 187 0
169 185 0
169 189 0
170 190 0
171 191 0
167 185 0
170 190 0
169 187 0
170 189 0
168 187 0
169 188 0
168 188 0
167 187 0
169 189 0
172 195 0
170 191 0
172 194 0
172 195 0
170 193 0
171 194 0
169 192 0
171 194 0
172 195 0
172 195 0
167 191 0
171 193 0
169 192 0
168 192 0
170 193 0
170 193 0
171 194 0
169 191 0
167 191 0
170 193 0
171 194 0
170 194 0
170 193 0
172 195 0
171 195 0
170 194 0
171 194 0
168 190 0
170 193 0
171 193 0
172 194 0
169 192 0
169 192 0
171 194 0
170 192 0
169 193 0
171 193 0
170 193 0
166 189 0
168 190 0
167 190 0
167 190 0
166 188 0
168 190 0
170 194 0
171 195 0
170 192 0
170 193 0
170 193 0
167 190 0
169 191 0
167 189 0
168 191 0
167 189 0
167 189 0
168 190 0
172 194 0
169 193 0
166 188 0
166 189 0
167 190 0
161 184 0
168 191 0
165 189 0
168 191 0
166 189 0
167 191 0
165 188 0
168 191 0
169 192 0
165 189 0
166 189 0
166 189 0
167 188 0
164 188 0
170 194 0
167 189 0
167 190 0
167 190 0
164 186 0
165 188 0
164 187 0
165 187 0
169 192 0
160 180 0
165 188 0
162 186 0
168 190 0
160 184 0
163 186 0
165 187 0
161 184 0
162 185 0
166 189 0
163 185 0
163 185 0
162 185 0
162 185 0
162 185 0
157 179 0
159 181 0
165 186 0
162 184 0
163 186 0
159 182 0
163 185 0
161 183 0
162 183 0
167 190 0
163 186 0
159 182 0
158 181 0
152 174 0
165 188 0
166 189 0
162 184 0
155 178 0
161 183 0
160 181 0
160 182 0
162 184 0
160 182 0
163 186 0
157 179 0
155 178 0
154 177 0
162 184 0
162 184 0
154 177 0
153 175 0
155 177 0
160 184 0
158 180 0
159 180 0
158 179 0
153 175 0
162 184 0
155 177 0
158 180 0
155 177 0
159 180 0
155 176 0
152 172 0
157 178 0
153 173 0
159 181 0
147 168 0
149 170 0
157 180 0
154 176 0
153 175 0
154 174 0
160 180 0
154 175 0
158 180 0
154 176 0
151 172 0
152 173 0
155 177 0
157 178 0
149 168 0
161 181 0
150 170 0
144 162 0
157 179 0
149 169 0
150 169 0
147 167 0
153 174 0
150 172 0
147 167 0
143 162 0
151 171 0
152 173 0
149 169 0
151 171 0
143 160 0
140 158 0
147 167 0
149 167 0
155 175 0
152 171 0
150 169 0
150 171 0
152 170 0
145 163 0
153 172 0
153 174 0
150 169 0
149 168 0
141 160 0
153 170 0
147 165 0
145 163 0
148 168 0
147 166 0
144 161 0
146 164 0
147 163 0
144 163 0
147 165 0
144 161 0
141 161 0
149 167 0
145 162 0
144 158 0
145 160 0
145 161 0
148 165 0
146 162 0
145 161 0
141 157 0
144 160 0
141 157 0
133 148 0
141 157 0
136 150 0
143 159 0
147 161 0
145 159 0
141 155 0
141 154 0
137 149 0
142 155 0
137 151 0
148 161 0
117 120 0
89 85 10
100 97 0
98 92 8
108 104 27
122 116 26
109 106 0
115 112 25
125 119 28
118 113 22
132 128 28
122 119 22
128 123 25
121 117 16
125 121 32
132 128 34
126 121 22
136 132 25
132 127 31
134 130 19
139 135 30
139 134 30
141 136 32
144 140 34
143 137 36
142 138 25
137 132 32
136 132 30
138 134 19
148 142 32
144 140 22
143 138 28
141 137 22
142 138 22
144 140 30
145 140 34
142 139 25
146 142 30
144 140 19
141 136 25
152 147 30
148 144 30
146 141 11
146 142 19
145 140 22
154 149 30
151 146 34
146 142 32
141 137 19
148 142 25
153 148 32
149 144 32
151 146 22
148 144 30
143 139 28
150 145 34
150 145 28
147 142 32
149 144 25
148 144 32
148 143 16
150 146 30
152 147 36
146 141 28
149 144 34
154 149 28
152 147 32
148 144 16
152 147 19
151 146 25
150 145 30
155 150 36
150 145 22
147 142 28
149 145 0
151 146 30
156 150 32
149 144 19
153 147 30
148 143 34
149 145 28
150 146 19
146 142 22
148 143 19
147 142 30
152 147 22
155 149 30
151 144 36
152 147 25
154 148 39
146 141 32
148 143 25
150 145 28
150 145 25
151 146 30
147 143 30
149 145 28
147 144 30
144 139 30
151 146 28
149 144 30
144 140 25
148 142 25
147 141 30
147 142 32
145 140 22
143 139 19
143 138 25
144 140 32
147 142 25
149 143 34
143 138 22
143 135 30
142 136 30
137 133 19
143 137 25
140 136 37
140 134 36
142 138 28
135 130 28
142 137 28
144 139 32
142 136 36
139 134 30
134 130 22
133 129 25
131 126 25
134 130 25
126 120 25
131 126 30
131 125 34
121 116 11
119 113 34
125 126 22
161 175 0
160 174 0
162 178 0
167 184 0
164 179 0
168 182 0
162 178 0
165 180 0
168 187 0
165 182 0
164 179 0
163 179 0
167 185 0
164 179 0
168 186 0
168 186 0
166 183 0
168 187 0
164 180 0
163 179 0
164 182 0
164 182 0
166 184 0
171 190 0
167 183 0
169 187 0
166 184 0
164 180 0
167 185 0
168 189 0
169 189 0
167 185 0
168 186 0
164 182 0
168 188 0
169 189 0
170 190 0
166 185 0
170 190 0
170 191 0
174 196 0
170 193 0
171 194 0
171 194 0
172 196 0
170 193 0
169 193 0
171 194 0
173 196 0
173 195 0
171 193 0
170 193 0
170 192 0
172 195 0
169 193 0
167 191 0
167 190 0
169 192 0
170 193 0
171 194 0
171 195 0
167 191 0
169 192 0
168 192 0
172 195 0
171 193 0
172 196 0
171 194 0
166 189 0
170 193 0
171 194 0
170 193 0
171 194 0
171 194 0
169 193 0
168 191 0
168 192 0
172 195 0
170 193 0
168 191 0
168 191 0
168 192 0
170 193 0
170 194 0
167 190 0
168 191 0
162 184 0
168 191 0
169 192 0
167 190 0
166 187 0
169 192 0
168 190 0
170 193 0
167 190 0
164 186 0
166 188 0
168 191 0
169 190 0
166 189 0
167 189 0
165 188 0
168 191 0
166 189 0
167 190 0
166 189 0
157 179 0
169 192 0
165 187 0
168 190 0
166 189 0
166 189 0
165 187 0
168 190 0
168 191 0
166 189 0
167 190 0
161 184 0
163 186 0
166 189 0
169 191 0
166 188 0
164 187 0
165 188 0
160 181 0
169 192 0
165 188 0
162 185 0
162 184 0
168 190 0
161 183 0
167 190 0
165 188 0
160 183 0
167 189 0
168 191 0
168 191 0
162 184 0
161 183 0
162 185 0
165 188 0
166 188 0
164 188 0
165 189 0
162 184 0
166 188 0
160 181 0
164 186 0
162 184 0
161 184 0
160 182 0
160 182 0
163 185 0
161 183 0
160 183 0
157 180 0
160 182 0
159 181 0
165 188 0
158 180 0
160 181 0
160 182 0
159 181 0
155 178 0
158 179 0
158 178 0
161 182 0
156 178 0
155 176 0
156 178 0
158 181 0
160 183 0
155 176 0
158 180 0
153 174 0
164 186 0
161 183 0
156 177 0
155 176 0
157 179 0
157 179 0
160 181 0
151 172 0
161 184 0
158 180 0
153 174 0
155 176 0
151 172 0
147 170 0
152 174 0
155 174 0
151 172 0
156 175 0
155 176 0
161 183 0
156 176 0
157 178 0
153 173 0
151 171 0
154 174 0
154 175 0
151 171 0
153 174 0
157 176 0
151 171 0
152 172 0
156 177 0
149 170 0
152 174 0
149 170 0
152 172 0
153 174 0
151 172 0
151 171 0
146 167 0
154 175 0
145 165 0
154 172 0
139 158 0
144 163 0
150 171 0
147 165 0
147 166 0
155 176 0
148 166 0
153 171 0
141 160 0
154 174 0
136 155 0
147 166 0
152 172 0
144 161 0
142 159 0
149 166 0
153 172 0
156 175 0
144 161 0
142 161 0
147 164 0
153 173 0
144 160 0
147 163 0
145 163 0
145 161 0
149 166 0
134 151 0
149 168 0
143 160 0
144 162 0
141 156 0
134 151 0
141 153 0
151 166 0
150 163 0
141 154 0
151 166 0
144 157 0
143 157 0
144 160 0
143 159 0
134 148 0
142 157 0
141 157 0
143 158 0
134 149 0
132 145 0
110 116 11
104 101 15
103 100 3
103 98 14
106 103 22
116 111 18
111 106 16
109 105 16
111 108 18
115 110 19
132 127 37
135 129 32
123 119 25
127 121 16
130 126 16
136 130 39
138 133 34
128 124 16
139 135 19
134 130 28
140 136 19
139 134 36
141 136 32
141 138 11
137 131 28
140 134 32
142 138 25
151 145 34
137 132 16
145 140 25
148 143 44
143 138 25
143 138 28
143 139 22
145 141 36
147 143 22
140 137 25
151 147 34
149 144 32
144 139 28
146 142 16
147 142 30
147 143 28
150 144 36
146 141 30
143 138 19
148 144 34
150 144 30
146 143 25
145 140 30
150 145 25
149 144 28
145 141 22
147 142 28
149 143 32
150 145 25
151 147 28
149 144 37
152 146 28
149 145 36
151 147 30
149 145 25
145 140 28
153 148 30
150 145 28
150 144 19
153 147 39
147 141 28
153 148 25
153 148 36
152 146 25
149 144 34
153 148 28
149 145 41
153 147 34
155 150 22
149 145 30
153 148 34
151 147 28
153 149 32
153 148 32
149 144 16
154 148 30
150 144 25
152 147 28
149 144 37
147 141 37
144 139 34
152 147 25
149 144 25
147 141 32
145 142 22
149 145 32
152 147 34
147 143 22
152 147 30
149 143 41
151 144 34
145 139 22
153 147 42
148 143 25
144 139 28
147 143 25
146 140 28
142 137 25
140 135 19
146 141 28
148 142 34
146 142 32
150 145 28
146 142 28
146 140 30
139 134 19
146 141 30
142 137 34
139 134 28
138 135 30
135 129 37
134 129 25
138 135 22
137 132 34
139 134 28
145 139 36
125 120 25
134 131 25
124 120 11
131 127 16
125 120 25
119 113 32
132 127 22
125 120 28
122 119 25
115 109 11
131 138 0
166 181 0
163 181 0
167 185 0
166 180 0
165 179 0
165 181 0
165 181 0
163 176 0
168 187 0
167 183 0
164 179 0
162 179 0
162 179 0
163 180 0
165 183 0
166 183 0
167 184 0
169 188 0
166 185 0
169 185 0
169 187 0
164 182 0
168 186 0
166 184 0
163 180 0
168 187 0
169 187 0
168 186 0
167 187 0
169 188 0
169 188 0
168 186 0
168 188 0
167 185 0
165 184 0
169 190 0
171 189 0
166 186 0
167 186 0
170 189 0
166 189 0
171 194 0
169 192 0
173 196 0
168 190 0
170 193 0
170 192 0
169 193 0
170 195 0
172 195 0
169 193 0
171 194 0
168 190 0
170 193 0
166 188 0
169 192 0
170 192 0
168 192 0
169 193 0
170 193 0
169 193 0
169 193 0
172 194 0
171 193 0
168 193 0
168 192 0
167 190 0
169 193 0
170 192 0
168 191 0
169 192 0
169 191 0
168 192 0
163 186 0
167 189 0
171 194 0
171 194 0
167 190 0
166 189 0
168 192 0
166 188 0
169 192 0
171 194 0
170 193 0
169 192 0
171 193 0
168 191 0
170 192 0
163 187 0
168 191 0
167 191 0
169 192 0
166 188 0
168 191 0
163 186 0
168 192 0
166 188 0
165 189 0
168 191 0
170 192 0
167 189 0
168 190 0
169 192 0
169 191 0
166 189 0
166 188 0
169 192 0
168 191 0
163 185 0
166 190 0
166 190 0
168 190 0
164 187 0
166 188 0
169 191 0
170 193 0
165 187 0
168 189 0
169 191 0
168 189 0
167 189 0
164 187 0
164 187 0
165 186 0
166 188 0
165 189 0
166 189 0
158 179 0
161 182 0
162 184 0
165 188 0
163 186 0
164 187 0
167 190 0
168 190 0
166 188 0
160 182 0
164 188 0
161 183 0
165 187 0
165 187 0
165 188 0
167 188 0
163 185 0
170 194 0
161 183 0
160 182 0
164 186 0
162 184 0
165 188 0
164 186 0
162 183 0
166 188 0
159 181 0
162 185 0
158 181 0
161 183 0
156 178 0
156 178 0
164 186 0
155 179 0
164 186 0
168 191 0
159 181 0
159 181 0
161 183 0
161 181 0
157 178 0
159 182 0
154 175 0
163 185 0
155 178 0
160 182 0
156 176 0
157 180 0
154 176 0
158 179 0
162 185 0
154 175 0
161 185 0
155 177 0
160 182 0
151 172 0
155 177 0
163 184 0
154 175 0
157 177 0
148 168 0
151 172 0
156 177 0
151 172 0
160 181 0
153 172 0
156 179 0
157 177 0
153 172 0
146 167 0
158 179 0
155 176 0
159 180 0
149 170 0
149 170 0
152 172 0
157 178 0
160 181 0
160 178 0
152 172 0
150 169 0
150 170 0
154 173 0
151 172 0
150 170 0
145 163 0
148 167 0
148 168 0
149 168 0
154 174 0
155 173 0
148 168 0
148 168 0
155 173 0
151 170 0
157 177 0
143 162 0
147 164 0
144 161 0
141 160 0
156 175 0
151 168 0
149 167 0
156 176 0
152 171 0
155 173 0
147 164 0
155 173 0
147 168 0
147 164 0
145 160 0
149 167 0
148 167 0
150 167 0
148 168 0
141 158 0
147 164 0
146 162 0
152 170 0
147 165 0
142 161 0
145 164 0
146 164 0
147 163 0
138 152 0
152 167 0
145 159 0
152 167 0
146 162 0
142 157 0
140 157 0
141 156 0
149 163 0
144 156 0
136 150 0
144 159 0
145 158 0
145 158 0
145 159 0
121 129 11
91 88 6
105 100 18
114 111 18
119 114 17
116 111 17
104 101 0
112 106 31
112 107 21
120 116 26
114 111 22
122 118 18
121 118 15
129 126 22
128 123 26
123 118 25
131 127 16
133 128 28
138 134 34
129 125 25
137 133 19
139 134 25
139 135 28
135 131 34
138 133 32
139 133 30
140 136 30
138 135 25
143 138 32
144 139 28
146 141 28
146 140 32
146 141 25
145 140 32
143 137 22
141 136 22
148 142 34
146 142 25
143 139 22
147 142 22
146 140 28
144 139 19
148 142 25
146 141 34
150 145 25
146 141 25
152 146 41
149 143 28
146 141 25
148 142 22
148 143 30
148 144 25
150 144 28
152 148 28
150 144 32
146 141 16
152 146 34
152 147 32
146 142 22
146 141 30
151 147 28
152 148 28
154 148 22
152 147 39
152 146 28
152 146 32
151 147 19
154 149 25
148 143 11
151 147 16
148 144 22
149 145 11
152 147 25
149 143 32
154 148 37
150 143 28
154 149 28
147 142 16
151 146 30
152 146 30
153 148 28
153 148 25
155 149 32
154 148 34
148 143 36
146 142 22
156 151 28
155 150 34
152 147 28
149 146 28
151 146 32
153 147 32
151 145 36
148 143 25
149 144 28
153 147 30
155 149 42
149 144 25
148 143 22
154 148 39
143 139 16
147 144 11
147 143 25
147 141 28
146 140 34
145 140 25
145 141 25
148 144 30
146 142 30
149 143 30
142 137 34
146 141 34
139 135 16
149 144 34
145 140 37
139 133 28
142 138 28
136 132 30
143 137 36
143 138 32
137 131 28
137 132 16
133 129 25
138 133 22
130 126 19
129 125 28
124 119 34
133 128 30
128 123 16
119 114 25
124 120 11
124 119 30
106 101 16
151 160 11
161 177 0
163 179 0
162 173 0
159 175 0
161 178 0
163 179 0
164 179 0
163 182 0
161 178 0
167 183 0
166 181 0
166 183 0
161 176 0
167 186 0
163 177 0
167 185 0
168 186 0
165 182 0
169 186 0
166 184 0
167 185 0
168 185 0
165 183 0
169 188 0
168 188 0
170 189 0
169 189 0
167 185 0
168 188 0
168 187 0
169 189 0
169 188 0
170 188 0
171 190 0
171 190 0
169 186 0
168 188 0
168 186 0
166 185 0
169 188 0
173 196 0
172 195 0
171 194 0
170 193 0
172 195 0
172 196 0
170 195 0
170 194 0
168 192 0
169 192 0
169 192 0
172 194 0
168 192 0
172 195 0
170 193 0
173 197 0
167 190 0
169 192 0
170 193 0
170 194 0
169 192 0
169 192 0
171 193 0
169 191 0
173 196 0
171 194 0
168 191 0
171 195 0
168 190 0
170 193 0
170 194 0
167 190 0
169 192 0
165 188 0
172 195 0
169 192 0
171 193 0
170 193 0
169 191 0
167 191 0
173 195 0
171 194 0
171 193 0
171 194 0
169 191 0
168 191 0
171 194 0
167 190 0
166 189 0
164 187 0
169 192 0
164 188 0
170 193 0
169 191 0
160 183 0
171 194 0
168 191 0
172 194 0
169 191 0
169 192 0
166 189 0
170 192 0
168 191 0
171 194 0
166 190 0
166 189 0
163 186 0
169 191 0
167 190 0
168 189 0
168 190 0
165 188 0
164 188 0
163 185 0
169 192 0
166 188 0
170 193 0
164 187 0
166 187 0
166 189 0
171 193 0
163 186 0
165 189 0
164 186 0
167 189 0
168 191 0
165 187 0
167 187 0
161 184 0
166 188 0
166 189 0
166 188 0
165 188 0
161 183 0
166 189 0
164 185 0
165 188 0
163 186 0
164 187 0
159 181 0
164 185 0
163 186 0
162 183 0
161 184 0
166 187 0
165 187 0
157 180 0
167 190 0
166 189 0
161 184 0
163 186 0
164 186 0
164 187 0
158 179 0
164 185 0
157 178 0
164 186 0
161 185 0
163 185 0
158 180 0
155 177 0
160 182 0
161 182 0
164 186 0
167 188 0
160 180 0
156 178 0
158 181 0
165 187 0
161 184 0
159 180 0
165 187 0
159 179 0
154 175 0
155 176 0
155 175 0
156 178 0
159 181 0
154 176 0
150 171 0
156 177 0
159 181 0
157 178 0
159 181 0
157 178 0
162 184 0
155 176 0
157 179 0
152 172 0
152 172 0
159 179 0
157 179 0
154 176 0
157 178 0
150 171 0
159 181 0
158 179 0
150 170 0
153 173 0
151 173 0
156 177 0
156 178 0
153 176 0
152 174 0
157 178 0
156 175 0
149 169 0
155 175 0
149 169 0
154 174 0
157 175 0
148 166 0
150 171 0
148 170 0
152 171 0
154 173 0
155 176 0
147 165 0
143 163 0
151 173 0
151 171 0
153 173 0
147 167 0
142 161 0
146 164 0
150 170 0
158 177 0
142 161 0
150 169 0
146 164 0
145 162 0
147 166 0
145 162 0
147 164 0
146 162 0
149 166 0
149 168 0
153 170 0
146 163 0
150 167 0
147 167 0
151 169 0
150 166 0
150 170 0
143 159 0
147 163 0
145 162 0
148 164 0
141 160 0
139 156 0
142 157 0
148 162 0
143 157 0
152 167 0
141 154 0
144 158 0
144 157 0
147 164 0
143 159 0
143 157 0
147 162 0
149 164 0
139 152 0
148 162 0
140 153 0
146 159 0
135 146 16
93 90 0
100 96 11
108 102 19
106 101 18
119 114 16
109 105 25
125 120 19
120 115 16
120 116 19
120 116 22
124 119 28
133 127 24
129 125 28
126 122 25
132 127 30
134 128 36
134 130 16
133 128 22
132 127 22
129 123 16
137 133 25
133 128 25
144 137 34
142 136 30
139 135 16
137 133 30
142 138 16
139 134 19
145 141 25
146 141 36
139 134 28
141 136 32
144 140 22
145 140 28
147 142 30
148 144 28
151 146 25
147 142 19
148 143 22
145 141 32
152 146 37
149 145 28
149 145 28
148 143 34
145 140 30
148 143 28
148 142 36
151 145 32
144 139 25
149 145 32
152 145 37
148 143 25
150 145 30
150 146 28
147 144 19
154 149 37
145 139 30
149 144 28
151 146 30
151 145 22
150 145 28
152 147 36
154 149 39
150 145 16
149 144 25
154 149 34
152 147 19
150 146 25
146 142 11
146 143 28
150 146 32
149 145 16
149 145 19
148 143 30
150 145 28
151 147 16
151 145 30
149 144 28
153 148 19
152 148 22
149 143 28
147 142 25
153 148 22
152 147 28
150 144 22
146 142 32
150 146 32
157 151 30
150 145 19
148 143 19
149 145 30
148 143 30
150 145 28
150 146 28
149 144 25
148 143 28
147 143 30
144 139 32
145 139 32
147 141 36
148 144 32
145 140 19
151 147 30
141 136 32
148 142 30
147 142 28
149 144 32
146 142 25
139 134 11
142 136 19
147 142 30
140 136 16
141 135 34
138 133 16
147 143 39
141 136 25
142 137 22
140 136 34
134 129 28
144 139 34
138 133 25
137 132 34
144 137 41
131 126 22
138 131 34
131 125 36
130 125 28
119 115 28
128 121 19
130 124 32
119 115 28
120 115 25
154 167 11
165 180 0
164 178 0
161 177 0
159 174 0
164 178 0
163 179 0
162 178 0
163 178 0
162 180 0
167 184 0
161 177 0
166 183 0
167 186 0
167 184 0
164 181 0
165 182 0
167 185 0
165 184 0
167 185 0
165 183 0
168 186 0
163 180 0
169 187 0
168 187 0
169 189 0
169 188 0
166 184 0
168 188 0
166 184 0
166 182 0
165 182 0
168 186 0
169 189 0
166 185 0
165 183 0
168 189 0
167 185 0
169 188 0
168 187 0
169 188 0
173 196 0
171 194 0
169 192 0
169 192 0
170 194 0
168 191 0
170 192 0
171 195 0
167 191 0
170 193 0
172 195 0
171 194 0
172 195 0
166 189 0
171 194 0
171 194 0
172 195 0
169 192 0
173 195 0
169 193 0
170 193 0
171 194 0
170 193 0
172 195 0
167 191 0
167 190 0
169 193 0
173 194 0
169 192 0
171 194 0
167 190 0
169 193 0
166 189 0
168 190 0
171 194 0
169 191 0
167 189 0
171 195 0
167 191 0
170 193 0
169 192 0
169 193 0
169 192 0
165 188 0
168 190 0
165 188 0
166 189 0
167 190 0
166 189 0
170 193 0
168 191 0
172 195 0
170 193 0
167 191 0
170 193 0
168 191 0
168 191 0
168 191 0
169 192 0
165 188 0
163 185 0
164 186 0
167 190 0
168 191 0
169 193 0
163 186 0
167 189 0
169 192 0
167 189 0
168 192 0
164 186 0
169 192 0
167 190 0
166 188 0
167 190 0
171 194 0
164 187 0
165 188 0
166 188 0
162 185 0
164 185 0
165 189 0
166 190 0
167 189 0
162 185 0
168 190 0
169 191 0
165 187 0
167 190 0
167 189 0
165 188 0
170 193 0
165 187 0
164 187 0
165 187 0
160 181 0
161 184 0
166 188 0
164 186 0
160 182 0
159 180 0
162 184 0
161 183 0
164 185 0
163 186 0
160 183 0
164 188 0
163 185 0
161 183 0
166 189 0
163 184 0
161 181 0
162 184 0
159 181 0
163 185 0
164 187 0
162 184 0
163 185 0
155 177 0
161 183 0
164 186 0
160 182 0
155 177 0
160 182 0
163 184 0
165 187 0
159 179 0
161 184 0
160 181 0
163 185 0
160 182 0
153 174 0
157 179 0
156 177 0
159 180 0
163 184 0
155 176 0
159 180 0
159 180 0
153 175 0
154 174 0
157 180 0
158 179 0
158 180 0
160 182 0
155 176 0
152 172 0
163 185 0
157 178 0
154 175 0
157 178 0
160 181 0
145 165 0
154 176 0
157 178 0
160 182 0
155 176 0
160 181 0
159 182 0
154 175 0
149 169 0
146 165 0
151 171 0
146 167 0
154 174 0
152 174 0
148 168 0
149 170 0
154 174 0
155 175 0
156 175 0
155 175 0
155 174 0
155 174 0
155 175 0
155 175 0
145 164 0
156 176 0
147 169 0
152 171 0
157 175 0
154 174 0
153 171 0
153 173 0
151 168 0
146 165 0
151 169 0
143 159 0
149 168 0
152 170 0
153 173 0
149 169 0
146 162 0
148 165 0
150 170 0
149 168 0
150 169 0
149 167 0
150 167 0
143 159 0
151 172 0
144 161 0
148 167 0
142 161 0
145 162 0
143 161 0
141 159 0
145 164 0
145 162 0
146 163 0
144 160 0
148 164 0
149 165 0
150 169 0
146 162 0
149 163 0
149 164 0
145 161 0
143 160 0
142 156 0
140 154 0
148 161 0
145 159 0
141 154 0
143 154 0
143 157 0
142 153 11
92 88 15
107 102 16
104 98 0
101 97 0
112 108 25
118 114 20
113 109 25
117 113 16
128 124 29
129 122 22
124 119 11
124 120 29
133 128 30
129 124 25
129 126 19
131 126 22
132 127 32
139 133 36
132 126 28
137 132 30
133 129 28
138 134 22
134 130 30
136 130 32
140 135 30
145 140 34
137 132 16
145 137 34
141 136 30
142 137 22
143 139 19
146 141 22
143 137 30
145 139 36
143 137 32
149 143 19
151 146 25
152 146 32
143 138 25
145 140 34
149 145 25
152 147 34
147 142 30
152 147 36
150 145 32
146 141 19
148 143 22
146 141 28
152 148 34
148 143 28
145 141 11
147 142 19
148 144 28
149 144 32
150 146 28
152 147 22
149 145 28
148 144 30
149 144 25
151 146 28
147 142 30
149 145 16
152 147 28
148 142 22
152 147 30
152 148 37
149 145 19
153 148 36
148 142 34
149 144 16
149 144 30
149 145 30
150 144 28
148 143 28
151 146 28
153 147 28
149 144 36
150 147 25
150 145 22
152 146 32
151 144 25
154 148 34
151 147 25
153 149 36
147 142 32
146 141 11
151 147 25
145 140 25
150 145 28
150 145 28
151 144 36
150 145 30
149 144 25
148 144 30
152 147 28
147 141 22
149 144 28
151 145 25
147 143 32
150 145 25
147 142 22
150 143 30
148 145 16
147 143 25
148 143 30
149 143 30
143 139 16
150 144 22
148 142 25
145 140 32
151 144 32
143 138 30
141 136 30
141 135 25
139 134 28
133 127 19
139 134 25
142 136 25
138 134 19
139 133 28
132 128 28
133 127 22
130 126 22
138 133 28
129 124 25
132 127 22
126 121 36
127 122 25
126 121 22
125 119 28
122 116 25
107 106 19
160 179 0
161 175 0
165 180 0
162 177 0
159 174 0
160 173 0
165 180 0
167 183 0
163 180 0
164 182 0
169 186 0
167 185 0
167 185 0
162 176 0
168 186 0
166 182 0
166 185 0
163 179 0
166 183 0
166 183 0
170 189 0
169 188 0
169 187 0
167 186 0
168 187 0
169 188 0
168 186 0
167 186 0
165 182 0
170 189 0
168 186 0
167 184 0
170 188 0
167 187 0
170 190 0
168 188 0
166 185 0
169 189 0
166 185 0
168 187 0
167 187 0
171 194 0
169 192 0
171 194 0
172 196 0
168 191 0
168 192 0
170 193 0
172 195 0
172 195 0
169 191 0
170 193 0
169 192 0
171 195 0
171 194 0
171 194 0
171 194 0
172 195 0
171 194 0
168 192 0
170 193 0
169 192 0
169 192 0
170 192 0
171 193 0
171 194 0
169 193 0
166 190 0
171 194 0
170 193 0
167 189 0
168 191 0
169 191 0
170 194 0
167 190 0
169 192 0
166 188 0
169 193 0
171 195 0
167 191 0
172 196 0
166 189 0
170 193 0
167 191 0
169 192 0
173 196 0
167 191 0
169 191 0
170 193 0
169 193 0
172 195 0
165 187 0
168 191 0
167 190 0
163 186 0
166 189 0
169 192 0
169 192 0
168 192 0
167 190 0
171 193 0
170 193 0
164 187 0
170 193 0
168 191 0
170 193 0
171 194 0
168 191 0
166 189 0
161 183 0
168 191 0
166 188 0
168 190 0
164 188 0
168 190 0
171 193 0
166 189 0
169 192 0
167 190 0
168 191 0
168 190 0
164 186 0
163 187 0
166 188 0
166 188 0
165 188 0
163 186 0
164 187 0
163 185 0
163 186 0
167 191 0
167 191 0
162 185 0
163 183 0
163 185 0
162 184 0
162 184 0
167 190 0
163 185 0
168 191 0
166 188 0
166 188 0
160 182 0
163 185 0
163 185 0
163 184 0
163 186 0
164 186 0
164 186 0
166 189 0
162 184 0
160 183 0
164 186 0
158 181 0
161 183 0
159 181 0
159 182 0
163 185 0
162 185 0
157 179 0
165 187 0
163 185 0
156 178 0
158 180 0
154 176 0
159 180 0
164 187 0
159 181 0
164 187 0
165 187 0
164 185 0
161 183 0
162 184 0
157 178 0
159 180 0
161 182 0
162 183 0
155 177 0
156 178 0
161 182 0
157 177 0
158 179 0
162 185 0
161 181 0
156 178 0
153 174 0
159 180 0
153 174 0
157 179 0
160 180 0
153 173 0
151 172 0
161 181 0
158 180 0
154 175 0
149 170 0
158 180 0
153 172 0
154 175 0
157 175 0
152 171 0
160 181 0
158 179 0
148 167 0
157 179 0
153 172 0
150 170 0
150 169 0
154 174 0
147 167 0
151 172 0
154 174 0
154 174 0
153 175 0
152 171 0
145 166 0
155 176 0
152 171 0
150 169 0
153 173 0
154 174 0
153 172 0
155 173 0
148 167 0
149 167 0
150 169 0
152 172 0
150 168 0
150 167 0
149 169 0
149 166 0
143 162 0
149 167 0
143 160 0
150 168 0
150 167 0
150 167 0
152 170 0
152 171 0
151 170 0
146 161 0
149 167 0
147 162 0
152 170 0
152 169 0
147 164 0
148 166 0
142 158 0
149 165 0
159 177 0
150 169 0
141 159 0
142 158 0
145 162 0
151 167 0
148 164 0
149 165 0
147 162 0
144 159 0
148 165 0
147 162 0
132 145 0
142 156 0
139 153 0
137 149 0
145 158 0
144 159 0
145 158 0
113 111 16
97 92 11
95 91 8
108 103 21
116 111 22
123 118 30
112 108 16
114 110 11
117 112 22
126 122 19
129 126 31
130 124 24
132 127 34
131 126 22
134 129 28
139 133 30
138 132 25
133 127 25
134 129 25
133 128 25
132 127 28
137 132 30
136 133 25
140 135 30
142 138 30
144 138 36
139 133 34
140 136 19
141 136 25
141 136 19
139 135 11
140 136 16
147 142 30
136 133 11
137 133 22
144 140 25
148 142 39
144 140 19
144 140 25
150 144 16
148 144 19
146 140 30
148 143 34
151 145 30
148 144 22
154 148 32
150 146 19
151 145 32
145 140 25
153 148 25
153 148 30
148 143 30
150 145 22
147 142 28
149 144 30
152 148 11
144 140 22
146 141 11
146 141 25
150 145 19
149 144 19
148 144 25
148 144 32
149 144 25
152 147 25
149 145 28
148 143 19
152 148 30
146 141 25
146 141 30
152 147 16
149 144 16
149 144 16
152 148 25
149 144 25
149 145 22
153 147 37
152 146 39
152 148 34
147 142 25
153 147 36
148 141 36
152 148 28
150 146 16
150 145 32
150 143 25
148 142 32
151 147 30
155 149 37
153 146 28
150 144 28
151 146 30
151 146 22
150 145 30
149 144 28
147 141 28
149 144 28
143 140 28
145 139 28
145 141 25
148 143 30
143 140 25
143 138 30
145 141 30
147 141 37
148 143 25
139 134 25
146 139 30
147 142 22
145 140 30
143 138 30
134 128 19
140 135 22
137 134 16
144 139 25
138 133 28
138 132 28
139 134 28
140 134 34
137 131 36
140 135 28
132 128 22
135 130 25
134 129 25
130 125 22
129 124 36
128 123 36
122 117 28
122 116 25
127 122 11
118 113 32
139 144 16
164 179 0
162 177 0
165 179 0
162 179 0
163 179 0
167 183 0
165 183 0
165 179 0
167 181 0
163 176 0
163 178 0
169 187 0
168 185 0
167 186 0
166 183 0
167 184 0
162 179 0
166 182 0
163 178 0
167 186 0
163 182 0
165 183 0
167 186 0
168 186 0
167 186 0
167 185 0
168 187 0
169 187 0
171 190 0
170 188 0
167 187 0
167 185 0
168 187 0
164 180 0
164 181 0
168 189 0
169 187 0
171 189 0
171 191 0
171 190 0
166 184 0
