P3
400 225
255
175 198 0
175 198 0
174 197 0
173 197 0
174 198 0
174 197 0
174 198 0
176 198 0
175 198 0
174 197 0
174 198 0
173 197 0
174 198 0
174 198 0
175 198 0
175 198 0
173 197 0
174 197 0
174 198 0
174 197 0
176 198 0
174 198 0
175 198 0
173 197 0
175 198 0
175 198 0
172 197 0
174 198 0
174 197 0
173 197 0
175 198 0
175 198 0
175 198 0
174 197 0
174 197 0
174 198 0
175 198 0
174 198 0
174 198 0
174 198 0
174 198 0
174 197 0
174 198 0
175 198 0
175 198 0
175 197 0
173 197 0
174 197 0
174 197 0
174 197 0
173 197 0
174 197 0
175 198 0
173 197 0
174 197 0
174 197 0
173 197 0
175 198 0
173 197 0
176 198 0
174 198 0
173 197 0
174 198 0
175 198 0
175 198 0
175 198 0
174 197 0
175 198 0
173 197 0
175 198 0
175 198 0
173 197 0
174 197 0
173 197 0
174 197 0
175 198 0
175 198 0
173 197 0
174 197 0
173 197 0
174 197 0
174 197 0
175 198 123
181 201 188
183 203 224
184 203 228
183 203 228
184 203 228
184 203 228
184 203 228
184 203 228
183 202 228
183 203 228
184 203 228
184 203 228
183 203 228
183 203 228
184 203 228
183 203 228
183 203 228
183 203 228
184 203 228
183 202 228
183 203 228
183 202 228
184 203 228
183 202 228
184 203 228
184 203 228
184 203 228
184 203 228
183 203 228
184 203 228
184 203 228
184 203 228
183 203 228
183 202 228
184 203 228
183 203 228
183 203 228
184 203 228
184 203 228
185 203 228
183 203 228
184 203 228
184 203 228
183 203 228
184 203 228
183 203 228
183 203 228
183 203 228
184 203 228
184 203 228
184 203 228
184 203 228
183 203 228
183 202 228
184 203 228
184 203 228
184 203 228
184 203 228
183 203 228
184 203 228
184 203 228
184 203 228
184 203 228
183 202 228
184 203 228
183 202 228
183 203 228
183 202 228
183 203 228
183 203 228
183 203 228
184 203 228
183 203 228
184 203 228
184 203 228
184 203 228
180 201 199
176 198 121
173 197 32
174 198 0
174 197 0
173 197 0
174 197 0
174 197 0
173 197 0
173 196 0
172 197 0
173 197 0
174 198 0
175 198 0
174 197 0
173 197 0
173 197 0
174 197 0
175 198 0
175 198 0
175 198 0
175 198 0
174 197 0
175 198 0
175 198 0
176 198 0
175 198 0
173 197 0
175 198 0
173 196 0
175 198 0
173 197 0
173 197 0
174 197 0
172 197 0
173 197 0
174 197 0
173 196 0
176 198 0
175 198 0
175 198 0
174 197 0
174 197 0
174 198 0
175 198 0
174 198 0
173 197 0
173 197 0
174 197 0
173 197 0
170 195 0
174 197 0
174 197 0
174 197 0
175 198 0
174 198 0
174 198 0
174 198 0
173 196 0
174 197 0
175 198 0
175 198 0
173 197 0
174 197 0
175 198 0
176 198 0
174 197 0
172 196 0
174 198 0
174 197 0
173 197 0
173 197 0
173 197 0
173 197 0
175 198 0
175 198 0
174 197 0
173 197 0
174 198 0
174 197 0
175 198 0
173 197 0
174 198 0
174 198 0
174 197 0
174 197 0
174 197 0
173 196 0
174 197 0
173 197 0
174 197 0
175 198 0
173 197 0
174 197 0
175 198 0
173 197 0
174 198 0
174 198 0
174 198 0
175 198 0
174 198 0
175 198 0
174 198 0
174 198 0
175 198 0
175 198 0
174 198 0
175 198 0
174 198 0
176 199 0
174 197 0
171 195 0
172 196 0
173 197 0
172 196 0
173 197 0
174 198 0
174 197 0
175 198 0
175 198 0
171 194 0
174 198 0
174 197 0
173 196 0
173 197 0
174 197 0
176 199 0
173 196 0
174 197 0
174 197 0
174 198 0
174 197 0
175 198 0
175 198 0
173 196 0
174 198 0
174 197 0
176 199 0
174 197 0
173 197 0
172 196 0
173 197 0
174 197 0
175 198 0
174 197 0
174 197 0
173 196 0
173 196 0
172 196 0
173 197 0
173 197 0
174 197 0
173 196 0
174 197 0
174 197 0
174 198 0
174 197 0
173 197 0
173 197 0
174 197 0
174 197 0
175 198 0
174 198 0
173 197 0
173 197 0
173 197 0
174 197 0
173 197 0
174 198 0
174 198 0
174 197 0
173 196 0
173 196 0
174 197 0
174 198 0
172 196 0
174 198 0
173 197 0
174 198 0
174 198 0
175 198 0
174 198 0
173 197 0
174 198 0
173 196 0
173 196 0
175 198 0
174 198 0
174 197 0
172 196 0
175 198 0
175 198 0
173 197 0
174 198 0
174 197 0
174 197 0
175 198 0
173 196 0
174 197 0
174 198 0
175 198 0
174 198 0
175 198 0
173 197 0
174 197 0
175 198 0
174 197 0
174 198 0
174 197 0
174 198 0
174 197 0
175 198 0
174 198 0
174 198 0
173 197 0
176 198 0
175 198 0
173 197 0
174 197 0
174 198 0
174 198 0
175 198 0
173 196 0
174 198 0
174 197 0
174 197 0
174 197 0
174 198 0
174 198 0
175 198 0
175 198 0
175 198 0
174 198 0
175 198 0
172 196 0
175 198 0
173 197 0
173 196 0
174 197 0
176 198 0
172 196 0
175 198 0
173 197 0
175 198 0
174 198 0
174 197 0
174 198 0
173 197 0
175 198 0
174 197 0
173 197 0
176 199 0
174 198 0
175 198 0
174 197 0
175 198 0
175 198 0
175 198 0
173 197 0
173 197 0
174 198 0
175 198 0
175 198 0
174 198 0
174 197 0
173 197 0
176 199 0
174 197 0
174 197 0
176 198 0
173 197 0
174 198 0
174 197 0
174 197 0
174 198 0
173 197 0
173 196 0
174 198 0
173 197 0
174 197 0
174 197 0
175 198 0
174 197 0
176 199 0
174 197 0
175 198 0
173 197 0
174 198 0
175 198 0
174 197 0
172 196 0
174 197 0
174 197 0
174 198 0
175 198 0
175 198 0
175 198 0
175 198 0
175 198 0
175 198 0
175 198 0
174 197 0
175 198 0
174 197 0
174 197 0
174 197 0
173 197 0
174 197 0
174 197 0
173 197 0
174 198 0
174 198 0
175 198 0
173 197 0
176 199 0
174 198 0
175 198 0
175 198 0
173 197 0
174 197 0
175 198 56
179 200 181
183 202 213
184 203 228
184 203 228
184 203 228
184 203 228
184 203 228
183 202 228
183 202 228
184 203 228
183 203 228
184 203 228
184 203 228
184 203 228
184 203 228
184 203 228
184 203 228
183 203 228
184 203 228
183 202 228
184 203 228
184 203 228
183 203 228
183 202 228
184 203 228
183 203 228
184 203 228
182 202 228
184 203 228
184 203 228
184 203 228
183 202 228
184 203 228
183 203 228
184 203 228
183 203 228
184 203 228
183 203 228
184 203 228
183 203 228
184 203 228
183 202 228
184 203 228
184 203 228
183 202 228
184 203 228
184 203 228
184 203 228
183 202 228
184 203 228
183 203 228
183 203 228
183 203 228
184 203 228
183 202 228
184 203 228
183 203 228
184 203 228
183 203 228
184 203 228
184 203 228
184 203 228
183 203 228
183 202 228
183 202 228
183 203 228
184 203 228
183 203 228
183 203 228
184 203 228
184 203 228
184 203 228
183 202 228
183 203 228
183 203 228
183 202 228
184 203 228
183 202 228
183 203 228
183 203 228
184 203 228
181 201 211
177 199 133
173 197 32
175 198 0
175 198 0
174 197 0
175 198 0
174 197 0
174 197 0
174 198 0
173 197 0
173 197 0
175 198 0
173 197 0
173 196 0
170 195 0
174 197 0
174 198 0
173 197 0
174 197 0
173 197 0
173 197 0
173 196 0
175 197 0
175 198 0
174 197 0
173 197 0
173 197 0
175 198 0
173 196 0
174 197 0
173 197 0
173 197 0
172 196 0
173 197 0
175 198 0
174 197 0
173 197 0
174 198 0
171 195 0
173 197 0
174 197 0
174 197 0
176 198 0
174 197 0
174 197 0
173 197 0
173 196 0
174 198 0
173 197 0
172 196 0
173 197 0
173 196 0
174 197 0
173 197 0
175 198 0
174 197 0
174 197 0
172 195 0
175 198 0
174 197 0
174 197 0
175 198 0
174 197 0
174 197 0
173 197 0
173 197 0
174 197 0
173 197 0
174 197 0
175 198 0
173 196 0
174 197 0
173 196 0
175 198 0
175 198 0
175 198 0
174 197 0
175 198 0
175 198 0
174 197 0
173 196 0
173 197 0
172 196 0
175 197 0
173 197 0
173 197 0
174 197 0
172 196 0
174 198 0
175 197 0
173 196 0
175 198 0
173 196 0
174 197 0
174 197 0
174 198 0
174 197 0
174 197 0
174 198 0
175 198 0
173 197 0
175 198 0
173 196 0
174 198 0
173 197 0
174 197 0
175 198 0
173 197 0
175 198 0
173 197 0
175 198 0
174 197 0
172 196 0
173 196 0
173 197 0
172 196 0
173 196 0
175 198 0
174 198 0
173 196 0
173 197 0
174 197 0
173 197 0
174 198 0
173 197 0
174 197 0
173 197 0
173 197 0
174 197 0
174 198 0
174 197 0
171 195 0
176 198 0
173 196 0
174 198 0
173 197 0
173 196 0
174 197 0
175 198 0
175 198 0
174 197 0
174 197 0
173 197 0
174 198 0
173 197 0
174 197 0
174 197 0
173 197 0
174 197 0
174 197 0
174 197 0
174 198 0
173 197 0
174 197 0
174 198 0
173 196 0
175 198 0
174 197 0
174 197 0
174 198 0
174 197 0
173 197 0
174 197 0
173 197 0
173 197 0
173 196 0
174 198 0
175 198 0
174 197 0
173 197 0
172 196 0
175 198 0
173 196 0
175 197 0
173 196 0
174 197 0
175 197 0
174 197 0
175 198 0
175 198 0
175 198 0
173 197 0
174 198 0
172 196 0
173 197 0
174 197 0
174 197 0
174 197 0
173 196 0
174 197 0
176 198 0
173 197 0
174 198 0
174 197 0
177 199 0
175 198 0
174 198 0
175 198 0
175 198 0
175 198 0
174 198 0
174 197 0
174 197 0
173 196 0
175 198 0
172 196 0
174 198 0
173 196 0
173 197 0
174 197 0
175 198 0
174 198 0
175 198 0
173 197 0
174 198 0
174 197 0
173 196 0
174 198 0
175 198 0
174 197 0
173 196 0
176 198 0
173 197 0
174 197 0
174 197 0
174 198 0
173 196 0
175 198 0
173 197 0
174 198 0
174 197 0
175 198 0
173 197 0
173 197 0
174 197 0
174 197 0
172 196 0
174 198 0
173 197 0
174 197 0
175 198 0
175 198 0
175 198 0
175 198 0
174 197 0
174 198 0
174 197 0
174 197 0
172 196 0
174 197 0
171 196 0
173 197 0
173 197 0
175 198 0
174 197 0
174 197 0
174 197 0
172 197 0
174 197 0
174 198 0
173 197 0
175 198 0
175 198 0
174 198 0
173 196 0
174 197 0
174 198 0
174 197 0
174 197 0
173 197 0
175 198 0
175 198 0
175 198 0
173 197 0
174 197 0
173 197 0
174 197 0
175 198 0
175 198 0
175 198 0
175 198 0
175 198 0
174 197 0
173 197 0
175 198 0
174 198 0
174 197 0
174 197 0
175 198 0
175 198 0
174 198 0
175 198 0
175 197 0
175 198 0
174 197 0
176 198 0
175 198 0
175 198 0
174 198 0
174 197 0
174 197 0
174 197 0
176 199 0
173 197 0
174 198 0
174 197 0
175 197 0
175 198 0
174 197 0
172 196 0
173 197 0
174 198 0
176 198 0
172 196 0
176 199 39
179 200 142
181 201 195
183 203 226
184 203 228
184 203 228
183 203 228
184 203 228
184 203 228
184 203 228
184 203 228
184 203 228
184 203 228
184 203 228
184 203 228
183 203 228
183 202 228
184 203 228
183 202 228
184 203 228
183 203 228
184 203 228
183 203 228
184 203 228
184 203 228
184 203 228
184 203 228
183 202 228
184 203 228
183 203 228
182 202 228
183 202 228
184 203 228
183 203 228
183 203 228
183 202 228
184 203 228
184 203 228
184 203 228
183 202 228
184 203 228
184 203 228
183 203 228
183 203 228
183 202 228
183 203 228
183 203 228
183 203 228
183 203 228
184 203 228
182 202 228
183 202 228
183 203 228
184 203 228
183 202 228
184 203 228
184 203 228
184 203 228
183 203 228
183 203 228
183 203 228
183 203 228
183 203 228
184 203 228
183 202 228
184 203 228
183 203 228
183 203 228
183 202 228
183 203 228
184 203 228
184 203 228
183 202 228
183 202 228
184 203 228
183 203 228
183 202 228
183 202 228
184 203 228
184 203 228
183 202 228
184 203 228
184 203 228
183 203 228
184 203 228
184 203 228
183 202 228
181 202 218
177 199 156
174 197 56
173 197 0
174 198 0
173 197 0
174 197 0
174 198 0
174 197 0
174 197 0
174 196 0
174 197 0
174 197 0
176 198 0
174 197 0
173 197 0
175 198 0
173 197 0
173 196 0
173 196 0
174 198 0
175 198 0
173 197 0
176 198 0
172 196 0
175 198 0
175 198 0
174 198 0
172 196 0
172 197 0
175 198 0
174 197 0
173 197 0
175 198 0
172 196 0
175 198 0
173 197 0
174 198 0
173 197 0
172 196 0
174 196 0
174 197 0
175 198 0
173 196 0
172 196 0
173 197 0
175 198 0
173 197 0
172 196 0
175 198 0
174 198 0
173 197 0
174 197 0
174 197 0
173 197 0
173 197 0
172 196 0
174 197 0
174 198 0
173 197 0
173 196 0
172 197 0
174 197 0
175 198 0
172 195 0
174 197 0
174 198 0
174 197 0
174 197 0
173 197 0
174 197 0
174 197 0
175 198 0
173 196 0
174 197 0
173 196 0
173 197 0
175 198 0
173 197 0
176 198 0
174 197 0
174 197 0
174 197 0
175 198 0
175 198 0
174 198 0
172 196 0
174 198 0
175 198 0
174 198 0
173 196 0
173 197 0
173 197 0
173 196 0
174 197 0
173 197 0
172 196 0
175 198 0
175 198 0
176 198 0
174 197 0
174 197 0
174 197 0
176 199 0
175 198 0
175 198 0
173 196 0
174 197 0
174 197 0
175 198 0
173 196 0
175 198 0
174 198 0
175 198 0
172 196 0
174 198 0
173 197 0
173 197 0
176 198 0
173 197 0
174 197 0
175 198 0
173 197 0
174 197 0
174 198 0
174 198 0
172 196 0
173 197 0
175 198 0
174 197 0
174 197 0
173 197 0
175 198 0
174 197 0
175 198 0
176 199 0
173 196 0
175 198 0
174 198 0
172 195 0
173 197 0
175 198 0
172 195 0
175 198 0
174 197 0
174 197 0
173 197 0
173 197 0
175 198 0
174 198 0
174 197 0
173 196 0
174 197 0
175 198 0
174 197 0
175 198 0
172 196 0
174 198 0
174 197 0
174 198 0
174 198 0
173 197 0
173 196 0
173 197 0
174 198 0
173 197 0
174 197 0
175 198 0
173 196 0
175 198 0
173 197 0
175 198 0
174 198 0
173 197 0
175 198 0
174 197 0
174 197 0
174 198 0
174 197 0
173 197 0
173 197 0
174 197 0
174 196 0
175 198 0
173 197 0
172 196 0
175 198 0
173 197 0
174 198 0
174 197 0
174 197 0
175 197 0
174 197 0
173 197 0
174 198 0
176 199 0
174 197 0
174 198 0
175 198 0
174 197 0
174 198 0
174 198 0
174 198 0
174 198 0
174 197 0
174 198 0
173 197 0
173 197 0
173 196 0
175 198 0
175 198 0
174 197 0
171 195 0
174 198 0
173 196 0
174 197 0
172 196 0
173 197 0
175 198 0
175 198 0
175 198 0
175 198 0
174 198 0
174 198 0
172 196 0
175 198 0
173 196 0
174 197 0
173 197 0
175 198 0
173 197 0
173 197 0
177 199 0
173 197 0
174 198 0
175 198 0
173 196 0
174 197 0
174 198 0
175 198 0
175 198 0
174 198 0
174 198 0
174 198 0
176 199 0
174 198 0
173 197 0
174 197 0
175 198 0
174 198 0
175 198 0
173 197 0
175 198 0
175 198 0
174 198 0
174 198 0
173 197 0
175 198 0
174 198 0
174 197 0
173 197 0
174 197 0
176 198 0
174 197 0
174 198 0
175 198 0
175 198 0
175 198 0
173 197 0
175 198 0
174 197 0
174 198 0
173 197 0
176 199 0
174 198 0
175 198 0
173 197 0
173 197 0
174 198 0
174 198 0
175 198 0
172 197 0
174 197 0
173 197 0
172 196 0
175 198 0
172 196 0
174 197 0
175 198 0
175 197 0
173 197 0
175 198 0
171 196 0
173 197 0
175 198 0
174 197 0
173 197 0
175 198 0
173 196 0
174 197 0
174 197 0
175 198 0
173 197 0
174 197 0
175 198 0
175 198 0
173 197 0
173 197 0
176 199 0
174 197 0
176 199 22
178 200 102
180 201 175
183 202 221
183 203 228
183 203 228
183 203 228
183 203 228
184 203 228
184 203 228
184 203 228
183 202 228
183 203 228
183 203 228
184 203 228
183 203 228
183 203 228
184 203 228
183 202 228
184 203 228
184 203 228
183 202 228
184 203 228
184 203 228
184 203 228
184 203 228
184 203 228
183 202 228
184 203 228
184 203 228
183 203 228
183 203 228
183 202 228
183 202 228
183 202 228
183 203 228
184 203 228
184 203 228
183 202 228
183 203 228
184 203 228
184 203 228
183 202 228
183 203 228
184 203 228
183 203 228
184 203 228
184 203 228
182 202 228
184 203 228
184 203 228
183 202 228
184 203 228
184 203 228
184 203 228
184 203 228
184 203 228
183 202 228
184 203 228
183 203 228
183 202 228
184 203 228
183 202 228
184 203 228
183 202 228
184 203 228
183 202 228
184 203 228
184 203 228
183 203 228
184 203 228
184 203 228
183 203 228
184 203 228
183 202 228
183 202 228
184 203 228
183 202 228
184 203 228
184 203 228
184 203 228
183 203 228
184 203 228
183 202 228
182 202 228
184 203 228
184 203 228
183 203 228
183 202 228
183 202 228
184 203 228
184 203 228
183 203 226
180 200 172
175 198 91
172 196 0
173 197 0
175 198 0
174 197 0
175 198 0
175 198 0
173 197 0
174 197 0
173 196 0
172 196 0
175 198 0
174 197 0
172 195 0
173 197 0
175 198 0
175 198 0
175 198 0
174 197 0
174 197 0
173 196 0
173 197 0
173 197 0
175 197 0
173 197 0
173 196 0
172 196 0
172 196 0
175 198 0
176 199 0
173 196 0
174 197 0
174 198 0
174 197 0
174 197 0
173 197 0
174 197 0
174 197 0
173 197 0
174 198 0
172 196 0
173 197 0
175 198 0
174 197 0
174 197 0
173 196 0
173 197 0
175 198 0
175 198 0
174 197 0
175 197 0
176 198 0
175 198 0
174 197 0
172 196 0
175 198 0
173 196 0
174 197 0
175 198 0
175 197 0
176 198 0
172 196 0
174 197 0
173 197 0
173 197 0
175 198 0
172 195 0
174 197 0
174 197 0
174 197 0
172 196 0
174 197 0
174 198 0
173 197 0
175 197 0
173 196 0
172 196 0
173 197 0
171 195 0
173 197 0
173 197 0
174 197 0
173 197 0
176 199 0
173 196 0
174 197 0
174 197 0
172 197 0
174 197 0
174 197 0
174 198 0
174 197 0
173 197 0
175 198 0
173 197 0
173 197 0
172 195 0
174 198 0
175 198 0
174 197 0
175 198 0
175 198 0
174 197 0
174 198 0
172 196 0
174 198 0
173 196 0
176 199 0
175 198 0
172 197 0
175 198 0
174 198 0
174 197 0
177 199 0
174 198 0
172 196 0
174 197 0
173 197 0
175 198 0
175 197 0
174 197 0
173 196 0
174 198 0
174 198 0
173 197 0
173 197 0
173 196 0
173 197 0
175 198 0
174 197 0
174 197 0
174 198 0
175 198 0
175 197 0
173 197 0
174 197 0
174 197 0
175 198 0
176 198 0
174 197 0
174 197 0
175 198 0
175 198 0
175 198 0
174 197 0
174 198 0
174 197 0
173 197 0
173 197 0
175 198 0
173 197 0
174 198 0
173 197 0
173 196 0
173 197 0
175 198 0
175 198 0
174 197 0
174 197 0
174 197 0
175 198 0
172 195 0
175 198 0
174 197 0
175 198 0
173 197 0
175 198 0
174 197 0
174 198 0
174 197 0
173 197 0
174 197 0
175 198 0
174 198 0
174 197 0
176 198 0
174 197 0
172 197 0
174 197 0
173 197 0
175 198 0
173 197 0
175 198 0
172 196 0
174 198 0
173 197 0
174 198 0
173 196 0
173 197 0
176 198 0
175 198 0
174 198 0
174 197 0
175 198 0
175 198 0
173 197 0
174 198 0
174 197 0
172 196 0
174 197 0
174 198 0
175 198 0
176 199 0
174 197 0
174 197 0
174 197 0
175 198 0
175 198 0
174 198 0
172 196 0
173 197 0
174 197 0
174 197 0
174 197 0
176 199 0
174 198 0
172 196 0
175 198 0
173 197 0
174 198 0
174 198 0
175 198 0
175 198 0
175 198 0
175 198 0
173 196 0
173 197 0
172 197 0
174 198 0
174 198 0
174 197 0
175 198 0
174 197 0
175 198 0
174 198 0
173 197 0
174 198 0
174 198 0
175 198 0
174 197 0
174 197 0
173 197 0
175 198 0
175 198 0
173 197 0
174 198 0
174 197 0
172 197 0
175 198 0
173 197 0
172 196 0
175 198 0
174 198 0
173 197 0
174 198 0
173 197 0
174 197 0
174 197 0
173 197 0
173 197 0
174 197 0
173 197 0
176 198 0
174 198 0
175 198 0
172 196 0
175 198 0
172 197 0
175 198 0
174 198 0
175 198 0
174 198 0
175 198 0
174 197 0
172 196 0
175 198 0
175 198 0
175 198 0
174 197 0
172 196 0
174 197 0
173 197 0
174 198 0
174 198 0
173 197 0
174 197 0
174 197 0
174 197 0
174 197 0
173 197 0
173 197 0
174 197 0
174 197 0
173 196 0
175 198 0
174 197 0
174 197 0
175 198 0
175 198 0
174 197 0
174 197 0
174 197 0
175 198 0
173 197 0
175 198 75
180 200 169
182 202 211
184 203 228
184 203 228
184 203 228
184 203 228
183 202 228
184 203 228
184 203 228
184 203 228
184 203 228
183 202 228
184 203 228
184 203 228
183 202 228
184 203 228
183 203 228
183 203 228
184 203 228
183 203 228
183 203 228
184 203 228
183 202 228
183 203 228
184 203 228
182 202 228
184 203 228
184 203 228
183 203 228
184 203 228
184 203 228
183 203 228
184 203 228
184 203 228
184 203 228
184 203 228
184 203 228
184 203 228
184 203 228
184 203 228
183 202 228
183 203 228
183 203 228
183 203 228
183 203 228
183 203 228
183 203 228
183 203 228
184 203 228
184 203 228
183 202 228
183 202 228
183 202 228
185 203 228
183 203 228
183 202 228
183 202 228
183 202 228
183 202 228
183 202 228
183 202 228
183 202 228
183 202 228
183 202 228
184 203 228
183 202 228
184 203 228
184 203 228
183 202 228
183 203 228
184 203 228
183 203 228
183 203 228
183 202 228
183 202 228
183 202 228
183 202 228
182 202 228
183 203 228
184 203 228
184 203 228
184 203 228
183 203 228
184 203 228
184 203 228
184 203 228
182 202 228
184 203 228
184 203 228
183 203 228
183 203 228
184 203 228
183 203 228
183 202 228
184 203 228
182 202 227
180 200 177
176 199 107
174 198 0
174 197 0
175 198 0
175 198 0
174 198 0
174 198 0
172 197 0
175 198 0
174 197 0
172 196 0
174 198 0
175 197 0
173 196 0
174 198 0
173 196 0
175 198 0
173 197 0
174 197 0
173 197 0
174 198 0
173 197 0
174 197 0
174 197 0
175 197 0
174 197 0
174 198 0
175 198 0
174 198 0
174 197 0
173 197 0
173 197 0
173 197 0
174 198 0
173 197 0
174 197 0
173 196 0
174 197 0
170 194 0
172 196 0
173 197 0
175 198 0
175 197 0
174 197 0
174 197 0
173 197 0
174 197 0
172 196 0
172 196 0
174 197 0
175 198 0
174 198 0
173 196 0
174 197 0
173 197 0
174 197 0
176 198 0
174 197 0
174 197 0
173 197 0
173 197 0
171 196 0
173 197 0
171 195 0
172 196 0
175 198 0
175 198 0
174 197 0
175 198 0
173 197 0
175 198 0
174 197 0
174 197 0
175 198 0
171 196 0
174 197 0
174 198 0
174 197 0
175 198 0
175 198 0
171 195 0
174 198 0
174 198 0
173 196 0
175 197 0
172 196 0
174 197 0
174 197 0
175 197 0
173 196 0
173 197 0
174 197 0
174 198 0
175 197 0
174 197 0
173 196 0
175 198 0
174 197 0
173 196 0
173 197 0
175 198 0
174 197 0
175 198 0
174 198 0
173 196 0
174 198 0
172 196 0
174 197 0
176 199 0
174 197 0
174 197 0
175 198 0
173 197 0
174 198 0
174 197 0
176 198 0
172 196 0
172 196 0
174 197 0
172 196 0
173 196 0
173 197 0
175 198 0
173 197 0
174 197 0
174 197 0
175 198 0
174 197 0
175 198 0
174 198 0
174 198 0
171 195 0
173 197 0
174 197 0
173 197 0
173 197 0
175 197 0
173 196 0
174 198 0
175 198 0
173 197 0
174 198 0
174 197 0
174 197 0
174 197 0
174 197 0
172 196 0
174 197 0
174 197 0
175 198 0
175 198 0
174 197 0
173 197 0
174 197 0
174 197 0
175 198 0
171 195 0
173 196 0
173 197 0
176 199 0
174 198 0
175 198 0
174 197 0
174 198 0
173 196 0
173 197 0
174 198 0
173 197 0
172 196 0
174 198 0
173 196 0
173 197 0
174 198 0
175 198 0
175 198 0
173 197 0
174 197 0
175 198 0
175 197 0
174 198 0
174 197 0
174 198 0
174 197 0
175 198 0
174 197 0
174 198 0
174 197 0
173 197 0
173 196 0
177 199 0
173 196 0
174 197 0
174 198 0
175 198 0
172 196 0
173 197 0
175 198 0
174 197 0
174 197 0
173 197 0
174 198 0
175 198 0
175 198 0
174 197 0
174 198 0
174 196 0
174 197 0
173 196 0
174 197 0
174 197 0
173 197 0
175 198 0
175 197 0
174 198 0
174 197 0
174 198 0
173 197 0
173 197 0
173 197 0
174 197 0
175 198 0
174 198 0
173 197 0
173 197 0
173 196 0
175 198 0
174 197 0
174 198 0
173 197 0
173 196 0
172 196 0
176 199 0
174 197 0
174 198 0
175 198 0
175 198 0
174 198 0
175 198 0
176 199 0
173 197 0
175 198 0
173 197 0
174 198 0
173 197 0
173 197 0
174 197 0
174 198 0
174 197 0
174 197 0
174 198 0
173 197 0
173 197 0
175 198 0
174 198 0
174 197 0
174 198 0
173 197 0
175 198 0
175 198 0
174 197 0
175 198 0
175 198 0
175 198 0
175 198 0
174 197 0
175 198 0
174 198 0
173 197 0
174 197 0
175 198 0
174 197 0
174 198 0
175 198 0
173 197 0
173 197 0
173 197 0
174 197 0
173 197 0
174 198 0
174 197 0
176 199 0
175 198 0
175 198 0
175 198 0
172 197 0
173 197 0
174 197 0
173 197 0
174 197 0
174 197 0
174 197 0
174 197 0
175 198 0
174 197 0
173 196 0
173 197 0
175 198 0
174 198 0
173 197 0
174 197 51
176 198 125
181 202 198
183 203 228
183 202 228
184 203 228
183 202 228
184 203 228
184 203 228
184 203 228
184 203 228
183 202 228
183 203 228
184 203 228
184 203 228
182 202 228
184 203 228
184 203 228
183 203 228
183 202 228
184 203 228
184 203 228
183 203 228
183 202 228
184 203 228
184 203 228
183 203 228
184 203 228
183 202 228
183 203 228
183 202 228
184 203 228
183 203 228
184 203 228
184 203 228
184 203 228
184 203 228
184 203 228
183 203 228
183 203 228
184 203 228
183 203 228
183 203 228
184 203 228
184 203 228
183 202 228
183 202 228
183 202 228
183 203 228
183 203 228
184 203 228
183 202 228
183 203 228
183 203 228
183 202 228
183 203 228
183 202 228
183 203 228
183 203 228
184 203 228
184 203 228
183 203 228
183 203 228
184 203 228
184 203 228
183 203 228
183 203 228
183 203 228
184 203 228
183 202 228
183 203 228
184 203 228
184 203 228
184 203 228
183 203 228
184 203 228
184 203 228
183 202 228
183 202 228
183 202 228
183 202 228
183 202 228
183 203 228
183 203 228
183 202 228
183 203 228
183 203 228
183 203 228
183 202 228
183 202 228
184 203 228
183 202 228
182 202 228
184 203 228
183 202 228
184 203 228
184 203 228
183 202 228
183 202 228
183 202 228
184 203 228
183 202 228
182 202 203
176 198 133
173 197 0
175 198 0
175 198 0
174 197 0
173 196 0
173 197 0
175 198 0
174 197 0
174 197 0
175 198 0
174 197 0
171 196 0
173 197 0
173 197 0
173 197 0
174 198 0
175 198 0
172 196 0
174 197 0
173 196 0
175 198 0
174 197 0
174 197 0
172 196 0
176 198 0
175 198 0
174 198 0
174 197 0
172 197 0
174 198 0
173 197 0
174 197 0
174 197 0
174 197 0
174 197 0
174 197 0
172 195 0
174 197 0
172 196 0
171 196 0
173 197 0
173 196 0
174 197 0
175 198 0
173 197 0
174 197 0
174 197 0
172 195 0
173 197 0
174 198 0
172 196 0
175 198 0
173 196 0
173 197 0
174 198 0
172 196 0
174 197 0
174 197 0
173 197 0
173 196 0
173 197 0
173 196 0
173 197 0
173 196 0
173 197 0
173 197 0
175 198 0
175 198 0
175 198 0
174 197 0
174 198 0
174 198 0
174 197 0
172 197 0
173 197 0
173 197 0
172 196 0
173 196 0
175 198 0
174 197 0
173 197 0
174 197 0
173 197 0
173 196 0
173 196 0
174 197 0
174 198 0
174 197 0
173 197 0
175 198 0
176 198 0
171 195 0
173 196 0
175 197 0
174 198 0
175 198 0
175 198 0
173 196 0
173 196 0
174 198 0
175 198 0
174 198 0
173 197 0
175 198 0
173 196 0
173 197 0
174 198 0
173 197 0
173 197 0
174 198 0
173 197 0
175 198 0
174 198 0
172 196 0
175 198 0
176 198 0
174 197 0
173 197 0
174 198 0
175 198 0
172 195 0
173 197 0
173 197 0
173 197 0
172 196 0
175 197 0
175 198 0
171 195 0
175 198 0
174 197 0
174 197 0
174 197 0
173 196 0
173 197 0
175 198 0
174 197 0
173 196 0
174 197 0
174 198 0
175 197 0
174 197 0
175 198 0
173 197 0
173 197 0
173 197 0
174 198 0
173 197 0
175 198 0
174 198 0
175 198 0
173 197 0
174 197 0
172 196 0
176 199 0
174 197 0
174 197 0
174 197 0
174 198 0
172 196 0
173 196 0
173 197 0
175 198 0
173 197 0
173 196 0
173 196 0
173 197 0
175 198 0
173 197 0
173 197 0
175 198 0
174 198 0
174 197 0
173 197 0
175 198 0
172 197 0
174 198 0
175 198 0
175 198 0
173 196 0
172 196 0
174 197 0
173 197 0
173 197 0
174 197 0
174 197 0
174 197 0
174 198 0
173 196 0
173 197 0
173 197 0
173 197 0
174 197 0
173 197 0
175 198 0
174 198 0
174 198 0
174 197 0
175 198 0
172 196 0
175 198 0
174 197 0
174 197 0
173 197 0
174 197 0
173 196 0
173 197 0
174 197 0
174 197 0
173 197 0
174 198 0
173 197 0
174 198 0
175 198 0
174 197 0
174 197 0
175 198 0
173 197 0
175 198 0
175 198 0
174 197 0
173 197 0
174 197 0
174 197 0
173 197 0
173 197 0
174 197 0
176 199 0
172 196 0
173 197 0
176 198 0
175 198 0
174 198 0
173 197 0
173 197 0
173 197 0
174 198 0
174 198 0
177 199 0
174 197 0
176 198 0
173 197 0
175 198 0
175 198 0
175 198 0
174 197 0
172 197 0
174 198 0
175 198 0
174 197 0
174 198 0
175 198 0
175 198 0
174 198 0
174 197 0
175 198 0
175 198 0
174 198 0
175 198 0
175 198 0
176 199 0
174 197 0
173 197 0
175 198 0
175 198 0
174 197 0
173 197 0
174 198 0
174 197 0
174 198 0
174 198 0
174 197 0
173 197 0
173 197 0
175 198 0
175 198 0
174 197 0
172 197 0
175 198 0
174 197 0
173 197 0
173 197 0
175 198 0
174 197 0
174 197 0
173 197 0
174 197 0
174 197 0
175 198 0
174 197 0
175 198 0
173 197 0
174 198 0
172 196 0
173 197 22
177 199 121
182 202 181
183 203 220
183 203 228
184 203 228
184 203 228
183 203 228
183 202 228
184 203 228
184 203 228
183 203 228
183 202 228
184 203 228
183 202 228
183 202 228
184 203 228
183 202 228
183 202 228
183 202 228
183 202 228
184 203 228
183 202 228
183 203 228
183 203 228
184 203 228
183 202 228
183 202 228
184 203 228
184 203 228
184 203 228
183 203 228
183 202 228
183 203 228
183 203 228
183 203 228
183 202 228
183 202 228
184 203 228
184 203 228
183 202 228
183 202 228
183 202 228
184 203 228
182 202 228
183 203 228
183 202 228
183 202 228
182 202 228
183 203 228
183 203 228
183 202 228
182 202 228
183 203 228
184 203 228
183 202 228
184 203 228
184 203 228
184 203 228
183 202 228
184 203 228
183 202 228
183 203 228
183 203 228
184 203 228
183 203 228
183 203 228
184 203 228
183 202 228
184 203 228
183 202 228
183 202 228
183 202 228
183 202 228
183 203 228
183 202 228
183 203 228
183 203 228
183 203 228
183 202 228
183 202 228
183 202 228
183 202 228
183 203 228
183 203 228
183 202 228
183 202 228
183 202 228
184 203 228
183 203 228
183 202 228
183 202 228
183 202 228
183 202 228
182 202 228
183 202 228
184 203 228
183 202 228
183 202 228
183 202 228
182 202 228
183 203 228
184 203 228
183 202 228
183 202 228
184 203 228
183 202 228
181 201 203
178 200 139
174 197 39
173 197 0
174 197 0
174 197 0
174 197 0
173 197 0
175 198 0
172 196 0
174 197 0
174 198 0
174 197 0
174 198 0
174 198 0
173 196 0
173 197 0
171 195 0
174 197 0
173 197 0
174 197 0
173 197 0
175 197 0
174 197 0
174 198 0
174 198 0
173 197 0
174 197 0
174 197 0
172 195 0
173 196 0
174 197 0
173 195 0
174 196 0
173 197 0
173 197 0
175 198 0
173 197 0
175 198 0
172 196 0
174 198 0
174 197 0
173 197 0
174 197 0
173 197 0
174 198 0
174 198 0
173 196 0
174 197 0
175 198 0
172 197 0
174 198 0
174 197 0
174 197 0
175 198 0
172 196 0
175 198 0
174 197 0
173 196 0
174 197 0
174 196 0
172 196 0
175 198 0
174 198 0
174 197 0
173 195 0
174 197 0
175 198 0
173 196 0
173 197 0
175 198 0
175 198 0
177 199 0
174 197 0
174 198 0
174 198 0
174 198 0
175 198 0
175 198 0
174 197 0
173 197 0
174 197 0
173 196 0
174 197 0
173 197 0
173 197 0
174 198 0
172 197 0
175 198 0
176 198 0
173 196 0
175 198 0
172 196 0
172 197 0
174 197 0
174 197 0
172 196 0
172 196 0
172 196 0
174 197 0
175 198 0
176 198 0
175 198 0
176 198 0
175 198 0
175 198 0
174 197 0
174 197 0
173 196 0
174 197 0
173 196 0
172 196 0
174 198 0
175 197 0
173 197 0
174 197 0
174 198 0
174 196 0
175 198 0
175 198 0
174 198 0
173 197 0
174 197 0
174 197 0
174 197 0
172 195 0
174 198 0
172 196 0
173 197 0
174 198 0
173 197 0
174 198 0
173 196 0
176 199 0
174 197 0
174 197 0
174 198 0
174 197 0
175 198 0
174 197 0
175 198 0
174 197 0
174 198 0
174 198 0
174 198 0
172 197 0
175 198 0
174 197 0
174 198 0
173 197 0
175 198 0
174 197 0
174 197 0
174 198 0
176 198 0
173 197 0
175 198 0
174 197 0
175 198 0
172 196 0
174 197 0
174 198 0
174 197 0
173 197 0
174 198 0
174 198 0
173 197 0
174 198 0
173 196 0
173 197 0
173 197 0
175 198 0
174 197 0
174 197 0
174 197 0
174 197 0
174 198 0
175 198 0
173 197 0
173 197 0
172 196 0
173 197 0
172 197 0
174 197 0
174 197 0
173 196 0
175 198 0
174 198 0
173 196 0
174 197 0
174 197 0
174 197 0
172 196 0
173 197 0
174 198 0
172 196 0
174 197 0
172 196 0
175 198 0
176 198 0
172 196 0
173 197 0
174 197 0
175 198 0
173 197 0
173 197 0
174 198 0
175 198 0
173 197 0
173 197 0
174 197 0
175 198 0
174 197 0
174 198 0
173 197 0
174 198 0
175 198 0
173 197 0
176 198 0
174 197 0
175 198 0
174 197 0
175 198 0
173 197 0
174 198 0
174 198 0
175 198 0
175 198 0
174 198 0
174 197 0
174 198 0
173 197 0
173 197 0
174 197 0
174 197 0
175 198 0
174 197 0
176 199 0
174 198 0
175 198 0
173 197 0
175 198 0
172 196 0
175 198 0
175 198 0
175 198 0
175 198 0
175 198 0
174 197 0
174 198 0
175 198 0
174 197 0
174 198 0
174 197 0
175 198 0
174 197 0
174 197 0
174 198 0
174 198 0
173 197 0
175 198 0
173 197 0
174 197 0
174 198 0
174 198 0
174 198 0
174 197 0
175 198 0
173 197 0
174 198 0
174 197 0
174 197 0
173 197 0
174 197 0
172 197 0
175 198 0
176 199 0
174 197 0
174 197 0
174 197 0
174 198 0
175 198 0
172 196 0
173 197 0
174 198 0
173 197 0
174 198 0
175 198 0
175 198 0
173 196 0
174 197 0
176 199 88
179 201 166
183 202 208
183 203 228
183 202 228
184 203 228
183 202 228
183 202 228
183 203 228
184 203 228
184 203 228
185 203 228
183 202 228
184 203 228
184 203 228
183 202 228
183 202 228
183 202 228
183 202 228
182 202 228
184 203 228
184 203 228
184 203 228
183 202 228
183 202 228
184 203 228
183 202 228
183 203 228
183 203 228
183 202 228
183 202 228
183 203 228
184 203 228
183 203 228
184 203 228
184 203 228
183 203 228
184 203 228
184 203 228
183 202 228
184 203 228
184 203 228
184 203 228
184 203 228
183 203 228
183 202 228
184 203 228
183 202 228
183 203 228
183 202 228
183 203 228
183 203 228
183 202 228
183 202 228
183 203 228
183 202 228
183 202 228
183 202 228
183 203 228
183 203 228
184 203 228
183 202 228
182 202 228
183 203 228
183 202 228
184 203 228
183 202 228
183 202 228
184 203 228
184 203 228
183 203 228
183 202 228
184 203 228
184 203 228
183 202 228
183 203 228
183 203 228
184 203 228
184 203 228
182 202 228
182 202 228
183 203 228
184 203 228
183 202 228
183 202 228
183 203 228
183 203 228
183 202 228
183 202 228
183 203 228
183 202 228
182 202 228
183 202 228
183 202 228
183 202 228
184 203 228
184 203 228
182 202 228
183 202 228
183 203 228
182 202 228
183 203 228
183 203 228
182 202 228
183 203 228
183 202 228
182 202 228
184 203 228
183 202 228
183 203 228
183 202 228
182 202 216
178 200 155
176 198 75
172 196 0
175 198 0
172 196 0
174 197 0
176 198 0
174 197 0
175 198 0
171 195 0
174 197 0
173 197 0
175 198 0
173 196 0
173 197 0
174 197 0
174 197 0
171 195 0
175 198 0
174 197 0
172 196 0
174 197 0
173 197 0
174 197 0
173 196 0
173 196 0
173 196 0
174 197 0
172 196 0
174 198 0
173 197 0
174 198 0
174 197 0
174 197 0
174 197 0
172 196 0
175 197 0
175 198 0
174 197 0
175 198 0
173 196 0
173 197 0
173 197 0
174 197 0
174 197 0
173 197 0
173 197 0
172 196 0
174 197 0
173 197 0
172 196 0
173 196 0
173 197 0
175 198 0
173 196 0
174 198 0
174 197 0
174 197 0
173 196 0
175 198 0
175 198 0
174 198 0
172 196 0
175 198 0
174 198 0
171 196 0
175 197 0
174 198 0
174 197 0
175 198 0
173 197 0
173 197 0
173 196 0
174 197 0
173 197 0
173 197 0
173 196 0
174 198 0
174 198 0
176 198 0
175 198 0
174 198 0
172 196 0
174 197 0
174 197 0
173 196 0
175 198 0
173 196 0
173 197 0
174 198 0
175 198 0
173 197 0
174 197 0
173 197 0
173 197 0
174 197 0
175 198 0
174 197 0
172 197 0
174 196 0
173 196 0
172 195 0
174 197 0
173 197 0
173 197 0
173 197 0
173 197 0
173 196 0
173 197 0
174 198 0
173 196 0
175 198 0
175 198 0
172 197 0
173 196 0
173 197 0
172 196 0
174 197 0
173 197 0
173 197 0
174 197 0
175 198 0
174 197 0
172 196 0
175 198 0
173 197 0
174 197 0
173 196 0
174 198 0
173 196 0
174 197 0
173 196 0
174 197 0
175 198 0
175 197 0
173 197 0
176 199 0
173 197 0
174 197 0
173 197 0
173 197 0
173 196 0
174 198 0
175 198 0
173 196 0
174 197 0
174 197 0
173 196 0
174 197 0
172 196 0
173 197 0
174 197 0
174 197 0
174 197 0
174 197 0
174 197 0
176 199 0
174 197 0
171 195 0
173 197 0
173 197 0
175 198 0
174 197 0
173 196 0
172 196 0
174 197 0
173 197 0
174 198 0
174 197 0
174 198 0
175 197 0
175 198 0
174 197 0
176 199 0
174 197 0
172 196 0
174 198 0
174 197 0
174 197 0
172 196 0
175 198 0
175 197 0
173 197 0
174 198 0
174 198 0
175 198 0
174 198 0
173 197 0
173 197 0
175 198 0
174 197 0
174 198 0
174 197 0
172 196 0
174 197 0
174 198 0
174 197 0
175 198 0
176 199 0
174 197 0
174 198 0
174 198 0
173 197 0
174 198 0
173 197 0
174 198 0
175 198 0
174 197 0
174 196 0
175 198 0
173 197 0
173 197 0
174 197 0
174 197 0
172 195 0
174 198 0
175 198 0
174 198 0
176 199 0
174 198 0
174 197 0
175 198 0
175 198 0
173 197 0
173 196 0
176 199 0
175 198 0
175 198 0
174 197 0
175 198 0
174 197 0
175 198 0
174 197 0
175 198 0
173 197 0
174 197 0
175 198 0
174 197 0
174 198 0
173 197 0
174 198 0
175 198 0
173 197 0
173 197 0
174 198 0
174 197 0
174 197 0
172 196 0
175 198 0
175 198 0
174 197 0
174 197 0
175 198 0
175 198 0
175 198 0
173 197 0
173 197 0
174 197 0
175 198 0
176 198 0
174 197 0
175 198 0
176 198 0
173 197 0
173 197 0
175 198 0
173 197 0
174 197 0
174 197 0
173 196 0
174 197 0
174 198 0
173 197 0
174 197 0
176 198 0
175 198 0
172 197 0
174 197 0
174 198 0
174 198 0
174 198 0
174 197 0
174 197 0
173 197 0
173 197 0
175 198 39
178 199 150
181 202 203
184 203 228
184 203 228
184 203 228
184 203 228
183 202 228
184 203 228
184 203 228
183 202 228
184 203 228
184 203 228
183 203 228
183 202 228
184 203 228
183 203 228
182 202 228
184 203 228
184 203 228
183 202 228
183 203 228
184 203 228
184 203 228
184 203 228
182 202 228
184 203 228
183 203 228
184 203 228
183 202 228
184 203 228
183 203 228
183 202 228
183 203 228
184 203 228
183 203 228
184 203 228
183 203 228
183 202 228
184 203 228
182 202 228
183 202 228
184 203 228
183 202 228
184 203 228
183 203 228
183 202 228
183 203 228
183 202 228
183 203 228
183 202 228
183 202 228
183 202 228
184 203 228
183 202 228
183 203 228
183 202 228
183 203 228
183 203 228
183 202 228
183 203 228
183 202 228
183 202 228
183 203 228
183 203 228
183 203 228
184 203 228
183 202 228
182 202 228
183 203 228
183 202 228
183 203 228
183 202 228
184 203 228
183 203 228
183 202 228
183 203 228
183 202 228
183 202 228
182 202 228
183 202 228
183 202 228
183 203 228
183 203 228
183 202 228
183 202 228
183 203 228
183 202 228
182 202 228
183 203 228
182 202 228
182 202 228
184 203 228
182 202 228
183 203 228
182 202 228
183 202 228
183 202 228
183 202 228
183 202 228
183 202 228
183 203 228
183 203 228
182 202 228
183 203 228
183 202 228
183 203 228
183 202 228
183 202 228
184 203 228
183 202 228
184 203 228
183 202 228
183 203 228
183 202 228
183 202 228
183 202 223
179 200 166
175 198 94
174 197 0
175 198 0
174 198 0
174 197 0
174 197 0
173 196 0
172 197 0
175 198 0
173 197 0
175 198 0
174 197 0
173 197 0
174 197 0
174 197 0
172 196 0
175 198 0
172 196 0
173 196 0
174 197 0
174 198 0
174 197 0
174 198 0
176 199 0
173 197 0
173 197 0
173 197 0
174 197 0
174 197 0
174 197 0
173 196 0
173 196 0
173 196 0
173 197 0
174 198 0
173 197 0
173 197 0
173 196 0
174 198 0
176 198 0
174 198 0
174 198 0
175 198 0
174 197 0
174 198 0
174 197 0
174 198 0
173 197 0
173 196 0
174 197 0
175 198 0
174 198 0
174 198 0
173 197 0
173 197 0
174 197 0
175 198 0
175 198 0
173 196 0
175 198 0
174 197 0
174 197 0
173 196 0
174 197 0
174 197 0
174 197 0
172 196 0
171 195 0
173 197 0
174 198 0
174 197 0
174 197 0
174 197 0
174 198 0
174 197 0
170 194 0
173 197 0
174 197 0
173 197 0
174 197 0
174 197 0
174 198 0
175 198 0
174 198 0
175 197 0
174 197 0
174 197 0
174 197 0
174 197 0
171 194 0
175 198 0
173 196 0
173 196 0
173 197 0
174 198 0
173 196 0
175 198 0
172 195 0
173 197 0
174 198 0
174 198 0
171 195 0
174 197 0
173 196 0
174 197 0
174 198 0
174 198 0
175 198 0
174 197 0
173 197 0
174 197 0
173 197 0
173 197 0
173 197 0
173 196 0
174 198 0
175 198 0
174 198 0
175 198 0
174 198 0
175 197 0
174 197 0
174 197 0
173 197 0
171 195 0
174 197 0
174 198 0
173 197 0
175 198 0
175 198 0
172 196 0
173 197 0
174 198 0
176 198 0
175 197 0
174 198 0
173 197 0
172 197 0
175 198 0
174 197 0
172 196 0
174 198 0
173 196 0
173 197 0
175 198 0
175 198 0
173 197 0
172 196 0
173 197 0
174 197 0
174 197 0
173 197 0
176 198 0
176 198 0
173 197 0
173 196 0
175 198 0
172 196 0
175 198 0
175 198 0
173 197 0
174 197 0
173 197 0
174 197 0
174 197 0
174 197 0
173 197 0
175 198 0
174 198 0
174 197 0
176 198 0
173 197 0
173 197 0
175 198 0
175 198 0
174 197 0
175 198 0
173 197 0
172 196 0
174 197 0
174 198 0
173 197 0
173 197 0
175 198 0
173 196 0
174 197 0
171 196 0
173 197 0
174 198 0
175 198 0
175 198 0
173 197 0
175 197 0
175 198 0
174 197 0
175 198 0
173 196 0
176 199 0
174 197 0
174 198 0
174 198 0
174 197 0
174 197 0
174 198 0
175 198 0
174 197 0
173 197 0
174 197 0
173 197 0
175 198 0
174 196 0
173 197 0
174 197 0
175 198 0
175 198 0
175 198 0
173 197 0
173 196 0
173 197 0
174 198 0
175 198 0
174 197 0
174 197 0
174 198 0
174 197 0
174 197 0
175 198 0
175 198 0
174 197 0
175 198 0
173 197 0
174 197 0
172 197 0
174 198 0
175 198 0
174 197 0
175 198 0
173 197 0
174 198 0
173 197 0
173 197 0
173 197 0
175 198 0
174 197 0
175 198 0
173 197 0
173 197 0
173 197 0
174 198 0
174 198 0
174 197 0
174 197 0
174 198 0
173 197 0
175 198 0
173 197 0
175 198 0
175 198 0
175 198 0
172 197 0
173 197 0
175 198 0
175 198 0
175 198 0
173 197 0
175 198 0
174 198 0
174 198 0
173 197 0
175 198 0
174 198 0
172 197 0
174 197 0
174 198 0
175 198 0
174 198 0
175 198 0
172 197 0
174 197 0
175 198 0
177 199 116
180 201 187
182 202 223
183 203 228
183 202 228
184 203 228
183 203 228
183 203 228
182 202 228
184 203 228
183 202 228
184 203 228
183 203 228
183 202 228
184 203 228
183 202 228
182 202 228
183 202 228
184 203 228
183 203 228
183 202 228
183 203 228
184 203 228
183 203 228
183 202 228
183 203 228
183 202 228
183 203 228
183 202 228
183 202 228
184 203 228
184 203 228
183 203 228
183 203 228
183 202 228
183 202 228
183 202 228
183 203 228
183 203 228
183 203 228
183 203 228
183 202 228
183 202 228
183 202 228
183 203 228
183 202 228
184 203 228
183 202 228
183 203 228
183 203 228
183 202 228
183 203 228
183 202 228
183 203 228
183 202 228
183 203 228
183 202 228
183 203 228
183 202 228
183 202 228
183 203 228
183 202 228
183 202 228
183 202 228
184 203 228
182 202 228
183 202 228
183 203 228
184 203 228
183 202 228
183 202 228
183 202 228
183 202 228
183 202 228
183 203 228
184 203 228
183 202 228
183 203 228
183 202 228
183 203 228
183 203 228
183 203 228
183 203 228
183 202 228
184 203 228
183 202 228
183 202 228
183 202 228
183 202 228
183 202 228
182 202 228
182 202 228
183 202 228
183 202 228
183 203 228
183 203 228
183 202 228
183 203 228
183 202 228
183 202 228
183 203 228
183 202 228
183 202 228
183 203 228
183 203 228
183 202 228
183 202 228
183 203 228
183 203 228
182 202 228
183 202 228
183 203 228
184 203 228
184 203 228
184 203 228
184 203 228
183 202 228
183 202 228
183 202 228
184 203 228
182 202 228
180 201 194
178 199 112
173 197 0
172 196 0
174 197 0
174 197 0
174 197 0
173 196 0
174 198 0
175 198 0
172 196 0
174 197 0
173 197 0
174 198 0
173 197 0
172 196 0
175 198 0
172 196 0
173 197 0
174 197 0
174 197 0
176 198 0
173 196 0
174 197 0
174 197 0
173 197 0
175 197 0
174 197 0
174 198 0
172 197 0
175 198 0
174 197 0
174 197 0
174 197 0
175 198 0
175 197 0
175 198 0
174 197 0
173 196 0
172 196 0
172 196 0
174 197 0
175 198 0
174 198 0
174 197 0
174 197 0
175 198 0
174 197 0
174 198 0
174 198 0
173 197 0
174 198 0
175 198 0
174 197 0
175 198 0
174 197 0
173 197 0
173 197 0
173 196 0
174 197 0
173 196 0
172 196 0
174 197 0
173 197 0
177 199 0
171 195 0
175 198 0
173 197 0
175 197 0
173 196 0
173 197 0
173 196 0
174 197 0
174 198 0
174 197 0
174 197 0
172 196 0
172 196 0
174 197 0
173 196 0
172 197 0
171 196 0
174 198 0
174 197 0
173 197 0
175 198 0
175 198 0
173 197 0
174 197 0
172 195 0
174 197 0
174 198 0
173 197 0
175 198 0
175 198 0
175 198 0
173 197 0
172 196 0
172 196 0
172 196 0
174 197 0
174 197 0
174 198 0
174 197 0
172 196 0
175 197 0
174 197 0
175 198 0
175 198 0
172 195 0
174 198 0
174 197 0
173 197 0
175 198 0
171 194 0
174 197 0
172 196 0
174 197 0
173 196 0
175 197 0
174 198 0
173 197 0
175 198 0
174 197 0
174 197 0
174 197 0
172 196 0
172 195 0
173 196 0
175 198 0
174 197 0
173 197 0
174 197 0
174 198 0
176 198 0
175 197 0
173 197 0
177 199 0
174 198 0
174 197 0
173 197 0
175 198 0
174 197 0
175 198 0
174 197 0
174 198 0
173 197 0
174 197 0
172 196 0
174 196 0
173 197 0
173 197 0
173 197 0
173 197 0
175 198 0
173 197 0
174 197 0
175 198 0
172 196 0
174 197 0
174 197 0
173 196 0
173 197 0
172 196 0
172 196 0
175 198 0
174 197 0
173 197 0
172 196 0
174 197 0
174 198 0
172 197 0
172 195 0
174 197 0
174 197 0
175 198 0
173 197 0
173 196 0
173 197 0
175 198 0
174 197 0
173 197 0
174 198 0
173 197 0
173 196 0
173 197 0
172 196 0
172 196 0
174 197 0
174 197 0
175 198 0
174 197 0
176 199 0
176 198 0
173 197 0
173 196 0
174 197 0
175 198 0
173 196 0
174 197 0
174 198 0
175 198 0
174 198 0
174 198 0
172 197 0
173 196 0
175 197 0
174 197 0
175 198 0
174 197 0
174 197 0
176 199 0
172 196 0
173 196 0
174 197 0
174 197 0
173 196 0
175 198 0
175 198 0
175 198 0
176 199 0
174 197 0
173 197 0
176 198 0
175 198 0
174 197 0
174 198 0
175 198 0
174 197 0
174 198 0
176 198 0
174 198 0
173 197 0
173 197 0
175 198 0
175 198 0
174 198 0
174 197 0
175 198 0
174 197 0
174 197 0
174 197 0
175 198 0
174 197 0
174 198 0
176 198 0
174 197 0
174 197 0
172 196 0
174 197 0
173 197 0
174 197 0
175 198 0
174 198 0
173 197 0
175 198 0
174 198 0
175 198 0
174 197 0
173 197 0
174 197 0
174 198 0
173 197 0
172 196 0
175 198 0
172 196 0
173 197 0
175 198 0
174 198 0
175 198 0
176 198 0
174 197 0
174 198 0
174 198 0
174 197 0
174 197 0
175 198 75
178 200 158
182 202 208
183 203 228
184 203 228
183 203 228
183 203 228
183 202 228
184 203 228
184 203 228
183 203 228
183 203 228
183 203 228
183 202 228
184 203 228
183 202 228
183 202 228
183 202 228
184 203 228
183 202 228
183 202 228
184 203 228
183 202 228
183 203 228
183 203 228
184 203 228
184 203 228
183 203 228
184 203 228
183 202 228
184 203 228
184 203 228
183 202 228
183 202 228
182 202 228
183 203 228
184 203 228
183 203 228
183 202 228
184 203 228
183 203 228
183 202 228
183 203 228
183 203 228
183 202 228
183 203 228
183 203 228
183 203 228
183 202 228
183 202 228
183 203 228
183 202 228
182 202 228
184 203 228
183 202 228
183 202 228
183 203 228
182 202 228
182 202 228
183 202 228
184 203 228
184 203 228
183 203 228
183 202 228
183 202 228
183 202 228
183 202 228
183 203 228
183 203 228
184 203 228
182 202 228
183 202 228
182 202 228
184 203 228
182 202 228
182 202 228
183 202 228
183 203 228
183 202 228
183 202 228
183 202 228
183 202 228
183 202 228
183 202 228
182 202 228
184 203 228
183 202 228
183 202 228
183 203 228
183 202 228
184 203 228
182 202 228
184 203 228
183 202 228
183 203 228
183 202 228
184 203 228
183 203 228
183 202 228
183 203 228
184 203 228
183 203 228
183 203 228
183 202 228
183 203 228
183 203 228
183 203 228
182 202 228
183 202 228
183 202 228
183 202 228
183 202 228
183 202 228
183 202 228
182 202 228
183 202 228
183 202 228
183 203 228
182 202 228
183 203 228
183 202 228
182 202 228
184 203 228
183 202 228
183 203 228
183 202 228
180 201 194
175 197 109
173 197 22
174 197 0
173 197 0
172 195 0
174 197 0
176 198 0
174 197 0
175 197 0
174 198 0
174 197 0
174 197 0
174 197 0
173 197 0
174 198 0
174 198 0
175 198 0
173 197 0
174 197 0
174 197 0
174 197 0
174 197 0
174 197 0
174 197 0
174 197 0
175 198 0
172 196 0
174 196 0
174 197 0
173 197 0
175 198 0
174 198 0
174 198 0
173 197 0
173 197 0
174 197 0
176 198 0
174 197 0
174 198 0
173 197 0
174 197 0
173 196 0
173 197 0
173 196 0
174 197 0
174 197 0
175 198 0
175 198 0
173 196 0
175 198 0
174 197 0
175 198 0
174 198 0
174 197 0
175 198 0
176 198 0
175 198 0
171 196 0
173 196 0
172 196 0
172 196 0
174 197 0
172 197 0
174 197 0
171 195 0
173 196 0
173 196 0
173 197 0
173 196 0
174 197 0
174 197 0
174 197 0
173 197 0
175 198 0
173 197 0
173 196 0
173 197 0
173 197 0
173 196 0
174 197 0
175 198 0
172 196 0
174 198 0
173 197 0
174 197 0
173 196 0
175 198 0
173 196 0
175 198 0
174 198 0
174 197 0
174 197 0
172 196 0
171 195 0
171 193 0
175 198 0
173 197 0
171 195 0
173 196 0
176 198 0
174 198 0
173 197 0
174 197 0
174 198 0
171 194 0
173 197 0
174 197 0
173 197 0
174 197 0
174 197 0
175 198 0
175 198 0
174 197 0
173 196 0
174 197 0
174 197 0
172 196 0
171 195 0
173 197 0
174 197 0
172 196 0
174 197 0
174 197 0
173 196 0
172 196 0
173 197 0
172 196 0
174 197 0
174 197 0
174 197 0
173 197 0
173 197 0
173 196 0
175 198 0
172 196 0
175 198 0
174 197 0
174 198 0
172 196 0
174 197 0
173 196 0
174 197 0
174 197 0
173 197 0
174 197 0
171 195 0
174 196 0
174 197 0
175 197 0
174 197 0
174 197 0
175 198 0
173 197 0
174 198 0
174 198 0
172 196 0
172 196 0
173 197 0
174 198 0
173 196 0
174 198 0
173 196 0
174 197 0
171 195 0
174 198 0
173 197 0
172 196 0
174 198 0
175 198 0
175 198 0
174 197 0
173 197 0
174 197 0
175 198 0
174 198 0
172 196 0
174 197 0
174 198 0
173 196 0
176 198 0
173 196 0
173 197 0
172 196 0
172 196 0
175 198 0
174 197 0
174 197 0
172 196 0
173 197 0
175 198 0
173 197 0
172 196 0
173 197 0
171 196 0
174 197 0
175 198 0
173 197 0
173 197 0
175 198 0
173 197 0
173 197 0
173 197 0
174 198 0
173 197 0
174 197 0
177 199 0
174 197 0
174 198 0
174 197 0
174 198 0
175 198 0
175 198 0
174 198 0
173 197 0
174 197 0
174 197 0
175 198 0
174 197 0
174 197 0
174 197 0
173 197 0
173 197 0
174 198 0
174 197 0
174 197 0
174 198 0
175 198 0
174 197 0
173 197 0
174 197 0
174 198 0
175 198 0
174 198 0
174 197 0
175 198 0
173 197 0
175 198 0
175 198 0
173 197 0
173 197 0
174 197 0
174 198 0
174 197 0
175 198 0
175 198 0
175 198 0
174 198 0
175 198 0
174 197 0
173 197 0
174 197 0
174 198 0
172 196 0
175 198 0
175 198 0
174 197 0
173 197 0
173 197 0
173 196 0
175 198 0
174 197 0
174 197 0
174 198 0
174 197 0
175 198 0
173 197 0
173 197 0
175 198 0
173 197 0
173 197 0
173 197 22
176 199 133
180 201 192
183 203 228
183 203 228
184 203 228
184 203 228
183 203 228
182 202 228
184 203 228
183 203 228
184 203 228
183 202 228
183 202 228
183 202 228
184 203 228
184 203 228
183 202 228
183 202 228
184 203 228
184 203 228
183 203 228
183 202 228
183 203 228
183 202 228
183 203 228
183 203 228
183 202 228
183 202 228
183 203 228
183 202 228
183 202 228
184 203 228
183 202 228
183 203 228
183 202 228
183 202 228
184 203 228
182 202 228
183 202 228
183 203 228
183 203 228
183 202 228
183 202 228
183 202 228
183 202 228
183 203 228
183 203 228
184 203 228
183 202 228
183 203 228
183 203 228
183 202 228
184 203 228
182 202 228
183 203 228
183 202 228
183 203 228
183 203 228
182 202 228
183 203 228
183 202 228
183 203 228
184 203 228
183 202 228
183 202 228
183 203 228
183 202 228
183 202 228
183 203 228
183 203 228
183 202 228
183 202 228
183 203 228
184 203 228
183 203 228
183 202 228
182 202 228
183 203 228
184 203 228
183 202 228
183 202 228
184 203 228
183 202 228
184 203 228
183 202 228
183 202 228
183 202 228
183 202 228
184 203 228
183 202 228
183 203 228
183 203 228
183 202 228
183 202 228
183 203 228
182 202 228
184 203 228
183 202 228
183 202 228
183 202 228
183 203 228
183 203 228
183 202 228
183 203 228
183 202 228
183 202 228
183 203 228
182 202 228
183 202 228
183 203 228
183 203 228
183 203 228
183 202 228
183 203 228
183 202 228
183 203 228
183 203 228
183 202 228
184 203 228
183 202 228
183 202 228
183 202 228
183 203 228
183 202 228
183 202 228
183 202 228
183 202 228
183 202 228
183 202 228
183 202 228
181 201 202
177 199 125
174 197 32
171 195 0
173 196 0
172 196 0
174 197 0
173 196 0
175 198 0
174 196 0
174 197 0
174 197 0
173 197 0
173 196 0
174 198 0
174 198 0
173 197 0
174 197 0
174 197 0
174 198 0
175 198 0
174 197 0
172 195 0
172 195 0
172 196 0
174 197 0
173 197 0
173 197 0
174 198 0
174 197 0
173 196 0
173 197 0
172 196 0
173 196 0
173 196 0
173 196 0
174 197 0
173 197 0
174 197 0
171 195 0
175 198 0
174 197 0
174 197 0
174 197 0
175 198 0
173 197 0
174 197 0
174 197 0
174 197 0
173 197 0
174 197 0
174 196 0
174 197 0
172 196 0
171 195 0
174 197 0
173 197 0
174 198 0
172 195 0
175 198 0
174 197 0
175 198 0
172 196 0
175 198 0
175 198 0
173 197 0
173 197 0
173 197 0
174 197 0
174 197 0
174 198 0
174 197 0
175 198 0
175 198 0
171 196 0
173 197 0
174 197 0
175 198 0
173 196 0
174 198 0
174 198 0
173 196 0
174 197 0
173 197 0
174 197 0
172 196 0
173 196 0
174 197 0
173 197 0
175 198 0
174 197 0
174 197 0
176 198 0
174 197 0
175 198 0
174 198 0
174 198 0
175 198 0
174 197 0
175 198 0
174 197 0
174 197 0
173 196 0
173 196 0
172 196 0
174 197 0
175 198 0
173 196 0
174 198 0
174 197 0
174 197 0
173 197 0
172 196 0
173 197 0
173 197 0
175 198 0
175 198 0
175 198 0
174 198 0
174 198 0
175 198 0
173 197 0
174 198 0
173 197 0
175 198 0
173 197 0
175 197 0
171 195 0
173 196 0
175 197 0
174 197 0
174 197 0
174 196 0
174 197 0
172 196 0
173 197 0
174 197 0
173 197 0
174 197 0
173 197 0
174 197 0
175 198 0
175 198 0
175 198 0
174 197 0
174 198 0
173 197 0
174 198 0
174 197 0
172 196 0
173 197 0
176 199 0
175 198 0
172 196 0
174 198 0
173 197 0
175 198 0
175 198 0
174 198 0
173 196 0
174 197 0
174 197 0
175 198 0
173 197 0
174 197 0
175 197 0
173 197 0
174 197 0
174 198 0
173 196 0
174 198 0
173 196 0
175 198 0
175 198 0
173 197 0
173 197 0
173 197 0
173 197 0
174 197 0
173 196 0
173 196 0
174 198 0
173 196 0
175 198 0
174 198 0
172 195 0
172 196 0
174 198 0
171 195 0
175 198 0
174 197 0
172 195 0
175 198 0
174 197 0
175 198 0
173 197 0
173 196 0
172 197 0
174 197 0
175 198 0
173 197 0
175 197 0
175 198 0
173 197 0
174 197 0
173 197 0
173 197 0
173 197 0
174 197 0
172 196 0
173 197 0
175 198 0
176 199 0
171 196 0
174 197 0
174 197 0
176 199 0
173 197 0
174 197 0
174 197 0
173 197 0
176 198 0
172 196 0
174 198 0
173 197 0
172 197 0
174 198 0
174 198 0
174 198 0
175 198 0
174 198 0
176 199 0
174 197 0
175 198 0
172 196 0
173 197 0
174 197 0
173 197 0
174 198 0
174 198 0
172 196 0
173 197 0
173 197 0
175 198 0
176 198 0
175 198 0
175 198 0
175 198 0
175 198 0
175 198 0
176 199 0
174 197 0
175 198 0
175 198 0
175 198 0
173 197 0
173 197 0
172 196 0
174 197 0
174 197 0
175 198 0
173 197 0
174 197 0
174 197 0
174 197 0
175 198 0
173 197 0
177 199 129
180 201 181
183 202 225
183 202 228
183 202 228
183 202 228
183 203 228
184 203 228
184 203 228
183 203 228
183 203 228
184 203 228
183 202 228
184 203 228
183 203 228
184 203 228
183 202 228
183 202 228
183 202 228
183 202 228
183 202 228
183 202 228
183 202 228
183 203 228
183 202 228
183 202 228
183 202 228
183 203 228
182 202 228
184 203 228
183 203 228
184 203 228
183 202 228
183 203 228
183 202 228
183 202 228
183 202 228
183 202 228
183 202 228
183 202 228
183 203 228
183 202 228
183 203 228
183 202 228
183 202 228
183 202 228
183 202 228
184 203 228
184 203 228
183 203 228
183 203 228
184 203 228
184 203 228
183 203 228
183 202 228
184 203 228
183 203 228
183 203 228
183 203 228
183 203 228
183 203 228
183 203 228
182 202 228
183 203 228
183 202 228
183 202 228
184 203 228
183 203 228
183 202 228
182 202 228
183 202 228
182 202 228
183 203 228
182 202 228
182 202 228
183 202 228
184 203 228
183 202 228
183 202 228
183 202 228
183 202 228
183 202 228
183 202 228
183 202 228
183 202 228
183 202 228
183 202 228
183 202 228
183 202 228
183 202 228
182 202 228
183 202 228
182 202 228
183 202 228
183 203 228
182 202 228
183 202 228
182 202 228
182 202 228
183 202 228
183 203 228
182 202 228
183 202 228
183 202 228
182 202 228
183 203 228
183 202 228
182 202 228
183 202 228
183 202 228
182 202 228
184 203 228
183 202 228
183 202 228
183 203 228
183 202 228
183 202 228
183 202 228
183 202 228
183 202 228
184 203 228
183 202 228
183 203 228
183 202 228
183 202 228
183 202 228
182 202 228
183 202 228
183 202 228
183 202 228
183 202 228
183 202 228
183 202 228
182 202 228
183 202 228
181 201 216
177 199 151
174 197 45
173 196 0
175 198 0
174 197 0
172 196 0
174 197 0
173 197 0
174 197 0
174 198 0
174 197 0
173 197 0
173 197 0
176 198 0
175 198 0
173 197 0
173 196 0
175 198 0
174 197 0
173 197 0
174 197 0
174 197 0
175 197 0
174 197 0
174 197 0
173 197 0
174 197 0
175 198 0
174 198 0
175 198 0
174 197 0
173 197 0
175 197 0
174 197 0
172 196 0
173 197 0
174 198 0
174 197 0
174 197 0
174 197 0
173 196 0
174 197 0
174 197 0
174 198 0
175 198 0
173 197 0
173 197 0
173 196 0
174 197 0
174 197 0
174 197 0
173 197 0
173 196 0
174 197 0
174 197 0
174 197 0
173 197 0
173 197 0
174 198 0
173 196 0
172 195 0
173 197 0
173 197 0
172 196 0
174 197 0
175 198 0
175 198 0
172 196 0
172 196 0
173 196 0
174 198 0
174 197 0
172 196 0
172 195 0
174 197 0
174 197 0
175 198 0
174 197 0
173 197 0
173 196 0
173 196 0
174 197 0
173 196 0
173 196 0
174 198 0
173 196 0
170 194 0
174 197 0
173 197 0
175 198 0
175 198 0
175 198 0
173 197 0
173 197 0
175 198 0
174 198 0
175 198 0
174 198 0
175 198 0
173 196 0
174 197 0
173 196 0
174 197 0
173 197 0
175 197 0
174 198 0
173 197 0
172 196 0
173 196 0
175 197 0
174 197 0
173 196 0
173 196 0
174 198 0
174 197 0
174 197 0
173 197 0
174 197 0
174 198 0
171 195 0
174 197 0
174 197 0
175 198 0
175 198 0
174 198 0
173 197 0
176 198 0
174 198 0
173 197 0
174 197 0
175 198 0
174 197 0
175 198 0
173 196 0
173 196 0
173 197 0
174 198 0
173 197 0
174 197 0
176 198 0
174 197 0
174 198 0
174 197 0
173 197 0
173 197 0
175 198 0
174 197 0
175 198 0
175 198 0
175 198 0
173 197 0
174 197 0
173 197 0
174 197 0
172 196 0
172 196 0
173 197 0
176 198 0
173 196 0
173 197 0
173 197 0
173 197 0
175 198 0
174 198 0
172 195 0
174 197 0
174 198 0
174 198 0
175 198 0
172 196 0
173 196 0
173 197 0
174 197 0
175 198 0
175 198 0
176 198 0
173 197 0
173 197 0
173 197 0
174 197 0
175 198 0
174 197 0
174 197 0
174 198 0
173 196 0
175 198 0
173 197 0
174 197 0
172 196 0
175 198 0
173 197 0
174 198 0
174 198 0
174 198 0
173 197 0
175 198 0
174 197 0
174 198 0
175 198 0
173 196 0
174 197 0
170 194 0
174 197 0
173 197 0
174 197 0
174 197 0
173 197 0
175 198 0
174 198 0
173 197 0
174 198 0
175 198 0
173 196 0
174 198 0
174 197 0
174 197 0
175 198 0
174 197 0
174 198 0
175 198 0
174 198 0
174 197 0
175 198 0
174 197 0
175 198 0
176 199 0
175 198 0
173 197 0
176 199 0
173 197 0
174 198 0
174 197 0
174 198 0
174 197 0
174 198 0
174 197 0
176 199 0
175 198 0
174 197 0
175 198 0
176 199 0
175 198 0
174 198 0
173 197 0
173 197 0
174 197 0
173 197 0
173 197 0
174 197 0
175 198 0
175 198 0
174 197 0
174 198 0
174 197 0
174 197 0
174 197 0
173 197 0
173 197 0
173 197 0
173 197 0
174 197 0
176 198 68
178 200 150
181 201 214
184 203 228
183 202 228
182 202 228
184 203 228
183 202 228
183 203 228
183 203 228
183 202 228
182 202 228
183 203 228
183 202 228
184 203 228
183 202 228
184 203 228
183 202 228
183 202 228
183 203 228
183 203 228
184 203 228
183 202 228
183 202 228
183 202 228
183 202 228
183 202 228
183 202 228
183 202 228
183 202 228
183 202 228
184 203 228
183 202 228
184 203 228
183 202 228
183 202 228
183 203 228
183 203 228
183 202 228
184 203 228
184 203 228
183 202 228
182 202 228
183 202 228
183 202 228
183 202 228
183 202 228
183 203 228
184 203 228
184 203 228
184 203 228
183 202 228
183 202 228
183 202 228
183 202 228
183 202 228
183 202 228
182 202 228
183 202 228
182 202 228
183 202 228
183 202 228
183 202 228
183 203 228
183 203 228
183 202 228
182 202 228
183 203 228
183 202 228
183 202 228
183 202 228
183 203 228
183 202 228
183 202 228
183 202 228
183 202 228
183 202 228
183 202 228
183 203 228
183 202 228
183 202 228
182 202 228
183 202 228
183 202 228
183 202 228
183 202 228
183 203 228
183 203 228
183 202 228
182 202 228
183 202 228
183 202 228
183 202 228
183 202 228
182 202 228
183 202 228
183 202 228
183 202 228
183 202 228
183 202 228
183 202 228
182 202 228
183 202 228
183 202 228
183 202 228
184 203 228
183 202 228
182 202 228
182 202 228
183 202 228
183 202 228
182 202 228
183 202 228
183 203 228
183 203 228
182 202 228
183 202 228
183 202 228
183 203 228
183 202 228
183 202 228
183 202 228
182 202 228
183 203 228
183 203 228
182 202 228
183 203 228
183 202 228
183 202 228
184 203 228
183 202 228
183 202 228
183 202 228
182 202 228
182 202 228
183 203 228
182 202 228
183 202 228
182 202 228
183 202 228
183 202 223
178 200 171
174 198 75
176 199 0
173 197 0
175 198 0
172 196 0
175 198 0
175 198 0
176 198 0
174 197 0
174 197 0
171 196 0
174 198 0
173 197 0
175 198 0
173 197 0
175 198 0
172 196 0
173 196 0
175 197 0
173 196 0
173 196 0
173 196 0
173 197 0
174 197 0
173 197 0
173 196 0
172 196 0
174 197 0
174 197 0
172 195 0
173 197 0
174 197 0
173 196 0
175 198 0
174 198 0
174 197 0
173 196 0
174 197 0
175 198 0
172 195 0
174 197 0
172 196 0
173 197 0
173 197 0
174 197 0
174 197 0
172 196 0
172 195 0
175 197 0
172 196 0
175 198 0
173 195 0
174 197 0
175 198 0
172 195 0
173 197 0
172 196 0
175 198 0
173 196 0
173 197 0
171 195 0
174 198 0
171 195 0
175 198 0
175 198 0
173 196 0
173 196 0
171 195 0
173 197 0
174 197 0
175 198 0
173 197 0
173 196 0
172 196 0
173 197 0
174 197 0
173 197 0
173 197 0
174 197 0
173 196 0
173 197 0
172 196 0
174 198 0
171 195 0
173 196 0
174 198 0
173 197 0
173 197 0
173 197 0
175 197 0
173 197 0
172 195 0
172 196 0
175 197 0
172 196 0
173 196 0
175 198 0
174 198 0
173 197 0
174 197 0
173 197 0
172 196 0
174 198 0
173 197 0
175 198 0
172 196 0
172 196 0
174 197 0
173 196 0
173 197 0
173 196 0
174 197 0
173 197 0
174 198 0
173 197 0
174 197 0
174 198 0
175 197 0
174 198 0
174 197 0
173 197 0
174 197 0
175 198 0
174 197 0
173 197 0
175 198 0
174 197 0
174 197 0
175 198 0
173 196 0
175 198 0
174 197 0
175 198 0
174 197 0
174 197 0
174 197 0
173 197 0
173 197 0
174 197 0
173 197 0
173 196 0
173 197 0
175 198 0
176 198 0
173 197 0
173 197 0
173 196 0
173 196 0
173 197 0
173 197 0
173 197 0
176 198 0
174 197 0
175 198 0
172 196 0
174 198 0
175 198 0
173 196 0
174 197 0
173 197 0
174 198 0
173 197 0
175 198 0
174 197 0
175 198 0
176 199 0
174 198 0
171 194 0
173 197 0
174 197 0
173 196 0
174 197 0
174 198 0
175 198 0
175 198 0
174 197 0
175 198 0
173 197 0
173 197 0
175 198 0
173 197 0
174 198 0
175 198 0
174 196 0
172 196 0
175 198 0
175 198 0
173 197 0
175 198 0
174 198 0
175 198 0
172 196 0
176 198 0
174 198 0
175 197 0
173 197 0
173 197 0
174 197 0
172 196 0
174 198 0
172 197 0
173 197 0
173 197 0
175 198 0
173 197 0
176 199 0
174 197 0
176 198 0
175 198 0
172 197 0
172 196 0
174 198 0
173 197 0
175 198 0
175 198 0
175 198 0
175 198 0
173 197 0
173 197 0
175 198 0
173 197 0
174 197 0
175 198 0
172 196 0
173 197 0
175 198 0
175 198 0
174 197 0
174 197 0
173 197 0
174 198 0
173 197 0
174 197 0
175 198 0
174 197 0
174 198 0
174 198 0
174 198 0
172 196 0
174 197 0
174 198 0
174 197 0
174 197 0
174 198 0
174 197 0
173 197 0
174 197 0
174 197 0
174 197 0
174 197 0
173 196 0
173 197 0
172 196 0
173 197 0
174 197 0
175 198 45
177 199 123
180 201 196
183 202 226
183 203 228
183 202 228
184 203 228
183 202 228
183 202 228
183 202 228
183 203 228
182 202 228
183 202 228
183 202 228
183 203 228
182 202 228
183 202 228
183 202 228
183 202 228
184 203 228
183 203 228
183 202 228
183 202 228
183 202 228
184 203 228
183 202 228
182 202 228
183 203 228
183 202 228
183 202 228
183 202 228
183 202 228
183 202 228
183 202 228
183 202 228
183 202 228
183 202 228
183 202 228
183 203 228
183 203 228
184 203 228
183 202 228
183 203 228
183 202 228
184 203 228
182 202 228
183 202 228
183 202 228
182 202 228
183 202 228
182 202 228
183 202 228
184 203 228
182 202 228
183 202 228
183 202 228
183 202 228
183 202 228
183 203 228
183 202 228
183 202 228
183 202 228
183 202 228
182 202 228
183 203 228
182 202 228
183 202 228
183 203 228
182 202 228
183 202 228
183 202 228
183 203 228
183 202 228
182 202 228
182 202 228
182 202 228
183 202 228
183 203 228
184 203 228
183 203 228
183 202 228
183 203 228
183 202 228
183 202 228
183 202 228
183 202 228
183 203 228
183 203 228
183 202 228
183 202 228
183 202 228
183 203 228
183 202 228
182 202 228
183 202 228
183 202 228
183 202 228
182 202 228
183 202 228
182 202 228
183 203 228
183 202 228
182 202 228
183 202 228
183 203 228
183 203 228
183 202 228
183 202 228
183 202 228
182 202 228
183 202 228
183 202 228
183 202 228
183 203 228
183 202 228
182 202 228
183 202 228
182 202 228
183 202 228
183 202 228
183 203 228
183 202 228
183 203 228
182 202 228
183 202 228
182 202 228
184 203 228
182 202 228
183 202 228
183 202 228
183 203 228
182 202 228
182 202 228
183 203 228
183 202 228
182 202 228
183 202 228
182 202 228
182 202 228
183 203 228
183 202 228
183 202 228
183 202 228
182 202 228
183 202 228
182 202 228
181 201 191
174 197 72
173 197 0
175 197 0
173 196 0
174 197 0
176 198 0
173 197 0
174 197 0
175 198 0
172 196 0
174 197 0
173 197 0
174 197 0
173 196 0
173 197 0
174 197 0
172 196 0
174 197 0
174 197 0
172 196 0
173 196 0
174 197 0
174 197 0
175 197 0
173 196 0
174 197 0
174 198 0
174 197 0
172 196 0
172 196 0
174 197 0
174 198 0
173 196 0
174 197 0
174 197 0
174 197 0
174 197 0
173 197 0
172 195 0
174 197 0
174 198 0
174 197 0
171 196 0
173 197 0
173 196 0
174 197 0
172 196 0
174 197 0
174 197 0
173 197 0
173 196 0
175 198 0
172 196 0
173 197 0
173 196 0
174 197 0
175 198 0
172 196 0
171 196 0
172 196 0
174 197 0
174 197 0
173 196 0
173 196 0
174 198 0
175 198 0
177 199 0
175 198 0
173 197 0
174 197 0
175 198 0
172 196 0
175 198 0
175 198 0
173 196 0
173 197 0
174 197 0
174 198 0
175 198 0
175 198 0
174 197 0
175 198 0
172 196 0
174 197 0
173 197 0
173 196 0
176 199 0
173 197 0
174 198 0
174 198 0
174 197 0
173 197 0
174 198 0
173 197 0
173 196 0
173 197 0
175 198 0
174 198 0
174 198 0
174 197 0
171 195 0
174 197 0
173 197 0
173 197 0
174 197 0
172 196 0
172 195 0
173 196 0
174 197 0
173 197 0
174 197 0
174 198 0
174 197 0
173 197 0
173 196 0
174 197 0
174 197 0
173 197 0
173 196 0
175 198 0
174 197 0
173 197 0
174 198 0
172 196 0
173 197 0
174 198 0
174 197 0
174 197 0
175 197 0
173 196 0
174 197 0
175 198 0
174 197 0
174 197 0
173 197 0
174 197 0
172 196 0
173 197 0
171 195 0
174 197 0
174 197 0
173 196 0
175 198 0
174 197 0
175 198 0
174 196 0
177 199 0
174 197 0
174 198 0
174 197 0
174 197 0
174 197 0
171 195 0
174 197 0
174 197 0
175 197 0
172 195 0
176 199 0
174 197 0
175 198 0
172 197 0
174 197 0
173 196 0
171 195 0
174 197 0
173 197 0
172 196 0
174 197 0
172 196 0
173 196 0
172 196 0
174 198 0
174 197 0
173 196 0
174 197 0
174 197 0
172 196 0
173 196 0
173 197 0
172 196 0
173 196 0
174 198 0
172 196 0
176 198 0
173 197 0
173 197 0
174 198 0
174 197 0
174 197 0
174 198 0
176 198 0
174 198 0
175 198 0
175 198 0
174 197 0
175 198 0
173 197 0
175 198 0
175 198 0
174 198 0
174 197 0
172 196 0
174 198 0
174 198 0
173 196 0
174 198 0
172 196 0
174 197 0
175 198 0
175 198 0
174 198 0
174 197 0
174 197 0
175 198 0
173 197 0
175 198 0
175 198 0
173 197 0
176 199 0
174 198 0
174 198 0
173 197 0
174 197 0
173 197 0
173 197 0
175 198 0
175 197 0
174 197 0
175 198 0
174 198 0
173 197 0
173 197 0
174 197 0
174 197 0
173 197 0
174 197 0
174 198 0
174 198 0
172 197 0
175 198 0
173 197 0
175 198 0
175 198 0
173 197 0
173 197 0
174 197 0
172 196 0
173 197 0
175 198 0
174 198 0
173 197 0
176 199 88
180 201 190
182 202 224
183 203 228
183 203 228
183 203 228
183 202 228
183 203 228
183 203 228
184 203 228
184 203 228
183 202 228
182 202 228
183 202 228
182 202 228
183 203 228
182 202 228
183 202 228
183 203 228
183 203 228
183 202 228
183 203 228
183 202 228
183 203 228
183 203 228
184 203 228
183 202 228
183 202 228
183 203 228
183 202 228
183 203 228
184 203 228
184 203 228
183 202 228
183 203 228
183 202 228
183 203 228
184 203 228
183 202 228
182 202 228
183 202 228
182 202 228
182 202 228
183 202 228
183 203 228
183 203 228
183 202 228
183 202 228
182 202 228
183 202 228
183 202 228
183 202 228
183 202 228
183 202 228
183 202 228
183 202 228
183 202 228
183 202 228
182 202 228
183 202 228
183 202 228
182 202 228
183 202 228
183 202 228
183 202 228
184 203 228
182 202 228
182 202 228
183 202 228
183 202 228
183 202 228
183 202 228
182 202 228
183 203 228
183 202 228
183 202 228
182 202 228
183 203 228
183 202 228
182 202 228
183 202 228
183 202 228
183 202 228
182 202 228
183 202 228
183 202 228
183 202 228
183 203 228
183 202 228
183 202 228
182 202 228
184 203 228
183 202 228
183 202 228
182 202 228
182 202 228
183 202 228
183 202 228
184 203 228
183 203 228
183 203 228
183 202 228
183 203 228
183 203 228
183 202 228
183 202 228
182 202 228
183 202 228
183 202 228
182 202 228
183 203 228
183 202 228
183 202 228
182 202 228
182 202 228
183 203 228
183 202 228
182 202 228
183 202 228
183 203 228
184 203 228
183 203 228
182 202 228
182 202 228
183 202 228
182 202 228
183 202 228
183 202 228
182 202 228
183 202 228
183 203 228
183 203 228
183 202 228
183 203 228
183 202 228
183 202 228
183 202 228
183 202 228
183 202 228
182 202 228
182 202 228
183 203 228
183 202 228
183 202 228
183 203 228
182 202 228
183 203 228
182 202 228
183 202 228
183 202 227
180 201 199
176 198 107
175 198 0
175 198 0
171 195 0
172 196 0
173 197 0
172 196 0
173 197 0
173 197 0
172 197 0
172 196 0
172 196 0
173 196 0
174 198 0
174 198 0
173 196 0
174 197 0
173 196 0
174 198 0
174 197 0
174 196 0
174 197 0
175 198 0
173 197 0
171 196 0
175 198 0
172 195 0
173 197 0
174 198 0
174 197 0
173 196 0
172 196 0
174 197 0
175 198 0
173 197 0
174 197 0
173 196 0
173 197 0
174 197 0
173 197 0
173 197 0
174 197 0
173 196 0
173 197 0
172 197 0
175 198 0
174 198 0
173 197 0
175 198 0
174 197 0
173 196 0
173 197 0
172 196 0
172 196 0
173 197 0
170 194 0
175 198 0
172 196 0
174 197 0
173 197 0
174 197 0
174 197 0
174 197 0
173 196 0
174 197 0
174 197 0
174 197 0
174 197 0
174 197 0
174 198 0
175 197 0
171 195 0
173 197 0
173 197 0
174 197 0
173 197 0
174 196 0
173 196 0
173 196 0
173 196 0
172 196 0
174 197 0
172 196 0
173 196 0
174 197 0
175 198 0
173 197 0
171 196 0
174 198 0
173 196 0
174 197 0
175 197 0
173 197 0
173 196 0
174 198 0
173 196 0
174 198 0
174 197 0
173 197 0
173 197 0
173 196 0
175 198 0
174 197 0
175 198 0
172 196 0
174 197 0
174 197 0
173 197 0
175 198 0
173 197 0
172 196 0
174 198 0
174 197 0
173 197 0
174 197 0
173 197 0
175 198 0
170 194 0
173 197 0
173 197 0
176 198 0
172 196 0
175 198 0
174 197 0
172 196 0
174 198 0
175 198 0
175 198 0
171 195 0
173 197 0
173 197 0
174 197 0
175 198 0
172 196 0
173 197 0
173 197 0
175 198 0
173 196 0
173 196 0
175 198 0
174 197 0
174 198 0
173 197 0
173 197 0
176 199 0
174 197 0
174 198 0
173 197 0
174 196 0
175 198 0
175 198 0
174 197 0
174 198 0
175 198 0
175 198 0
175 198 0
172 196 0
173 197 0
174 198 0
176 198 0
174 197 0
175 198 0
174 196 0
173 196 0
173 196 0
174 198 0
174 197 0
172 197 0
174 197 0
175 198 0
173 196 0
172 197 0
173 196 0
176 199 0
174 197 0
172 197 0
174 198 0
174 197 0
175 198 0
174 198 0
172 195 0
174 197 0
174 197 0
173 197 0
173 197 0
173 197 0
176 199 0
174 198 0
174 197 0
174 197 0
175 197 0
175 198 0
174 198 0
174 197 0
175 198 0
173 196 0
174 197 0
175 197 0
175 198 0
174 197 0
176 198 0
173 196 0
175 198 0
174 197 0
174 197 0
173 196 0
174 197 0
173 197 0
176 199 0
175 198 0
174 197 0
175 198 0
174 197 0
174 197 0
173 197 0
175 198 0
174 198 0
173 197 0
174 198 0
173 197 0
175 198 0
174 198 0
173 197 0
173 197 0
175 198 0
172 196 0
176 199 0
174 197 0
175 198 0
175 198 0
176 198 0
173 197 0
174 197 0
173 197 0
173 197 0
174 197 0
173 197 0
174 198 0
174 197 0
173 197 0
173 197 0
174 198 0
175 198 0
176 198 0
174 197 0
174 197 0
175 198 79
180 201 165
182 202 209
183 202 228
183 202 228
183 203 228
184 203 228
183 202 228
183 202 228
183 202 228
183 202 228
183 202 228
183 202 228
182 202 228
183 202 228
183 202 228
184 203 228
182 202 228
183 203 228
183 202 228
183 203 228
183 203 228
183 203 228
183 202 228
183 202 228
184 203 228
183 202 228
183 202 228
183 203 228
183 203 228
183 202 228
183 202 228
183 203 228
183 202 228
183 202 228
183 202 228
183 203 228
184 203 228
182 202 228
183 202 228
183 203 228
183 202 228
183 203 228
183 202 228
183 203 228
183 202 228
183 203 228
184 203 228
182 202 228
183 202 228
183 202 228
183 202 228
183 202 228
182 202 228
183 202 228
183 202 228
182 202 228
182 202 228
183 202 228
183 202 228
183 203 228
183 202 228
183 202 228
183 202 228
182 202 228
183 202 228
183 202 228
184 203 228
184 203 228
183 202 228
183 202 228
183 202 228
183 202 228
183 202 228
182 202 228
183 202 228
182 202 228
183 202 228
182 202 228
183 202 228
183 202 228
182 202 228
183 202 228
182 202 228
183 202 228
183 202 228
183 203 228
183 202 228
183 202 228
183 202 228
184 203 228
183 202 228
182 202 228
183 203 228
183 203 228
182 202 228
182 202 228
182 202 228
183 202 228
183 202 228
183 202 228
183 202 228
183 202 228
183 202 228
183 202 228
183 202 228
183 202 228
183 203 228
183 202 228
183 202 228
183 202 228
184 203 228
183 202 228
183 202 228
183 202 228
182 202 228
183 202 228
183 203 228
183 202 228
182 202 228
182 202 228
182 202 228
183 203 228
183 202 228
183 203 228
183 203 228
182 202 228
182 202 228
183 202 228
182 202 228
183 203 228
182 202 228
183 202 228
183 202 228
182 202 228
183 202 228
183 203 228
182 202 228
182 202 228
183 202 228
182 202 228
182 202 228
183 202 228
183 202 228
183 202 228
183 202 228
182 202 228
183 202 228
183 202 228
183 202 228
183 202 228
182 202 228
183 202 228
182 202 228
182 202 228
182 202 206
175 198 142
174 198 0
173 196 0
173 197 0
173 197 0
173 196 0
173 196 0
174 197 0
174 198 0
175 198 0
172 196 0
175 198 0
174 197 0
175 198 0
172 195 0
172 196 0
174 198 0
173 196 0
173 197 0
173 197 0
174 197 0
175 198 0
173 197 0
173 196 0
175 198 0
172 195 0
174 197 0
172 196 0
174 196 0
174 197 0
175 198 0
174 197 0
172 197 0
174 197 0
173 196 0
173 196 0
174 197 0
174 197 0
174 197 0
174 197 0
173 197 0
174 198 0
171 195 0
174 197 0
174 197 0
174 197 0
173 197 0
173 197 0
174 197 0
175 197 0
172 196 0
173 197 0
174 198 0
175 198 0
173 197 0
173 196 0
174 197 0
174 197 0
172 196 0
171 196 0
172 196 0
173 197 0
174 197 0
172 196 0
175 198 0
173 197 0
174 197 0
172 196 0
173 197 0
171 195 0
173 197 0
175 198 0
175 198 0
172 196 0
174 197 0
174 197 0
175 198 0
173 197 0
172 196 0
169 193 0
172 196 0
175 198 0
174 197 0
172 195 0
174 197 0
173 197 0
174 197 0
173 196 0
173 197 0
173 196 0
173 197 0
174 198 0
173 197 0
172 196 0
173 196 0
172 196 0
174 197 0
173 196 0
174 198 0
174 198 0
173 196 0
174 197 0
173 197 0
173 197 0
173 197 0
173 196 0
173 197 0
170 194 0
173 196 0
173 196 0
173 196 0
174 197 0
173 197 0
173 196 0
174 197 0
174 197 0
174 197 0
173 197 0
173 197 0
173 196 0
173 197 0
174 197 0
174 197 0
173 196 0
173 197 0
174 197 0
173 196 0
174 198 0
174 198 0
173 197 0
175 198 0
174 197 0
173 196 0
173 197 0
173 196 0
174 198 0
174 198 0
173 197 0
174 197 0
174 197 0
174 198 0
175 197 0
173 196 0
173 197 0
175 197 0
172 196 0
173 197 0
172 196 0
175 198 0
174 197 0
173 197 0
173 197 0
175 198 0
173 196 0
172 196 0
175 198 0
174 198 0
174 197 0
174 198 0
174 197 0
174 198 0
174 197 0
176 198 0
175 198 0
173 197 0
175 198 0
173 197 0
175 198 0
176 198 0
175 198 0
174 197 0
173 197 0
174 197 0
172 195 0
175 198 0
174 198 0
174 197 0
173 197 0
173 197 0
173 197 0
174 197 0
175 198 0
172 196 0
172 196 0
173 197 0
176 199 0
174 197 0
175 198 0
174 198 0
175 197 0
175 198 0
173 196 0
172 197 0
175 198 0
174 197 0
174 197 0
175 197 0
172 195 0
174 197 0
173 196 0
174 198 0
174 197 0
174 198 0
174 197 0
174 197 0
173 197 0
176 198 0
171 196 0
174 198 0
174 197 0
174 198 0
174 197 0
174 198 0
174 197 0
175 198 0
174 198 0
174 198 0
174 198 0
174 198 0
174 198 0
174 197 0
174 198 0
175 198 0
173 197 0
174 198 0
174 198 0
174 197 0
174 197 0
174 197 0
175 197 0
174 198 0
173 197 0
173 197 0
175 198 0
172 197 0
175 198 0
173 197 0
174 198 0
176 198 0
174 198 0
175 198 0
173 197 0
177 199 129
180 201 199
183 202 226
182 202 228
183 202 228
183 202 228
183 202 228
183 203 228
183 202 228
182 202 228
182 202 228
183 202 228
183 202 228
182 202 228
184 203 228
182 202 228
182 202 228
183 202 228
183 202 228
183 203 228
182 202 228
183 202 228
183 202 228
183 203 228
183 202 228
183 203 228
182 202 228
183 202 228
183 202 228
182 202 228
182 202 228
183 202 228
183 202 228
183 202 228
183 203 228
182 202 228
184 203 228
183 202 228
183 202 228
183 203 228
183 202 228
184 203 228
182 202 228
183 203 228
184 203 228
183 202 228
183 203 228
183 203 228
182 202 228
183 202 228
183 203 228
183 203 228
183 202 228
183 202 228
183 202 228
183 202 228
183 203 228
183 202 228
183 203 228
181 202 228
183 203 228
183 202 228
183 202 228
183 202 228
183 202 228
182 202 228
182 202 228
183 202 228
183 202 228
183 202 228
183 202 228
183 203 228
183 202 228
182 202 228
183 203 228
183 202 228
182 202 228
183 202 228
183 203 228
183 202 228
183 202 228
183 202 228
182 202 228
182 202 228
183 202 228
182 202 228
183 202 228
183 203 228
183 202 228
182 202 228
182 202 228
183 202 228
183 203 228
183 202 228
183 202 228
182 202 228
183 203 228
183 202 228
183 202 228
183 202 228
183 203 228
182 202 228
183 202 228
183 202 228
183 202 228
182 202 228
183 202 228
184 203 228
183 202 228
182 202 228
183 202 228
183 202 228
182 202 228
183 203 228
182 202 228
183 202 228
183 202 228
182 202 228
183 202 228
183 202 228
182 202 228
182 202 228
182 202 228
183 202 228
183 203 228
182 202 228
182 202 228
183 202 228
183 203 228
183 202 228
183 203 228
182 202 228
182 202 228
182 202 228
182 202 228
183 203 228
183 202 228
182 202 228
183 202 228
182 202 228
183 202 228
182 202 228
182 202 228
183 202 228
183 202 228
183 202 228
183 202 228
183 202 228
182 202 228
183 202 228
183 202 228
182 202 228
182 202 228
183 202 228
183 202 228
183 202 228
182 202 228
182 202 228
183 202 228
181 201 216
176 198 141
174 197 75
173 197 0
175 198 0
175 198 0
174 197 0
174 197 0
175 198 0
175 197 0
172 195 0
173 196 0
176 198 0
173 196 0
173 196 0
173 197 0
174 197 0
175 198 0
176 198 0
174 197 0
174 198 0
173 196 0
172 196 0
173 197 0
173 197 0
173 196 0
174 198 0
174 197 0
174 198 0
173 196 0
171 195 0
172 196 0
175 198 0
175 198 0
174 197 0
174 197 0
173 197 0
173 197 0
172 196 0
173 197 0
172 196 0
174 197 0
174 198 0
173 197 0
173 197 0
172 196 0
173 197 0
174 197 0
173 197 0
172 196 0
172 195 0
173 196 0
175 198 0
171 194 0
172 197 0
173 196 0
175 197 0
173 197 0
171 195 0
173 196 0
174 197 0
172 196 0
174 197 0
173 196 0
174 198 0
173 196 0
174 197 0
172 196 0
173 196 0
172 196 0
172 195 0
172 196 0
173 197 0
175 198 0
175 198 0
174 197 0
175 198 0
176 198 0
174 197 0
175 198 0
174 197 0
174 197 0
174 197 0
175 198 0
175 198 0
172 195 0
172 196 0
173 196 0
174 198 0
175 198 0
172 196 0
173 196 0
174 197 0
172 196 0
174 197 0
173 197 0
174 198 0
174 197 0
175 198 0
172 196 0
172 196 0
174 197 0
172 195 0
174 197 0
174 197 0
174 197 0
174 197 0
175 198 0
174 197 0
174 197 0
172 196 0
174 197 0
173 197 0
174 197 0
174 197 0
175 198 0
174 197 0
173 196 0
173 197 0
174 197 0
175 198 0
175 198 0
174 198 0
172 195 0
172 196 0
171 196 0
174 198 0
175 198 0
172 195 0
176 199 0
174 197 0
172 196 0
173 197 0
173 196 0
174 197 0
174 197 0
174 197 0
174 197 0
174 197 0
173 196 0
171 195 0
171 195 0
174 197 0
172 196 0
173 197 0
174 197 0
174 198 0
174 197 0
173 197 0
176 198 0
172 196 0
176 199 0
173 196 0
173 197 0
172 195 0
174 198 0
173 197 0
176 198 0
173 196 0
176 199 0
175 198 0
174 198 0
175 197 0
172 195 0
172 196 0
173 196 0
174 198 0
172 194 0
173 196 0
173 196 0
173 197 0
174 197 0
173 197 0
173 197 0
175 198 0
172 196 0
172 195 0
174 197 0
174 198 0
174 198 0
173 197 0
174 197 0
171 195 0
173 197 0
174 198 0
173 196 0
175 198 0
174 197 0
174 197 0
174 197 0
173 196 0
174 197 0
173 197 0
173 196 0
174 197 0
175 198 0
173 197 0
174 197 0
175 198 0
173 196 0
175 198 0
175 198 0
174 198 0
173 197 0
175 198 0
173 197 0
174 197 0
176 198 0
174 197 0
174 198 0
175 198 0
174 198 0
173 197 0
174 198 0
174 197 0
173 197 0
173 197 0
175 198 0
173 197 0
174 197 0
175 198 0
173 197 0
173 197 0
174 197 0
174 197 0
174 198 0
175 198 0
174 198 0
174 197 0
175 198 0
176 198 0
175 198 0
175 198 0
174 197 0
174 197 0
174 197 0
174 197 0
173 197 0
175 197 0
172 194 97
183 202 226
183 202 228
183 203 228
183 203 228
184 203 228
183 202 228
183 203 228
183 202 228
183 202 228
183 202 228
183 202 228
183 202 228
183 203 228
183 202 228
182 202 228
183 203 228
184 203 228
183 203 228
184 203 228
183 202 228
182 202 228
182 202 228
183 202 228
183 203 228
184 203 228
182 202 228
183 202 228
182 202 228
183 202 228
183 202 228
183 202 228
183 202 228
184 203 228
183 202 228
183 202 228
183 202 228
182 202 228
182 202 228
183 203 228
183 202 228
182 202 228
182 202 228
183 203 228
183 203 228
183 202 228
183 202 228
183 202 228
184 203 228
182 202 228
183 202 228
183 202 228
183 203 228
183 202 228
183 203 228
183 202 228
182 202 228
182 202 228
183 202 228
182 202 228
182 202 228
182 202 228
183 202 228
183 202 228
182 202 228
183 202 228
182 202 228
183 202 228
182 202 228
183 202 228
183 202 228
183 202 228
183 202 228
183 203 228
183 202 228
183 203 228
182 202 228
183 202 228
183 203 228
183 202 228
183 202 228
183 203 228
182 202 228
183 202 228
182 202 228
182 202 228
182 202 228
183 202 228
182 202 228
182 202 228
183 202 228
183 202 228
183 202 228
183 202 228
182 202 228
183 202 228
183 202 228
183 202 228
183 202 228
184 203 228
183 202 228
184 203 228
183 203 228
183 203 228
183 202 228
182 202 228
183 202 228
182 202 228
182 202 228
183 202 228
183 202 228
183 202 228
183 202 228
182 202 228
183 202 228
183 202 228
182 202 228
183 202 228
183 202 228
183 202 228
183 202 228
183 202 228
183 203 228
183 202 228
182 202 228
183 203 228
182 202 228
183 202 228
183 203 228
182 202 228
182 202 228
182 202 228
182 202 228
182 202 228
183 202 228
183 202 228
183 202 228
182 202 228
183 202 228
183 202 228
182 202 228
183 202 228
183 202 228
182 202 228
183 202 228
182 202 228
183 202 228
183 202 228
183 202 228
183 203 228
183 202 228
183 202 228
183 202 228
182 202 228
183 202 228
182 202 228
183 202 228
183 203 228
183 202 228
182 202 228
183 202 228
182 202 228
182 202 228
179 198 211
170 192 72
173 197 0
174 197 0
175 198 0
171 195 0
174 197 0
173 196 0
174 197 0
174 198 0
172 196 0
173 197 0
175 197 0
172 195 0
176 198 0
174 198 0
174 197 0
174 197 0
175 198 0
174 197 0
174 197 0
173 197 0
173 197 0
173 197 0
171 194 0
174 197 0
173 196 0
174 197 0
174 197 0
172 196 0
176 198 0
173 196 0
173 196 0
172 196 0
173 196 0
175 197 0
173 197 0
172 195 0
175 198 0
173 197 0
171 195 0
173 196 0
174 197 0
174 196 0
174 198 0
174 198 0
173 196 0
176 198 0
174 198 0
175 197 0
174 197 0
174 197 0
171 195 0
173 197 0
174 197 0
172 197 0
172 196 0
174 197 0
173 196 0
175 197 0
172 196 0
172 195 0
175 198 0
175 197 0
174 198 0
174 198 0
175 198 0
175 197 0
174 197 0
172 196 0
174 197 0
175 198 0
175 198 0
175 198 0
174 197 0
173 197 0
174 197 0
175 198 0
173 197 0
173 196 0
174 198 0
172 195 0
172 196 0
173 197 0
173 197 0
174 197 0
172 196 0
174 198 0
173 197 0
173 195 0
173 197 0
174 197 0
173 197 0
175 198 0
172 196 0
173 196 0
173 197 0
174 196 0
173 197 0
173 197 0
172 196 0
175 197 0
173 196 0
173 196 0
173 197 0
172 195 0
172 197 0
176 199 0
173 196 0
174 197 0
174 197 0
173 197 0
174 197 0
172 195 0
174 198 0
174 198 0
173 197 0
172 195 0
173 197 0
175 198 0
172 196 0
176 199 0
174 197 0
173 197 0
172 196 0
172 196 0
173 197 0
172 196 0
173 197 0
173 197 0
173 197 0
174 197 0
174 198 0
172 196 0
175 198 0
173 196 0
172 196 0
175 198 0
173 196 0
173 197 0
175 198 0
175 198 0
174 197 0
174 198 0
174 198 0
174 197 0
175 198 0
173 196 0
172 196 0
174 197 0
175 198 0
174 197 0
174 197 0
174 197 0
176 199 0
173 197 0
174 197 0
175 197 0
171 195 0
173 197 0
174 198 0
174 198 0
174 198 0
173 197 0
175 198 0
174 197 0
172 196 0
174 197 0
174 198 0
174 198 0
174 197 0
171 195 0
173 197 0
174 198 0
173 197 0
174 197 0
174 197 0
176 199 0
174 197 0
174 197 0
175 198 0
174 197 0
174 197 0
174 197 0
173 197 0
173 197 0
172 196 0
174 198 0
174 198 0
173 197 0
174 198 0
175 198 0
173 197 0
173 197 0
173 197 0
173 196 0
174 197 0
174 198 0
173 197 0
173 197 0
174 197 0
174 198 0
173 197 0
172 196 0
174 197 0
173 197 0
175 198 0
174 198 0
173 197 0
174 198 0
174 197 0
174 198 0
175 198 0
175 198 0
175 198 0
173 197 0
172 196 0
175 198 0
174 197 0
172 197 0
173 197 0
174 197 0
174 197 0
174 197 0
176 198 0
175 198 0
174 197 0
173 197 0
173 197 0
173 197 0
173 197 0
173 196 0
176 198 0
174 197 0
176 198 0
173 197 0
173 197 0
168 190 0
158 179 68
174 194 186
183 203 228
183 203 228
183 202 228
183 202 228
183 202 228
183 202 228
183 202 228
183 202 228
184 203 228
183 202 228
183 202 228
183 202 228
184 203 228
183 203 228
183 202 228
183 202 228
183 203 228
183 202 228
183 202 228
183 202 228
183 203 228
183 202 228
183 202 228
183 202 228
183 202 228
182 202 228
184 203 228
183 203 228
182 202 228
183 202 228
183 202 228
183 202 228
183 202 228
183 202 228
182 202 228
183 202 228
183 203 228
183 203 228
183 202 228
183 202 228
183 202 228
183 203 228
183 202 228
183 202 228
182 202 228
183 203 228
183 202 228
183 202 228
182 202 228
183 202 228
183 203 228
183 203 228
183 203 228
182 202 228
183 203 228
183 203 228
183 202 228
183 202 228
184 203 228
182 202 228
182 202 228
183 202 228
183 202 228
183 202 228
183 202 228
182 202 228
183 202 228
183 203 228
182 202 228
182 202 228
183 202 228
182 202 228
182 202 228
183 202 228
183 202 228
183 202 228
183 202 228
182 202 228
183 202 228
183 203 228
182 202 228
183 203 228
183 202 228
182 202 228
182 202 228
183 202 228
182 202 228
182 202 228
182 202 228
183 203 228
182 202 228
183 202 228
182 202 228
183 202 228
182 202 228
184 203 228
183 202 228
182 202 228
183 203 228
182 202 228
183 202 228
183 202 228
182 202 228
182 202 228
183 202 228
183 202 228
183 202 228
182 202 228
183 203 228
182 202 228
182 202 228
182 202 228
182 202 228
182 202 228
183 202 228
183 202 228
182 202 228
183 202 228
183 202 228
182 202 228
182 202 228
183 202 228
182 202 228
182 202 228
182 202 228
183 202 228
181 202 228
183 202 228
183 202 228
183 202 228
183 202 228
182 202 228
182 202 228
182 202 228
182 202 228
182 202 228
183 202 228
183 202 228
183 202 228
184 203 228
182 202 228
183 202 228
183 202 228
182 202 228
182 202 228
183 202 228
183 202 228
183 202 228
182 202 228
183 203 228
182 202 228
182 202 228
182 202 228
183 202 228
182 202 228
183 202 228
182 202 228
183 202 228
176 196 203
166 186 148
156 176 22
163 185 0
173 196 0
175 197 0
174 197 0
174 197 0
175 198 0
172 196 0
174 197 0
174 197 0
174 197 0
174 197 0
175 198 0
172 196 0
175 198 0
174 197 0
173 196 0
175 198 0
173 197 0
175 198 0
174 197 0
174 197 0
173 197 0
173 197 0
174 197 0
172 196 0
174 197 0
173 196 0
173 197 0
173 196 0
173 197 0
173 196 0
174 197 0
173 196 0
172 196 0
174 197 0
172 196 0
173 196 0
171 195 0
175 198 0
173 197 0
173 197 0
176 198 0
173 196 0
174 197 0
174 198 0
172 196 0
173 197 0
173 197 0
173 197 0
174 197 0
174 198 0
172 196 0
174 198 0
175 198 0
174 197 0
174 197 0
176 198 0
173 196 0
173 196 0
175 198 0
172 195 0
174 197 0
174 197 0
174 198 0
173 197 0
173 197 0
176 198 0
172 196 0
175 198 0
173 196 0
174 198 0
173 197 0
174 197 0
174 197 0
174 197 0
175 198 0
172 196 0
174 197 0
174 197 0
174 197 0
174 198 0
174 197 0
172 197 0
170 195 0
171 195 0
174 197 0
172 196 0
175 198 0
173 196 0
175 197 0
175 198 0
173 196 0
174 197 0
174 198 0
173 197 0
171 195 0
175 198 0
173 196 0
174 197 0
174 196 0
175 197 0
174 198 0
172 195 0
174 197 0
173 196 0
174 197 0
175 198 0
172 196 0
174 197 0
175 198 0
174 197 0
174 198 0
174 197 0
175 198 0
175 198 0
172 196 0
175 198 0
175 198 0
173 197 0
173 196 0
173 196 0
174 197 0
173 197 0
173 196 0
172 196 0
175 198 0
174 198 0
172 196 0
175 198 0
172 196 0
172 196 0
176 198 0
174 197 0
174 197 0
175 198 0
172 195 0
174 198 0
175 198 0
174 197 0
174 197 0
174 198 0
173 197 0
172 196 0
175 198 0
173 197 0
175 198 0
174 197 0
173 197 0
173 197 0
173 196 0
173 196 0
175 198 0
175 198 0
172 197 0
175 197 0
173 197 0
176 199 0
174 197 0
175 198 0
173 196 0
173 197 0
175 198 0
173 197 0
173 196 0
173 196 0
174 197 0
174 197 0
173 197 0
175 198 0
173 197 0
172 197 0
174 197 0
173 197 0
175 197 0
173 197 0
173 196 0
175 198 0
174 197 0
172 196 0
174 197 0
174 197 0
174 197 0
172 196 0
176 199 0
174 197 0
172 196 0
173 197 0
174 197 0
174 196 0
173 197 0
174 197 0
174 197 0
175 198 0
173 197 0
173 197 0
175 198 0
174 198 0
175 198 0
173 196 0
173 197 0
173 197 0
174 198 0
175 198 0
174 197 0
173 197 0
174 198 0
174 197 0
173 197 0
174 198 0
173 197 0
173 197 0
175 198 0
174 197 0
174 197 0
174 197 0
173 197 0
174 197 0
173 197 0
174 198 0
174 198 0
174 197 0
174 197 0
173 197 0
174 198 0
173 197 0
174 197 0
174 198 0
174 197 0
174 197 0
176 198 0
173 197 0
175 198 0
175 198 0
174 198 0
174 198 0
175 198 0
171 193 0
156 177 0
156 177 0
160 181 91
177 197 202
182 202 228
183 202 228
184 203 228
183 202 228
183 202 228
183 202 228
183 202 228
182 202 228
183 203 228
183 202 228
184 203 228
183 203 228
182 202 228
182 202 228
183 203 228
184 203 228
182 202 228
182 202 228
184 203 228
183 202 228
183 202 228
183 202 228
183 202 228
183 202 228
183 202 228
183 202 228
182 202 228
183 202 228
183 202 228
183 202 228
183 202 228
184 203 228
184 203 228
183 202 228
182 202 228
183 202 228
183 202 228
184 203 228
182 202 228
183 202 228
183 202 228
183 202 228
183 202 228
182 202 228
184 203 228
183 202 228
181 201 228
182 202 228
183 202 228
182 202 228
183 202 228
183 203 228
183 203 228
182 202 228
182 202 228
182 202 228
183 202 228
182 202 228
183 202 228
183 202 228
183 202 228
183 202 228
183 202 228
182 202 228
183 202 228
182 202 228
183 202 228
182 202 228
182 202 228
183 202 228
183 202 228
182 202 228
182 202 228
183 202 228
183 202 228
182 202 228
183 202 228
182 202 228
183 202 228
183 202 228
182 202 228
183 202 228
182 202 228
182 202 228
182 202 228
183 203 228
183 203 228
183 202 228
183 202 228
182 202 228
183 202 228
182 202 228
182 202 228
183 202 228
183 202 228
182 202 228
183 202 228
182 202 228
183 202 228
183 202 228
181 201 228
182 202 228
183 202 228
182 202 228
183 203 228
183 202 228
182 202 228
183 202 228
182 202 228
183 202 228
182 202 228
183 202 228
183 202 228
182 202 228
182 202 228
183 202 228
183 202 228
183 202 228
183 202 228
182 202 228
182 202 228
183 202 228
183 202 228
183 203 228
182 202 228
183 202 228
183 203 228
183 202 228
183 202 228
183 202 228
183 202 228
183 202 228
182 202 228
183 202 228
183 202 228
182 202 228
183 202 228
183 202 228
182 202 228
183 202 228
182 202 228
183 202 228
183 203 228
183 202 228
183 202 228
183 202 228
183 202 228
182 202 228
183 202 228
183 202 228
183 202 228
183 202 228
183 202 228
182 202 228
176 195 192
162 182 114
153 174 22
152 172 0
152 173 0
162 184 0
174 197 0
174 197 0
173 197 0
174 197 0
174 197 0
172 195 0
174 197 0
173 196 0
173 197 0
173 196 0
174 198 0
172 196 0
173 196 0
176 198 0
173 196 0
174 197 0
173 197 0
174 197 0
173 197 0
173 197 0
173 196 0
174 197 0
173 197 0
174 197 0
172 197 0
171 195 0
174 197 0
174 197 0
174 197 0
175 198 0
174 197 0
173 197 0
177 198 0
174 197 0
173 196 0
173 197 0
174 197 0
173 196 0
173 196 0
174 197 0
173 197 0
173 197 0
174 198 0
172 196 0
175 197 0
173 197 0
173 196 0
173 197 0
174 197 0
172 197 0
172 196 0
173 197 0
174 197 0
175 197 0
172 196 0
173 197 0
175 198 0
173 196 0
173 197 0
173 196 0
173 196 0
174 197 0
171 195 0
173 197 0
173 196 0
174 198 0
173 196 0
174 197 0
174 197 0
173 197 0
173 197 0
175 198 0
172 196 0
174 197 0
174 198 0
173 197 0
172 195 0
173 197 0
172 196 0
173 197 0
173 197 0
175 198 0
174 197 0
174 197 0
175 198 0
173 197 0
173 196 0
174 196 0
173 195 0
175 198 0
174 198 0
174 198 0
173 197 0
175 198 0
173 196 0
172 196 0
172 195 0
172 196 0
174 197 0
173 196 0
173 196 0
172 196 0
173 196 0
173 197 0
172 196 0
175 198 0
173 196 0
174 197 0
172 196 0
174 197 0
174 197 0
173 197 0
176 199 0
174 197 0
173 196 0
173 197 0
174 197 0
173 197 0
172 196 0
174 197 0
175 197 0
174 197 0
173 197 0
175 198 0
173 197 0
175 198 0
173 196 0
171 196 0
173 197 0
174 196 0
173 196 0
172 196 0
174 197 0
173 196 0
175 198 0
173 197 0
174 197 0
174 197 0
173 197 0
173 197 0
174 197 0
174 197 0
173 197 0
174 198 0
174 197 0
175 198 0
173 197 0
175 198 0
172 196 0
173 197 0
174 197 0
173 196 0
174 197 0
174 197 0
173 197 0
174 197 0
174 197 0
172 196 0
175 198 0
173 197 0
173 196 0
173 197 0
174 196 0
174 198 0
174 196 0
172 196 0
173 197 0
173 197 0
175 197 0
174 197 0
171 196 0
175 198 0
174 197 0
175 198 0
174 197 0
174 197 0
174 198 0
174 197 0
172 196 0
174 197 0
172 197 0
175 198 0
172 196 0
172 196 0
175 198 0
175 198 0
172 196 0
172 196 0
174 197 0
174 197 0
175 198 0
174 198 0
174 197 0
172 196 0
173 197 0
172 195 0
174 198 0
172 196 0
174 197 0
173 197 0
173 197 0
175 198 0
173 197 0
174 197 0
175 198 0
174 198 0
175 198 0
173 197 0
174 197 0
174 198 0
174 198 0
174 197 0
174 197 0
174 198 0
174 197 0
175 198 0
173 197 0
173 197 0
173 197 0
174 197 0
173 197 0
173 197 0
174 197 0
173 196 0
175 198 0
175 197 0
175 198 0
175 198 0
174 197 0
174 198 0
175 198 0
174 197 0
174 198 0
172 197 0
174 198 0
171 195 0
156 177 0
155 176 0
157 177 0
157 177 0
167 187 146
181 201 221
182 202 228
183 203 228
183 202 228
182 202 228
184 203 228
183 202 228
183 202 228
182 202 228
182 202 228
183 202 228
182 202 228
183 203 228
183 202 228
182 202 228
183 202 228
183 203 228
182 202 228
183 202 228
183 202 228
182 202 228
183 202 228
183 202 228
183 202 228
182 202 228
182 202 228
183 202 228
183 202 228
183 202 228
183 202 228
183 202 228
183 203 228
183 202 228
183 203 228
183 203 228
183 202 228
183 202 228
183 202 228
183 202 228
183 202 228
183 202 228
183 202 228
182 202 228
183 202 228
183 202 228
183 202 228
183 202 228
183 202 228
183 202 228
183 203 228
183 202 228
184 203 228
183 202 228
182 202 228
183 203 228
183 202 228
183 202 228
183 202 228
182 202 228
183 202 228
182 202 228
183 202 228
183 203 228
183 203 228
182 202 228
182 202 228
183 202 228
183 202 228
183 202 228
183 202 228
183 202 228
183 202 228
182 202 228
183 202 228
183 202 228
183 202 228
182 202 228
182 202 228
183 202 228
183 202 228
183 202 228
183 202 228
183 203 228
183 202 228
182 202 228
183 202 228
182 202 228
182 202 228
182 202 228
183 202 228
183 202 228
183 202 228
182 202 228
183 203 228
182 202 228
182 202 228
182 202 228
182 202 228
183 202 228
183 202 228
182 202 228
182 202 228
183 202 228
183 202 228
182 202 228
182 202 228
183 202 228
182 202 228
183 202 228
182 202 228
182 202 228
183 202 228
182 202 228
183 202 228
183 202 228
182 202 228
183 202 228
182 202 228
182 202 228
182 202 228
182 202 228
183 203 228
183 202 228
182 202 228
183 202 228
183 202 228
182 202 228
182 202 228
182 202 228
182 202 228
183 202 228
182 202 228
183 202 228
182 202 228
183 202 228
182 202 228
182 202 228
182 202 228
182 202 228
183 202 228
181 201 228
183 203 228
183 202 228
182 202 228
182 202 228
182 202 228
183 203 228
182 202 228
182 202 228
182 202 228
181 201 227
167 187 166
158 178 97
152 172 0
151 172 0
154 174 0
154 175 0
152 173 0
164 185 0
173 197 0
174 197 0
174 197 0
174 198 0
172 196 0
174 198 0
174 197 0
173 197 0
175 197 0
174 197 0
174 197 0
174 197 0
175 197 0
174 197 0
174 197 0
173 197 0
170 194 0
174 197 0
173 197 0
170 194 0
173 197 0
173 196 0
174 197 0
174 196 0
173 197 0
171 195 0
174 197 0
172 196 0
173 196 0
173 197 0
172 196 0
173 196 0
175 198 0
172 196 0
174 197 0
172 196 0
173 196 0
172 196 0
172 196 0
173 197 0
172 196 0
173 197 0
174 198 0
175 197 0
173 196 0
172 196 0
174 197 0
172 195 0
173 197 0
172 196 0
173 196 0
174 197 0
172 196 0
172 195 0
173 196 0
174 197 0
175 198 0
173 196 0
175 198 0
173 197 0
174 197 0
174 197 0
174 197 0
173 196 0
174 197 0
172 196 0
173 196 0
175 198 0
174 197 0
174 197 0
171 196 0
173 197 0
173 197 0
174 198 0
174 197 0
175 198 0
173 196 0
172 196 0
173 196 0
172 195 0
173 197 0
174 197 0
174 198 0
172 196 0
171 194 0
173 196 0
174 197 0
172 196 0
171 195 0
173 197 0
174 197 0
171 195 0
176 198 0
175 198 0
172 196 0
174 198 0
173 197 0
172 195 0
174 197 0
175 198 0
174 197 0
172 196 0
174 197 0
172 195 0
174 198 0
175 197 0
172 195 0
173 197 0
173 197 0
172 196 0
173 197 0
176 198 0
174 198 0
172 196 0
173 197 0
174 197 0
174 197 0
174 197 0
174 197 0
173 197 0
175 198 0
175 198 0
173 196 0
174 197 0
173 197 0
175 198 0
174 198 0
176 198 0
174 197 0
173 197 0
174 197 0
173 197 0
173 197 0
174 197 0
173 196 0
173 197 0
174 197 0
174 197 0
174 197 0
174 197 0
173 197 0
175 198 0
173 197 0
175 197 0
175 198 0
175 198 0
173 197 0
172 196 0
174 197 0
174 197 0
174 198 0
173 197 0
175 198 0
175 198 0
174 197 0
173 197 0
175 198 0
171 195 0
173 196 0
173 197 0
173 196 0
175 198 0
174 197 0
173 196 0
175 198 0
174 197 0
175 198 0
174 198 0
174 197 0
172 196 0
174 197 0
174 197 0
173 197 0
174 197 0
175 198 0
173 197 0
173 197 0
175 198 0
174 198 0
175 198 0
173 197 0
173 197 0
173 197 0
173 197 0
175 198 0
174 197 0
172 196 0
173 197 0
173 197 0
175 198 0
172 197 0
172 196 0
174 197 0
174 197 0
174 198 0
174 198 0
173 196 0
173 196 0
174 198 0
175 198 0
175 198 0
174 197 0
173 197 0
173 197 0
173 197 0
175 198 0
173 197 0
176 198 0
174 197 0
174 198 0
174 197 0
174 197 0
175 198 0
173 197 0
175 198 0
174 197 0
173 197 0
175 198 0
174 197 0
175 198 0
173 197 0
174 197 0
175 198 0
174 197 0
175 198 0
173 197 0
174 198 0
171 196 0
174 198 0
174 198 0
175 198 0
174 198 0
174 198 0
174 197 0
174 197 0
173 197 0
157 178 0
156 176 0
157 177 0
157 177 0
155 176 0
156 177 45
169 189 160
182 202 228
183 202 228
183 202 228
182 202 228
182 202 228
183 202 228
183 203 228
183 203 228
183 202 228
183 203 228
183 202 228
182 202 228
184 203 228
183 202 228
183 203 228
183 203 228
183 202 228
183 202 228
183 202 228
182 202 228
182 202 228
183 202 228
181 202 228
182 202 228
182 202 228
182 202 228
182 202 228
183 203 228
182 202 228
182 202 228
182 202 228
182 202 228
182 202 228
183 202 228
183 202 228
183 202 228
183 202 228
183 202 228
182 202 228
183 202 228
183 202 228
183 202 228
182 202 228
183 202 228
183 202 228
183 202 228
183 202 228
183 202 228
182 202 228
182 202 228
183 202 228
182 202 228
183 202 228
183 202 228
182 202 228
182 202 228
182 202 228
183 202 228
183 202 228
182 202 228
183 202 228
183 202 228
182 202 228
183 202 228
182 202 228
182 202 228
182 202 228
183 202 228
183 202 228
183 202 228
183 202 228
182 202 228
183 202 228
182 202 228
182 202 228
183 203 228
183 202 228
182 202 228
183 202 228
182 202 228
183 202 228
182 202 228
183 203 228
182 202 228
183 202 228
183 202 228
183 203 228
183 202 228
182 202 228
182 202 228
183 202 228
182 202 228
182 202 228
182 202 228
183 202 228
183 202 228
182 202 228
182 202 228
182 202 228
182 202 228
183 202 228
182 202 228
183 202 228
182 202 228
183 202 228
183 202 228
183 202 228
183 202 228
182 202 228
183 202 228
182 202 228
183 202 228
182 202 228
182 202 228
182 202 228
182 202 228
182 202 228
182 202 228
182 202 228
183 202 228
182 202 228
183 202 228
182 202 228
182 202 228
182 202 228
183 202 228
182 202 228
183 202 228
183 202 228
182 202 228
183 202 228
183 202 228
182 202 228
183 202 228
183 202 228
182 202 228
182 202 228
182 202 228
182 202 228
182 202 228
182 202 228
182 202 228
183 202 228
182 202 228
182 202 228
182 202 228
181 201 221
170 190 166
155 176 72
154 175 0
153 174 0
152 172 0
153 173 0
154 174 0
152 172 0
152 173 0
165 187 0
172 196 0
175 197 0
174 197 0
175 197 0
173 196 0
171 196 0
174 197 0
173 196 0
175 198 0
174 197 0
174 197 0
173 196 0
171 195 0
173 197 0
174 198 0
172 196 0
172 196 0
172 195 0
174 198 0
173 197 0
174 197 0
173 197 0
173 197 0
170 195 0
173 196 0
174 198 0
173 196 0
174 197 0
173 197 0
173 196 0
173 197 0
172 196 0
173 197 0
174 197 0
175 198 0
174 197 0
173 196 0
173 196 0
174 197 0
171 195 0
173 196 0
173 196 0
173 197 0
171 195 0
174 198 0
173 196 0
172 196 0
173 197 0
173 196 0
172 196 0
171 195 0
173 197 0
172 196 0
173 196 0
172 196 0
174 197 0
175 197 0
173 196 0
173 196 0
171 195 0
174 197 0
173 196 0
172 196 0
174 197 0
175 198 0
172 196 0
174 197 0
173 197 0
172 196 0
174 197 0
172 196 0
174 197 0
174 197 0
173 197 0
174 197 0
173 196 0
173 196 0
173 197 0
173 197 0
173 197 0
169 193 0
173 197 0
172 196 0
172 196 0
174 198 0
173 196 0
173 196 0
174 197 0
175 198 0
174 197 0
174 198 0
174 198 0
174 197 0
174 197 0
174 197 0
171 196 0
174 196 0
173 196 0
172 195 0
172 196 0
173 197 0
173 197 0
172 195 0
175 198 0
173 197 0
173 197 0
174 197 0
173 196 0
174 198 0
174 197 0
174 197 0
173 196 0
172 196 0
175 198 0
174 198 0
174 197 0
172 195 0
173 197 0
174 197 0
173 196 0
174 198 0
173 197 0
174 197 0
174 197 0
171 195 0
175 198 0
174 197 0
173 196 0
172 195 0
174 198 0
173 196 0
173 197 0
173 196 0
175 198 0
174 197 0
172 196 0
172 196 0
172 196 0
174 198 0
174 197 0
175 198 0
174 197 0
174 198 0
173 196 0
172 196 0
174 197 0
173 197 0
175 198 0
174 197 0
173 197 0
173 197 0
172 196 0
173 197 0
173 197 0
173 197 0
171 196 0
174 197 0
175 197 0
173 197 0
174 197 0
173 197 0
174 197 0
175 198 0
173 197 0
171 195 0
175 198 0
174 197 0
173 197 0
173 196 0
173 196 0
174 197 0
173 197 0
174 197 0
172 196 0
175 198 0
175 198 0
174 198 0
173 196 0
174 197 0
173 197 0
174 197 0
173 196 0
172 196 0
173 196 0
174 197 0
174 197 0
171 195 0
173 197 0
173 197 0
172 196 0
174 197 0
174 197 0
174 197 0
174 197 0
174 197 0
176 198 0
173 196 0
172 196 0
173 197 0
173 196 0
175 198 0
174 197 0
174 198 0
174 198 0
174 197 0
175 198 0
172 196 0
175 198 0
175 198 0
174 197 0
174 198 0
174 197 0
173 196 0
173 197 0
175 198 0
172 196 0
174 197 0
174 198 0
174 197 0
174 197 0
175 198 0
172 196 0
173 197 0
176 198 0
175 198 0
174 197 0
174 197 0
174 198 0
173 197 0
173 197 0
174 197 0
175 198 0
173 197 0
174 197 0
175 198 0
174 197 0
159 180 0
156 177 0
154 176 0
155 176 0
157 177 0
156 177 0
156 177 0
161 182 94
175 195 192
183 202 228
182 202 228
183 202 228
184 203 228
182 202 228
182 202 228
182 202 228
182 202 228
183 202 228
183 202 228
183 202 228
183 202 228
183 202 228
183 203 228
184 203 228
182 202 228
182 202 228
182 202 228
182 202 228
182 202 228
183 202 228
184 203 228
184 203 228
182 202 228
183 203 228
182 202 228
183 202 228
182 202 228
182 202 228
183 203 228
182 202 228
182 202 228
182 202 228
183 202 228
183 202 228
182 202 228
183 202 228
182 202 228
183 202 228
183 202 228
183 202 228
182 202 228
183 202 228
182 202 228
182 202 228
183 202 228
182 202 228
183 202 228
183 202 228
183 203 228
182 202 228
183 203 228
183 202 228
183 202 228
182 202 228
183 202 228
182 202 228
182 202 228
182 202 228
182 202 228
182 202 228
182 202 228
183 202 228
182 202 228
183 202 228
183 202 228
182 202 228
183 202 228
183 202 228
182 202 228
182 202 228
183 202 228
182 202 228
182 202 228
183 202 228
182 202 228
183 202 228
182 202 228
182 202 228
183 202 228
182 202 228
183 202 228
182 202 228
183 202 228
183 202 228
183 202 228
183 202 228
183 202 228
182 202 228
183 202 228
182 202 228
183 202 228
182 202 228
183 202 228
182 202 228
182 202 228
182 202 228
182 202 228
182 202 228
182 202 228
182 202 228
183 203 228
182 202 228
182 202 228
183 202 228
183 202 228
182 202 228
182 202 228
182 202 228
182 202 228
183 202 228
182 202 228
182 202 228
182 202 228
182 202 228
182 202 228
182 202 228
182 202 228
182 202 228
183 202 228
182 202 228
183 202 228
182 202 228
182 202 228
182 202 228
182 202 228
182 202 228
182 202 228
182 202 228
183 202 228
183 202 228
182 202 228
183 202 228
182 202 228
182 202 228
182 202 228
183 202 228
182 202 228
182 202 228
183 202 228
182 202 228
182 202 228
178 198 208
167 187 153
154 174 60
152 172 0
150 172 0
154 174 0
152 172 0
154 174 0
152 173 0
149 169 0
154 174 0
153 173 0
165 187 0
172 195 0
173 196 0
171 196 0
173 197 0
175 197 0
174 197 0
175 198 0
172 196 0
173 196 0
174 197 0
174 197 0
173 196 0
172 197 0
173 197 0
173 197 0
173 196 0
173 197 0
173 197 0
175 198 0
172 196 0
174 197 0
173 197 0
174 197 0
174 197 0
171 195 0
173 196 0
173 196 0
173 197 0
172 196 0
175 198 0
174 197 0
171 195 0
173 196 0
174 197 0
174 197 0
173 197 0
175 198 0
174 197 0
173 196 0
173 197 0
175 198 0
173 197 0
174 197 0
172 196 0
174 197 0
173 197 0
173 197 0
173 197 0
173 197 0
174 197 0
172 195 0
172 196 0
174 197 0
175 198 0
171 195 0
172 196 0
172 196 0
174 198 0
172 196 0
173 197 0
173 195 0
173 196 0
172 195 0
173 195 0
174 198 0
173 196 0
174 197 0
173 197 0
174 197 0
173 196 0
173 196 0
171 194 0
173 196 0
176 198 0
176 198 0
173 197 0
174 197 0
174 197 0
175 198 0
173 197 0
174 197 0
176 198 0
171 195 0
173 196 0
174 197 0
174 197 0
174 198 0
172 196 0
173 197 0
172 196 0
175 198 0
173 197 0
172 195 0
171 195 0
173 196 0
173 197 0
174 197 0
173 196 0
173 197 0
174 197 0
173 197 0
173 196 0
172 196 0
173 196 0
174 197 0
171 194 0
172 195 0
173 197 0
175 198 0
173 196 0
175 198 0
176 198 0
174 197 0
176 198 0
172 195 0
174 197 0
175 198 0
175 198 0
174 197 0
173 197 0
175 198 0
170 195 0
172 196 0
175 198 0
175 198 0
174 197 0
174 197 0
173 196 0
175 198 0
172 197 0
173 197 0
173 197 0
173 196 0
174 198 0
173 197 0
172 196 0
171 195 0
174 197 0
175 198 0
175 198 0
173 196 0
175 197 0
175 198 0
174 197 0
174 197 0
173 197 0
173 196 0
174 197 0
175 198 0
171 195 0
175 197 0
172 195 0
175 198 0
174 197 0
174 198 0
173 197 0
175 198 0
174 197 0
173 196 0
174 197 0
173 197 0
173 197 0
174 197 0
174 197 0
173 196 0
173 197 0
174 197 0
174 197 0
172 196 0
174 197 0
175 198 0
172 196 0
175 197 0
174 197 0
173 196 0
171 195 0
174 197 0
175 198 0
175 198 0
172 195 0
174 197 0
172 195 0
174 197 0
174 197 0
173 197 0
174 198 0
173 197 0
175 198 0
174 198 0
174 198 0
174 197 0
175 198 0
173 197 0
174 197 0
174 197 0
174 197 0
174 198 0
174 198 0
175 197 0
173 196 0
174 197 0
174 198 0
174 197 0
174 197 0
174 197 0
173 197 0
172 196 0
174 197 0
174 198 0
173 197 0
174 197 0
174 198 0
175 198 0
173 197 0
173 197 0
174 198 0
173 197 0
174 197 0
173 197 0
174 197 0
175 198 0
174 197 0
173 197 0
174 197 0
175 198 0
174 197 0
174 197 0
174 198 0
174 198 0
174 198 0
174 197 0
174 197 0
173 197 0
174 197 0
175 198 0
174 197 0
161 183 0
155 176 0
155 176 0
156 177 0
156 177 0
156 177 0
156 177 0
155 176 0
155 176 0
164 184 121
178 198 209
183 202 228
183 202 228
182 202 228
183 202 228
183 202 228
182 202 228
183 202 228
182 202 228
183 202 228
182 202 228
183 202 228
183 202 228
183 203 228
183 202 228
182 202 228
182 202 228
182 202 228
183 202 228
183 202 228
183 202 228
184 203 228
183 202 228
182 202 228
182 202 228
183 202 228
182 202 228
182 202 228
182 202 228
183 202 228
182 202 228
182 202 228
183 202 228
182 202 228
183 202 228
182 202 228
182 202 228
182 202 228
183 202 228
182 202 228
182 202 228
183 203 228
182 202 228
183 202 228
183 202 228
182 202 228
183 202 228
183 202 228
183 203 228
182 202 228
183 203 228
182 202 228
183 202 228
182 202 228
182 202 228
182 202 228
182 202 228
183 202 228
183 202 228
182 202 228
182 202 228
182 202 228
183 203 228
182 202 228
182 202 228
182 202 228
183 202 228
183 202 228
182 202 228
182 202 228
182 202 228
183 202 228
182 202 228
182 202 228
182 202 228
182 202 228
183 202 228
183 202 228
183 202 228
182 202 228
182 202 228
182 202 228
182 202 228
183 202 228
181 202 228
182 202 228
182 202 228
183 202 228
182 202 228
182 202 228
182 202 228
182 202 228
182 202 228
182 202 228
182 202 228
182 202 228
183 202 228
182 202 228
182 202 228
182 202 228
183 202 228
183 202 228
183 202 228
182 202 228
182 202 228
183 202 228
183 202 228
182 202 228
182 202 228
183 202 228
183 202 228
181 202 228
183 202 228
182 202 228
182 202 228
183 202 228
183 203 228
182 202 228
182 202 228
182 202 228
182 202 228
182 202 228
182 202 228
182 202 228
182 202 228
182 202 228
183 202 228
182 202 228
182 202 228
182 202 228
182 202 228
181 202 228
182 202 228
182 202 228
182 202 228
183 202 228
182 202 228
182 202 228
182 202 228
177 197 211
165 185 146
154 174 45
150 171 0
156 176 0
153 174 0
152 172 0
152 172 0
153 173 0
155 175 0
154 175 0
153 174 0
155 175 0
151 170 0
162 183 0
173 196 0
174 197 0
174 197 0
174 197 0
173 197 0
174 197 0
173 196 0
171 195 0
174 196 0
173 196 0
173 197 0
173 197 0
173 196 0
174 197 0
173 197 0
176 198 0
173 197 0
175 198 0
173 197 0
173 197 0
173 196 0
172 196 0
173 197 0
172 196 0
173 196 0
175 198 0
174 197 0
173 197 0
173 197 0
174 197 0
174 197 0
174 197 0
173 197 0
172 197 0
173 197 0
174 197 0
173 197 0
170 194 0
173 196 0
171 195 0
173 197 0
174 197 0
173 197 0
173 196 0
174 197 0
173 196 0
174 197 0
170 194 0
172 196 0
174 197 0
174 197 0
173 197 0
172 196 0
171 195 0
173 197 0
173 196 0
173 196 0
173 196 0
173 195 0
174 197 0
175 197 0
173 197 0
172 195 0
175 198 0
173 197 0
174 197 0
175 198 0
174 197 0
173 196 0
173 196 0
174 197 0
174 197 0
173 197 0
174 197 0
173 197 0
171 196 0
175 198 0
174 198 0
174 198 0
173 197 0
173 197 0
172 196 0
174 196 0
172 195 0
170 194 0
172 196 0
174 197 0
173 197 0
174 197 0
172 196 0
172 196 0
172 196 0
173 197 0
174 197 0
174 197 0
171 194 0
174 197 0
174 197 0
173 197 0
172 196 0
173 197 0
172 196 0
174 197 0
174 198 0
172 196 0
173 196 0
172 196 0
175 198 0
172 195 0
172 196 0
173 196 0
173 196 0
175 198 0
174 197 0
174 197 0
174 198 0
174 197 0
173 196 0
172 195 0
174 197 0
173 196 0
173 197 0
173 196 0
174 197 0
172 195 0
175 198 0
172 196 0
172 196 0
175 198 0
174 198 0
172 196 0
174 197 0
174 197 0
174 197 0
174 198 0
173 196 0
172 195 0
175 198 0
174 197 0
172 196 0
174 197 0
174 197 0
173 197 0
174 197 0
174 197 0
174 197 0
174 197 0
172 195 0
174 197 0
172 196 0
173 196 0
173 197 0
174 197 0
172 196 0
174 198 0
171 195 0
175 198 0
173 196 0
172 196 0
172 196 0
174 196 0
174 197 0
174 198 0
174 197 0
172 196 0
174 197 0
174 198 0
173 197 0
174 198 0
174 197 0
175 198 0
175 198 0
172 196 0
172 196 0
174 197 0
173 196 0
173 197 0
174 198 0
174 196 0
174 197 0
174 196 0
173 197 0
174 198 0
174 197 0
174 197 0
174 197 0
173 197 0
174 198 0
173 197 0
174 197 0
175 198 0
173 196 0
173 197 0
175 198 0
176 199 0
171 195 0
175 198 0
174 197 0
175 198 0
170 194 0
174 197 0
175 198 0
174 198 0
175 198 0
174 198 0
174 198 0
174 198 0
173 197 0
175 198 0
175 198 0
174 198 0
173 197 0
175 198 0
177 199 0
174 198 0
175 198 0
174 197 0
173 197 0
174 198 0
175 198 0
173 197 0
173 197 0
173 196 0
174 197 0
175 198 0
172 196 0
173 197 0
174 198 0
173 197 0
174 197 0
174 197 0
173 197 0
173 197 0
174 198 0
176 198 0
174 198 0
166 189 0
156 176 0
155 176 0
154 176 0
156 176 0
157 177 0
156 177 0
155 176 0
155 176 0
157 177 0
155 176 22
168 188 150
180 200 217
182 202 228
183 202 228
183 202 228
182 202 228
182 202 228
182 202 228
182 202 228
182 202 228
182 202 228
182 202 228
182 202 228
182 202 228
183 202 228
183 202 228
183 202 228
183 202 228
182 202 228
182 202 228
183 202 228
184 203 228
184 203 228
183 202 228
182 202 228
183 202 228
182 202 228
183 203 228
183 202 228
182 202 228
182 202 228
183 202 228
182 202 228
182 202 228
182 202 228
182 202 228
182 202 228
182 202 228
183 202 228
182 202 228
182 202 228
182 202 228
182 202 228
183 203 228
183 202 228
183 203 228
183 202 228
182 202 228
182 202 228
182 202 228
183 203 228
182 202 228
183 202 228
182 202 228
183 202 228
182 202 228
183 202 228
182 202 228
182 202 228
182 202 228
181 202 228
183 202 228
182 202 228
181 201 228
182 202 228
182 202 228
182 202 228
182 202 228
182 202 228
182 202 228
183 202 228
183 202 228
182 202 228
183 202 228
183 202 228
182 202 228
182 202 228
182 202 228
182 202 228
183 202 228
183 202 228
182 202 228
183 202 228
183 202 228
182 202 228
182 202 228
182 202 228
182 202 228
182 202 228
182 202 228
182 202 228
182 202 228
182 202 228
182 202 228
182 202 228
183 202 228
182 202 228
182 202 228
182 202 228
183 202 228
183 202 228
182 202 228
182 202 228
182 202 228
182 202 228
182 202 228
182 202 228
182 202 228
183 202 228
183 202 228
182 202 228
183 202 228
182 202 228
182 202 228
182 202 228
183 202 228
182 202 228
182 202 228
182 202 228
182 202 228
182 202 228
182 202 228
181 201 228
183 202 228
181 201 228
183 202 228
182 202 228
183 203 228
182 202 228
182 202 228
182 202 228
183 203 228
182 202 228
182 202 228
182 202 228
182 202 228
174 194 190
158 179 109
151 172 0
155 175 0
153 173 0
152 172 0
154 175 0
155 174 0
154 174 0
156 176 0
153 173 0
153 174 0
155 175 0
152 173 0
154 174 0
153 173 0
166 188 0
172 196 0
173 196 0
175 198 0
174 197 0
174 197 0
171 195 0
172 195 0
173 196 0
170 193 0
172 195 0
173 197 0
172 196 0
173 197 0
174 197 0
174 196 0
174 197 0
172 196 0
174 197 0
174 197 0
173 196 0
173 197 0
174 197 0
173 196 0
175 198 0
173 197 0
173 197 0
175 198 0
173 197 0
174 197 0
174 197 0
173 196 0
173 197 0
173 196 0
174 197 0
174 197 0
172 195 0
174 198 0
173 196 0
172 196 0
175 198 0
172 195 0
173 196 0
175 197 0
174 197 0
172 196 0
174 198 0
172 196 0
173 197 0
172 196 0
174 197 0
173 196 0
172 196 0
173 196 0
173 196 0
173 197 0
172 197 0
173 197 0
173 196 0
174 197 0
174 197 0
172 195 0
173 196 0
174 197 0
175 198 0
174 197 0
172 196 0
173 196 0
174 198 0
173 197 0
172 196 0
174 197 0
172 196 0
174 197 0
173 196 0
175 198 0
173 196 0
172 196 0
174 197 0
174 197 0
172 196 0
174 197 0
174 198 0
172 196 0
173 197 0
171 195 0
172 196 0
173 197 0
173 197 0
175 198 0
174 197 0
173 196 0
173 197 0
171 195 0
174 196 0
173 196 0
171 195 0
176 198 0
174 197 0
172 196 0
174 197 0
174 197 0
173 196 0
174 198 0
174 196 0
174 198 0
173 196 0
174 198 0
172 196 0
173 197 0
174 198 0
174 196 0
174 197 0
174 198 0
175 198 0
171 195 0
173 196 0
174 197 0
173 196 0
174 197 0
173 197 0
173 196 0
173 196 0
173 197 0
173 197 0
174 197 0
174 197 0
172 196 0
175 198 0
174 197 0
173 196 0
172 195 0
174 197 0
173 196 0
174 197 0
175 197 0
175 198 0
174 197 0
173 197 0
173 197 0
172 195 0
173 196 0
172 196 0
173 196 0
175 198 0
174 197 0
174 198 0
173 196 0
174 198 0
174 197 0
173 196 0
174 197 0
172 196 0
174 197 0
172 196 0
175 198 0
173 197 0
174 197 0
174 197 0
174 197 0
173 197 0
173 196 0
175 198 0
175 198 0
172 196 0
175 198 0
173 197 0
173 196 0
174 197 0
174 197 0
175 198 0
175 198 0
177 199 0
174 198 0
174 197 0
173 197 0
173 195 0
175 198 0
174 197 0
172 196 0
173 197 0
175 197 0
173 196 0
175 198 0
174 197 0
171 195 0
174 197 0
172 196 0
175 197 0
173 197 0
173 197 0
173 196 0
174 198 0
173 197 0
174 197 0
175 198 0
174 198 0
174 197 0
176 198 0
173 196 0
173 197 0
174 197 0
173 197 0
173 197 0
173 197 0
172 197 0
173 197 0
173 196 0
174 197 0
175 198 0
174 198 0
175 198 0
173 197 0
174 197 0
174 198 0
175 198 0
175 198 0
176 198 0
175 198 0
174 197 0
173 197 0
174 197 0
173 197 0
176 198 0
174 197 0
172 196 0
173 197 0
173 197 0
174 197 0
174 198 0
174 198 0
172 196 0
174 197 0
174 198 0
174 197 0
173 197 0
173 197 0
167 191 0
155 176 0
156 176 0
155 176 0
157 177 0
154 175 0
154 175 0
156 177 0
155 176 0
156 177 0
155 176 0
156 177 0
157 178 75
171 191 174
183 203 228
183 202 228
182 202 228
183 202 228
183 202 228
182 202 228
183 202 228
182 202 228
183 202 228
182 202 228
182 202 228
183 202 228
182 202 228
182 202 228
183 203 228
183 203 228
183 202 228
183 202 228
182 202 228
183 202 228
183 202 228
183 202 228
182 202 228
182 202 228
182 202 228
183 203 228
183 202 228
182 202 228
183 203 228
182 202 228
183 202 228
182 202 228
183 202 228
183 202 228
182 202 228
182 202 228
183 202 228
183 202 228
183 203 228
183 202 228
183 202 228
182 202 228
183 202 228
182 202 228
182 202 228
182 202 228
182 202 228
182 202 228
182 202 228
183 202 228
183 202 228
183 202 228
183 202 228
183 202 228
182 202 228
183 202 228
183 202 228
182 202 228
182 202 228
182 202 228
182 202 228
182 202 228
182 202 228
182 202 228
182 202 228
182 202 228
183 202 228
183 202 228
183 202 228
182 202 228
182 202 228
182 202 228
183 202 228
182 202 228
183 202 228
182 202 228
183 202 228
183 202 228
182 202 228
182 202 228
183 202 228
182 202 228
183 202 228
182 202 228
182 202 228
182 202 228
182 202 228
183 202 228
183 202 228
182 202 228
182 202 228
182 202 228
182 202 228
182 202 228
182 202 228
182 202 228
182 202 228
183 202 228
182 202 228
183 202 228
182 202 228
182 202 228
183 202 228
183 202 228
183 202 228
182 202 228
182 202 228
182 202 228
182 202 228
182 202 228
182 202 228
181 202 228
182 202 228
183 202 228
183 202 228
183 203 228
182 202 228
182 202 228
182 202 228
182 202 228
182 202 228
182 202 228
182 202 228
182 202 228
182 202 228
182 202 228
182 202 228
182 202 228
182 202 228
182 202 228
182 202 226
172 192 186
153 173 79
152 172 0
152 172 0
150 170 0
153 172 0
152 173 0
153 173 0
151 172 0
154 174 0
150 171 0
153 172 0
155 176 0
153 174 0
151 172 0
154 175 0
153 173 0
153 173 0
166 188 0
174 197 0
173 196 0
174 197 0
172 196 0
173 196 0
173 197 0
172 196 0
174 197 0
173 196 0
172 196 0
174 197 0
173 196 0
173 197 0
174 198 0
174 197 0
172 196 0
173 197 0
173 196 0
172 196 0
173 196 0
175 198 0
176 198 0
174 197 0
174 197 0
173 196 0
173 197 0
174 197 0
173 196 0
172 195 0
174 197 0
173 196 0
174 197 0
176 198 0
174 197 0
174 197 0
175 197 0
175 197 0
172 196 0
175 197 0
172 196 0
171 195 0
174 197 0
173 197 0
173 197 0
174 197 0
174 197 0
173 197 0
173 197 0
175 198 0
174 198 0
172 195 0
173 196 0
175 198 0
172 196 0
173 196 0
172 195 0
173 197 0
174 197 0
170 194 0
174 197 0
174 197 0
175 198 0
173 196 0
173 197 0
174 197 0
173 197 0
174 196 0
174 198 0
174 197 0
174 197 0
173 196 0
173 197 0
173 196 0
174 198 0
173 196 0
174 197 0
173 197 0
175 197 0
173 197 0
173 196 0
173 196 0
171 195 0
173 196 0
174 198 0
175 197 0
172 196 0
175 198 0
172 196 0
173 197 0
173 196 0
175 197 0
173 197 0
174 197 0
174 197 0
174 197 0
171 196 0
171 194 0
173 197 0
175 198 0
175 198 0
173 196 0
174 197 0
172 196 0
172 195 0
171 194 0
175 198 0
173 197 0
173 197 0
173 196 0
174 197 0
174 197 0
173 196 0
175 198 0
172 195 0
174 197 0
171 195 0
174 197 0
173 196 0
175 198 0
175 197 0
174 197 0
173 196 0
172 196 0
173 196 0
175 198 0
171 195 0
173 196 0
175 198 0
172 196 0
173 196 0
173 197 0
173 197 0
172 195 0
175 198 0
173 196 0
175 198 0
175 197 0
174 197 0
174 197 0
174 198 0
174 197 0
173 197 0
172 195 0
173 197 0
174 198 0
174 197 0
174 197 0
172 195 0
174 197 0
173 195 0
174 197 0
173 196 0
174 197 0
172 196 0
175 198 0
173 197 0
174 197 0
173 196 0
175 198 0
174 198 0
174 198 0
174 197 0
174 197 0
173 197 0
175 198 0
174 198 0
174 197 0
173 196 0
173 196 0
174 197 0
173 197 0
176 198 0
174 197 0
176 199 0
175 198 0
172 196 0
175 198 0
175 197 0
175 198 0
172 196 0
171 195 0
172 196 0
172 196 0
174 198 0
173 197 0
173 197 0
173 197 0
175 198 0
173 197 0
173 196 0
174 197 0
174 197 0
174 198 0
172 195 0
173 197 0
174 198 0
174 198 0
171 196 0
171 195 0
176 197 0
174 197 0
175 198 0
173 196 0
174 198 0
174 197 0
173 197 0
176 198 0
174 197 0
175 198 0
173 197 0
172 196 0
175 198 0
173 197 0
172 196 0
174 197 0
175 198 0
174 197 0
174 197 0
175 198 0
175 198 0
176 198 0
174 197 0
173 197 0
173 197 0
173 197 0
174 197 0
173 197 0
173 197 0
174 197 0
173 197 0
174 198 0
173 197 0
175 198 0
173 196 0
174 197 0
175 198 0
172 196 0
155 176 0
155 177 0
155 176 0
155 176 0
155 176 0
156 177 0
156 177 0
156 176 0
155 177 0
156 177 0
156 176 0
157 177 0
155 177 0
160 181 88
176 196 199
183 202 228
183 202 228
182 202 228
182 202 228
183 202 228
182 202 228
183 203 228
182 202 228
182 202 228
182 202 228
182 202 228
182 202 228
183 202 228
183 202 228
182 202 228
182 202 228
183 202 228
183 202 228
183 202 228
182 202 228
182 202 228
183 202 228
182 202 228
182 202 228
182 202 228
183 202 228
182 202 228
182 202 228
183 202 228
182 202 228
182 202 228
183 203 228
183 202 228
182 202 228
182 202 228
182 202 228
182 202 228
182 202 228
183 202 228
182 202 228
182 202 228
182 202 228
182 202 228
182 202 228
182 202 228
183 202 228
182 202 228
182 202 228
183 202 228
182 202 228
183 202 228
182 202 228
182 202 228
183 202 228
181 201 228
182 202 228
182 202 228
182 202 228
183 202 228
183 202 228
182 202 228
182 202 228
183 202 228
183 202 228
182 202 228
182 202 228
182 202 228
182 202 228
182 202 228
183 202 228
182 202 228
182 202 228
182 202 228
182 202 228
181 202 228
183 202 228
182 202 228
182 202 228
183 202 228
183 202 228
182 202 228
183 202 228
182 202 228
182 202 228
182 202 228
182 202 228
182 202 228
182 202 228
182 202 228
182 202 228
182 202 228
182 202 228
182 202 228
182 202 228
182 202 228
182 202 228
182 202 228
183 202 228
182 202 228
181 202 228
183 202 228
183 202 228
182 202 228
182 202 228
182 202 228
182 202 228
182 202 228
182 202 228
182 202 228
183 202 228
181 201 228
182 202 228
182 202 228
183 202 228
182 202 228
182 202 228
182 202 228
182 202 228
182 202 228
183 202 228
183 202 228
182 202 228
182 202 228
183 202 228
182 202 228
182 202 228
181 201 226
169 188 163
154 175 68
152 172 0
152 173 0
153 173 0
153 173 0
154 174 0
153 173 0
152 173 0
154 174 0
153 173 0
152 173 0
153 174 0
153 174 0
152 173 0
154 175 0
154 175 0
153 173 0
153 173 0
154 175 0
165 186 0
174 197 0
173 197 0
172 195 0
171 195 0
174 197 0
173 197 0
172 195 0
173 195 0
174 197 0
174 197 0
172 196 0
172 196 0
174 197 0
174 197 0
172 196 0
175 198 0
174 198 0
174 197 0
173 197 0
175 198 0
174 197 0
173 196 0
174 196 0
174 197 0
174 197 0
174 197 0
172 195 0
174 197 0
172 196 0
172 196 0
174 197 0
174 197 0
174 197 0
172 196 0
174 196 0
172 196 0
173 196 0
171 195 0
175 198 0
173 196 0
172 196 0
173 196 0
170 194 0
173 197 0
173 197 0
174 198 0
172 196 0
172 196 0
173 197 0
174 197 0
173 197 0
174 197 0
174 196 0
173 196 0
174 197 0
173 196 0
175 198 0
174 197 0
173 196 0
172 195 0
172 196 0
173 197 0
174 197 0
173 196 0
173 197 0
173 196 0
174 197 0
174 197 0
174 196 0
174 198 0
173 196 0
175 198 0
174 197 0
172 195 0
173 196 0
172 196 0
173 196 0
174 197 0
174 198 0
171 195 0
172 196 0
173 197 0
173 196 0
173 197 0
173 196 0
172 196 0
173 197 0
174 197 0
174 197 0
172 195 0
174 197 0
172 196 0
173 197 0
172 196 0
173 196 0
173 197 0
174 197 0
175 198 0
173 196 0
173 196 0
173 197 0
172 196 0
174 197 0
173 197 0
172 196 0
174 197 0
175 197 0
173 196 0
176 198 0
174 197 0
172 196 0
175 198 0
171 195 0
173 197 0
173 197 0
174 197 0
173 196 0
173 197 0
173 197 0
172 196 0
172 196 0
173 197 0
172 196 0
172 195 0
172 195 0
173 196 0
173 196 0
174 197 0
174 197 0
175 198 0
173 197 0
174 198 0
174 197 0
175 198 0
174 197 0
174 197 0
174 197 0
172 196 0
173 197 0
173 197 0
173 197 0
174 197 0
174 197 0
172 196 0
175 198 0
175 198 0
172 196 0
173 197 0
172 196 0
172 196 0
173 197 0
174 197 0
174 198 0
174 197 0
173 197 0
174 198 0
175 198 0
174 198 0
173 196 0
174 197 0
173 195 0
173 197 0
173 197 0
173 197 0
176 198 0
175 198 0
173 197 0
174 197 0
174 197 0
171 195 0
173 197 0
173 197 0
174 197 0
172 196 0
174 196 0
174 197 0
174 197 0
174 198 0
175 198 0
173 197 0
174 198 0
174 197 0
174 198 0
173 197 0
174 198 0
174 197 0
175 198 0
176 198 0
173 196 0
175 198 0
174 197 0
174 197 0
172 196 0
172 196 0
176 199 0
173 197 0
175 197 0
175 198 0
173 197 0
175 198 0
175 198 0
172 197 0
174 197 0
174 197 0
173 197 0
175 198 0
173 197 0
175 198 0
173 197 0
174 198 0
172 197 0
175 198 0
174 198 0
174 197 0
174 197 0
175 198 0
175 198 0
173 197 0
174 197 0
176 198 0
175 198 0
174 197 0
172 196 0
174 197 0
173 196 0
174 197 0
174 197 0
175 198 0
174 197 0
174 197 0
173 197 0
174 198 0
174 197 0
174 197 0
173 197 0
173 197 0
174 197 0
156 177 0
155 176 0
155 176 0
157 177 0
155 176 0
155 176 0
155 176 0
157 177 0
154 176 0
155 176 0
156 177 0
157 177 0
155 176 0
155 176 0
154 175 0
165 185 127
177 197 206
183 202 228
182 202 228
182 202 228
183 202 228
182 202 228
182 202 228
181 202 228
183 202 228
182 202 228
183 202 228
183 202 228
182 202 228
182 202 228
183 202 228
183 202 228
183 202 228
183 202 228
183 202 228
182 202 228
183 202 228
182 202 228
182 202 228
182 202 228
182 202 228
182 202 228
183 202 228
182 202 228
183 202 228
182 202 228
183 202 228
182 202 228
182 202 228
182 202 228
182 202 228
183 202 228
182 202 228
183 202 228
183 202 228
182 202 228
182 202 228
182 202 228
182 202 228
182 202 228
182 202 228
183 202 228
182 202 228
182 202 228
182 202 228
182 202 228
182 202 228
182 202 228
183 202 228
182 202 228
183 202 228
182 202 228
182 202 228
182 202 228
182 202 228
181 202 228
182 202 228
183 202 228
182 202 228
182 202 228
182 202 228
183 202 228
182 202 228
183 202 228
183 202 228
182 202 228
182 202 228
182 202 228
183 202 228
182 202 228
182 202 228
182 202 228
182 202 228
182 202 228
182 202 228
182 202 228
182 202 228
183 202 228
183 202 228
182 202 228
182 202 228
183 202 228
183 202 228
183 202 228
182 202 228
182 202 228
183 202 228
183 202 228
181 201 228
182 202 228
182 202 228
182 202 228
182 202 228
182 202 228
181 202 228
182 202 228
183 202 228
182 202 228
182 202 228
182 202 228
182 202 228
181 202 228
182 202 228
182 202 228
182 202 228
182 202 228
183 202 228
182 202 228
182 202 228
182 202 228
182 202 228
182 202 228
182 202 228
182 202 228
183 202 228
182 202 228
182 202 228
183 202 228
182 202 228
178 197 212
166 185 155
152 171 45
153 172 16
149 170 0
151 173 0
154 174 0
153 174 0
152 171 0
153 174 0
150 171 0
153 173 0
151 171 0
152 172 0
153 174 0
153 173 0
153 173 0
153 174 0
154 174 0
152 173 0
152 173 0
153 175 0
151 171 0
165 186 0
173 197 0
173 196 0
173 197 0
173 196 0
174 198 0
175 198 0
174 197 0
173 197 0
173 196 0
174 197 0
176 198 0
174 197 0
174 197 0
173 197 0
173 196 0
175 198 0
173 197 0
174 197 0
173 196 0
173 196 0
173 197 0
173 197 0
170 194 0
174 197 0
172 195 0
171 195 0
173 196 0
172 196 0
173 196 0
173 196 0
172 196 0
174 196 0
174 197 0
171 195 0
173 197 0
174 197 0
174 197 0
173 196 0
171 195 0
173 196 0
173 196 0
173 197 0
173 196 0
174 197 0
172 196 0
174 197 0
173 197 0
174 197 0
173 196 0
172 196 0
174 197 0
174 198 0
174 196 0
173 197 0
172 196 0
175 197 0
175 198 0
174 198 0
172 196 0
173 196 0
175 198 0
173 197 0
174 197 0
174 197 0
174 197 0
174 197 0
174 197 0
174 197 0
173 196 0
173 196 0
174 197 0
173 197 0
174 197 0
172 195 0
173 196 0
174 197 0
175 197 0
174 198 0
174 197 0
174 197 0
172 196 0
171 195 0
174 197 0
173 196 0
173 197 0
173 196 0
174 196 0
174 197 0
173 196 0
175 198 0
175 197 0
173 197 0
174 198 0
172 196 0
171 196 0
175 198 0
172 195 0
173 197 0
173 196 0
174 197 0
174 197 0
173 196 0
172 196 0
173 197 0
173 197 0
174 196 0
176 199 0
173 197 0
173 197 0
173 197 0
174 197 0
175 198 0
169 193 0
175 198 0
172 196 0
172 196 0
172 196 0
173 197 0
174 196 0
173 197 0
173 197 0
175 198 0
173 197 0
172 196 0
175 198 0
174 197 0
173 197 0
174 197 0
172 196 0
175 197 0
172 196 0
175 198 0
173 196 0
174 197 0
173 197 0
175 198 0
171 195 0
173 197 0
175 198 0
172 195 0
174 197 0
172 196 0
175 198 0
174 197 0
173 196 0
172 195 0
176 198 0
173 196 0
175 198 0
173 197 0
174 198 0
174 197 0
175 198 0
174 197 0
172 196 0
175 198 0
174 196 0
174 198 0
172 196 0
176 198 0
174 197 0
174 197 0
175 198 0
173 197 0
173 197 0
173 197 0
174 197 0
174 198 0
173 196 0
173 196 0
174 198 0
176 199 0
174 197 0
174 197 0
172 196 0
173 196 0
174 197 0
173 197 0
173 196 0
174 197 0
174 197 0
172 196 0
174 197 0
174 197 0
174 198 0
173 196 0
173 196 0
173 197 0
174 197 0
175 198 0
174 198 0
175 198 0
174 197 0
174 198 0
175 198 0
174 197 0
174 198 0
173 197 0
175 198 0
173 197 0
172 197 0
173 197 0
175 198 0
174 197 0
174 197 0
173 197 0
174 197 0
174 197 0
174 198 0
175 198 0
172 197 0
172 196 0
174 197 0
173 197 0
174 197 0
175 198 0
174 197 0
174 198 0
174 197 0
175 198 0
175 198 0
174 197 0
175 197 0
174 197 0
174 197 0
174 198 0
174 197 0
175 197 0
174 197 0
173 197 0
174 198 0
173 197 0
174 198 0
173 197 0
173 197 0
173 197 0
175 198 0
160 182 0
155 177 0
154 175 0
156 177 0
156 177 0
156 176 0
155 176 0
156 176 0
157 177 0
155 176 0
156 176 0
156 176 0
155 176 0
154 175 0
156 177 0
155 176 0
154 176 0
166 187 150
181 201 224
184 203 228
182 202 228
183 203 228
183 202 228
183 202 228
183 203 228
183 202 228
182 202 228
182 202 228
183 202 228
181 202 228
182 202 228
183 202 228
182 202 228
182 202 228
182 202 228
182 202 228
182 202 228
183 203 228
182 202 228
182 202 228
182 202 228
182 202 228
182 202 228
182 202 228
183 202 228
183 202 228
183 202 228
182 202 228
183 202 228
182 202 228
183 202 228
181 202 228
182 202 228
183 202 228
183 202 228
183 203 228
181 202 228
182 202 228
182 202 228
182 202 228
183 203 228
183 202 228
181 202 228
182 202 228
182 202 228
182 202 228
181 202 228
182 202 228
183 202 228
183 202 228
182 202 228
182 202 228
183 203 228
182 202 228
183 202 228
182 202 228
182 202 228
183 202 228
182 202 228
182 202 228
183 202 228
182 202 228
182 202 228
183 202 228
182 202 228
182 202 228
181 202 228
181 202 228
182 202 228
182 202 228
182 202 228
182 202 228
182 202 228
183 202 228
182 202 228
182 202 228
182 202 228
182 202 228
182 202 228
182 202 228
182 202 228
182 202 228
182 202 228
182 202 228
182 202 228
182 202 228
182 202 228
182 202 228
182 202 228
182 202 228
182 202 228
183 202 228
182 202 228
183 202 228
182 202 228
182 202 228
183 202 228
182 202 228
182 202 228
183 202 228
182 202 228
182 202 228
183 202 228
182 202 228
183 202 228
182 202 228
182 202 228
181 202 228
182 202 228
181 202 228
182 202 228
183 202 228
181 201 228
182 202 228
182 202 228
182 202 228
182 202 228
172 193 199
158 178 135
151 171 36
150 170 0
153 173 16
156 177 0
150 170 0
149 169 0
147 167 0
150 170 0
153 173 0
153 173 0
150 170 0
150 170 0
151 171 0
153 175 0
155 176 0
155 175 0
153 174 0
153 173 0
152 173 0
152 172 0
152 173 0
153 173 0
152 172 0
161 183 0
172 196 0
173 196 0
173 196 0
175 198 0
173 196 0
173 196 0
171 195 0
175 198 0
173 197 0
174 197 0
174 197 0
171 194 0
173 196 0
174 197 0
175 197 0
174 198 0
173 196 0
171 195 0
172 196 0
173 197 0
172 196 0
173 197 0
174 197 0
174 197 0
172 195 0
175 198 0
174 196 0
173 196 0
173 196 0
171 195 0
172 196 0
172 195 0
173 196 0
173 196 0
171 195 0
174 198 0
174 196 0
172 196 0
173 197 0
174 197 0
172 195 0
173 197 0
172 196 0
174 197 0
174 197 0
173 197 0
173 197 0
174 197 0
172 196 0
174 197 0
173 197 0
171 195 0
173 196 0
174 197 0
173 197 0
176 198 0
173 197 0
171 195 0
175 197 0
171 195 0
174 198 0
173 197 0
173 197 0
174 197 0
174 197 0
174 197 0
174 197 0
174 197 0
172 196 0
173 196 0
174 197 0
172 195 0
173 196 0
173 196 0
172 196 0
172 196 0
173 197 0
174 197 0
174 198 0
171 196 0
174 197 0
173 197 0
173 196 0
173 197 0
172 196 0
174 197 0
174 197 0
172 196 0
171 194 0
174 197 0
175 198 0
174 198 0
170 194 0
172 196 0
174 197 0
173 196 0
173 197 0
171 195 0
173 197 0
174 198 0
172 197 0
174 197 0
173 196 0
173 196 0
175 198 0
172 195 0
174 198 0
173 197 0
172 196 0
172 196 0
174 197 0
172 196 0
173 197 0
174 197 0
172 195 0
173 197 0
172 196 0
174 198 0
174 198 0
175 198 0
174 198 0
171 195 0
173 196 0
172 196 0
175 198 0
173 196 0
174 197 0
173 196 0
174 198 0
174 197 0
175 197 0
174 197 0
176 199 0
173 197 0
174 198 0
173 197 0
174 197 0
175 197 0
174 197 0
174 197 0
173 196 0
174 198 0
175 198 0
174 197 0
174 197 0
175 198 0
172 195 0
175 198 0
172 196 0
173 197 0
172 195 0
174 198 0
174 198 0
173 196 0
174 198 0
174 197 0
176 198 0
171 195 0
175 198 0
172 196 0
174 198 0
173 197 0
173 197 0
173 197 0
173 196 0
174 197 0
172 195 0
172 196 0
173 197 0
174 197 0
175 198 0
173 197 0
174 198 0
175 198 0
175 198 0
175 198 0
174 198 0
174 197 0
175 198 0
175 198 0
175 198 0
174 198 0
174 198 0
173 197 0
173 197 0
173 197 0
172 196 0
173 197 0
173 197 0
173 197 0
173 197 0
173 197 0
174 197 0
175 198 0
176 199 0
176 198 0
173 196 0
173 196 0
175 197 0
175 198 0
174 197 0
176 199 0
173 197 0
172 196 0
174 198 0
172 197 0
174 197 0
173 197 0
172 196 0
175 198 0
174 197 0
173 196 0
173 196 0
175 198 0
173 197 0
174 198 0
173 197 0
173 197 0
174 197 0
173 197 0
174 197 0
175 198 0
173 196 0
175 198 0
174 198 0
174 197 0
173 197 0
175 198 0
172 196 0
175 198 0
173 197 0
175 198 0
174 198 0
175 198 0
175 198 0
174 197 0
173 197 0
166 187 0
156 177 0
156 177 0
155 176 0
155 176 0
155 176 0
156 177 0
156 176 0
155 176 0
155 176 0
156 177 0
156 176 0
156 177 0
155 176 0
155 176 0
155 176 0
155 176 0
156 177 0
157 179 64
168 189 156
183 202 228
182 202 228
182 202 228
183 202 228
184 203 228
181 202 228
182 202 228
183 202 228
182 202 228
183 202 228
182 202 228
181 202 228
182 202 228
183 202 228
183 202 228
182 202 228
182 202 228
182 202 228
183 202 228
182 202 228
182 202 228
182 202 228
182 202 228
182 202 228
181 202 228
182 202 228
182 202 228
182 202 228
182 202 228
183 202 228
182 202 228
183 202 228
182 202 228
183 202 228
182 202 228
182 202 228
182 202 228
182 202 228
182 202 228
182 202 228
182 202 228
182 202 228
182 202 228
182 202 228
183 202 228
183 202 228
183 202 228
182 202 228
182 202 228
181 202 228
182 202 228
182 202 228
181 201 228
183 202 228
183 202 228
182 202 228
183 202 228
183 202 228
182 202 228
183 202 228
182 202 228
181 202 228
182 202 228
181 201 228
182 202 228
182 202 228
182 202 228
182 202 228
182 202 228
182 202 228
181 202 228
181 202 228
182 202 228
181 201 228
182 202 228
182 202 228
182 202 228
182 202 228
182 202 228
182 202 228
182 202 228
182 202 228
182 202 228
182 202 228
182 202 228
183 202 228
183 202 228
182 202 228
182 202 228
182 202 228
182 202 228
182 202 228
182 202 228
182 202 228
182 202 228
183 203 228
182 202 228
182 202 228
182 202 228
182 202 228
183 202 228
182 202 228
183 202 228
182 202 228
182 202 228
182 202 228
183 202 228
182 202 228
182 202 228
182 202 228
183 202 228
182 202 228
182 202 228
182 202 228
182 202 228
172 192 196
157 178 117
146 166 48
148 168 32
150 170 31
153 172 16
151 171 22
151 171 0
148 169 0
153 173 0
154 175 0
153 172 0
150 171 0
151 172 0
154 174 0
151 172 0
151 171 0
151 170 0
151 172 0
152 173 0
153 174 0
153 173 0
153 175 0
154 174 0
154 175 0
154 174 0
152 173 0
162 183 0
174 197 0
174 197 0
173 197 0
173 196 0
172 195 0
172 195 0
174 197 0
172 195 0
172 196 0
171 195 0
171 195 0
174 197 0
173 196 0
172 195 0
173 196 0
174 198 0
172 196 0
173 197 0
175 197 0
174 197 0
172 195 0
173 196 0
172 197 0
174 196 0
173 196 0
173 197 0
173 197 0
169 193 0
173 196 0
174 197 0
172 196 0
172 196 0
172 195 0
174 197 0
172 196 0
173 196 0
174 197 0
176 199 0
173 196 0
173 196 0
175 197 0
172 196 0
174 197 0
174 198 0
173 196 0
172 196 0
172 195 0
173 197 0
174 197 0
174 197 0
174 197 0
171 195 0
173 196 0
173 197 0
172 196 0
172 195 0
173 196 0
172 195 0
172 195 0
171 194 0
175 198 0
172 196 0
171 195 0
170 194 0
175 197 0
174 197 0
174 197 0
173 197 0
175 197 0
173 197 0
172 196 0
174 197 0
175 198 0
172 194 0
173 197 0
171 195 0
173 196 0
174 197 0
173 196 0
173 197 0
174 197 0
173 197 0
173 197 0
173 196 0
174 197 0
173 196 0
172 196 0
174 198 0
174 197 0
174 197 0
174 197 0
172 196 0
173 196 0
173 196 0
173 196 0
174 197 0
173 197 0
175 198 0
172 194 0
172 195 0
173 197 0
174 197 0
175 198 0
174 198 0
173 197 0
174 197 0
174 197 0
174 198 0
173 197 0
173 197 0
173 197 0
174 197 0
172 195 0
174 197 0
173 196 0
172 196 0
173 196 0
174 198 0
172 196 0
174 198 0
172 196 0
172 196 0
175 198 0
175 197 0
174 198 0
172 196 0
171 195 0
174 197 0
174 197 0
174 197 0
174 197 0
172 196 0
173 196 0
174 197 0
173 197 0
174 197 0
173 197 0
172 196 0
174 197 0
174 197 0
169 194 0
174 197 0
171 195 0
173 197 0
173 197 0
174 198 0
173 197 0
174 197 0
173 197 0
173 197 0
174 197 0
173 197 0
173 196 0
173 197 0
174 198 0
174 196 0
174 197 0
174 197 0
174 197 0
175 198 0
174 198 0
173 197 0
172 196 0
173 196 0
173 196 0
172 196 0
173 197 0
174 197 0
174 197 0
173 197 0
174 198 0
171 195 0
174 198 0
173 196 0
174 198 0
175 198 0
174 198 0
174 197 0
174 197 0
174 197 0
173 197 0
174 198 0
173 197 0
172 196 0
175 197 0
173 197 0
175 198 0
174 197 0
175 198 0
173 197 0
174 197 0
172 196 0
174 198 0
174 198 0
175 198 0
176 198 0
171 196 0
175 198 0
174 197 0
174 198 0
172 196 0
172 196 0
173 197 0
174 197 0
173 197 0
174 197 0
175 198 0
173 197 0
175 198 0
174 198 0
174 197 0
173 197 0
174 197 0
175 198 0
174 197 0
175 198 0
174 197 0
174 197 0
174 197 0
175 198 0
173 197 0
173 197 0
173 197 0
174 197 0
173 197 0
174 197 0
174 197 0
174 197 0
173 197 0
173 197 0
174 197 0
175 198 0
174 197 0
174 198 0
174 197 0
173 197 0
173 197 0
166 190 0
155 175 0
157 177 0
155 176 0
156 176 0
156 177 0
156 177 0
155 176 0
155 176 0
155 176 0
155 176 0
155 176 0
154 176 0
155 176 0
155 176 0
155 176 0
154 175 0
156 177 0
156 177 0
157 177 0
163 183 102
176 196 199
183 202 228
182 202 228
182 202 228
182 202 228
182 202 228
182 202 228
182 202 228
182 202 228
182 202 228
183 202 228
182 202 228
182 202 228
182 202 228
182 202 228
182 202 228
182 202 228
182 202 228
183 203 228
182 202 228
182 202 228
182 202 228
182 202 228
182 202 228
182 202 228
183 202 228
182 202 228
182 202 228
182 202 228
182 202 228
183 202 228
182 202 228
183 202 228
182 202 228
182 202 228
182 202 228
182 202 228
183 202 228
182 202 228
183 202 228
182 202 228
182 202 228
181 202 228
182 202 228
182 202 228
181 202 228
182 202 228
182 202 228
182 202 228
182 202 228
181 201 228
182 202 228
183 202 228
183 202 228
183 202 228
182 202 228
181 201 228
182 202 228
182 202 228
183 202 228
182 202 228
182 202 228
182 202 228
183 202 228
182 202 228
183 202 228
182 202 228
182 202 228
183 202 228
182 202 228
181 202 228
182 202 228
181 202 228
182 202 228
183 202 228
183 202 228
181 201 228
183 202 228
182 202 228
182 202 228
182 202 228
182 202 228
183 202 228
181 202 228
182 202 228
182 202 228
182 202 228
182 202 228
182 202 228
182 202 228
182 202 228
182 202 228
182 202 228
183 202 228
182 202 228
183 202 228
182 202 228
182 202 228
182 202 228
181 202 228
182 202 228
182 202 228
181 202 228
183 202 228
182 202 228
182 202 228
182 202 228
182 202 228
181 202 228
181 202 228
183 202 228
181 201 227
168 188 184
149 168 117
144 165 48
141 161 57
147 166 46
146 167 48
150 170 28
150 170 28
150 170 16
152 172 0
153 173 0
151 171 0
153 173 0
150 171 0
152 172 0
155 174 0
154 174 0
153 173 0
153 173 0
152 172 0
152 172 0
152 171 0
153 173 0
151 172 0
153 174 0
154 174 0
151 173 0
151 171 0
154 174 0
162 184 0
173 196 0
174 196 0
173 196 0
171 194 0
173 196 0
172 196 0
173 196 0
171 195 0
173 196 0
173 197 0
175 197 0
174 196 0
174 197 0
173 197 0
173 197 0
173 196 0
172 196 0
172 195 0
168 193 0
174 197 0
175 198 0
173 196 0
175 198 0
173 197 0
172 196 0
170 194 0
173 196 0
173 196 0
175 198 0
174 197 0
173 195 0
170 194 0
174 197 0
172 196 0
174 197 0
173 197 0
173 196 0
175 197 0
173 196 0
172 196 0
173 196 0
173 196 0
173 196 0
171 195 0
173 196 0
173 196 0
174 197 0
172 195 0
171 195 0
172 196 0
172 196 0
172 196 0
172 196 0
173 196 0
174 197 0
173 196 0
172 196 0
174 197 0
174 197 0
173 197 0
173 196 0
171 195 0
174 197 0
170 193 0
172 196 0
173 197 0
173 197 0
172 195 0
172 196 0
173 197 0
175 197 0
172 195 0
173 196 0
172 196 0
175 198 0
173 197 0
173 197 0
173 196 0
172 196 0
173 196 0
171 195 0
171 195 0
173 197 0
172 196 0
172 196 0
174 197 0
173 196 0
173 196 0
172 196 0
173 196 0
174 197 0
173 197 0
174 197 0
173 196 0
174 197 0
173 197 0
173 195 0
174 197 0
173 197 0
174 197 0
174 197 0
173 197 0
172 195 0
171 194 0
174 197 0
174 198 0
174 197 0
173 197 0
174 197 0
174 198 0
172 195 0
174 197 0
173 196 0
173 196 0
172 196 0
175 197 0
174 198 0
174 196 0
172 195 0
172 195 0
173 196 0
172 195 0
171 194 0
174 198 0
173 197 0
173 197 0
174 198 0
173 197 0
171 194 0
174 198 0
176 199 0
174 198 0
172 195 0
172 196 0
173 197 0
173 197 0
172 196 0
176 198 0
171 195 0
174 197 0
173 196 0
173 196 0
174 198 0
174 196 0
172 196 0
173 196 0
174 196 0
171 194 0
173 196 0
175 198 0
172 196 0
175 198 0
174 197 0
175 198 0
173 196 0
175 198 0
174 198 0
172 196 0
174 197 0
174 197 0
176 198 0
173 197 0
174 197 0
172 196 0
173 196 0
176 198 0
173 196 0
174 197 0
173 196 0
175 198 0
172 195 0
173 196 0
175 198 0
172 195 0
173 197 0
173 197 0
174 197 0
173 197 0
174 197 0
172 196 0
175 198 0
174 197 0
174 198 0
173 196 0
174 198 0
174 197 0
172 196 0
174 197 0
173 197 0
174 197 0
174 197 0
175 198 0
171 195 0
172 195 0
173 197 0
176 198 0
174 197 0
174 197 0
173 197 0
175 198 0
173 197 0
174 197 0
173 197 0
173 197 0
172 196 0
173 197 0
173 197 0
173 197 0
173 197 0
174 197 0
174 197 0
174 198 0
175 198 0
175 198 0
175 198 0
174 198 0
173 197 0
174 197 0
174 198 0
173 197 0
174 197 0
174 197 0
172 196 0
174 198 0
174 197 0
175 198 0
175 198 0
174 197 0
174 198 0
173 197 0
175 198 0
173 197 0
173 197 0
174 197 0
174 197 0
173 196 0
176 199 0
167 191 0
155 176 0
156 176 0
155 176 0
156 177 0
155 176 0
155 176 0
155 176 0
156 177 0
156 177 0
155 176 0
156 176 0
156 177 0
154 176 0
155 176 0
154 176 0
156 177 0
155 176 0
156 177 0
156 177 0
154 176 0
155 176 0
164 185 129
178 198 211
182 202 228
182 202 228
182 202 228
182 202 228
182 202 228
182 202 228
182 202 228
182 202 228
182 202 228
183 202 228
182 202 228
182 202 228
183 202 228
182 202 228
181 202 228
182 202 228
181 202 228
182 202 228
182 202 228
182 202 228
182 202 228
182 202 228
183 202 228
182 202 228
182 202 228
182 202 228
182 202 228
183 202 228
182 202 228
182 202 228
181 202 228
183 202 228
182 202 228
181 202 228
182 202 228
182 202 228
182 202 228
182 202 228
183 202 228
182 202 228
183 202 228
182 202 228
182 202 228
182 202 228
182 202 228
182 202 228
182 202 228
183 202 228
182 202 228
183 202 228
182 202 228
182 202 228
183 202 228
181 201 228
182 202 228
182 202 228
182 202 228
182 202 228
182 202 228
182 202 228
182 202 228
182 202 228
182 202 228
182 202 228
183 202 228
182 202 228
182 202 228
182 202 228
182 202 228
182 202 228
183 202 228
182 202 228
181 201 228
182 202 228
182 202 228
182 202 228
183 202 228
182 202 228
182 202 228
182 202 228
182 202 228
182 202 228
181 201 228
182 202 228
182 202 228
182 202 228
182 202 228
182 202 228
182 202 228
181 201 228
181 202 228
181 201 228
182 202 228
182 202 228
182 202 228
182 202 228
182 202 228
182 202 228
181 202 228
182 202 228
182 202 228
182 202 228
183 202 228
182 202 228
182 202 228
182 202 228
180 200 222
159 179 180
141 161 97
135 155 57
134 154 65
134 155 66
145 166 45
143 163 45
151 171 38
149 169 22
149 170 22
147 168 22
153 173 14
154 173 0
153 172 0
152 173 0
151 171 0
152 172 0
153 173 0
151 170 0
149 169 0
151 172 0
149 170 0
152 172 0
151 171 0
152 172 0
150 171 0
153 173 0
152 172 0
154 174 0
148 168 0
154 174 0
162 184 0
174 197 0
175 197 0
173 197 0
173 197 0
173 197 0
174 197 0
174 197 0
173 196 0
172 196 0
174 197 0
171 195 0
173 197 0
171 195 0
170 194 0
172 195 0
174 197 0
172 196 0
173 197 0
171 194 0
171 195 0
170 194 0
172 195 0
174 197 0
174 197 0
174 198 0
173 197 0
174 197 0
171 195 0
172 196 0
173 197 0
172 196 0
174 197 0
171 195 0
175 198 0
172 196 0
171 195 0
173 196 0
172 196 0
171 194 0
173 196 0
173 196 0
172 196 0
174 197 0
172 196 0
173 196 0
174 197 0
174 197 0
172 195 0
174 197 0
172 196 0
171 195 0
174 197 0
172 196 0
172 196 0
173 196 0
172 196 0
174 197 0
174 197 0
173 196 0
173 197 0
173 196 0
173 197 0
174 197 0
175 197 0
172 196 0
173 196 0
173 196 0
174 197 0
173 196 0
172 196 0
174 197 0
173 197 0
173 196 0
174 197 0
172 195 0
172 195 0
173 197 0
174 197 0
173 196 0
173 197 0
173 196 0
173 197 0
173 197 0
174 198 0
175 197 0
174 197 0
175 197 0
174 198 0
173 197 0
172 195 0
172 196 0
171 194 0
174 197 0
174 197 0
172 196 0
173 197 0
173 196 0
174 198 0
174 196 0
174 198 0
175 198 0
173 197 0
172 197 0
173 197 0
172 195 0
176 198 0
173 197 0
174 197 0
173 197 0
172 196 0
174 197 0
173 196 0
173 196 0
174 197 0
174 197 0
171 194 0
175 198 0
171 195 0
174 197 0
174 198 0
173 195 0
173 197 0
173 196 0
172 196 0
174 197 0
172 196 0
174 198 0
174 197 0
173 196 0
173 196 0
174 198 0
174 198 0
171 195 0
170 194 0
175 198 0
174 197 0
171 195 0
175 198 0
172 196 0
173 197 0
173 197 0
171 195 0
174 197 0
174 197 0
171 194 0
175 198 0
174 197 0
175 198 0
173 196 0
173 196 0
172 196 0
173 196 0
174 198 0
174 196 0
173 197 0
171 196 0
174 197 0
174 198 0
172 196 0
174 197 0
173 197 0
175 198 0
174 197 0
174 198 0
174 198 0
174 198 0
174 197 0
173 197 0
175 197 0
171 195 0
175 198 0
173 197 0
175 197 0
175 198 0
175 198 0
173 196 0
174 197 0
174 197 0
175 198 0
174 197 0
173 196 0
174 197 0
174 198 0
173 197 0
173 197 0
174 197 0
173 197 0
174 197 0
173 197 0
174 197 0
173 197 0
171 194 0
173 197 0
173 197 0
174 197 0
175 198 0
174 197 0
173 197 0
174 197 0
173 196 0
174 198 0
175 198 0
174 197 0
175 198 0
173 196 0
173 197 0
173 197 0
173 197 0
176 199 0
175 198 0
173 197 0
173 197 0
175 198 0
176 198 0
175 198 0
172 196 0
174 197 0
173 197 0
174 198 0
174 197 0
173 197 0
172 197 0
174 197 0
173 197 0
173 197 0
174 197 0
174 197 0
174 198 0
176 198 0
174 197 0
173 196 0
174 197 0
175 198 0
175 198 0
173 196 0
174 198 0
172 196 0
174 197 0
155 177 0
156 177 0
155 176 0
156 177 0
156 176 0
156 177 0
155 176 0
156 177 0
155 176 0
156 177 0
156 177 0
154 176 0
154 176 0
155 176 0
155 176 0
156 176 0
155 176 0
156 176 0
155 176 0
156 177 0
155 176 0
156 176 0
158 179 60
168 188 151
181 201 224
182 202 228
183 202 228
182 202 228
182 202 228
182 202 228
182 202 228
182 202 228
182 202 228
182 202 228
182 202 228
182 202 228
182 202 228
182 202 228
182 202 228
182 202 228
182 202 228
182 202 228
182 202 228
182 202 228
183 202 228
182 202 228
182 202 228
182 202 228
182 202 228
182 202 228
182 202 228
182 202 228
183 202 228
182 202 228
182 202 228
182 202 228
182 202 228
182 202 228
182 202 228
182 202 228
181 201 228
182 202 228
182 202 228
182 202 228
182 202 228
182 202 228
181 202 228
182 202 228
182 202 228
182 202 228
182 202 228
182 202 228
182 202 228
182 202 228
182 202 228
182 202 228
182 202 228
182 202 228
182 202 228
182 202 228
182 202 228
181 202 228
182 202 228
182 202 228
182 202 228
181 202 228
182 202 228
182 202 228
182 202 228
182 202 228
182 202 228
181 202 228
182 202 228
182 202 228
182 202 228
183 202 228
182 202 228
182 202 228
182 202 228
182 202 228
181 201 228
182 202 228
182 202 228
182 202 228
182 202 228
182 202 228
182 202 228
182 202 228
182 202 228
182 202 228
182 202 228
181 201 228
182 202 228
182 202 228
182 202 228
182 202 228
182 202 228
182 202 228
182 202 228
182 202 228
182 202 228
182 202 228
181 201 228
182 202 228
181 202 228
182 202 228
181 201 228
172 192 213
150 171 162
128 149 109
126 147 86
131 152 72
131 153 76
135 155 66
140 160 57
144 164 58
141 161 53
145 166 33
140 161 53
152 174 22
151 171 28
149 170 22
153 174 16
151 172 0
152 171 0
152 172 0
151 172 0
153 172 0
152 172 0
152 172 0
150 170 0
150 171 0
152 172 0
149 170 0
153 173 0
150 171 0
151 172 0
152 172 0
153 174 0
154 175 0
150 170 0
165 187 0
173 197 0
172 195 0
172 196 0
172 196 0
175 198 0
173 195 0
172 196 0
173 196 0
172 195 0
173 197 0
172 195 0
171 195 0
175 197 0
174 197 0
175 198 0
171 195 0
172 195 0
173 197 0
172 196 0
173 196 0
173 197 0
174 197 0
173 197 0
173 197 0
174 197 0
174 196 0
172 196 0
172 196 0
173 195 0
173 196 0
173 196 0
174 197 0
173 197 0
171 195 0
172 196 0
172 194 0
174 198 0
173 197 0
174 196 0
174 197 0
171 195 0
173 196 0
172 195 0
172 195 0
173 197 0
174 197 0
172 196 0
174 197 0
173 197 0
174 197 0
174 197 0
172 196 0
171 195 0
173 197 0
171 194 0
175 198 0
173 196 0
171 195 0
172 195 0
174 197 0
172 196 0
172 196 0
173 197 0
170 194 0
173 196 0
173 196 0
173 196 0
174 197 0
173 196 0
175 198 0
172 195 0
174 198 0
174 197 0
173 197 0
174 197 0
171 195 0
174 197 0
174 198 0
173 196 0
171 194 0
173 197 0
172 196 0
173 196 0
171 195 0
172 195 0
174 197 0
174 197 0
174 197 0
171 195 0
174 197 0
174 197 0
171 195 0
173 196 0
173 196 0
172 195 0
174 197 0
173 196 0
173 196 0
173 196 0
172 197 0
172 195 0
174 197 0
175 198 0
173 196 0
171 195 0
172 196 0
172 196 0
173 196 0
173 196 0
174 197 0
172 196 0
175 198 0
172 194 0
174 197 0
172 196 0
172 195 0
172 196 0
173 196 0
174 197 0
174 197 0
175 198 0
174 198 0
173 197 0
174 197 0
172 196 0
171 195 0
173 196 0
176 198 0
172 195 0
175 198 0
172 195 0
174 197 0
172 196 0
174 197 0
173 197 0
173 197 0
174 197 0
175 197 0
174 198 0
174 198 0
173 196 0
172 196 0
172 196 0
172 196 0
173 196 0
174 198 0
174 198 0
175 198 0
172 196 0
172 196 0
175 198 0
175 198 0
173 197 0
173 196 0
174 197 0
173 197 0
173 196 0
173 197 0
172 197 0
172 196 0
173 196 0
172 196 0
174 197 0
172 195 0
173 197 0
173 197 0
173 197 0
173 196 0
174 198 0
174 198 0
173 196 0
172 195 0
171 195 0
174 197 0
174 197 0
174 196 0
174 196 0
172 195 0
173 196 0
173 197 0
173 196 0
175 198 0
173 197 0
176 198 0
173 197 0
173 197 0
173 196 0
173 196 0
173 196 0
174 197 0
175 198 0
173 196 0
175 198 0
173 197 0
172 196 0
173 197 0
173 197 0
173 196 0
174 197 0
175 198 0
173 197 0
173 197 0
174 197 0
175 198 0
173 197 0
175 198 0
174 197 0
175 198 0
174 197 0
173 197 0
175 198 0
173 197 0
173 197 0
173 197 0
173 197 0
173 197 0
172 196 0
173 197 0
175 198 0
175 198 0
174 197 0
174 197 0
174 197 0
173 197 0
174 197 0
174 197 0
176 199 0
173 196 0
173 197 0
171 196 0
174 197 0
174 197 0
173 196 0
174 197 0
173 197 0
173 197 0
175 198 0
174 197 0
155 177 0
154 176 0
155 177 0
155 176 0
157 177 0
156 177 0
156 176 0
156 177 0
154 175 0
156 177 0
156 176 0
155 176 0
155 176 0
155 176 0
157 177 0
154 176 0
156 177 0
155 176 0
156 176 0
154 175 0
157 177 0
155 176 0
156 177 0
155 176 0
157 178 68
173 194 186
183 202 228
182 202 228
182 202 228
182 202 228
182 202 228
182 202 228
183 202 228
182 202 228
182 202 228
181 202 228
183 202 228
182 202 228
181 202 228
182 202 228
182 202 228
181 201 228
182 202 228
182 202 228
182 202 228
182 202 228
182 202 228
183 202 228
181 201 228
182 202 228
182 202 228
182 202 228
182 202 228
182 202 228
182 202 228
182 202 228
182 202 228
183 202 228
181 202 228
182 202 228
181 201 228
183 202 228
182 202 228
182 202 228
182 202 228
182 202 228
182 202 228
181 202 228
182 202 228
182 202 228
182 202 228
182 202 228
182 202 228
182 202 228
182 202 228
182 202 228
182 202 228
182 202 228
182 202 228
182 202 228
182 202 228
182 202 228
182 202 228
182 202 228
182 202 228
181 202 228
182 202 228
181 201 228
182 202 228
182 202 228
181 202 228
182 202 228
181 201 228
182 202 228
182 202 228
183 202 228
182 202 228
182 202 228
183 202 228
183 202 228
181 201 228
182 202 228
182 202 228
182 202 228
183 202 228
182 202 228
182 202 228
181 202 228
182 202 228
183 202 228
182 202 228
182 202 228
181 201 228
182 202 228
181 201 228
182 202 228
182 202 228
182 202 228
182 202 228
182 202 228
182 202 228
182 202 228
183 202 228
182 202 228
182 202 228
170 190 209
144 164 158
119 141 115
120 142 94
130 151 77
129 150 78
126 148 77
131 151 64
136 157 64
138 158 65
143 164 50
145 166 49
145 165 38
147 167 35
148 168 28
147 168 32
150 169 0
151 172 0
153 173 0
152 172 0
149 169 0
150 171 0
150 170 0
152 173 0
150 170 0
151 171 0
153 174 0
151 171 0
153 173 0
151 171 0
152 173 0
153 173 0
152 172 0
151 172 0
150 170 0
150 170 0
163 185 0
172 196 0
172 195 0
173 196 0
174 197 0
173 196 0
173 196 0
172 196 0
171 195 0
172 196 0
173 197 0
172 194 0
172 196 0
171 195 0
172 196 0
173 197 0
173 196 0
174 197 0
171 195 0
173 197 0
172 195 0
173 196 0
172 196 0
173 197 0
173 197 0
173 196 0
173 196 0
173 196 0
173 197 0
172 196 0
173 197 0
172 195 0
172 196 0
172 196 0
171 195 0
172 195 0
172 196 0
173 196 0
173 196 0
173 196 0
171 194 0
171 194 0
172 196 0
174 197 0
174 197 0
171 195 0
172 196 0
172 196 0
175 198 0
171 195 0
172 195 0
172 195 0
172 195 0
174 197 0
173 196 0
173 196 0
172 196 0
172 196 0
172 195 0
174 197 0
174 197 0
173 197 0
174 197 0
171 195 0
173 196 0
173 197 0
169 193 0
171 195 0
174 197 0
174 197 0
173 197 0
175 198 0
171 194 0
173 196 0
173 196 0
173 196 0
172 196 0
174 197 0
174 197 0
173 196 0
175 198 0
173 196 0
173 196 0
173 196 0
173 197 0
172 196 0
172 196 0
171 195 0
175 198 0
172 195 0
171 194 0
173 196 0
173 196 0
171 195 0
175 198 0
174 197 0
172 195 0
174 198 0
174 198 0
174 197 0
172 196 0
174 198 0
173 196 0
174 196 0
173 195 0
173 196 0
172 196 0
171 195 0
174 197 0
173 197 0
172 195 0
175 198 0
173 197 0
174 197 0
174 197 0
173 197 0
173 196 0
174 198 0
173 196 0
174 197 0
174 198 0
172 196 0
172 196 0
175 197 0
172 196 0
174 196 0
175 198 0
172 195 0
173 196 0
173 197 0
174 197 0
172 195 0
174 198 0
172 197 0
175 198 0
176 199 0
174 197 0
174 197 0
174 197 0
173 197 0
173 196 0
172 195 0
176 198 0
173 196 0
173 197 0
174 197 0
174 198 0
174 198 0
174 197 0
173 196 0
174 197 0
173 197 0
173 197 0
175 198 0
174 197 0
173 196 0
173 196 0
176 198 0
172 197 0
173 196 0
174 198 0
173 196 0
174 197 0
173 196 0
173 196 0
174 198 0
172 196 0
174 197 0
173 196 0
173 197 0
174 198 0
174 197 0
174 198 0
172 196 0
172 196 0
173 196 0
172 197 0
174 197 0
175 198 0
176 198 0
174 198 0
175 198 0
171 194 0
174 197 0
174 197 0
173 196 0
173 197 0
175 198 0
172 196 0
175 198 0
174 198 0
173 197 0
173 197 0
174 197 0
174 197 0
176 198 0
173 196 0
174 197 0
173 197 0
173 196 0
174 197 0
176 198 0
173 197 0
175 198 0
175 198 0
173 197 0
172 197 0
173 197 0
174 197 0
174 197 0
174 197 0
173 197 0
174 197 0
173 197 0
174 198 0
173 197 0
174 198 0
174 198 0
173 197 0
175 198 0
174 198 0
173 197 0
173 196 0
173 197 0
173 197 0
173 197 0
174 198 0
173 197 0
176 198 0
173 197 0
174 198 0
175 198 0
175 198 0
174 197 0
173 197 0
173 197 0
174 197 0
176 198 0
173 197 0
160 181 0
157 177 0
155 176 0
155 176 0
156 177 0
154 176 0
156 176 0
157 177 0
156 177 0
156 177 0
155 176 0
155 177 0
156 177 0
155 175 0
156 177 0
155 176 0
155 176 0
155 176 0
155 176 0
155 176 0
155 176 0
156 176 0
154 175 0
155 176 0
155 176 0
154 176 0
161 182 112
176 196 200
182 202 228
183 202 228
183 202 228
182 202 228
183 202 228
182 202 228
182 202 228
182 202 228
182 202 228
183 202 228
182 202 228
182 202 228
183 202 228
182 202 228
182 202 228
182 202 228
182 202 228
182 202 228
182 202 228
182 202 228
182 202 228
182 202 228
182 202 228
182 202 228
182 202 228
182 202 228
182 202 228
182 202 228
183 202 228
182 202 228
181 202 228
182 202 228
181 202 228
182 202 228
182 202 228
182 202 228
181 202 228
182 202 228
182 202 228
182 202 228
182 202 228
182 202 228
181 202 228
182 202 228
183 202 228
182 202 228
182 202 228
182 202 228
182 202 228
182 202 228
182 202 228
182 202 228
181 201 228
182 202 228
182 202 228
182 202 228
182 202 228
182 202 228
182 202 228
182 202 228
182 202 228
183 202 228
182 202 228
182 202 228
182 202 228
182 202 228
182 202 228
181 202 228
182 202 228
183 202 228
182 202 228
182 202 228
182 202 228
182 202 228
181 202 228
182 202 228
181 202 228
181 202 228
182 202 228
181 202 228
181 202 228
182 202 228
181 201 228
183 202 228
181 201 228
182 202 228
182 202 228
182 202 228
182 202 228
181 202 228
181 202 228
182 202 228
181 201 228
182 202 228
183 202 228
169 189 207
124 146 143
115 137 98
115 137 98
121 143 94
112 134 108
118 140 91
124 144 87
129 151 87
129 150 83
127 148 83
138 159 59
141 162 49
145 165 48
140 160 60
146 167 41
146 166 38
146 166 29
144 164 33
150 170 28
148 169 16
148 168 0
150 170 0
149 169 0
149 170 0
150 170 0
153 172 0
153 174 0
149 169 0
152 173 0
153 174 0
151 172 0
150 171 0
151 172 0
148 168 0
151 172 0
151 172 0
153 173 0
164 185 0
172 195 0
174 197 0
173 196 0
173 197 0
172 196 0
173 196 0
174 197 0
172 196 0
173 196 0
172 196 0
172 196 0
172 196 0
174 197 0
175 197 0
172 196 0
174 197 0
171 195 0
173 197 0
174 197 0
174 197 0
171 195 0
174 196 0
172 196 0
173 195 0
175 198 0
169 193 0
173 196 0
173 196 0
172 196 0
175 197 0
174 197 0
171 195 0
174 197 0
173 197 0
173 197 0
173 197 0
172 195 0
175 198 0
173 196 0
173 197 0
173 197 0
172 195 0
172 195 0
172 196 0
173 195 0
172 195 0
172 195 0
173 196 0
174 197 0
170 193 0
175 198 0
173 197 0
174 196 0
173 197 0
174 197 0
172 195 0
171 194 0
171 195 0
173 196 0
174 198 0
174 197 0
173 196 0
173 196 0
173 195 0
174 197 0
173 197 0
173 197 0
172 196 0
171 196 0
171 193 0
172 195 0
170 193 0
174 197 0
171 195 0
172 196 0
172 195 0
174 197 0
173 196 0
172 196 0
171 194 0
173 196 0
172 196 0
173 196 0
174 197 0
173 195 0
173 197 0
173 195 0
172 196 0
173 197 0
172 196 0
172 196 0
174 197 0
174 197 0
170 194 0
175 197 0
171 194 0
174 197 0
171 195 0
173 195 0
174 197 0
174 197 0
170 194 0
170 194 0
173 197 0
175 198 0
173 197 0
174 197 0
173 197 0
174 197 0
173 197 0
174 197 0
173 195 0
172 195 0
174 197 0
173 197 0
171 195 0
172 196 0
173 196 0
173 196 0
172 195 0
172 196 0
174 197 0
173 196 0
173 197 0
171 196 0
172 195 0
174 197 0
174 197 0
174 197 0
173 197 0
172 197 0
173 197 0
173 196 0
174 197 0
172 196 0
174 198 0
171 195 0
173 197 0
172 196 0
173 196 0
174 197 0
172 196 0
173 196 0
174 198 0
174 197 0
175 198 0
173 197 0
172 197 0
175 198 0
172 196 0
170 193 0
173 196 0
174 197 0
173 197 0
173 197 0
172 196 0
172 196 0
173 196 0
174 197 0
173 196 0
173 197 0
173 197 0
173 196 0
174 197 0
175 198 0
173 197 0
174 197 0
172 196 0
172 196 0
174 198 0
174 198 0
172 196 0
174 198 0
174 197 0
174 197 0
174 197 0
173 197 0
173 196 0
175 198 0
174 197 0
174 197 0
173 197 0
173 197 0
173 197 0
171 195 0
174 197 0
175 198 0
171 195 0
175 197 0
173 197 0
174 197 0
174 197 0
175 198 0
173 197 0
174 198 0
176 199 0
172 196 0
174 197 0
175 198 0
172 196 0
174 197 0
175 198 0
173 197 0
173 197 0
175 198 0
173 197 0
174 197 0
174 197 0
174 197 0
175 198 0
174 197 0
174 197 0
174 197 0
175 198 0
176 198 0
174 197 0
173 197 0
174 198 0
173 197 0
174 197 0
173 197 0
174 197 0
175 198 0
175 198 0
174 197 0
174 197 0
174 198 0
174 198 0
174 197 0
174 197 0
173 197 0
174 197 0
174 197 0
173 197 0
173 197 0
172 197 0
175 198 0
173 197 0
162 184 0
155 176 0
155 176 0
154 176 0
155 176 0
156 177 0
154 175 0
155 176 0
155 176 0
155 176 0
155 176 0
155 176 0
154 176 0
155 176 0
156 176 0
156 176 0
156 177 0
155 176 0
155 176 0
156 177 0
155 176 0
155 176 0
155 176 0
155 176 0
157 177 0
155 176 0
154 175 0
155 176 0
163 183 125
180 200 220
181 202 228
182 202 228
182 202 228
181 202 228
182 202 228
182 202 228
182 202 228
182 202 228
181 202 228
182 202 228
182 202 228
182 202 228
182 202 228
182 202 228
182 202 228
182 202 228
182 202 228
182 202 228
182 202 228
183 202 228
182 202 228
181 202 228
182 202 228
182 202 228
182 202 228
182 202 228
181 201 228
183 202 228
182 202 228
181 201 228
183 202 228
183 202 228
182 202 228
181 201 228
183 202 228
182 202 228
182 202 228
182 202 228
182 202 228
181 201 228
182 202 228
181 202 228
182 202 228
182 202 228
183 202 228
182 202 228
181 201 228
182 202 228
183 202 228
182 202 228
182 202 228
182 202 228
181 201 228
181 202 228
181 201 228
181 202 228
181 202 228
182 202 228
182 202 228
182 202 228
181 202 228
182 202 228
182 202 228
182 202 228
182 202 228
182 202 228
181 202 228
182 202 228
182 202 228
181 202 228
182 202 228
182 202 228
183 202 228
181 202 228
182 202 228
182 202 228
181 202 228
182 202 228
182 202 228
182 202 228
183 202 228
182 202 228
181 202 228
182 202 228
182 202 228
182 202 228
182 202 228
182 202 228
182 202 228
182 202 228
181 201 228
157 177 192
114 136 150
93 116 115
101 124 117
105 127 112
109 130 105
118 140 97
105 125 104
121 141 85
122 143 91
117 137 98
120 141 82
131 152 72
132 152 66
133 154 71
135 155 55
143 163 48
140 160 45
142 162 36
150 170 21
146 168 22
152 172 0
151 171 22
151 172 0
150 170 0
151 172 0
152 172 0
153 173 0
152 171 0
149 168 0
153 173 0
154 174 0
150 170 0
152 173 0
149 168 0
153 173 0
152 172 0
150 171 0
152 172 0
151 171 0
162 184 0
170 194 0
172 196 0
173 195 0
170 194 0
174 197 0
172 195 0
172 195 0
172 196 0
173 197 0
170 194 0
174 196 0
173 197 0
173 197 0
172 195 0
173 197 0
174 196 0
172 196 0
172 195 0
171 194 0
172 195 0
174 196 0
173 196 0
172 196 0
172 195 0
175 198 0
173 197 0
173 197 0
172 195 0
173 197 0
173 196 0
171 196 0
172 195 0
173 195 0
172 195 0
173 196 0
172 196 0
172 196 0
174 197 0
172 196 0
174 197 0
172 195 0
173 197 0
171 194 0
175 197 0
171 195 0
173 196 0
173 197 0
174 197 0
174 197 0
174 197 0
173 197 0
171 193 0
172 196 0
171 195 0
173 196 0
173 197 0
173 197 0
173 197 0
173 196 0
173 196 0
170 195 0
172 196 0
174 196 0
175 196 0
173 196 0
174 197 0
173 197 0
172 196 0
171 195 0
173 197 0
174 197 0
173 197 0
173 197 0
173 196 0
172 196 0
173 197 0
174 197 0
172 196 0
172 196 0
173 195 0
173 197 0
173 197 0
172 196 0
172 195 0
173 196 0
173 197 0
172 195 0
172 196 0
170 193 0
175 197 0
174 197 0
172 195 0
172 196 0
174 198 0
172 195 0
174 197 0
173 196 0
173 196 0
172 196 0
172 195 0
174 198 0
173 196 0
171 195 0
172 196 0
173 196 0
171 194 0
174 196 0
174 197 0
173 195 0
174 197 0
173 196 0
174 198 0
171 196 0
174 197 0
173 196 0
172 195 0
175 198 0
173 197 0
173 196 0
173 196 0
173 196 0
171 195 0
172 195 0
174 197 0
173 197 0
173 196 0
172 195 0
172 196 0
175 198 0
172 197 0
174 197 0
172 196 0
174 197 0
174 198 0
174 197 0
173 196 0
173 197 0
174 198 0
175 198 0
172 196 0
172 195 0
174 197 0
174 198 0
174 196 0
174 197 0
172 196 0
175 198 0
174 196 0
173 197 0
174 198 0
174 197 0
175 198 0
173 196 0
174 198 0
174 197 0
175 198 0
172 197 0
175 198 0
175 198 0
174 198 0
173 197 0
174 197 0
173 196 0
172 196 0
174 197 0
174 196 0
173 196 0
174 196 0
173 196 0
173 196 0
174 198 0
174 198 0
174 197 0
174 197 0
174 197 0
173 196 0
174 197 0
172 196 0
173 197 0
174 197 0
172 196 0
173 197 0
172 195 0
172 196 0
174 197 0
173 197 0
172 196 0
172 196 0
173 197 0
173 197 0
172 196 0
171 196 0
172 196 0
174 196 0
174 197 0
174 197 0
173 197 0
174 197 0
174 197 0
173 196 0
174 197 0
173 197 0
172 197 0
174 197 0
174 198 0
174 197 0
173 197 0
173 197 0
174 197 0
174 197 0
174 197 0
174 197 0
174 197 0
174 198 0
173 197 0
171 196 0
173 197 0
174 197 0
174 198 0
176 199 0
172 196 0
174 197 0
173 197 0
175 198 0
177 199 0
175 197 0
175 198 0
174 197 0
175 198 0
174 197 0
173 197 0
174 197 0
175 198 0
173 196 0
172 196 0
173 196 0
174 197 0
173 197 0
164 187 0
155 176 0
156 177 0
155 176 0
156 176 0
156 176 0
154 176 0
155 176 0
154 176 0
154 175 0
155 176 0
155 176 0
156 177 0
155 176 0
156 176 0
154 175 0
156 177 0
156 177 0
155 176 0
155 176 0
155 176 0
156 177 0
156 176 0
156 177 0
155 176 0
155 176 0
155 176 0
154 176 0
157 177 0
157 178 56
171 191 169
181 201 221
182 202 228
182 202 228
183 202 228
182 202 228
182 202 228
182 202 228
182 202 228
181 201 228
181 202 228
183 202 228
182 202 228
182 202 228
182 202 228
181 202 228
183 202 228
181 202 228
183 202 228
182 202 228
182 202 228
181 201 228
182 202 228
182 202 228
182 202 228
182 202 228
183 202 228
181 201 228
181 201 228
182 202 228
182 202 228
182 202 228
182 202 228
182 202 228
181 202 228
182 202 228
182 202 228
182 202 228
181 202 228
183 202 228
182 202 228
181 201 228
182 202 228
181 201 228
182 202 228
182 202 228
181 201 228
181 201 228
182 202 228
182 202 228
181 202 228
182 202 228
181 202 228
182 202 228
182 202 228
181 202 228
182 202 228
181 201 228
182 202 228
182 202 228
181 201 228
182 202 228
182 202 228
182 202 228
182 202 228
182 202 228
182 202 228
182 202 228
182 202 228
182 202 228
181 201 228
182 202 228
182 202 228
182 202 228
182 202 228
182 202 228
182 202 228
182 202 228
182 202 228
182 202 228
182 202 228
182 202 228
181 202 228
182 202 228
182 202 228
182 202 228
182 202 228
181 201 228
179 199 224
151 171 191
101 123 131
91 114 121
87 111 125
92 115 115
91 114 119
107 129 104
102 124 108
112 133 100
110 131 106
119 141 93
116 137 95
121 142 88
127 147 77
132 154 82
133 152 66
131 152 72
136 156 57
138 159 45
138 158 50
143 162 38
147 167 36
146 166 36
151 172 16
149 169 16
151 171 0
152 171 0
154 174 0
152 172 0
150 170 0
151 171 0
150 171 0
149 169 0
152 173 0
155 175 0
150 170 0
154 174 0
151 172 0
150 171 0
151 172 0
151 171 0
150 171 0
160 183 0
173 197 0
173 195 0
173 196 0
171 195 0
171 195 0
173 196 0
173 196 0
175 197 0
172 196 0
174 197 0
174 197 0
173 196 0
173 196 0
171 194 0
173 196 0
173 196 0
173 196 0
172 194 0
172 196 0
173 196 0
172 195 0
172 195 0
173 197 0
170 193 0
173 196 0
174 197 0
171 194 0
173 196 0
172 196 0
173 196 0
174 197 0
172 195 0
172 196 0
175 197 0
172 196 0
174 197 0
173 196 0
173 196 0
173 196 0
173 197 0
174 197 0
174 197 0
173 196 0
172 196 0
172 195 0
173 197 0
172 195 0
174 197 0
172 196 0
171 195 0
172 196 0
173 196 0
172 195 0
172 196 0
172 196 0
174 197 0
174 197 0
173 197 0
173 197 0
174 197 0
172 195 0
174 197 0
174 197 0
173 196 0
175 197 0
174 197 0
170 194 0
172 195 0
172 195 0
174 196 0
171 194 0
173 196 0
172 195 0
172 195 0
173 197 0
172 194 0
174 197 0
173 196 0
172 195 0
175 197 0
172 195 0
173 197 0
175 197 0
173 196 0
173 196 0
176 199 0
172 195 0
175 197 0
174 197 0
172 195 0
172 197 0
171 195 0
172 196 0
174 198 0
172 195 0
172 196 0
172 195 0
173 197 0
172 195 0
172 196 0
173 197 0
174 197 0
173 197 0
172 196 0
172 196 0
174 197 0
173 197 0
173 196 0
172 196 0
173 195 0
172 195 0
174 198 0
173 196 0
175 198 0
173 197 0
174 197 0
174 197 0
173 196 0
174 197 0
171 194 0
173 195 0
174 197 0
172 196 0
173 197 0
174 196 0
173 196 0
173 196 0
174 197 0
172 195 0
173 197 0
173 196 0
173 197 0
173 196 0
174 197 0
173 197 0
173 196 0
173 197 0
174 197 0
174 197 0
174 198 0
174 197 0
174 197 0
175 198 0
174 197 0
171 195 0
174 197 0
173 197 0
174 198 0
174 197 0
173 197 0
175 198 0
174 197 0
173 197 0
175 198 0
172 195 0
173 197 0
174 198 0
174 198 0
174 198 0
173 197 0
174 197 0
174 198 0
173 197 0
174 196 0
173 196 0
171 194 0
175 198 0
174 198 0
172 196 0
173 196 0
172 196 0
175 198 0
175 197 0
173 197 0
173 197 0
175 198 0
174 197 0
172 195 0
173 197 0
175 198 0
173 197 0
172 196 0
173 197 0
172 196 0
174 197 0
175 198 0
173 197 0
173 196 0
174 198 0
175 198 0
174 198 0
174 197 0
173 197 0
174 197 0
171 195 0
173 196 0
173 197 0
173 196 0
174 197 0
175 198 0
173 197 0
173 197 0
174 198 0
173 197 0
175 198 0
174 197 0
174 197 0
173 197 0
174 197 0
174 198 0
173 196 0
175 198 0
173 197 0
174 197 0
174 197 0
174 198 0
174 197 0
173 197 0
174 197 0
174 198 0
174 197 0
174 198 0
174 197 0
173 197 0
174 197 0
174 197 0
175 198 0
174 197 0
174 197 0
174 197 0
173 197 0
174 197 0
174 198 0
175 198 0
174 197 0
174 197 0
172 196 0
172 196 0
170 192 0
155 176 0
155 176 0
155 176 0
154 175 0
156 177 0
155 176 0
155 176 0
156 176 0
155 176 0
156 177 0
155 176 0
154 175 0
156 176 0
156 177 0
156 177 0
155 176 0
157 177 0
155 176 0
155 176 0
155 176 0
156 176 0
155 176 0
154 175 0
155 176 0
156 177 0
155 176 0
156 177 0
156 177 0
154 176 0
156 177 0
158 179 82
173 193 183
182 202 228
182 202 228
182 202 228
182 202 228
182 202 228
182 202 228
182 202 228
183 202 228
182 202 228
182 202 228
182 202 228
182 202 228
182 202 228
181 201 228
182 202 228
182 202 228
182 202 228
182 202 228
182 202 228
182 202 228
182 202 228
181 202 228
182 202 228
182 202 228
182 202 228
181 202 228
181 202 228
182 202 228
182 202 228
182 202 228
181 202 228
182 202 228
182 202 228
182 202 228
181 202 228
182 202 228
182 202 228
182 202 228
182 202 228
181 201 228
181 201 228
181 201 228
182 202 228
182 202 228
181 202 228
182 202 228
182 202 228
182 202 228
181 202 228
183 202 228
182 202 228
182 202 228
182 202 228
181 201 228
182 202 228
182 202 228
182 202 228
182 202 228
182 202 228
182 202 228
181 202 228
182 202 228
181 202 228
182 202 228
182 202 228
182 202 228
182 202 228
182 202 228
181 201 228
181 202 228
182 202 228
181 202 228
182 202 228
182 202 228
181 201 228
182 202 228
181 201 228
181 201 228
182 202 228
182 202 228
183 202 228
182 202 228
181 202 228
173 193 221
133 153 182
82 108 149
75 101 132
84 109 130
85 109 129
91 114 127
98 120 116
95 119 119
104 126 104
108 130 101
114 135 104
106 129 109
117 138 98
117 139 96
119 140 93
123 144 84
134 155 72
133 154 68
137 158 61
135 157 57
134 154 57
139 160 53
148 169 40
147 166 38
149 170 22
149 170 27
152 172 0
148 169 0
150 171 0
151 171 0
150 169 0
150 171 0
149 168 0
152 172 0
151 172 0
153 173 0
150 170 0
152 172 0
151 171 0
152 172 0
151 171 0
153 174 0
151 172 0
148 167 0
162 184 0
173 196 0
175 197 0
173 196 0
174 197 0
172 195 0
173 196 0
174 198 0
171 195 0
171 194 0
169 193 0
172 195 0
173 197 0
172 196 0
174 197 0
173 196 0
172 196 0
173 196 0
170 194 0
172 195 0
173 196 0
172 196 0
171 195 0
173 197 0
172 195 0
173 196 0
171 195 0
172 196 0
174 197 0
172 196 0
171 194 0
174 197 0
172 196 0
172 195 0
173 197 0
172 195 0
171 195 0
174 197 0
174 197 0
173 196 0
171 195 0
174 197 0
174 196 0
175 198 0
173 196 0
172 196 0
172 196 0
173 196 0
174 196 0
173 197 0
170 195 0
174 197 0
171 195 0
172 195 0
172 196 0
173 196 0
173 197 0
174 197 0
172 196 0
173 197 0
173 197 0
173 197 0
174 197 0
171 194 0
174 197 0
174 197 0
173 196 0
174 197 0
175 197 0
171 195 0
173 197 0
172 196 0
174 197 0
172 196 0
174 197 0
173 196 0
173 197 0
171 194 0
173 196 0
170 194 0
173 197 0
173 197 0
171 196 0
171 195 0
172 196 0
172 195 0
173 197 0
171 194 0
174 197 0
173 197 0
174 197 0
172 195 0
173 197 0
171 195 0
175 198 0
173 197 0
172 195 0
171 195 0
172 196 0
174 197 0
173 197 0
172 196 0
172 196 0
172 196 0
172 195 0
174 197 0
174 198 0
173 196 0
173 197 0
172 195 0
173 196 0
174 196 0
171 195 0
172 196 0
174 197 0
172 196 0
173 196 0
174 197 0
174 197 0
172 195 0
174 197 0
173 197 0
174 198 0
173 197 0
173 196 0
173 196 0
173 196 0
173 196 0
172 196 0
172 195 0
173 196 0
173 196 0
173 197 0
173 197 0
174 197 0
174 198 0
175 198 0
174 197 0
172 196 0
176 199 0
173 196 0
174 197 0
174 197 0
175 198 0
173 197 0
171 195 0
173 195 0
176 198 0
171 194 0
173 197 0
172 195 0
174 197 0
171 195 0
172 196 0
173 197 0
171 196 0
172 195 0
171 194 0
174 197 0
171 195 0
174 197 0
172 196 0
173 196 0
173 197 0
172 195 0
172 196 0
173 197 0
174 197 0
173 197 0
174 197 0
175 198 0
174 197 0
173 197 0
174 197 0
173 197 0
174 197 0
175 198 0
173 197 0
175 197 0
174 198 0
172 196 0
174 197 0
174 197 0
173 197 0
173 196 0
173 196 0
172 195 0
172 196 0
173 197 0
173 196 0
174 197 0
174 197 0
171 195 0
174 197 0
174 197 0
175 198 0
173 197 0
174 197 0
173 196 0
173 197 0
174 198 0
174 197 0
173 197 0
173 196 0
174 197 0
175 198 0
175 198 0
172 196 0
174 197 0
175 198 0
174 198 0
173 197 0
173 196 0
172 196 0
173 197 0
174 198 0
173 197 0
173 197 0
174 197 0
174 197 0
172 196 0
174 197 0
174 198 0
173 197 0
175 198 0
175 198 0
174 197 0
172 196 0
174 197 0
175 198 0
173 197 0
172 196 0
173 197 0
175 197 0
175 198 0
174 197 0
173 197 0
175 198 0
174 197 0
172 195 0
155 176 0
156 176 0
153 175 0
156 176 0
156 177 0
154 175 0
157 177 0
155 176 0
155 176 0
155 176 0
155 176 0
156 177 0
155 176 0
154 176 0
155 176 0
155 176 0
155 176 0
158 178 0
155 176 0
154 176 0
154 176 0
155 176 0
156 176 0
155 176 0
155 176 0
157 177 0
155 176 0
154 176 0
156 177 0
155 176 0
156 177 0
155 176 0
163 184 123
176 197 204
182 202 228
182 202 228
182 202 228
181 202 228
182 202 228
183 203 228
181 201 228
182 202 228
182 202 228
182 202 228
182 202 228
181 202 228
182 202 228
182 202 228
182 202 228
181 201 228
181 202 228
182 202 228
182 202 228
181 201 228
182 202 228
181 202 228
182 202 228
182 202 228
182 202 228
182 202 228
182 202 228
183 202 228
182 202 228
182 202 228
181 201 228
182 202 228
181 202 228
182 202 228
182 202 228
182 202 228
181 201 228
183 202 228
182 202 228
182 202 228
181 201 228
182 202 228
182 202 228
182 202 228
182 202 228
181 201 228
182 202 228
182 202 228
181 202 228
182 202 228
183 202 228
182 202 228
182 202 228
182 202 228
181 201 228
181 201 228
182 202 228
181 201 228
181 201 228
181 201 228
182 202 228
181 202 228
182 202 228
182 202 228
182 202 228
182 202 228
182 202 228
181 202 228
182 202 228
181 202 228
181 201 228
182 202 228
182 202 228
181 202 228
182 202 228
182 202 228
182 202 228
182 202 228
181 202 228
172 192 219
131 151 183
69 95 139
74 99 129
74 100 138
76 102 140
85 110 125
75 100 135
103 126 108
86 110 125
97 120 108
98 121 114
107 129 107
98 121 117
104 125 107
112 135 102
110 131 97
119 139 91
113 135 92
124 145 87
133 155 74
122 143 76
133 153 63
135 155 63
140 161 57
140 161 45
149 169 32
144 164 28
146 166 28
153 173 22
151 170 0
150 170 0
153 173 0
147 168 0
152 173 0
151 171 0
151 172 0
149 170 0
148 169 0
151 171 0
153 173 0
154 174 0
151 172 0
150 171 0
152 173 0
154 175 0
152 172 0
163 185 0
172 195 0
173 197 0
172 195 0
174 197 0
173 196 0
174 197 0
173 197 0
173 196 0
173 197 0
172 196 0
172 196 0
173 197 0
174 197 0
172 196 0
173 196 0
172 195 0
174 197 0
171 195 0
171 195 0
174 197 0
173 197 0
172 196 0
171 195 0
173 196 0
174 197 0
174 196 0
172 195 0
171 194 0
173 196 0
174 197 0
172 195 0
172 196 0
174 196 0
175 198 0
174 197 0
173 196 0
173 197 0
173 196 0
172 196 0
173 196 0
173 196 0
172 196 0
174 197 0
173 196 0
175 198 0
174 196 0
173 196 0
171 195 0
169 192 0
174 197 0
175 198 0
172 196 0
171 195 0
171 194 0
173 196 0
173 196 0
171 195 0
172 195 0
171 194 0
173 196 0
173 197 0
172 195 0
173 196 0
172 197 0
172 195 0
174 197 0
172 195 0
174 197 0
172 195 0
173 196 0
174 197 0
173 196 0
173 196 0
172 195 0
172 196 0
171 194 0
174 197 0
172 196 0
173 197 0
173 196 0
173 197 0
173 196 0
171 195 0
171 195 0
172 195 0
173 196 0
171 194 0
174 198 0
173 197 0
172 195 0
175 197 0
174 197 0
174 197 0
170 194 0
171 195 0
172 196 0
173 196 0
173 196 0
173 197 0
173 196 0
171 194 0
173 197 0
172 196 0
173 197 0
172 195 0
174 197 0
172 196 0
172 196 0
173 197 0
172 195 0
172 196 0
172 195 0
173 196 0
174 197 0
173 196 0
174 197 0
173 195 0
173 197 0
173 197 0
176 198 0
172 195 0
173 196 0
172 196 0
172 196 0
172 195 0
175 198 0
173 197 0
173 196 0
173 196 0
173 197 0
173 196 0
173 196 0
174 198 0
172 196 0
173 197 0
173 196 0
172 195 0
173 197 0
173 197 0
172 196 0
172 195 0
173 196 0
174 196 0
173 196 0
173 197 0
174 197 0
173 196 0
174 197 0
174 197 0
174 197 0
173 196 0
174 197 0
174 197 0
175 198 0
172 195 0
174 197 0
173 197 0
173 196 0
174 197 0
171 195 0
174 197 0
172 196 0
174 197 0
174 197 0
173 197 0
173 196 0
174 197 0
173 197 0
175 197 0
172 195 0
173 196 0
174 197 0
173 196 0
173 197 0
174 196 0
173 196 0
175 198 0
173 196 0
174 198 0
172 196 0
173 196 0
173 197 0
172 195 0
173 196 0
175 197 0
174 197 0
174 197 0
174 198 0
175 198 0
174 197 0
175 198 0
174 197 0
173 197 0
172 196 0
174 197 0
174 197 0
174 197 0
175 198 0
172 195 0
174 198 0
174 198 0
174 197 0
174 197 0
173 197 0
174 197 0
174 197 0
174 197 0
175 198 0
174 197 0
174 197 0
175 198 0
173 197 0
175 198 0
172 196 0
173 196 0
173 197 0
171 196 0
175 198 0
174 197 0
171 196 0
174 197 0
173 197 0
174 197 0
174 197 0
174 197 0
174 197 0
174 197 0
171 196 0
172 196 0
174 198 0
172 196 0
174 198 0
174 198 0
173 196 0
174 197 0
173 197 0
174 198 0
173 197 0
174 197 0
155 177 0
156 177 0
155 176 0
154 175 0
156 176 0
155 176 0
155 176 0
155 176 0
156 177 0
156 176 0
157 177 0
156 176 0
156 177 0
156 177 0
157 177 0
155 176 0
156 177 0
156 177 0
155 176 0
155 176 0
156 177 0
155 176 0
155 176 0
155 176 0
155 176 0
155 176 0
155 176 0
155 176 0
155 176 0
155 176 0
155 176 0
155 176 0
155 176 0
155 176 0
167 187 139
179 200 219
182 202 228
182 202 228
182 202 228
181 202 228
182 202 228
181 202 228
182 202 228
182 202 228
182 202 228
181 201 228
181 202 228
181 202 228
182 202 228
181 201 228
182 202 228
181 201 228
182 202 228
181 201 228
182 202 228
181 201 228
181 202 228
181 201 228
181 201 228
182 202 228
181 202 228
182 202 228
182 202 228
182 202 228
182 202 228
182 202 228
182 202 228
181 201 228
182 202 228
181 201 228
181 202 228
182 202 228
182 202 228
182 202 228
182 202 228
181 201 228
182 202 228
182 202 228
181 202 228
181 201 228
182 202 228
182 202 228
182 202 228
182 202 228
181 201 228
182 202 228
183 202 228
182 202 228
182 202 228
182 202 228
182 202 228
181 202 228
181 201 228
181 202 228
182 202 228
182 202 228
182 202 228
182 202 228
182 202 228
182 202 228
182 202 228
181 201 228
181 201 228
181 201 228
182 202 228
182 202 228
181 201 228
182 202 228
181 201 228
182 202 228
182 202 228
163 183 212
110 131 172
59 89 146
58 86 142
57 85 139
65 92 139
73 98 130
76 101 133
84 108 131
81 104 125
86 110 126
86 109 119
90 113 106
94 117 120
94 118 125
97 119 110
96 118 107
106 128 104
111 133 97
114 134 89
115 136 85
119 139 85
128 149 86
137 159 70
130 150 72
134 155 60
137 158 62
147 168 41
145 166 43
150 169 31
148 169 21
152 172 0
150 171 0
147 166 0
150 170 0
152 173 0
148 169 0
151 172 0
151 171 0
149 169 0
150 169 0
150 170 0
150 171 0
151 171 0
153 173 0
150 170 0
152 172 0
150 169 0
150 171 0
162 184 0
174 197 0
173 196 0
172 196 0
174 197 0
171 194 0
173 196 0
172 196 0
173 196 0
171 193 0
171 195 0
174 197 0
173 196 0
174 197 0
173 196 0
172 196 0
171 195 0
173 196 0
171 195 0
172 195 0
173 196 0
170 194 0
170 194 0
173 197 0
173 196 0
171 195 0
175 197 0
173 196 0
170 194 0
174 197 0
172 196 0
172 196 0
176 199 0
173 196 0
173 196 0
171 195 0
169 193 0
173 196 0
174 196 0
174 197 0
173 196 0
172 196 0
172 196 0
173 196 0
174 197 0
176 198 0
173 197 0
169 194 0
173 196 0
173 197 0
173 196 0
173 196 0
172 195 0
173 196 0
173 196 0
170 194 0
172 195 0
173 195 0
172 196 0
173 197 0
172 196 0
171 194 0
174 197 0
175 198 0
172 195 0
173 197 0
173 197 0
169 193 0
172 196 0
173 196 0
172 195 0
174 197 0
174 197 0
173 196 0
173 196 0
171 195 0
173 196 0
173 197 0
173 196 0
171 195 0
171 194 0
173 196 0
171 195 0
174 197 0
172 196 0
173 196 0
172 195 0
173 197 0
171 195 0
174 197 0
173 197 0
177 199 0
172 195 0
171 195 0
172 195 0
174 196 0
173 196 0
173 196 0
173 196 0
172 196 0
173 196 0
174 197 0
171 194 0
174 197 0
171 195 0
175 198 0
174 197 0
172 196 0
173 197 0
172 196 0
172 196 0
172 196 0
174 197 0
172 196 0
173 196 0
173 197 0
172 196 0
172 196 0
173 196 0
173 196 0
173 196 0
172 196 0
172 195 0
173 196 0
173 196 0
172 196 0
173 196 0
173 197 0
174 197 0
173 196 0
173 196 0
174 197 0
173 197 0
172 196 0
174 198 0
174 197 0
174 197 0
173 197 0
172 196 0
171 196 0
174 197 0
173 197 0
173 196 0
173 196 0
172 196 0
173 197 0
174 198 0
172 196 0
174 197 0
173 197 0
173 197 0
173 196 0
175 198 0
173 196 0
172 196 0
172 196 0
175 198 0
173 196 0
175 198 0
172 196 0
171 195 0
174 197 0
172 197 0
173 196 0
174 197 0
174 197 0
171 196 0
173 196 0
174 197 0
173 196 0
173 197 0
173 196 0
174 197 0
173 196 0
173 196 0
172 196 0
176 199 0
172 196 0
174 197 0
173 197 0
174 197 0
174 197 0
174 197 0
173 197 0
174 198 0
173 197 0
174 198 0
171 195 0
173 196 0
174 197 0
174 197 0
174 197 0
176 198 0
174 197 0
175 198 0
174 198 0
174 197 0
171 195 0
173 197 0
175 198 0
174 196 0
174 197 0
173 197 0
174 197 0
174 197 0
175 198 0
176 198 0
175 197 0
173 197 0
174 197 0
174 197 0
174 197 0
174 197 0
173 196 0
173 197 0
175 198 0
174 197 0
173 197 0
172 196 0
174 197 0
175 198 0
174 198 0
172 196 0
172 196 0
175 198 0
172 196 0
173 196 0
174 198 0
173 197 0
173 197 0
174 197 0
173 197 0
173 197 0
174 197 0
172 196 0
173 197 0
175 198 0
175 197 0
175 197 0
173 196 0
158 179 0
155 176 0
156 176 0
154 175 0
155 176 0
155 176 0
156 177 0
156 176 0
156 177 0
156 176 0
155 176 0
154 175 0
153 174 0
157 177 0
156 177 0
156 177 0
155 176 0
154 176 0
156 177 0
155 176 0
156 176 0
155 176 0
155 176 0
156 177 0
156 177 0
156 176 0
156 177 0
154 176 0
155 176 0
155 175 0
155 176 0
154 175 0
155 176 0
155 176 0
155 176 0
156 177 45
171 191 172
181 201 225
182 202 228
182 202 228
182 202 228
181 202 228
182 202 228
182 202 228
182 202 228
182 202 228
182 202 228
182 202 228
181 201 228
181 201 228
182 202 228
182 202 228
182 202 228
182 202 228
182 202 228
183 202 228
182 202 228
181 201 228
181 201 228
183 202 228
182 202 228
182 202 228
182 202 228
181 202 228
183 202 228
181 202 228
181 201 228
181 201 228
182 202 228
181 202 228
182 202 228
181 201 228
183 202 228
181 202 228
182 202 228
182 202 228
181 201 228
181 201 228
182 202 228
181 202 228
182 202 228
182 202 228
182 202 228
182 202 228
182 202 228
181 201 228
182 202 228
182 202 228
181 201 228
181 202 228
182 202 228
183 202 228
181 201 228
181 201 228
182 202 228
182 202 228
182 202 228
181 202 228
181 201 228
182 202 228
182 202 228
181 201 228
182 202 228
182 202 228
181 201 228
181 202 228
181 201 228
181 201 228
181 201 228
159 179 211
87 110 161
52 81 146
59 88 144
52 82 143
55 84 144
67 93 136
65 91 139
61 88 141
64 92 142
74 100 134
69 94 128
71 96 131
78 104 130
86 109 117
87 109 117
95 118 115
99 122 112
106 128 102
107 129 103
113 134 97
112 133 98
110 132 89
123 143 87
126 146 80
137 157 66
134 154 72
132 152 65
141 161 47
144 165 42
146 165 43
145 165 24
144 164 22
151 171 28
154 174 0
147 168 0
152 172 0
148 168 0
153 172 0
151 171 0
146 166 0
149 168 0
149 168 0
151 171 0
150 171 0
151 171 0
153 173 0
153 173 0
155 175 0
154 175 0
152 172 0
161 183 0
172 195 0
173 196 0
171 195 0
171 195 0
173 196 0
173 196 0
173 196 0
172 195 0
174 197 0
172 195 0
172 195 0
173 196 0
170 194 0
173 196 0
172 196 0
172 195 0
172 195 0
172 196 0
171 195 0
173 197 0
172 196 0
173 196 0
173 196 0
169 193 0
172 195 0
173 196 0
175 198 0
172 195 0
173 195 0
174 197 0
171 195 0
171 195 0
172 196 0
171 194 0
175 198 0
174 197 0
173 197 0
170 194 0
171 195 0
172 197 0
171 195 0
173 196 0
171 194 0
172 195 0
172 196 0
173 197 0
171 194 0
170 193 0
171 194 0
173 197 0
175 198 0
174 197 0
172 196 0
173 196 0
174 197 0
173 197 0
173 195 0
172 196 0
173 196 0
173 196 0
173 196 0
171 195 0
173 196 0
174 197 0
174 197 0
172 195 0
172 196 0
171 195 0
175 198 0
172 196 0
173 196 0
172 196 0
172 196 0
174 197 0
176 198 0
173 196 0
173 197 0
174 197 0
173 196 0
171 194 0
174 197 0
170 194 0
173 196 0
173 196 0
171 195 0
173 196 0
174 197 0
172 196 0
173 196 0
171 193 0
173 196 0
171 195 0
171 195 0
173 196 0
172 196 0
170 193 0
173 197 0
172 196 0
174 197 0
173 196 0
172 196 0
174 197 0
173 196 0
172 195 0
174 197 0
174 197 0
173 196 0
173 197 0
175 198 0
172 196 0
173 196 0
171 195 0
173 197 0
174 197 0
175 198 0
174 197 0
171 196 0
173 196 0
172 196 0
175 198 0
172 194 0
173 197 0
174 197 0
171 195 0
174 197 0
175 198 0
174 197 0
172 196 0
173 196 0
173 196 0
173 196 0
174 197 0
171 195 0
174 197 0
175 198 0
171 195 0
174 197 0
174 197 0
172 196 0
172 196 0
175 197 0
175 198 0
173 197 0
173 196 0
172 195 0
172 195 0
174 198 0
172 196 0
173 196 0
174 197 0
174 197 0
172 195 0
172 196 0
172 195 0
172 196 0
172 196 0
173 197 0
173 196 0
173 196 0
174 197 0
171 196 0
174 197 0
172 196 0
173 197 0
174 197 0
175 197 0
173 197 0
173 197 0
173 196 0
174 197 0
175 197 0
172 196 0
172 197 0
172 196 0
173 197 0
175 198 0
174 198 0
173 197 0
174 197 0
171 195 0
173 196 0
172 194 0
176 198 0
173 197 0
171 195 0
174 197 0
172 195 0
173 197 0
173 196 0
174 197 0
173 196 0
173 197 0
173 197 0
172 196 0
174 198 0
173 197 0
173 196 0
174 197 0
174 197 0
173 196 0
174 197 0
173 197 0
174 198 0
175 198 0
174 197 0
174 197 0
174 197 0
175 198 0
174 197 0
175 198 0
175 198 0
173 197 0
174 197 0
175 197 0
174 197 0
175 198 0
174 198 0
173 197 0
175 197 0
174 197 0
171 195 0
174 198 0
175 198 0
172 196 0
173 196 0
175 197 0
174 197 0
172 196 0
174 197 0
174 197 0
174 197 0
174 197 0
173 197 0
174 197 0
174 197 0
172 195 0
175 198 0
174 197 0
174 197 0
162 184 0
155 176 0
155 176 0
155 176 0
154 175 0
154 175 0
154 176 0
154 176 0
156 176 0
155 176 0
154 176 0
156 177 0
156 177 0
156 177 0
154 176 0
155 176 0
156 176 0
155 176 0
155 176 0
154 176 0
154 175 0
156 177 0
155 176 0
154 175 0
154 176 0
154 175 0
156 177 0
155 176 0
155 176 0
154 176 0
156 176 0
155 176 0
155 176 0
154 175 0
154 176 0
157 177 0
155 176 0
159 180 88
176 196 199
181 201 228
181 202 228
182 202 228
182 202 228
182 202 228
182 202 228
182 202 228
182 202 228
182 202 228
182 202 228
182 202 228
181 202 228
181 201 228
181 202 228
182 202 228
182 202 228
182 202 228
181 201 228
181 201 228
182 202 228
182 202 228
182 202 228
181 201 228
182 202 228
182 202 228
182 202 228
181 201 228
181 202 228
181 201 228
182 202 228
182 202 228
181 201 228
181 202 228
181 201 228
182 202 228
182 202 228
183 202 228
181 201 228
182 202 228
182 202 228
181 202 228
182 202 228
182 202 228
182 202 228
181 202 228
182 202 228
181 201 228
182 202 228
181 202 228
182 202 228
180 201 228
181 202 228
182 202 228
181 202 228
181 202 228
181 201 228
181 202 228
182 202 228
181 202 228
182 202 228
181 201 228
182 202 228
181 201 228
181 201 228
182 202 228
181 202 228
182 202 228
178 198 225
138 158 195
70 94 151
51 82 148
55 85 146
51 82 148
57 86 147
53 83 145
54 81 136
60 87 138
63 90 136
56 85 137
66 92 135
68 95 136
79 102 122
84 106 120
85 109 124
85 109 124
87 110 119
88 110 115
103 125 111
97 120 113
102 123 105
105 126 103
114 135 97
111 132 99
122 142 85
122 142 90
129 149 71
126 147 73
132 153 61
133 154 58
146 166 45
144 165 39
145 166 38
144 164 39
148 168 22
149 169 10
146 167 0
150 171 0
151 170 0
154 174 0
148 166 0
151 171 0
148 169 0
150 170 0
148 168 0
151 171 0
148 167 0
152 173 0
145 166 0
148 169 0
147 167 0
153 173 0
161 183 0
173 196 0
173 196 0
173 196 0
174 197 0
170 195 0
173 196 0
173 196 0
172 195 0
171 195 0
173 196 0
173 196 0
171 194 0
171 195 0
172 196 0
172 196 0
174 198 0
172 196 0
173 196 0
173 196 0
171 195 0
173 196 0
172 195 0
173 196 0
172 195 0
172 195 0
173 196 0
173 196 0
173 196 0
173 197 0
173 197 0
172 196 0
173 196 0
171 194 0
172 196 0
173 197 0
173 196 0
173 197 0
172 196 0
172 196 0
174 197 0
173 197 0
172 196 0
170 194 0
172 196 0
172 195 0
175 198 0
172 195 0
172 195 0
173 197 0
171 194 0
173 196 0
172 196 0
171 195 0
172 195 0
173 196 0
171 194 0
170 194 0
174 197 0
170 193 0
172 195 0
173 196 0
172 196 0
174 197 0
173 196 0
173 197 0
172 195 0
174 197 0
173 197 0
174 198 0
174 197 0
173 196 0
174 197 0
172 196 0
173 197 0
174 197 0
174 197 0
173 196 0
173 197 0
172 195 0
172 196 0
172 195 0
172 196 0
171 195 0
174 197 0
172 196 0
173 197 0
172 196 0
173 196 0
172 195 0
174 198 0
174 197 0
171 195 0
173 196 0
173 197 0
172 196 0
172 195 0
172 195 0
170 194 0
173 197 0
172 196 0
173 197 0
174 198 0
175 198 0
174 197 0
171 195 0
174 197 0
171 195 0
173 197 0
174 197 0
174 197 0
173 197 0
171 195 0
174 197 0
173 196 0
174 197 0
173 196 0
173 196 0
173 196 0
173 196 0
175 198 0
174 197 0
173 197 0
174 197 0
175 198 0
173 197 0
172 195 0
173 196 0
171 196 0
175 198 0
174 197 0
173 197 0
174 198 0
173 197 0
174 197 0
171 194 0
172 196 0
174 196 0
175 198 0
174 197 0
174 197 0
175 198 0
172 196 0
174 197 0
174 197 0
170 193 0
172 196 0
174 197 0
173 197 0
174 197 0
174 197 0
174 198 0
176 198 0
174 198 0
174 197 0
172 196 0
173 196 0
173 196 0
174 197 0
173 196 0
173 196 0
171 196 0
174 197 0
175 197 0
173 197 0
174 198 0
171 195 0
172 196 0
174 197 0
173 196 0
172 195 0
173 196 0
175 198 0
172 195 0
173 197 0
172 196 0
173 196 0
172 196 0
174 198 0
173 197 0
174 197 0
176 198 0
172 196 0
172 196 0
173 196 0
172 195 0
174 198 0
175 198 0
172 196 0
175 198 0
174 198 0
172 195 0
173 197 0
173 195 0
175 198 0
175 198 0
174 197 0
174 197 0
175 198 0
174 197 0
174 197 0
175 198 0
174 197 0
174 197 0
172 196 0
174 198 0
175 197 0
174 197 0
175 198 0
175 197 0
173 196 0
174 197 0
173 197 0
174 197 0
174 197 0
172 196 0
174 197 0
173 197 0
174 197 0
173 197 0
175 198 0
175 197 0
174 197 0
174 197 0
174 197 0
174 198 0
175 198 0
173 197 0
174 197 0
174 197 0
173 196 0
173 197 0
174 198 0
174 197 0
174 197 0
173 197 0
173 196 0
172 196 0
173 197 0
173 196 0
167 188 0
155 176 0
155 175 0
155 176 0
155 176 0
155 176 0
155 176 0
155 176 0
156 177 0
156 176 0
154 176 0
156 177 0
155 176 0
156 177 0
154 175 0
155 176 0
155 176 0
155 176 0
155 176 0
157 177 0
154 175 0
156 176 0
155 176 0
156 177 0
154 175 0
156 177 0
155 176 0
155 176 0
155 176 0
153 174 0
154 176 0
157 177 0
156 177 0
154 175 0
155 176 0
155 176 0
155 176 0
154 176 0
155 176 0
162 183 116
178 198 213
181 202 228
182 202 228
181 202 228
181 201 228
181 201 228
181 201 228
182 202 228
182 202 228
182 202 228
181 201 228
182 202 228
182 202 228
181 202 228
181 202 228
182 202 228
181 201 228
182 202 228
181 201 228
182 202 228
182 202 228
181 202 228
182 202 228
181 201 228
182 202 228
182 202 228
182 202 228
182 202 228
181 201 228
181 202 228
182 202 228
181 201 228
182 202 228
181 201 228
181 201 228
182 202 228
181 201 228
181 201 228
182 202 228
181 201 228
183 202 228
182 202 228
182 202 228
182 202 228
181 201 228
182 202 228
181 202 228
182 202 228
181 202 228
182 202 228
181 201 228
182 202 228
181 202 228
181 201 228
181 202 228
182 202 228
181 201 228
181 201 228
181 202 228
181 201 228
181 201 228
181 202 228
181 201 228
182 202 228
169 189 219
132 153 192
67 93 152
50 80 145
49 79 145
50 80 143
48 78 142
55 82 137
50 79 139
50 79 141
53 83 142
53 82 141
59 86 141
63 89 134
60 87 133
65 91 136
70 96 132
80 103 122
69 93 126
80 105 127
88 110 116
83 107 119
94 116 118
95 118 113
108 129 98
102 124 106
105 125 103
111 133 87
110 131 100
119 140 79
125 146 69
129 150 76
136 157 55
132 153 66
140 162 52
145 164 45
147 167 32
146 166 30
148 169 21
148 167 22
146 165 16
151 171 0
151 172 0
150 169 0
151 171 0
150 171 0
154 175 0
148 168 0
150 171 0
152 172 0
152 171 0
149 169 0
150 170 0
153 174 0
146 166 0
152 172 0
165 187 0
173 196 0
172 195 0
173 196 0
171 194 0
173 196 0
171 194 0
174 197 0
173 196 0
173 197 0
172 195 0
173 196 0
173 196 0
172 195 0
171 194 0
172 196 0
173 196 0
172 196 0
173 196 0
173 196 0
171 194 0
172 196 0
173 196 0
174 197 0
174 196 0
173 197 0
173 196 0
172 196 0
172 195 0
172 196 0
173 196 0
172 195 0
172 195 0
170 194 0
172 196 0
172 195 0
173 196 0
170 193 0
174 197 0
173 196 0
173 196 0
172 195 0
173 195 0
173 197 0
171 195 0
174 197 0
171 195 0
171 195 0
173 196 0
171 194 0
173 195 0
169 193 0
170 194 0
172 195 0
171 194 0
172 195 0
173 196 0
172 195 0
173 196 0
174 197 0
169 193 0
171 195 0
173 196 0
173 196 0
174 197 0
173 197 0
174 197 0
173 197 0
173 196 0
173 196 0
174 197 0
173 196 0
172 194 0
172 195 0
172 196 0
174 197 0
173 196 0
172 195 0
174 197 0
175 197 0
173 197 0
173 196 0
172 196 0
173 197 0
172 196 0
170 194 0
171 195 0
172 196 0
173 196 0
174 196 0
171 195 0
174 197 0
172 196 0
174 197 0
173 195 0
171 195 0
174 196 0
172 196 0
174 197 0
172 196 0
171 194 0
172 196 0
171 195 0
173 196 0
173 196 0
174 197 0
171 195 0
174 197 0
174 197 0
174 197 0
173 196 0
173 196 0
174 197 0
174 197 0
174 197 0
173 197 0
173 196 0
169 193 0
174 197 0
172 196 0
172 196 0
173 196 0
175 198 0
175 198 0
174 197 0
171 195 0
173 197 0
172 196 0
174 197 0
174 197 0
172 196 0
175 198 0
173 197 0
173 197 0
175 198 0
173 196 0
172 196 0
173 196 0
176 198 0
173 196 0
174 198 0
172 195 0
174 197 0
173 197 0
174 197 0
173 197 0
172 195 0
173 196 0
175 197 0
174 197 0
171 195 0
173 197 0
174 198 0
175 198 0
172 195 0
174 197 0
173 197 0
173 196 0
175 197 0
172 196 0
174 197 0
171 193 0
172 196 0
175 198 0
174 197 0
171 195 0
173 196 0
174 197 0
174 197 0
173 197 0
173 197 0
173 197 0
174 197 0
173 197 0
173 197 0
172 196 0
174 196 0
174 198 0
173 197 0
172 196 0
173 196 0
174 197 0
173 197 0
175 198 0
173 197 0
174 198 0
174 197 0
172 195 0
173 197 0
174 197 0
174 197 0
173 196 0
175 197 0
174 197 0
173 197 0
174 197 0
174 197 0
172 197 0
173 197 0
172 196 0
173 196 0
173 197 0
173 196 0
174 197 0
174 197 0
173 197 0
175 198 0
174 197 0
174 197 0
174 197 0
174 197 0
173 197 0
174 197 0
175 198 0
174 197 0
174 197 0
173 196 0
174 197 0
173 196 0
174 197 0
174 197 0
174 197 0
175 198 0
173 197 0
173 197 0
174 197 0
173 197 0
174 197 0
174 197 0
175 198 0
173 197 0
172 196 0
173 197 0
172 197 0
175 198 0
172 196 0
173 197 0
174 197 0
174 197 0
175 197 0
168 191 0
155 176 0
154 175 0
156 176 0
156 177 0
155 176 0
155 176 0
155 176 0
155 176 0
154 176 0
154 176 0
154 175 0
154 176 0
155 176 0
157 177 0
155 176 0
156 176 0
155 176 0
155 177 0
155 176 0
154 175 0
155 176 0
156 177 0
155 175 0
154 176 0
155 176 0
155 176 0
154 175 0
156 176 0
156 176 0
155 176 0
155 175 0
154 176 0
155 176 0
155 176 0
154 175 0
155 176 0
156 177 0
156 176 0
156 176 0
156 176 22
168 188 150
180 200 223
181 201 228
182 202 228
182 202 228
181 202 228
181 201 228
181 201 228
182 202 228
182 202 228
181 201 228
181 201 228
182 202 228
181 201 228
182 202 228
182 202 228
182 202 228
182 202 228
181 201 228
181 202 228
181 201 228
182 202 228
182 202 228
181 202 228
181 201 228
181 202 228
181 201 228
182 202 228
181 201 228
182 202 228
181 201 228
181 201 228
182 202 228
182 202 228
181 202 228
181 201 228
182 202 228
182 202 228
181 201 228
181 201 228
181 202 228
181 202 228
182 202 228
181 201 228
181 201 228
182 202 228
181 201 228
181 201 228
182 202 228
182 202 228
181 201 228
182 202 228
181 201 228
182 202 228
181 202 228
181 201 228
182 202 228
181 202 228
181 201 228
181 202 228
182 202 228
165 185 215
118 139 183
49 79 144
51 82 149
51 82 148
50 81 146
49 79 142
50 80 147
49 79 143
48 77 141
48 77 142
48 77 137
49 79 144
53 82 140
54 83 141
57 83 138
60 89 141
56 82 133
64 88 128
70 95 131
69 93 127
76 100 122
81 104 115
89 112 121
86 110 116
94 117 110
97 118 112
94 116 115
108 131 98
112 133 99
108 130 102
114 135 96
118 138 82
128 149 72
134 155 62
132 153 64
146 166 43
142 163 50
145 165 32
146 167 22
147 167 5
145 165 16
153 174 0
150 170 0
148 169 0
151 172 0
151 171 0
145 165 0
152 173 0
151 169 0
148 169 0
150 171 0
149 170 0
150 169 0
150 170 0
149 169 0
153 173 0
152 172 0
162 184 0
171 194 0
172 196 0
173 196 0
172 195 0
173 195 0
170 193 0
174 196 0
172 195 0
171 194 0
174 198 0
173 196 0
172 195 0
171 195 0
172 196 0
172 195 0
173 196 0
172 195 0
173 196 0
173 196 0
171 194 0
172 195 0
169 192 0
171 195 0
172 195 0
173 196 0
171 195 0
173 196 0
173 196 0
173 197 0
170 193 0
171 194 0
172 196 0
174 197 0
172 195 0
173 196 0
173 196 0
172 195 0
171 193 0
171 195 0
171 195 0
172 196 0
172 195 0
172 196 0
171 195 0
170 194 0
173 197 0
174 196 0
175 198 0
173 197 0
173 197 0
171 195 0
174 196 0
173 197 0
174 198 0
171 194 0
173 196 0
170 193 0
170 194 0
173 197 0
174 198 0
174 197 0
171 195 0
172 195 0
172 195 0
174 197 0
172 195 0
174 198 0
172 195 0
175 197 0
171 195 0
172 194 0
171 194 0
173 196 0
175 198 0
172 196 0
173 196 0
171 194 0
173 196 0
174 197 0
171 195 0
173 196 0
172 195 0
173 196 0
171 194 0
172 196 0
172 195 0
173 197 0
172 196 0
173 196 0
173 195 0
171 195 0
171 194 0
172 196 0
171 195 0
173 196 0
174 196 0
175 198 0
172 195 0
170 194 0
172 195 0
171 194 0
172 195 0
172 195 0
171 194 0
173 196 0
173 196 0
172 195 0
171 194 0
171 194 0
172 196 0
174 196 0
173 196 0
175 198 0
172 195 0
174 198 0
173 196 0
174 197 0
174 197 0
174 197 0
172 196 0
171 194 0
172 196 0
173 196 0
174 197 0
173 197 0
173 196 0
175 198 0
172 196 0
172 196 0
171 196 0
173 197 0
173 196 0
174 196 0
173 196 0
172 196 0
173 197 0
173 196 0
173 197 0
171 194 0
174 197 0
172 196 0
172 196 0
173 197 0
172 196 0
174 198 0
174 196 0
173 197 0
174 197 0
174 196 0
173 196 0
174 197 0
170 193 0
176 199 0
175 197 0
171 194 0
174 197 0
172 196 0
174 197 0
173 197 0
173 197 0
173 195 0
173 197 0
172 195 0
174 197 0
174 197 0
172 195 0
174 196 0
173 197 0
173 197 0
176 198 0
174 197 0
174 197 0
173 197 0
173 196 0
174 198 0
175 198 0
173 197 0
173 196 0
173 197 0
174 198 0
175 198 0
174 196 0
172 196 0
173 195 0
174 197 0
174 198 0
172 196 0
172 197 0
173 197 0
173 196 0
173 196 0
173 197 0
172 195 0
175 198 0
174 197 0
173 196 0
174 197 0
174 197 0
173 197 0
175 198 0
173 197 0
176 198 0
173 197 0
174 197 0
175 198 0
173 197 0
173 196 0
173 197 0
174 197 0
173 197 0
175 197 0
174 197 0
173 197 0
173 197 0
173 197 0
173 197 0
174 197 0
174 197 0
173 196 0
174 198 0
174 197 0
174 197 0
174 197 0
175 197 0
175 197 0
174 197 0
172 196 0
174 197 0
174 197 0
174 197 0
174 197 0
174 197 0
174 197 0
172 196 0
174 197 0
174 198 0
173 197 0
174 197 0
174 198 0
172 194 0
152 174 0
155 176 0
153 175 0
156 176 0
156 177 0
155 176 0
156 176 0
155 176 0
154 175 0
156 177 0
156 176 0
155 176 0
153 175 0
155 176 0
157 177 0
155 176 0
156 177 0
154 175 0
154 176 0
155 177 0
157 177 0
155 176 0
156 176 0
156 177 0
155 176 0
155 176 0
156 177 0
156 177 0
154 176 0
155 175 0
155 176 0
156 177 0
156 176 0
157 177 0
155 176 0
154 175 0
157 177 0
155 176 0
155 176 0
153 175 0
156 176 0
158 179 68
169 190 166
182 202 227
181 201 228
182 202 228
182 202 228
181 201 228
181 201 228
181 201 228
182 202 228
181 202 228
182 202 228
181 202 228
182 202 228
181 202 228
181 202 228
181 201 228
181 201 228
182 202 228
182 202 228
181 201 228
182 202 228
182 202 228
182 202 228
182 202 228
182 202 228
181 202 228
182 202 228
182 202 228
182 202 228
181 201 228
181 202 228
182 202 228
181 202 228
182 202 228
182 202 228
182 202 228
182 202 228
182 202 228
181 201 228
182 202 228
182 202 228
182 202 228
181 201 228
180 201 228
182 202 228
181 202 228
181 201 228
181 201 228
182 202 228
182 202 228
181 201 228
181 202 228
181 202 228
181 202 228
181 201 228
181 202 228
182 202 228
154 175 208
96 119 169
50 81 147
50 80 145
49 79 143
49 79 139
50 81 149
48 78 143
48 78 144
50 80 147
50 80 142
49 79 143
49 79 141
49 79 144
48 77 143
51 80 142
53 81 139
58 85 131
58 87 143
50 79 137
57 84 137
65 91 135
61 86 126
72 96 123
81 104 123
75 99 122
98 120 114
85 107 115
90 112 113
104 126 107
119 139 93
102 124 104
111 131 96
118 139 86
132 152 70
129 150 64
130 151 73
127 147 58
137 159 48
141 161 42
141 161 44
145 165 38
146 165 31
148 167 16
152 173 0
148 169 0
151 171 0
152 171 0
149 170 0
150 169 0
152 172 0
152 173 0
148 169 0
151 172 0
150 171 0
151 171 0
149 168 0
150 170 0
151 172 0
150 170 0
158 180 0
172 195 0
172 196 0
170 194 0
171 195 0
174 196 0
173 196 0
171 194 0
174 197 0
173 196 0
173 196 0
172 196 0
172 195 0
171 196 0
171 195 0
172 195 0
173 197 0
173 196 0
171 194 0
173 195 0
172 196 0
172 196 0
172 196 0
172 195 0
171 194 0
172 195 0
171 195 0
174 197 0
172 195 0
172 195 0
172 196 0
171 195 0
173 196 0
171 194 0
174 197 0
173 197 0
172 195 0
173 196 0
171 194 0
173 196 0
171 195 0
171 195 0
173 196 0
172 195 0
170 194 0
172 196 0
173 197 0
171 194 0
174 197 0
172 195 0
173 196 0
173 196 0
170 194 0
172 196 0
173 197 0
173 195 0
174 198 0
171 195 0
172 195 0
169 192 0
172 195 0
174 197 0
173 196 0
171 195 0
172 195 0
172 195 0
171 195 0
173 197 0
171 195 0
173 196 0
172 196 0
172 194 0
173 196 0
172 195 0
175 198 0
174 197 0
173 196 0
171 194 0
175 197 0
173 196 0
175 197 0
172 195 0
171 195 0
171 194 0
174 197 0
174 197 0
171 195 0
171 194 0
174 197 0
170 193 0
171 194 0
173 195 0
171 195 0
174 197 0
173 195 0
173 196 0
173 195 0
171 195 0
171 195 0
172 196 0
171 195 0
172 196 0
172 195 0
173 196 0
172 195 0
171 195 0
173 196 0
171 196 0
174 197 0
174 197 0
172 195 0
174 197 0
171 195 0
172 196 0
174 197 0
175 197 0
172 195 0
173 196 0
172 196 0
173 196 0
172 195 0
172 196 0
174 197 0
174 197 0
173 196 0
173 196 0
174 198 0
173 196 0
171 196 0
171 195 0
174 197 0
173 196 0
173 196 0
173 196 0
175 198 0
173 196 0
171 195 0
175 198 0
172 195 0
173 197 0
172 196 0
174 197 0
172 196 0
171 194 0
173 196 0
173 197 0
173 195 0
172 196 0
173 196 0
172 196 0
174 197 0
172 195 0
171 194 0
172 196 0
172 195 0
174 197 0
173 197 0
174 197 0
174 197 0
175 198 0
175 198 0
173 197 0
174 197 0
173 197 0
174 197 0
173 196 0
176 198 0
174 197 0
174 198 0
175 198 0
174 198 0
173 197 0
174 197 0
175 196 0
174 197 0
174 197 0
173 196 0
172 196 0
170 193 0
174 197 0
170 195 0
173 197 0
173 197 0
173 197 0
173 196 0
173 196 0
174 197 0
173 196 0
173 197 0
174 197 0
174 197 0
173 196 0
174 197 0
174 197 0
173 196 0
176 199 0
173 196 0
174 197 0
172 196 0
173 197 0
174 197 0
174 197 0
174 197 0
174 197 0
174 197 0
174 197 0
174 197 0
174 197 0
173 197 0
174 197 0
174 198 0
174 197 0
173 196 0
172 196 0
175 198 0
174 197 0
173 197 0
173 197 0
176 198 0
173 197 0
175 198 0
174 197 0
175 198 0
176 198 0
174 197 0
172 196 0
174 197 0
172 196 0
174 197 0
174 197 0
172 196 0
173 196 0
174 197 0
174 197 0
175 198 0
172 196 0
174 197 0
175 198 0
173 197 0
174 197 0
174 197 0
156 177 0
155 176 0
155 176 0
154 175 0
156 177 0
157 177 0
155 176 0
156 176 0
155 176 0
154 175 0
155 176 0
155 176 0
156 176 0
156 177 0
155 176 0
156 176 0
156 176 0
154 176 0
155 176 0
155 176 0
154 175 0
155 176 0
155 176 0
154 175 0
156 177 0
155 176 0
155 176 0
155 176 0
155 176 0
154 176 0
155 177 0
154 175 0
155 176 0
155 176 0
154 176 0
155 176 0
156 176 0
155 176 0
155 176 0
155 176 0
154 175 0
155 176 0
156 177 0
160 181 94
174 194 190
182 202 228
182 202 228
181 202 228
181 201 228
181 201 228
182 202 228
181 201 228
181 201 228
182 202 228
181 201 228
181 202 228
181 202 228
181 201 228
181 201 228
181 201 228
182 202 228
181 201 228
181 201 228
181 201 228
182 202 228
181 202 228
182 202 228
181 202 228
182 202 228
181 201 228
181 201 228
181 201 228
181 202 228
181 201 228
181 201 228
182 202 228
182 202 228
182 202 228
181 202 228
181 202 228
182 202 228
181 201 228
180 201 228
182 202 228
181 201 228
182 202 228
182 202 228
181 201 228
181 201 228
180 201 228
181 201 228
181 201 228
181 201 228
182 202 228
181 201 228
182 202 228
180 201 228
156 176 208
88 111 161
51 82 146
50 81 149
50 80 146
49 79 144
49 79 145
50 81 148
48 78 142
49 79 143
48 78 143
49 79 147
48 78 141
46 75 138
47 77 141
48 77 140
48 77 142
47 76 133
48 77 140
49 77 136
52 80 134
59 86 135
53 80 132
61 86 130
66 91 125
61 88 132
74 98 124
69 94 123
83 105 114
92 113 111
76 100 115
95 117 111
98 119 104
109 131 100
102 123 109
113 133 83
122 143 86
119 141 88
129 149 66
144 164 42
129 150 73
137 157 61
140 160 45
144 164 44
145 165 36
143 163 27
151 171 16
149 170 0
149 170 0
147 167 0
152 171 0
150 171 0
152 172 0
152 171 0
150 170 0
150 171 0
151 172 0
151 171 0
152 173 0
150 170 0
152 173 0
149 168 0
160 182 0
171 195 0
174 197 0
170 193 0
172 195 0
172 195 0
174 197 0
173 196 0
170 193 0
171 194 0
172 196 0
172 196 0
172 195 0
172 195 0
174 196 0
172 195 0
174 196 0
173 196 0
172 195 0
172 194 0
173 197 0
174 197 0
172 195 0
173 196 0
172 195 0
171 194 0
171 195 0
172 195 0
174 197 0
171 194 0
174 197 0
171 195 0
173 196 0
170 194 0
171 195 0
174 197 0
173 196 0
172 195 0
174 197 0
172 194 0
173 197 0
173 196 0
173 196 0
172 195 0
174 197 0
173 196 0
170 194 0
172 196 0
173 196 0
171 195 0
173 195 0
171 195 0
173 197 0
172 195 0
172 195 0
174 197 0
173 196 0
172 195 0
172 194 0
172 195 0
173 196 0
170 193 0
172 195 0
170 193 0
172 195 0
171 194 0
169 194 0
172 194 0
171 195 0
171 195 0
173 196 0
171 195 0
172 196 0
171 195 0
172 196 0
173 197 0
172 195 0
172 195 0
173 197 0
173 196 0
173 197 0
173 197 0
172 195 0
170 195 0
172 196 0
173 196 0
174 197 0
171 196 0
170 194 0
172 195 0
171 195 0
171 194 0
172 196 0
173 196 0
171 193 0
172 195 0
174 197 0
171 194 0
174 197 0
174 197 0
173 196 0
174 197 0
172 195 0
172 195 0
171 194 0
172 196 0
174 197 0
173 195 0
170 193 0
175 198 0
175 198 0
174 197 0
174 197 0
173 197 0
173 196 0
172 196 0
173 196 0
173 196 0
174 196 0
171 195 0
172 195 0
171 195 0
176 199 0
173 197 0
173 196 0
172 195 0
173 197 0
173 197 0
174 197 0
172 196 0
175 198 0
174 197 0
173 197 0
173 197 0
173 197 0
171 195 0
173 196 0
172 196 0
172 196 0
171 194 0
174 197 0
173 196 0
174 196 0
172 195 0
173 197 0
174 197 0
173 197 0
174 197 0
173 197 0
171 194 0
172 197 0
175 198 0
176 198 0
174 197 0
173 197 0
172 195 0
173 197 0
173 196 0
174 197 0
175 198 0
173 197 0
173 197 0
174 197 0
173 197 0
174 197 0
173 196 0
176 198 0
176 199 0
172 196 0
174 197 0
173 196 0
172 195 0
173 197 0
171 195 0
174 197 0
171 194 0
173 197 0
172 197 0
173 197 0
174 197 0
174 198 0
175 198 0
172 196 0
173 196 0
174 197 0
172 196 0
173 196 0
171 196 0
174 198 0
174 197 0
174 197 0
174 197 0
174 198 0
174 198 0
174 197 0
173 196 0
173 197 0
174 197 0
173 196 0
174 197 0
175 198 0
174 197 0
174 198 0
173 197 0
174 197 0
175 198 0
173 197 0
174 197 0
173 197 0
174 197 0
173 197 0
174 197 0
174 197 0
173 197 0
174 197 0
172 196 0
173 197 0
174 197 0
173 197 0
173 197 0
173 197 0
172 196 0
173 196 0
174 197 0
173 197 0
173 197 0
174 197 0
172 196 0
173 197 0
174 197 0
173 196 0
173 197 0
172 196 0
175 197 0
175 198 0
173 197 0
174 197 0
173 196 0
174 197 0
172 196 0
174 197 0
159 180 0
155 176 0
155 176 0
156 177 0
156 177 0
155 176 0
155 176 0
155 176 0
156 176 0
154 175 0
157 177 0
156 176 0
155 176 0
156 177 0
156 176 0
154 176 0
155 176 0
154 175 0
155 176 0
155 176 0
155 175 0
155 176 0
155 175 0
154 175 0
154 175 0
155 176 0
154 176 0
157 177 0
157 177 0
156 177 0
155 176 0
155 176 0
154 175 0
156 177 0
155 176 0
155 176 0
154 176 0
155 176 0
155 176 0
155 176 0
155 176 0
154 176 0
156 176 0
155 176 0
155 176 0
166 186 139
179 199 217
181 201 228
181 201 228
181 201 228
181 201 228
181 202 228
181 201 228
182 202 228
182 202 228
181 201 228
182 202 228
181 201 228
181 201 228
181 201 228
181 202 228
182 202 228
182 202 228
181 201 228
182 202 228
182 202 228
180 201 228
182 202 228
181 201 228
182 202 228
182 202 228
181 202 228
182 202 228
181 201 228
181 201 228
181 201 228
182 202 228
181 202 228
182 202 228
182 202 228
181 201 228
181 201 228
182 202 228
181 202 228
181 202 228
181 201 228
181 202 228
181 201 228
181 202 228
181 201 228
181 201 228
181 202 228
181 201 228
181 201 228
175 195 224
144 164 200
92 115 164
49 79 146
51 82 150
49 80 146
49 79 146
49 79 143
49 79 142
48 78 143
50 80 142
50 81 147
48 78 141
48 77 139
50 80 144
48 78 142
47 76 137
50 80 146
46 75 139
48 78 140
47 76 138
48 77 139
50 79 137
53 81 134
48 75 134
50 79 136
63 89 130
60 86 132
64 89 130
65 91 130
77 101 124
79 100 113
80 102 114
79 102 115
93 115 123
90 112 108
95 116 103
109 130 99
113 135 91
116 137 84
123 143 77
125 147 80
139 160 58
131 153 57
134 154 63
143 163 36
144 165 42
145 166 26
147 167 0
150 169 0
149 169 0
150 171 0
150 170 0
148 169 0
147 166 0
149 170 0
152 172 0
149 168 0
151 171 0
146 167 0
148 168 0
151 171 0
150 169 0
149 169 0
151 170 0
161 182 0
172 196 0
171 194 0
173 196 0
172 195 0
174 197 0
172 195 0
171 194 0
172 195 0
172 196 0
174 197 0
174 197 0
173 196 0
170 195 0
174 197 0
172 196 0
173 196 0
172 195 0
171 195 0
172 196 0
173 196 0
171 195 0
172 195 0
172 195 0
172 195 0
174 197 0
171 194 0
174 197 0
173 196 0
172 195 0
174 196 0
173 196 0
173 196 0
171 194 0
173 197 0
171 195 0
173 196 0
172 195 0
173 197 0
173 196 0
170 194 0
171 194 0
172 196 0
172 195 0
172 195 0
173 196 0
170 194 0
170 194 0
172 196 0
173 196 0
172 195 0
171 195 0
173 196 0
172 195 0
172 196 0
172 197 0
171 194 0
172 196 0
173 196 0
173 196 0
170 193 0
171 195 0
173 197 0
174 197 0
174 197 0
169 193 0
174 197 0
172 195 0
171 194 0
173 196 0
174 197 0
172 195 0
174 197 0
174 196 0
173 196 0
174 197 0
172 195 0
172 195 0
174 196 0
173 196 0
173 196 0
176 198 0
174 197 0
169 193 0
171 194 0
175 198 0
172 195 0
171 195 0
171 195 0
172 194 0
170 194 0
173 196 0
176 198 0
170 194 0
173 196 0
172 195 0
173 196 0
172 195 0
173 196 0
173 196 0
174 198 0
175 198 0
173 196 0
171 193 0
172 196 0
171 194 0
173 195 0
173 195 0
173 196 0
171 195 0
174 198 0
173 197 0
173 197 0
171 195 0
171 193 0
174 197 0
174 197 0
174 197 0
172 195 0
173 197 0
173 197 0
172 196 0
173 197 0
174 197 0
172 195 0
174 196 0
173 196 0
173 196 0
175 198 0
175 197 0
172 195 0
172 196 0
173 196 0
174 197 0
171 195 0
172 195 0
174 197 0
174 197 0
174 197 0
172 195 0
172 195 0
177 199 0
173 196 0
173 196 0
174 197 0
175 198 0
172 196 0
174 197 0
172 195 0
173 197 0
173 196 0
174 196 0
172 195 0
171 195 0
175 198 0
175 197 0
172 197 0
174 197 0
175 198 0
174 197 0
172 195 0
172 196 0
175 197 0
171 195 0
173 197 0
172 195 0
173 197 0
174 196 0
173 196 0
172 195 0
174 196 0
175 198 0
174 197 0
175 198 0
174 197 0
173 197 0
175 197 0
174 197 0
172 196 0
173 196 0
174 197 0
173 197 0
174 197 0
175 198 0
173 197 0
173 195 0
172 196 0
174 197 0
172 196 0
172 195 0
173 196 0
173 197 0
172 196 0
172 195 0
173 197 0
175 198 0
174 198 0
173 196 0
174 197 0
172 196 0
173 197 0
174 197 0
175 198 0
173 197 0
174 197 0
174 197 0
175 198 0
173 196 0
171 196 0
173 197 0
174 197 0
174 197 0
174 197 0
172 196 0
173 196 0
172 196 0
174 197 0
173 196 0
173 197 0
173 197 0
173 196 0
173 196 0
172 196 0
175 198 0
173 196 0
175 198 0
175 198 0
174 197 0
172 196 0
172 196 0
173 197 0
173 197 0
174 197 0
174 197 0
171 195 0
173 197 0
172 196 0
174 197 0
173 197 0
173 196 0
174 197 0
164 185 0
156 176 0
156 176 0
155 175 0
154 175 0
155 176 0
155 175 0
156 176 0
155 176 0
154 175 0
154 175 0
156 177 0
154 176 0
156 176 0
157 177 0
155 176 0
154 175 0
157 177 0
155 176 0
156 177 0
154 175 0
155 176 0
156 177 0
154 175 0
156 176 0
156 176 0
154 175 0
155 176 0
154 175 0
154 176 0
155 176 0
156 176 0
155 176 0
156 177 0
155 176 0
154 175 0
154 176 0
157 177 0
155 175 0
155 176 0
156 177 0
156 176 0
155 176 0
156 176 0
153 175 0
155 176 0
156 176 22
169 189 163
180 200 221
182 202 228
181 201 228
181 202 228
181 201 228
181 201 228
181 201 228
181 201 228
182 202 228
181 202 228
181 202 228
182 202 228
181 201 228
182 202 228
182 202 228
182 202 228
181 201 228
181 201 228
182 202 228
181 201 228
181 201 228
181 201 228
181 201 228
181 202 228
181 201 228
181 202 228
181 201 228
182 202 228
181 201 228
181 201 228
182 202 228
181 202 228
181 201 228
182 202 228
181 201 228
181 202 228
181 201 228
182 202 228
181 201 228
181 201 228
182 202 228
181 201 228
182 202 228
181 201 228
173 193 222
133 154 193
59 87 148
49 79 145
49 79 146
50 81 144
50 80 146
48 78 139
51 82 149
48 78 142
49 79 146
49 79 142
48 77 141
48 78 141
48 78 143
49 79 147
48 77 142
46 75 138
49 79 143
49 80 145
45 73 132
47 76 139
48 77 138
46 75 141
45 72 128
50 78 132
46 75 134
49 77 137
54 81 131
56 82 128
56 81 127
55 82 132
71 94 117
75 97 124
75 99 122
74 98 121
92 114 106
100 121 105
93 114 99
97 119 107
110 132 98
119 141 88
118 139 79
121 141 70
133 153 61
134 155 63
136 156 56
141 162 40
135 155 55
144 164 22
146 166 28
149 169 0
150 170 0
152 172 0
148 170 0
147 167 0
153 172 0
148 169 0
151 171 0
151 171 0
150 171 0
153 174 0
151 170 0
146 165 0
150 171 0
150 170 0
153 173 0
159 181 0
175 197 0
172 196 0
173 196 0
174 196 0
171 194 0
171 195 0
172 196 0
172 195 0
173 196 0
173 197 0
171 195 0
172 195 0
171 195 0
172 195 0
169 193 0
172 195 0
172 195 0
170 193 0
172 196 0
172 195 0
172 195 0
171 194 0
169 192 0
172 195 0
172 195 0
172 195 0
172 195 0
171 195 0
172 195 0
172 196 0
172 196 0
174 196 0
173 196 0
170 192 0
172 195 0
173 197 0
170 194 0
171 194 0
172 195 0
173 196 0
172 196 0
170 194 0
171 195 0
171 195 0
171 195 0
172 195 0
173 196 0
173 197 0
173 196 0
173 197 0
171 193 0
174 196 0
172 195 0
172 196 0
172 194 0
172 195 0
173 196 0
173 195 0
170 194 0
174 197 0
170 194 0
173 196 0
172 196 0
171 194 0
173 196 0
172 196 0
172 195 0
171 194 0
171 194 0
169 193 0
175 198 0
171 194 0
173 197 0
173 195 0
173 196 0
170 194 0
173 196 0
173 196 0
174 197 0
171 194 0
172 196 0
171 194 0
170 194 0
175 197 0
173 196 0
173 196 0
174 197 0
170 193 0
170 194 0
172 195 0
173 197 0
170 194 0
172 195 0
173 196 0
171 194 0
171 194 0
171 195 0
173 196 0
171 195 0
172 195 0
174 197 0
171 194 0
171 195 0
173 196 0
172 195 0
173 196 0
171 195 0
172 195 0
174 197 0
173 196 0
172 195 0
169 193 0
171 195 0
173 197 0
173 197 0
172 196 0
173 196 0
172 195 0
174 197 0
172 196 0
170 194 0
175 198 0
173 196 0
170 194 0
172 195 0
172 195 0
174 197 0
173 196 0
175 197 0
171 194 0
174 197 0
172 197 0
171 194 0
172 196 0
174 197 0
172 196 0
173 197 0
170 194 0
173 196 0
172 196 0
175 197 0
173 197 0
172 197 0
172 196 0
175 197 0
174 197 0
172 195 0
174 197 0
175 198 0
175 198 0
173 195 0
174 197 0
172 195 0
173 197 0
173 196 0
173 196 0
169 193 0
171 195 0
173 196 0
173 197 0
173 197 0
174 197 0
171 195 0
174 197 0
174 197 0
172 197 0
175 198 0
173 197 0
174 197 0
173 197 0
175 198 0
174 197 0
174 197 0
173 196 0
175 197 0
174 197 0
174 197 0
174 197 0
172 195 0
173 197 0
173 197 0
173 196 0
173 197 0
172 196 0
171 195 0
172 196 0
173 197 0
173 196 0
173 197 0
173 197 0
173 196 0
173 195 0
173 197 0
174 198 0
171 195 0
173 197 0
174 196 0
173 197 0
173 196 0
174 197 0
174 197 0
173 197 0
174 197 0
173 197 0
175 198 0
175 198 0
174 197 0
173 197 0
175 197 0
174 197 0
173 196 0
174 197 0
173 197 0
173 197 0
175 198 0
173 197 0
174 197 0
173 197 0
173 197 0
173 197 0
173 197 0
173 197 0
175 198 0
174 197 0
175 198 0
174 197 0
174 197 0
172 196 0
173 197 0
173 196 0
174 197 0
173 196 0
174 197 0
174 197 0
173 197 0
174 197 0
172 196 0
173 197 0
173 196 0
172 196 0
166 188 0
154 176 0
154 176 0
155 176 0
154 175 0
155 176 0
155 176 0
155 176 0
155 176 0
155 176 0
155 176 0
156 177 0
155 176 0
154 175 0
156 177 0
155 176 0
154 175 0
156 177 0
155 176 0
155 176 0
156 176 0
155 176 0
155 176 0
155 176 0
154 175 0
156 176 0
156 176 0
156 176 0
156 177 0
155 175 0
156 176 0
156 176 0
155 176 0
155 176 0
154 176 0
154 175 0
154 176 0
155 176 0
154 176 0
155 176 0
155 176 0
155 176 0
155 176 0
155 176 0
156 177 0
156 177 0
154 175 0
155 176 0
158 179 75
172 192 183
181 201 228
182 202 228
181 201 228
181 201 228
181 201 228
182 202 228
181 201 228
181 202 228
181 202 228
181 202 228
182 202 228
181 201 228
181 202 228
182 202 228
181 201 228
181 201 228
181 201 228
181 201 228
181 202 228
181 201 228
182 202 228
181 201 228
181 201 228
182 202 228
181 201 228
181 202 228
181 201 228
181 201 228
182 202 228
181 201 228
181 201 228
182 202 228
181 202 228
181 201 228
181 201 228
181 201 228
181 202 228
181 202 228
181 201 228
181 201 228
159 179 211
117 138 181
62 90 153
49 79 140
50 80 143
51 82 146
51 82 144
49 79 143
48 78 143
49 79 142
50 80 146
50 80 146
49 80 144
48 78 141
48 78 143
49 79 145
48 77 141
48 78 142
49 79 143
48 78 142
45 73 136
48 78 144
47 77 141
47 75 138
45 73 133
47 76 137
48 78 139
48 77 139
46 75 137
47 74 128
53 79 131
51 78 130
60 85 123
68 92 127
72 96 127
70 93 116
76 98 115
85 107 120
89 110 107
94 115 108
100 121 103
105 125 93
109 130 95
110 131 77
121 143 81
129 148 70
133 155 62
133 153 71
137 158 48
136 156 48
137 158 50
141 161 32
145 164 14
150 170 0
145 164 10
148 169 0
149 169 0
146 166 0
152 172 0
149 169 0
148 168 0
146 166 0
148 168 0
147 167 0
149 168 0
150 170 0
152 171 0
152 173 0
150 170 0
162 183 0
170 193 0
173 196 0
173 196 0
172 196 0
172 196 0
171 195 0
172 196 0
171 194 0
172 194 0
173 196 0
172 195 0
171 194 0
173 196 0
173 197 0
172 195 0
172 196 0
169 193 0
172 195 0
173 196 0
172 195 0
171 195 0
174 197 0
170 194 0
172 195 0
172 195 0
170 194 0
173 195 0
174 197 0
173 195 0
174 197 0
171 195 0
172 195 0
170 193 0
171 195 0
171 195 0
174 196 0
173 195 0
174 196 0
173 197 0
169 192 0
172 195 0
174 196 0
170 194 0
173 197 0
172 196 0
173 196 0
172 196 0
173 196 0
173 196 0
171 194 0
175 197 0
173 197 0
171 195 0
173 195 0
172 195 0
171 195 0
171 195 0
172 195 0
174 197 0
172 195 0
174 197 0
174 196 0
172 195 0
173 196 0
172 196 0
172 196 0
171 195 0
173 197 0
174 196 0
173 196 0
171 195 0
173 196 0
171 194 0
173 196 0
171 194 0
172 195 0
170 194 0
173 196 0
171 195 0
172 195 0
172 195 0
174 197 0
171 194 0
173 197 0
170 193 0
173 197 0
173 195 0
173 196 0
173 196 0
172 195 0
170 194 0
172 195 0
173 196 0
171 194 0
172 196 0
172 196 0
171 195 0
173 196 0
173 196 0
172 196 0
173 196 0
171 194 0
172 195 0
172 195 0
172 196 0
174 197 0
174 198 0
174 197 0
173 196 0
172 195 0
173 197 0
173 196 0
174 196 0
173 195 0
174 197 0
172 195 0
173 197 0
174 197 0
173 196 0
174 197 0
173 196 0
173 196 0
170 194 0
173 197 0
171 194 0
174 198 0
171 195 0
173 197 0
172 195 0
172 196 0
175 198 0
173 196 0
172 195 0
171 195 0
173 197 0
173 196 0
172 196 0
174 198 0
173 196 0
173 196 0
175 198 0
172 196 0
175 197 0
174 197 0
173 196 0
172 195 0
174 197 0
172 196 0
172 196 0
170 194 0
174 197 0
173 196 0
173 197 0
173 197 0
174 197 0
176 198 0
174 198 0
173 196 0
171 194 0
173 196 0
173 196 0
171 195 0
171 195 0
174 198 0
174 197 0
171 195 0
170 194 0
174 198 0
174 198 0
175 198 0
173 197 0
172 196 0
173 196 0
172 196 0
173 197 0
173 197 0
175 198 0
173 196 0
173 197 0
175 198 0
174 197 0
173 196 0
172 196 0
173 196 0
173 196 0
172 194 0
174 197 0
176 198 0
174 197 0
173 196 0
173 197 0
174 198 0
170 194 0
173 196 0
174 197 0
174 197 0
172 196 0
173 197 0
174 198 0
172 195 0
174 197 0
174 197 0
173 197 0
173 196 0
173 197 0
174 197 0
173 196 0
173 197 0
173 197 0
173 197 0
174 197 0
174 197 0
173 197 0
173 197 0
174 197 0
173 197 0
173 197 0
174 197 0
175 198 0
174 197 0
172 195 0
174 197 0
173 196 0
174 197 0
172 196 0
173 197 0
172 196 0
174 197 0
174 197 0
174 197 0
173 196 0
173 196 0
173 196 0
172 196 0
172 196 0
172 196 0
173 196 0
174 197 0
173 196 0
173 197 0
166 189 0
154 175 0
156 176 0
155 176 0
155 176 0
154 176 0
156 177 0
155 176 0
155 176 0
154 175 0
155 176 0
156 176 0
155 176 0
155 176 0
156 177 0
155 176 0
155 176 0
155 176 0
156 176 0
155 176 0
155 176 0
155 176 0
156 176 0
156 177 0
153 175 0
153 175 0
154 176 0
155 176 0
154 176 0
154 175 0
154 175 0
157 177 0
155 176 0
156 177 0
157 177 0
156 176 0
156 177 0
156 176 0
155 176 0
156 177 0
155 176 0
154 176 0
155 176 0
155 176 0
156 176 0
156 177 0
154 176 0
153 175 0
155 176 0
155 176 0
162 182 109
176 196 204
181 202 228
181 201 228
181 201 228
181 202 228
181 201 228
181 202 228
181 202 228
181 202 228
181 201 228
181 201 228
182 202 228
182 202 228
181 201 228
181 201 228
182 202 228
181 201 228
181 201 228
182 202 228
181 201 228
181 201 228
181 202 228
181 201 228
182 202 228
181 201 228
181 201 228
181 201 228
181 202 228
181 201 228
182 202 228
182 202 228
181 201 228
181 201 228
182 202 228
181 201 228
182 202 228
182 202 228
159 179 210
99 122 168
50 81 143
49 79 142
50 80 143
50 81 142
49 79 139
50 80 145
48 78 144
52 83 148
47 76 138
49 79 145
49 79 144
48 78 144
50 81 149
50 81 146
50 80 146
48 78 141
45 73 136
46 75 139
47 76 138
45 73 135
48 78 143
46 75 139
47 76 140
44 72 135
48 78 142
46 75 132
45 73 135
43 70 128
46 74 136
45 74 133
53 80 134
55 80 124
53 78 124
65 89 127
56 81 124
76 98 113
69 91 114
91 112 113
82 102 103
83 105 109
100 121 98
95 117 98
97 118 97
117 138 83
113 134 88
127 147 75
129 150 66
129 149 76
139 159 49
139 159 48
143 164 31
146 165 27
145 165 22
147 167 22
149 170 16
149 169 0
150 171 0
145 165 0
151 170 0
148 167 0
151 171 0
150 170 0
147 166 0
150 169 0
148 168 0
150 170 0
148 169 0
149 170 0
146 167 0
160 181 0
172 196 0
174 197 0
172 196 0
174 197 0
172 196 0
171 195 0
172 195 0
172 196 0
173 195 0
171 194 0
173 196 0
172 196 0
172 195 0
173 196 0
172 195 0
173 196 0
174 197 0
172 195 0
173 195 0
172 196 0
173 197 0
170 193 0
173 197 0
171 194 0
174 197 0
172 195 0
170 193 0
172 195 0
171 193 0
174 197 0
171 194 0
171 195 0
171 195 0
173 195 0
170 193 0
172 196 0
173 196 0
172 195 0
172 195 0
173 196 0
171 195 0
173 196 0
172 196 0
170 194 0
173 195 0
172 196 0
173 196 0
171 196 0
172 196 0
171 195 0
173 196 0
173 195 0
171 194 0
170 193 0
173 196 0
170 194 0
172 195 0
172 195 0
172 196 0
172 196 0
173 196 0
172 195 0
174 197 0
172 194 0
172 196 0
172 195 0
173 196 0
171 194 0
171 194 0
171 193 0
173 196 0
172 195 0
173 196 0
171 194 0
173 197 0
173 196 0
173 196 0
171 195 0
172 196 0
173 195 0
173 197 0
174 197 0
173 197 0
172 195 0
171 194 0
171 193 0
171 194 0
175 197 0
171 195 0
171 195 0
171 194 0
170 194 0
171 194 0
173 197 0
173 197 0
171 195 0
173 197 0
172 196 0
173 196 0
171 194 0
173 196 0
173 196 0
172 196 0
174 197 0
175 198 0
172 196 0
173 195 0
172 196 0
172 195 0
173 196 0
171 195 0
174 197 0
171 194 0
172 195 0
171 195 0
171 195 0
175 198 0
172 196 0
174 197 0
173 196 0
172 195 0
171 195 0
174 197 0
175 198 0
173 196 0
172 196 0
172 194 0
174 197 0
175 198 0
170 194 0
172 196 0
174 197 0
171 195 0
173 197 0
172 195 0
174 197 0
174 196 0
173 196 0
173 197 0
173 197 0
173 196 0
174 197 0
173 196 0
172 196 0
172 195 0
172 195 0
172 195 0
172 195 0
173 195 0
173 197 0
171 195 0
174 197 0
174 197 0
172 196 0
173 196 0
171 194 0
173 196 0
172 196 0
173 195 0
173 197 0
173 197 0
175 198 0
172 196 0
174 198 0
174 197 0
171 194 0
176 198 0
174 197 0
174 197 0
172 196 0
173 196 0
173 196 0
172 196 0
173 196 0
173 196 0
174 197 0
173 197 0
172 195 0
176 198 0
172 197 0
173 197 0
171 195 0
176 198 0
175 198 0
170 194 0
174 197 0
174 197 0
172 196 0
174 197 0
173 197 0
174 196 0
172 196 0
172 196 0
174 198 0
172 196 0
175 198 0
175 198 0
174 198 0
173 196 0
174 197 0
175 197 0
175 197 0
173 197 0
174 197 0
172 196 0
173 197 0
174 197 0
175 198 0
173 197 0
174 197 0
174 197 0
174 197 0
172 196 0
173 197 0
175 198 0
173 197 0
173 197 0
175 198 0
174 197 0
173 197 0
174 197 0
173 197 0
173 197 0
173 197 0
174 197 0
172 196 0
174 197 0
173 197 0
174 197 0
173 197 0
173 197 0
172 196 0
172 196 0
173 197 0
174 197 0
174 197 0
173 197 0
173 197 0
174 197 0
173 196 0
172 195 0
155 176 0
156 176 0
155 176 0
156 176 0
156 177 0
154 175 0
155 176 0
156 176 0
156 176 0
156 176 0
155 176 0
156 177 0
155 176 0
155 175 0
156 176 0
154 175 0
155 176 0
155 176 0
156 177 0
154 176 0
156 176 0
155 176 0
156 176 0
155 176 0
156 176 0
153 175 0
155 176 0
155 176 0
154 175 0
155 176 0
155 176 0
154 176 0
154 176 0
156 176 0
154 175 0
156 176 0
155 176 0
154 175 0
155 176 0
155 176 0
155 176 0
155 176 0
154 176 0
155 176 0
155 176 0
154 176 0
155 176 0
155 175 0
154 175 0
153 175 0
155 176 0
164 185 131
179 199 216
181 201 228
181 201 228
181 201 228
181 201 228
181 201 228
181 201 228
181 201 228
181 201 228
181 201 228
181 201 228
181 202 228
182 202 228
181 201 228
182 202 228
181 202 228
181 201 228
181 201 228
181 201 228
182 202 228
182 202 228
180 201 228
182 202 228
181 201 228
181 201 228
181 201 228
181 201 228
181 201 228
180 201 228
181 201 228
181 201 228
182 202 228
178 199 227
157 177 208
94 117 164
51 82 148
52 83 149
50 80 142
50 81 146
49 80 143
50 81 146
50 80 145
49 79 145
49 79 144
49 78 142
49 79 144
48 77 141
46 74 133
48 77 138
47 77 141
47 76 139
48 79 146
48 77 143
48 78 143
47 75 138
45 73 134
44 72 136
44 71 132
45 73 135
44 71 133
45 73 133
46 75 130
43 70 131
46 74 137
43 70 131
46 74 135
45 73 133
44 71 128
51 77 131
51 75 122
62 88 129
55 80 123
62 87 128
67 90 121
76 98 116
82 104 115
88 109 109
100 121 95
90 112 106
107 127 97
105 126 89
122 143 80
111 131 85
132 153 66
121 142 75
130 150 56
139 158 37
144 165 40
144 164 22
145 165 31
148 168 0
151 172 0
148 168 0
146 165 0
148 168 0
152 171 0
148 167 0
144 164 0
148 168 0
148 168 31
144 163 54
137 158 79
127 149 97
119 142 114
125 148 105
127 150 95
137 160 105
142 167 104
143 167 103
145 169 98
145 169 100
158 181 74
164 188 51
171 194 25
171 194 0
172 194 0
169 192 0
172 195 0
172 196 0
174 196 0
172 196 0
173 195 0
172 195 0
172 195 0
172 196 0
173 196 0
172 196 0
172 195 0
170 194 0
174 197 0
174 197 0
171 194 0
170 194 0
170 193 0
172 195 0
170 194 0
173 196 0
174 196 0
170 194 0
172 196 0
172 196 0
172 195 0
170 193 0
172 196 0
174 197 0
171 194 0
171 195 0
170 193 0
173 196 0
172 195 0
172 195 0
172 195 0
169 192 0
173 196 0
172 195 0
173 196 0
173 197 0
173 197 0
169 193 0
172 196 0
171 194 0
172 195 0
171 194 0
173 197 0
172 195 0
173 196 0
173 195 0
172 195 0
172 195 0
173 197 0
173 197 0
174 196 0
172 196 0
173 196 0
172 195 0
172 195 0
170 194 0
172 196 0
172 195 0
172 195 0
173 196 0
173 196 0
173 196 0
171 194 0
170 194 0
173 197 0
173 195 0
170 194 0
173 197 0
172 195 0
172 196 0
171 195 0
172 195 0
173 196 0
171 194 0
173 195 0
171 195 0
172 195 0
172 196 0
174 197 0
174 197 0
172 195 0
172 196 0
173 196 0
172 195 0
172 194 0
171 194 0
173 196 0
173 197 0
172 196 0
171 194 0
174 197 0
173 197 0
171 194 0
174 197 0
172 195 0
173 197 0
169 192 0
171 195 0
175 197 0
170 195 0
173 197 0
171 195 0
172 195 0
170 194 0
174 197 0
172 195 0
170 193 0
174 197 0
173 196 0
173 196 0
173 197 0
172 195 0
173 196 0
174 197 0
172 196 0
172 195 0
174 197 0
173 196 0
174 197 0
174 197 0
173 196 0
173 196 0
172 196 0
172 196 0
174 196 0
174 198 0
173 196 0
174 197 0
173 196 0
171 195 0
173 197 0
173 196 0
173 196 0
172 195 0
174 196 0
171 195 0
174 197 0
174 197 0
173 197 0
172 195 0
173 197 0
175 197 0
174 198 0
171 195 0
174 198 0
174 197 0
173 197 0
173 196 0
174 198 0
175 198 0
173 196 0
172 196 0
173 197 0
174 197 0
174 196 0
174 197 0
174 197 0
172 196 0
173 197 0
173 197 0
172 195 0
173 197 0
173 196 0
172 196 0
173 197 0
171 195 0
173 196 0
173 196 0
173 197 0
174 198 0
173 197 0
172 196 0
172 195 0
173 196 0
170 194 0
172 196 0
173 197 0
172 195 0
172 196 0
173 196 0
173 196 0
175 197 0
174 198 0
173 196 0
174 197 0
172 195 0
174 197 0
172 196 0
174 197 0
175 197 0
174 197 0
172 196 0
174 197 0
173 196 0
177 199 0
173 197 0
175 198 0
172 196 0
175 197 0
173 197 0
174 197 0
171 195 0
174 197 0
173 196 0
174 197 0
173 197 0
173 197 0
175 197 0
174 197 0
172 196 0
173 197 0
174 198 0
174 198 0
174 197 0
172 196 0
172 196 0
173 196 0
174 197 0
171 196 0
173 196 0
174 197 0
174 197 0
173 196 0
172 196 0
172 196 0
172 196 0
172 196 0
156 176 0
157 177 0
154 175 0
152 174 0
156 177 0
155 176 0
156 177 0
157 177 0
155 176 0
156 177 0
155 176 0
155 176 0
155 176 0
154 175 0
153 174 0
154 176 0
154 175 0
155 176 0
157 177 0
156 177 0
155 176 0
155 176 0
154 175 0
156 176 0
156 176 0
156 177 0
155 176 0
156 176 0
155 176 0
154 175 0
156 176 0
155 176 0
155 176 0
155 175 0
154 175 0
156 176 0
157 177 0
156 177 0
156 177 0
154 176 0
155 176 0
156 176 0
155 176 0
155 176 0
155 175 0
155 176 0
154 175 0
156 177 0
156 176 0
156 177 0
154 175 0
156 176 0
154 175 32
168 189 161
180 200 224
181 201 228
182 202 228
180 201 228
181 201 228
181 202 228
181 201 228
181 202 228
181 201 228
181 201 228
182 202 228
181 201 228
181 201 228
181 201 228
181 201 228
182 202 228
181 201 228
181 201 228
181 201 228
181 201 228
181 201 228
181 201 228
181 201 228
181 202 228
181 201 228
181 201 228
181 201 228
181 201 228
177 198 225
133 153 190
80 105 158
51 82 142
50 81 144
50 81 146
49 79 141
50 80 143
50 80 146
48 79 142
49 79 141
49 79 146
49 79 146
50 80 143
49 79 146
48 78 142
49 80 145
48 78 143
48 78 141
45 73 137
48 78 140
47 75 137
48 78 143
46 75 136
46 74 139
44 72 132
46 74 135
45 74 136
43 71 130
48 77 142
45 72 130
44 72 131
44 71 127
46 74 133
43 70 131
42 68 123
44 71 126
45 72 127
46 73 131
53 80 128
52 77 123
53 77 123
52 76 122
61 85 124
67 90 116
71 94 112
83 105 110
89 111 112
91 111 92
99 120 94
103 124 88
120 139 74
121 141 71
126 144 59
127 147 67
129 149 65
137 157 51
138 157 53
141 160 38
152 170 22
147 166 16
146 165 22
150 170 0
150 170 31
135 156 82
117 140 111
102 128 137
98 124 138
77 109 165
63 99 171
61 98 177
61 98 176
60 98 178
62 99 179
61 98 180
61 97 177
61 98 179
60 97 175
61 98 176
61 98 177
61 98 177
62 98 176
62 99 180
65 101 178
79 112 165
96 126 156
130 156 121
145 170 100
145 171 102
170 192 18
170 194 0
171 195 0
172 196 0
173 196 0
172 195 0
170 193 0
170 194 0
173 195 0
171 194 0
169 193 0
173 196 0
172 196 0
171 195 0
172 196 0
171 195 0
173 196 0
173 196 0
174 197 0
172 195 0
174 197 0
173 196 0
174 196 0
171 195 0
169 193 0
174 197 0
173 196 0
173 196 0
172 195 0
170 193 0
167 190 0
173 195 0
172 196 0
172 196 0
172 195 0
173 197 0
172 194 0
174 197 0
170 193 0
173 197 0
171 195 0
174 197 0
173 196 0
171 195 0
174 197 0
172 196 0
172 196 0
173 196 0
172 195 0
172 196 0
173 196 0
171 194 0
172 195 0
171 194 0
172 194 0
173 197 0
172 195 0
172 195 0
171 195 0
172 195 0
170 194 0
172 196 0
171 195 0
174 196 0
170 193 0
170 194 0
171 194 0
171 194 0
174 197 0
173 196 0
171 195 0
174 197 0
174 197 0
171 195 0
170 193 0
173 196 0
171 195 0
170 194 0
172 196 0
175 198 0
170 194 0
172 196 0
172 195 0
171 195 0
172 196 0
173 197 0
173 195 0
171 194 0
170 193 0
173 195 0
171 195 0
171 195 0
173 196 0
172 195 0
174 197 0
172 196 0
173 196 0
173 196 0
173 196 0
173 196 0
173 197 0
172 195 0
173 196 0
170 194 0
173 196 0
173 196 0
172 196 0
172 195 0
172 196 0
173 196 0
171 194 0
174 197 0
173 197 0
172 195 0
173 196 0
172 196 0
173 196 0
175 198 0
172 196 0
173 197 0
171 195 0
171 195 0
173 196 0
170 194 0
172 195 0
172 196 0
173 196 0
172 196 0
174 197 0
172 195 0
174 197 0
172 196 0
171 195 0
173 195 0
171 194 0
173 196 0
176 198 0
172 195 0
173 196 0
174 198 0
171 195 0
172 195 0
173 196 0
173 197 0
172 195 0
172 194 0
172 196 0
173 196 0
172 195 0
176 199 0
174 198 0
171 195 0
173 196 0
172 196 0
171 195 0
173 196 0
173 197 0
174 197 0
173 196 0
174 197 0
173 197 0
170 194 0
171 195 0
173 196 0
174 198 0
174 197 0
173 196 0
174 197 0
174 197 0
171 194 0
172 195 0
175 197 0
175 198 0
175 198 0
173 196 0
174 197 0
173 196 0
172 196 0
173 196 0
172 196 0
173 196 0
172 195 0
174 197 0
174 197 0
173 196 0
173 195 0
174 197 0
173 197 0
175 197 0
173 196 0
174 198 0
174 197 0
173 197 0
172 196 0
173 197 0
173 197 0
174 197 0
174 197 0
172 196 0
174 197 0
173 196 0
174 197 0
173 197 0
173 197 0
174 197 0
173 196 0
172 196 0
172 196 0
173 197 0
173 197 0
174 197 0
171 195 0
173 196 0
173 197 0
173 196 0
172 196 0
174 196 0
172 196 0
173 196 0
173 197 0
172 196 0
173 196 0
174 197 0
174 197 0
173 197 0
172 196 0
174 197 0
174 197 0
172 196 0
158 179 0
155 176 0
155 176 0
157 177 0
155 176 0
155 176 0
155 176 0
155 176 0
156 176 0
155 176 0
155 176 0
157 177 0
155 176 0
154 175 0
156 177 0
156 177 0
154 175 0
156 177 0
155 176 0
156 176 0
155 176 0
156 177 0
154 176 0
156 176 0
155 175 0
154 175 0
155 176 0
155 176 0
157 177 0
155 176 0
156 176 0
156 176 0
155 176 0
153 174 0
154 175 0
156 177 0
155 176 0
155 176 0
155 176 0
155 176 0
154 175 0
155 176 0
155 176 0
155 177 0
156 176 0
154 175 0
155 176 0
155 176 0
156 176 0
154 176 0
155 176 0
156 176 0
155 176 0
156 176 0
157 178 75
173 193 186
181 202 228
181 201 228
181 201 228
180 201 228
181 202 228
180 201 228
181 202 228
180 201 228
181 202 228
181 201 228
181 201 228
182 202 228
182 202 228
181 201 228
181 201 228
181 201 228
180 201 228
181 201 228
181 201 228
181 201 228
181 202 228
181 201 228
181 201 228
181 201 228
173 193 222
131 153 191
56 85 148
51 82 144
50 81 145
50 81 143
52 84 152
50 80 141
46 74 136
49 79 139
50 81 146
49 80 144
49 79 141
50 80 143
49 79 144
48 77 142
50 80 145
47 77 141
49 80 144
48 78 143
47 76 138
46 75 137
46 75 137
46 74 131
47 76 140
46 74 137
47 76 139
46 74 138
44 72 133
46 75 136
45 72 133
45 73 136
44 71 129
45 72 129
44 72 137
43 71 129
44 72 131
42 68 125
43 70 128
43 70 127
42 68 123
48 74 128
54 81 132
54 78 119
56 80 118
67 90 121
66 90 118
68 90 113
86 106 100
87 108 108
100 119 97
100 120 89
100 121 100
111 131 81
115 135 77
123 144 65
131 152 57
138 158 54
135 154 41
138 158 51
148 168 39
144 164 42
124 146 97
108 132 126
81 111 157
62 98 174
60 97 175
60 97 179
61 98 179
61 99 179
61 98 179
61 98 177
61 98 179
61 98 180
61 98 179
61 98 179
61 98 179
61 98 179
62 99 181
61 98 180
61 98 179
61 98 177
62 99 180
61 98 178
61 99 179
61 98 178
61 98 177
62 99 176
61 98 176
61 98 178
62 99 181
66 101 174
89 120 160
123 150 133
148 172 96
166 189 47
171 194 0
169 192 0
171 194 0
170 194 0
171 194 0
171 195 0
169 193 0
171 194 0
173 196 0
172 196 0
171 195 0
172 195 0
168 191 0
173 196 0
171 194 0
172 195 0
170 193 0
171 194 0
172 195 0
171 195 0
171 194 0
169 193 0
173 196 0
170 194 0
170 194 0
173 196 0
173 196 0
171 194 0
172 196 0
171 194 0
172 195 0
172 194 0
173 195 0
173 196 0
170 194 0
171 194 0
169 193 0
171 194 0
173 196 0
171 194 0
173 196 0
172 195 0
172 195 0
168 192 0
171 195 0
170 194 0
172 195 0
172 194 0
172 196 0
171 194 0
174 197 0
170 194 0
171 195 0
171 195 0
173 197 0
172 195 0
173 196 0
173 197 0
170 194 0
171 195 0
176 198 0
172 194 0
173 196 0
173 196 0
172 196 0
172 195 0
172 195 0
172 195 0
171 194 0
172 196 0
170 194 0
171 194 0
173 196 0
173 196 0
170 194 0
173 196 0
172 196 0
171 195 0
172 196 0
174 198 0
172 196 0
171 195 0
171 194 0
171 195 0
174 198 0
173 196 0
174 197 0
173 196 0
173 196 0
170 193 0
174 196 0
172 196 0
174 197 0
171 195 0
172 196 0
170 193 0
170 192 0
171 195 0
173 195 0
173 195 0
174 197 0
171 195 0
172 196 0
172 195 0
173 197 0
172 195 0
173 196 0
172 196 0
170 194 0
171 194 0
172 195 0
173 196 0
175 198 0
174 197 0
174 198 0
172 195 0
173 196 0
174 197 0
172 196 0
175 198 0
172 195 0
174 198 0
173 197 0
174 197 0
172 195 0
172 196 0
172 196 0
172 196 0
173 195 0
173 196 0
169 193 0
172 196 0
173 196 0
173 197 0
174 198 0
173 197 0
174 197 0
173 196 0
175 198 0
173 196 0
173 196 0
173 195 0
172 196 0
173 195 0
172 196 0
174 197 0
172 196 0
173 195 0
174 197 0
173 196 0
171 195 0
173 196 0
174 198 0
174 197 0
174 197 0
173 196 0
173 197 0
170 193 0
171 194 0
172 195 0
174 197 0
173 197 0
172 196 0
174 197 0
173 197 0
174 197 0
172 196 0
173 196 0
175 197 0
174 197 0
173 197 0
174 197 0
173 196 0
172 196 0
173 196 0
175 198 0
174 198 0
172 196 0
172 196 0
174 198 0
173 196 0
172 196 0
175 197 0
172 196 0
174 197 0
173 196 0
173 197 0
171 196 0
173 197 0
173 197 0
174 197 0
174 197 0
174 198 0
174 197 0
174 197 0
174 197 0
174 197 0
173 196 0
174 198 0
172 196 0
173 197 0
174 197 0
172 196 0
174 197 0
172 196 0
172 196 0
173 197 0
173 196 0
173 196 0
173 196 0
172 196 0
172 195 0
174 197 0
173 196 0
174 196 0
171 195 0
175 198 0
173 196 0
173 196 0
173 196 0
173 196 0
172 196 0
173 197 0
173 196 0
161 184 0
153 175 0
157 177 0
157 177 0
155 176 0
156 177 0
156 176 0
155 176 0
154 175 0
155 175 0
156 177 0
155 176 0
154 175 0
156 176 0
155 176 0
155 176 0
155 176 0
155 176 0
155 176 0
155 175 0
156 177 0
155 176 0
155 176 0
156 177 0
154 175 0
154 175 0
154 175 0
154 176 0
155 176 0
156 176 0
154 175 0
156 176 0
156 176 0
156 177 0
154 175 0
156 176 0
154 176 0
156 176 0
154 175 0
154 176 0
152 173 0
154 175 0
157 177 0
155 176 0
157 177 0
154 176 0
155 176 0
155 176 0
154 176 0
156 176 0
155 176 0
153 175 0
156 176 0
156 176 0
155 175 0
155 176 0
159 180 94
175 195 200
181 201 228
181 201 228
181 201 228
182 202 228
181 201 228
181 201 228
181 201 228
181 202 228
181 202 228
182 202 228
181 201 228
181 201 228
182 202 228
181 201 228
182 202 228
181 201 228
181 201 228
181 201 228
182 202 228
181 201 228
166 186 215
122 143 186
63 92 152
51 82 142
50 80 141
52 83 150
51 82 147
51 81 145
49 79 141
50 80 143
49 79 138
48 78 138
51 81 146
50 80 144
50 81 148
47 76 136
48 78 141
47 76 137
49 79 143
47 75 137
47 76 139
47 76 138
47 75 136
44 72 131
44 72 135
45 73 135
46 75 139
45 73 133
44 71 133
46 74 136
43 71 133
44 72 136
46 74 138
44 72 134
43 69 129
43 70 130
45 73 134
42 68 127
43 70 131
44 71 128
43 70 130
43 71 132
46 73 129
50 77 127
47 73 127
52 77 127
59 83 120
58 81 114
56 81 123
75 97 111
71 94 115
86 107 112
84 107 110
101 122 101
105 126 89
116 135 78
110 131 82
122 142 71
129 148 59
133 153 51
132 153 71
103 127 123
91 119 153
66 100 170
61 97 175
61 97 176
61 98 178
61 98 178
60 97 178
61 98 178
61 98 179
61 98 178
61 98 179
61 98 180
61 98 180
61 98 180
61 99 181
61 98 180
61 99 179
61 99 180
61 98 177
62 99 178
61 99 181
61 98 179
61 99 181
60 98 178
61 99 181
62 99 180
61 98 178
61 98 176
61 98 179
62 99 179
61 98 180
61 98 178
61 98 181
61 98 177
61 98 174
64 100 175
108 136 147
139 164 111
165 188 54
173 195 0
170 192 0
169 194 0
171 194 0
166 190 0
172 195 0
171 195 0
169 192 0
172 195 0
171 194 0
173 196 0
174 196 0
173 196 0
172 195 0
173 195 0
173 196 0
168 192 0
170 192 0
172 195 0
173 196 0
172 195 0
171 194 0
171 194 0
171 195 0
172 195 0
172 196 0
170 194 0
173 197 0
173 195 0
172 195 0
174 197 0
172 195 0
173 196 0
172 195 0
170 193 0
172 195 0
171 195 0
173 196 0
172 195 0
172 195 0
170 193 0
171 194 0
173 196 0
170 194 0
171 194 0
171 194 0
172 196 0
173 196 0
171 195 0
173 195 0
172 195 0
175 198 0
171 195 0
172 195 0
174 196 0
174 197 0
174 197 0
171 194 0
171 194 0
174 197 0
170 194 0
170 193 0
171 195 0
173 196 0
172 195 0
173 196 0
172 196 0
173 196 0
172 194 0
171 194 0
174 197 0
173 196 0
172 196 0
172 195 0
172 194 0
173 196 0
173 197 0
172 195 0
171 194 0
169 192 0
170 193 0
172 197 0
173 196 0
172 195 0
174 196 0
172 195 0
173 196 0
173 196 0
171 194 0
173 196 0
171 194 0
173 196 0
173 195 0
173 196 0
171 195 0
174 197 0
173 197 0
174 197 0
172 196 0
173 195 0
172 195 0
172 196 0
174 197 0
173 197 0
171 195 0
173 196 0
173 196 0
173 196 0
173 197 0
174 197 0
171 194 0
172 195 0
172 196 0
175 197 0
170 194 0
171 195 0
173 197 0
172 196 0
174 197 0
173 196 0
171 195 0
171 196 0
172 196 0
174 197 0
173 196 0
171 195 0
172 195 0
173 197 0
174 197 0
173 197 0
173 196 0
170 194 0
171 194 0
174 197 0
173 197 0
173 197 0
172 196 0
174 197 0
172 196 0
174 197 0
174 197 0
172 197 0
173 196 0
172 195 0
173 197 0
175 197 0
174 197 0
173 196 0
172 197 0
175 198 0
171 193 0
172 195 0
172 195 0
173 195 0
174 196 0
173 196 0
175 198 0
172 196 0
173 196 0
171 194 0
175 198 0
172 195 0
175 197 0
174 197 0
175 198 0
176 198 0
172 196 0
174 197 0
172 195 0
174 196 0
173 196 0
174 198 0
175 197 0
174 197 0
173 197 0
173 197 0
173 197 0
172 195 0
173 197 0
174 197 0
173 196 0
173 197 0
173 197 0
173 197 0
173 196 0
174 198 0
174 197 0
174 197 0
173 196 0
173 196 0
174 197 0
173 196 0
174 197 0
173 197 0
174 197 0
174 197 0
172 196 0
174 197 0
173 197 0
173 197 0
173 197 0
174 197 0
172 196 0
172 196 0
173 197 0
172 196 0
173 196 0
173 197 0
175 198 0
175 197 0
175 198 0
174 197 0
172 196 0
174 197 0
173 197 0
173 195 0
174 197 0
173 196 0
173 197 0
173 196 0
173 196 0
165 188 0
157 177 0
155 176 0
155 176 0
154 175 0
156 176 0
155 176 0
155 176 0
155 176 0
155 176 0
155 176 0
154 175 0
154 176 0
155 176 0
155 176 0
155 176 0
155 176 0
156 177 0
157 177 0
155 176 0
155 176 0
156 177 0
155 176 0
154 175 0
155 176 0
154 175 0
157 177 0
156 176 0
154 175 0
153 175 0
156 176 0
155 176 0
155 175 0
155 176 0
155 176 0
155 176 0
155 175 0
155 175 0
154 175 0
155 176 0
155 175 0
156 176 0
154 175 0
156 176 0
155 176 0
156 176 0
156 177 0
156 177 0
156 176 0
155 175 0
155 176 0
155 176 0
155 176 0
154 176 0
157 177 0
156 176 0
155 176 0
154 175 22
164 185 137
179 200 221
181 201 228
181 201 228
181 201 228
181 201 228
182 202 228
181 201 228
182 202 228
181 202 228
181 201 228
181 201 228
181 201 228
180 201 228
181 201 228
181 201 228
182 202 228
180 201 228
154 174 207
112 133 175
53 83 142
49 80 142
50 81 140
50 80 141
50 81 142
52 83 146
50 80 145
51 83 147
48 78 137
50 80 145
49 79 131
47 77 136
50 80 139
50 81 145
49 80 142
48 77 142
47 77 139
46 75 136
48 77 137
48 77 140
46 75 138
46 75 136
45 73 130
46 74 135
46 74 136
45 73 134
46 74 139
45 74 138
43 70 129
45 73 136
44 72 134
44 71 129
43 69 128
44 71 130
43 70 129
43 69 128
43 70 132
42 69 128
44 71 131
41 67 127
43 70 128
39 65 123
41 68 126
42 69 128
43 70 124
52 77 122
50 75 126
62 85 118
59 82 108
75 95 107
69 91 104
75 97 111
84 105 103
92 112 101
105 125 92
99 119 97
107 128 84
118 138 86
105 129 114
85 114 157
58 94 169
61 97 177
61 98 179
60 98 178
61 98 178
61 98 179
61 98 177
61 98 179
61 98 179
61 98 179
61 98 179
61 98 181
61 99 181
60 97 178
61 98 181
61 99 180
61 99 181
61 98 180
61 99 181
61 98 181
61 99 181
61 98 181
61 99 181
62 99 181
61 99 180
61 98 180
61 98 181
61 98 181
61 98 180
61 99 179
61 99 179
61 99 178
61 98 176
62 99 178
61 98 178
62 99 178
61 98 175
61 98 177
60 98 175
62 99 177
65 101 171
99 128 156
141 165 108
171 193 25
172 195 0
171 194 0
170 194 0
172 195 0
172 195 0
170 193 0
172 194 0
170 194 0
170 194 0
171 194 0
171 194 0
171 194 0
172 194 0
172 195 0
171 195 0
171 195 0
173 195 0
171 195 0
173 195 0
174 197 0
170 194 0
170 194 0
172 195 0
172 195 0
171 195 0
173 196 0
173 196 0
171 194 0
172 196 0
168 192 0
172 196 0
171 194 0
173 195 0
172 195 0
172 195 0
170 193 0
173 195 0
174 196 0
172 195 0
170 193 0
170 193 0
171 194 0
172 196 0
169 192 0
171 194 0
173 196 0
172 196 0
171 195 0
170 192 0
170 193 0
171 195 0
171 194 0
172 196 0
173 196 0
172 195 0
172 195 0
175 198 0
171 194 0
172 196 0
171 196 0
170 193 0
172 196 0
174 197 0
170 194 0
173 197 0
170 193 0
175 197 0
172 195 0
171 195 0
173 195 0
173 196 0
171 195 0
175 198 0
173 197 0
171 195 0
170 194 0
169 193 0
172 195 0
172 195 0
173 196 0
172 197 0
174 197 0
172 197 0
173 196 0
171 195 0
171 194 0
172 195 0
174 197 0
172 195 0
173 196 0
169 193 0
172 196 0
170 193 0
173 196 0
173 197 0
175 198 0
172 196 0
171 196 0
174 197 0
169 193 0
174 197 0
174 197 0
170 192 0
172 195 0
173 196 0
173 196 0
172 196 0
171 195 0
173 197 0
172 195 0
174 197 0
172 196 0
172 196 0
170 193 0
173 196 0
172 195 0
172 195 0
171 195 0
170 194 0
172 196 0
174 196 0
172 195 0
175 197 0
169 193 0
174 197 0
172 196 0
174 197 0
172 195 0
172 195 0
175 198 0
171 194 0
173 197 0
174 197 0
172 196 0
172 196 0
174 197 0
174 197 0
174 197 0
174 197 0
173 197 0
174 197 0
172 196 0
174 197 0
174 197 0
173 197 0
171 195 0
175 198 0
172 195 0
174 197 0
173 196 0
171 194 0
174 198 0
174 197 0
174 197 0
174 197 0
174 197 0
171 195 0
174 197 0
173 196 0
173 195 0
173 197 0
174 197 0
173 197 0
173 197 0
173 196 0
174 198 0
173 197 0
174 197 0
172 196 0
174 197 0
174 197 0
173 196 0
174 197 0
174 198 0
174 197 0
172 196 0
174 197 0
174 197 0
174 197 0
174 197 0
174 197 0
172 196 0
173 197 0
174 197 0
174 197 0
174 197 0
172 197 0
173 196 0
174 197 0
174 197 0
174 197 0
173 196 0
174 197 0
172 196 0
173 197 0
174 197 0
174 197 0
173 196 0
173 197 0
173 197 0
173 196 0
174 197 0
172 195 0
175 198 0
174 197 0
173 196 0
175 197 0
174 197 0
172 196 0
172 195 0
174 197 0
174 197 0
174 197 0
174 197 0
172 196 0
174 197 0
172 196 0
171 195 0
168 191 0
155 176 0
154 176 0
154 175 0
154 176 0
155 176 0
156 176 0
155 176 0
155 176 0
155 176 0
154 175 0
156 176 0
153 174 0
156 176 0
156 177 0
155 176 0
157 177 0
155 176 0
154 175 0
154 176 0
155 176 0
155 176 0
155 176 0
156 176 0
154 175 0
154 175 0
154 175 0
154 175 0
157 177 0
155 176 0
154 175 0
154 175 0
155 176 0
153 175 0
156 177 0
153 175 0
156 176 0
155 176 0
156 177 0
154 175 0
156 176 0
155 176 0
155 175 0
155 176 0
154 176 0
155 176 0
154 175 0
155 175 0
154 175 0
156 176 0
156 176 0
155 176 0
154 175 0
155 176 0
156 177 0
155 176 0
155 176 0
155 176 0
155 176 0
158 178 72
169 190 172
180 201 226
181 201 228
181 201 228
181 201 228
182 202 228
182 202 228
181 201 228
181 201 228
181 201 228
181 202 228
181 201 228
181 201 228
178 199 227
146 167 202
104 126 173
50 80 143
52 83 149
51 82 144
51 82 143
52 82 143
50 80 140
51 82 141
50 80 143
50 81 142
50 80 143
50 80 139
48 77 140
48 78 137
49 78 139
46 75 135
47 77 136
48 78 141
48 77 136
48 77 136
48 77 141
46 75 137
46 75 140
48 77 140
48 76 136
45 73 137
45 73 134
47 77 139
47 75 136
47 76 137
45 73 136
45 73 135
43 70 130
44 71 130
45 72 133
43 70 130
45 72 133
45 73 133
41 67 122
41 66 125
41 67 125
44 71 131
42 69 124
39 64 117
42 68 124
42 69 123
42 68 126
42 68 123
42 68 124
54 77 119
43 68 118
49 72 111
72 93 104
64 85 108
75 96 105
75 97 108
102 122 86
101 121 97
99 121 101
88 114 140
63 97 168
61 97 174
61 98 179
61 97 178
62 99 179
61 97 178
61 97 178
61 98 178
61 98 178
60 98 180
61 98 180
61 98 180
61 98 180
61 98 180
62 98 179
61 99 180
61 98 180
61 98 181
61 99 180
62 99 181
61 98 180
62 99 180
61 99 180
61 98 180
61 98 181
62 99 180
62 99 181
61 99 181
61 98 179
61 99 180
61 99 181
61 98 180
61 98 178
61 98 181
62 99 180
61 99 181
62 99 179
61 98 177
61 99 180
62 99 177
62 99 178
62 99 177
62 99 176
61 98 176
61 99 178
61 98 176
79 111 167
120 146 131
164 187 60
174 196 0
170 193 0
173 196 0
171 194 0
171 194 0
170 193 0
173 196 0
172 196 0
172 195 0
170 193 0
170 193 0
171 193 0
170 194 0
169 192 0
172 196 0
172 195 0
171 194 0
173 196 0
170 194 0
171 195 0
171 194 0
172 195 0
171 194 0
173 196 0
170 194 0
171 193 0
171 195 0
173 197 0
172 195 0
172 195 0
171 194 0
172 196 0
173 197 0
174 196 0
171 195 0
171 194 0
173 196 0
170 193 0
172 196 0
172 196 0
172 196 0
171 195 0
171 194 0
172 195 0
172 194 0
170 194 0
170 193 0
171 194 0
169 193 0
172 196 0
171 195 0
173 196 0
173 196 0
171 195 0
168 191 0
171 195 0
170 193 0
173 196 0
174 197 0
171 195 0
170 193 0
171 195 0
172 196 0
172 195 0
171 194 0
172 195 0
167 191 0
171 195 0
171 195 0
169 193 0
173 196 0
172 195 0
174 197 0
174 196 0
172 196 0
170 193 0
172 196 0
173 196 0
172 195 0
170 193 0
173 197 0
169 192 0
172 196 0
172 195 0
173 196 0
171 194 0
171 194 0
170 193 0
171 195 0
173 197 0
174 196 0
173 196 0
171 195 0
174 197 0
173 196 0
173 196 0
173 196 0
172 195 0
174 197 0
171 194 0
173 197 0
172 196 0
171 194 0
172 195 0
174 197 0
174 196 0
171 195 0
173 196 0
173 197 0
171 195 0
172 195 0
172 196 0
171 195 0
172 195 0
174 198 0
172 196 0
171 195 0
172 196 0
171 195 0
170 193 0
171 195 0
171 194 0
172 195 0
173 196 0
171 195 0
173 195 0
175 197 0
173 197 0
174 197 0
174 197 0
172 196 0
173 196 0
169 193 0
171 194 0
173 197 0
173 197 0
173 197 0
174 197 0
173 197 0
173 196 0
172 196 0
172 197 0
171 195 0
172 196 0
174 197 0
171 195 0
173 196 0
172 196 0
173 196 0
172 195 0
174 197 0
174 198 0
174 197 0
172 196 0
174 197 0
174 197 0
173 196 0
173 196 0
172 195 0
174 198 0
173 197 0
171 194 0
173 197 0
174 197 0
174 197 0
172 196 0
173 196 0
173 197 0
172 196 0
175 198 0
175 198 0
174 197 0
175 198 0
173 197 0
173 197 0
173 197 0
172 196 0
175 198 0
175 198 0
175 198 0
174 197 0
174 197 0
173 197 0
172 196 0
172 196 0
174 196 0
173 196 0
174 197 0
174 198 0
174 197 0
173 196 0
173 196 0
173 196 0
173 196 0
174 197 0
173 197 0
174 197 0
174 197 0
175 198 0
174 197 0
174 197 0
172 196 0
174 197 0
172 196 0
175 198 0
175 198 0
173 196 0
172 196 0
173 196 0
173 196 0
173 196 0
174 197 0
174 197 0
172 196 0
173 196 0
173 196 0
172 195 0
156 177 0
155 175 0
154 176 0
154 175 0
154 175 0
156 176 0
153 174 0
154 175 0
153 174 0
155 176 0
155 176 0
156 176 0
155 176 0
155 175 0
154 175 0
156 176 0
153 174 0
155 175 0
155 175 0
157 177 0
154 175 0
155 175 0
156 176 0
155 176 0
156 176 0
156 177 0
155 176 0
155 176 0
155 176 0
154 176 0
154 175 0
155 175 0
155 176 0
156 177 0
156 176 0
155 176 0
153 175 0
154 175 0
155 175 0
156 176 0
155 176 0
155 176 0
155 176 0
154 176 0
154 175 0
154 175 0
153 175 0
155 176 0
155 176 0
156 176 0
154 175 0
154 176 0
155 176 0
153 175 0
154 175 0
154 175 0
155 176 0
155 176 0
154 176 0
155 176 0
158 179 82
175 195 196
181 201 228
181 201 228
181 201 228
180 201 228
181 201 228
181 202 228
181 201 228
180 201 228
180 200 228
139 160 197
72 100 154
52 83 145
51 82 141
52 83 143
51 82 138
50 81 141
52 83 148
51 82 139
50 81 142
50 80 144
50 80 139
50 81 140
50 80 142
50 79 140
49 80 143
48 77 140
46 75 131
47 77 137
48 77 141
45 74 134
48 77 142
49 79 140
46 74 134
45 73 133
48 76 135
48 77 141
45 74 137
46 75 133
43 70 134
45 73 136
43 70 132
45 73 135
45 73 134
43 70 133
45 72 135
44 71 129
41 68 128
44 71 129
42 69 129
41 67 126
45 72 134
39 65 123
40 66 124
41 66 123
43 70 125
41 67 124
43 70 126
40 65 117
39 64 118
40 64 115
42 69 126
46 73 126
43 68 113
49 73 113
61 85 123
70 92 111
67 90 110
89 109 106
80 103 116
75 103 149
58 94 167
59 95 174
60 96 176
60 97 175
61 98 178
61 98 177
60 97 177
61 97 176
60 97 176
61 98 177
62 99 179
61 98 178
61 98 181
61 98 180
61 98 179
61 98 181
61 98 179
62 99 180
61 98 181
61 99 181
61 98 181
62 99 181
61 98 181
61 98 181
62 99 181
61 98 181
61 98 180
61 99 181
62 99 181
62 99 181
61 98 178
61 98 180
61 99 180
61 98 180
62 99 181
61 99 179
61 99 178
61 98 179
61 99 179
62 99 178
61 99 180
62 99 180
61 99 180
61 99 179
61 98 177
60 97 173
61 98 173
61 98 174
61 98 172
61 98 176
62 99 176
113 140 139
159 183 60
170 193 0
170 194 0
173 196 0
172 195 0
172 195 0
173 196 0
173 196 0
169 193 0
171 194 0
172 195 0
171 194 0
171 195 0
171 194 0
173 196 0
170 193 0
170 195 0
171 194 0
170 194 0
170 194 0
174 197 0
171 194 0
173 196 0
174 197 0
172 195 0
170 194 0
171 194 0
172 195 0
172 195 0
171 194 0
175 198 0
173 196 0
174 198 0
171 194 0
170 194 0
171 193 0
174 197 0
175 197 0
172 195 0
172 196 0
172 194 0
173 196 0
174 197 0
173 196 0
171 196 0
172 195 0
170 193 0
170 193 0
172 195 0
171 195 0
171 195 0
173 196 0
172 194 0
173 197 0
173 196 0
172 195 0
171 195 0
169 191 0
172 196 0
170 194 0
171 193 0
172 195 0
172 195 0
173 197 0
172 196 0
169 193 0
174 196 0
172 196 0
173 197 0
171 195 0
170 193 0
173 197 0
170 193 0
172 195 0
170 193 0
170 193 0
170 193 0
171 195 0
173 196 0
172 197 0
172 195 0
174 197 0
173 196 0
173 196 0
171 195 0
172 195 0
172 194 0
172 196 0
172 195 0
171 194 0
172 196 0
173 196 0
173 197 0
174 196 0
168 191 0
174 197 0
172 194 0
173 196 0
174 197 0
172 196 0
171 194 0
173 196 0
170 193 0
174 196 0
173 197 0
174 197 0
173 197 0
173 197 0
172 195 0
170 193 0
171 195 0
174 196 0
174 196 0
175 198 0
173 197 0
173 196 0
173 197 0
170 193 0
173 197 0
173 197 0
173 196 0
175 197 0
173 196 0
174 197 0
173 196 0
171 194 0
173 196 0
174 197 0
173 197 0
174 197 0
174 197 0
174 197 0
172 196 0
173 197 0
173 197 0
171 195 0
174 197 0
171 193 0
174 197 0
171 195 0
173 195 0
173 197 0
174 197 0
173 196 0
172 195 0
173 196 0
172 195 0
173 196 0
172 196 0
174 197 0
171 196 0
172 196 0
173 196 0
173 196 0
175 198 0
174 196 0
173 197 0
174 198 0
173 197 0
172 196 0
173 197 0
174 197 0
173 196 0
175 198 0
172 195 0
174 197 0
174 197 0
175 198 0
175 198 0
174 197 0
176 198 0
173 197 0
173 196 0
175 198 0
174 197 0
174 197 0
174 197 0
175 198 0
175 197 0
173 196 0
174 197 0
175 198 0
175 198 0
174 197 0
174 197 0
174 197 0
172 196 0
173 196 0
173 196 0
174 197 0
173 196 0
173 196 0
173 196 0
174 197 0
172 196 0
173 197 0
174 197 0
172 196 0
172 196 0
174 197 0
174 197 0
173 196 0
173 196 0
172 196 0
174 197 0
173 196 0
173 197 0
171 195 0
174 197 0
173 196 0
173 196 0
173 196 0
172 196 0
173 196 0
175 197 0
172 195 0
156 177 0
154 175 0
156 177 0
154 175 0
155 176 0
155 176 0
153 174 0
156 176 0
155 175 0
155 176 0
156 176 0
154 176 0
156 176 0
155 176 0
156 176 0
155 176 0
154 175 0
156 176 0
155 176 0
154 176 0
155 176 0
155 176 0
155 176 0
156 176 0
156 176 0
155 176 0
156 176 0
155 176 0
155 176 0
157 177 0
155 176 0
154 176 0
154 176 0
155 176 0
155 176 0
155 176 0
155 175 0
154 175 0
154 175 0
154 175 0
154 175 0
155 175 0
154 175 0
154 175 0
153 174 0
154 175 0
154 175 0
156 176 0
155 176 0
154 175 0
154 175 0
153 175 0
153 175 0
155 176 0
154 175 0
153 175 0
155 175 0
155 176 0
154 175 0
155 175 0
155 176 0
154 176 0
160 181 104
176 197 207
181 201 228
181 202 228
180 201 228
181 201 228
177 197 224
135 155 190
65 94 150
51 82 136
51 82 145
52 83 138
50 81 146
51 82 139
50 81 137
50 81 136
51 82 139
49 80 137
50 81 141
50 81 142
49 79 139
49 79 141
49 80 143
49 80 143
48 78 141
50 80 138
47 76 133
47 76 138
48 77 137
48 77 140
48 77 141
48 78 141
44 71 131
45 74 131
46 75 140
46 75 135
45 74 135
46 74 135
44 72 133
44 71 133
44 71 132
40 65 124
43 69 128
44 71 132
42 68 126
43 69 127
41 67 126
41 67 127
40 66 124
42 69 128
40 65 122
43 70 129
41 66 124
42 69 130
41 67 127
41 67 126
41 67 124
40 65 122
41 67 123
40 65 119
45 69 119
44 70 118
55 79 120
56 80 114
52 76 110
72 92 108
63 89 128
69 97 147
59 94 170
60 96 175
60 96 174
60 97 176
61 97 176
61 98 177
60 97 177
60 97 179
61 98 177
62 99 181
62 98 178
61 98 178
62 99 180
61 98 179
61 99 181
61 98 180
62 99 180
61 98 180
61 99 181
62 99 180
62 99 181
61 98 180
62 99 181
62 99 181
61 99 180
61 99 181
62 99 181
61 99 181
61 98 180
61 99 181
61 98 181
62 99 181
61 98 179
61 98 180
61 98 181
61 99 181
61 98 179
61 98 181
62 99 180
61 99 180
61 99 181
61 98 179
61 99 180
62 99 181
62 99 180
62 99 178
61 98 179
61 98 177
61 98 178
61 98 170
62 99 179
61 98 174
62 99 179
62 98 174
61 98 172
97 126 150
157 181 65
173 197 0
172 195 0
171 194 0
171 195 0
170 194 0
170 194 0
171 195 0
170 193 0
171 195 0
172 195 0
173 196 0
172 195 0
172 196 0
171 194 0
172 196 0
171 194 0
171 192 0
170 193 0
173 196 0
169 192 0
171 194 0
169 192 0
167 190 0
171 194 0
173 196 0
170 194 0
168 192 0
170 194 0
171 195 0
171 194 0
172 196 0
172 196 0
174 197 0
172 195 0
169 191 0
168 191 0
170 194 0
173 196 0
171 194 0
169 192 0
172 194 0
173 197 0
170 194 0
173 197 0
171 195 0
171 193 0
172 195 0
169 192 0
174 197 0
173 196 0
173 195 0
170 193 0
169 192 0
170 194 0
173 195 0
172 196 0
171 195 0
170 194 0
170 195 0
172 195 0
172 196 0
173 196 0
173 196 0
172 195 0
174 197 0
173 196 0
172 195 0
171 195 0
172 195 0
172 195 0
170 193 0
172 194 0
171 195 0
173 196 0
171 194 0
174 197 0
172 196 0
171 195 0
173 196 0
171 195 0
173 196 0
171 195 0
171 194 0
172 196 0
174 198 0
172 196 0
174 197 0
174 197 0
173 195 0
172 194 0
174 197 0
172 195 0
171 194 0
170 194 0
171 195 0
171 194 0
175 198 0
174 197 0
174 197 0
172 195 0
170 193 0
173 196 0
171 194 0
170 193 0
174 197 0
171 195 0
171 195 0
170 194 0
172 195 0
174 196 0
174 197 0
175 198 0
172 195 0
171 194 0
170 194 0
171 194 0
172 195 0
171 196 0
175 198 0
173 196 0
174 197 0
169 192 0
173 195 0
171 195 0
170 193 0
173 196 0
175 197 0
175 198 0
173 197 0
173 197 0
173 196 0
173 196 0
172 196 0
171 194 0
176 198 0
172 195 0
173 196 0
171 195 0
171 195 0
174 197 0
173 196 0
172 195 0
174 197 0
171 195 0
173 196 0
174 197 0
173 197 0
171 195 0
171 195 0
173 196 0
174 196 0
174 197 0
170 194 0
172 196 0
174 197 0
175 198 0
173 197 0
172 196 0
175 198 0
174 197 0
173 196 0
174 197 0
173 197 0
172 195 0
171 195 0
173 197 0
173 196 0
170 194 0
173 196 0
174 197 0
174 197 0
173 197 0
173 197 0
172 196 0
174 197 0
173 197 0
173 196 0
174 197 0
174 197 0
175 198 0
173 197 0
173 196 0
173 197 0
173 196 0
172 196 0
173 197 0
174 197 0
173 196 0
174 197 0
174 197 0
172 196 0
174 197 0
174 197 0
174 197 0
173 196 0
174 197 0
172 196 0
173 196 0
172 197 0
173 197 0
173 197 0
173 197 0
172 196 0
173 196 0
172 196 0
173 196 0
174 197 0
172 196 0
174 197 0
173 196 0
174 196 0
173 196 0
171 195 0
158 180 0
155 175 0
155 176 0
155 176 0
155 176 0
154 175 0
155 175 0
156 177 0
155 176 0
155 176 0
154 175 0
154 176 0
155 176 0
153 174 0
155 176 0
156 176 0
155 176 0
155 176 0
154 176 0
154 175 0
156 177 0
155 175 0
155 176 0
154 175 0
156 176 0
154 175 0
154 175 0
156 176 0
156 176 0
155 176 0
154 176 0
155 176 0
154 176 0
155 176 0
155 176 0
154 175 0
155 176 0
156 176 0
155 176 0
155 175 0
156 176 0
155 175 0
153 174 0
155 176 0
155 176 0
154 176 0
155 176 0
155 176 0
155 176 0
154 175 0
154 175 0
155 176 0
155 176 0
155 176 0
155 176 0
155 176 0
156 176 0
156 176 0
154 175 0
153 174 0
155 176 0
155 176 0
154 175 0
155 176 22
168 188 150
179 199 219
168 188 218
123 144 178
55 86 143
52 85 148
52 83 140
53 85 145
53 85 146
51 83 141
52 83 148
51 81 140
51 82 142
52 83 143
52 83 144
50 80 141
50 80 141
50 81 145
50 80 141
49 79 142
50 80 140
48 76 134
48 78 138
48 77 136
46 75 130
45 73 132
47 75 135
47 75 134
48 76 138
44 71 132
46 73 131
46 74 131
45 73 132
46 75 135
44 72 134
47 76 139
43 71 134
43 70 128
43 70 127
44 71 130
46 75 138
42 68 128
42 69 126
42 69 128
43 70 132
39 64 122
41 68 128
39 64 124
39 63 118
40 66 126
39 64 122
39 63 113
40 65 121
40 65 123
40 65 120
40 65 120
42 68 125
38 63 116
44 71 128
43 67 120
44 68 114
51 72 107
56 81 130
63 93 148
58 93 170
59 94 169
59 95 173
60 96 174
60 96 171
61 98 175
60 97 177
61 98 178
61 98 177
61 98 177
61 98 180
61 98 180
61 98 179
61 98 179
61 98 178
61 98 179
61 98 180
61 99 181
60 98 179
61 98 181
60 98 179
61 99 180
61 99 181
61 99 181
61 99 181
61 98 180
61 99 181
62 99 181
61 99 181
62 99 181
62 99 181
61 99 181
61 99 180
61 99 181
61 99 181
62 99 181
61 98 181
62 99 181
62 99 181
61 98 181
61 98 180
61 98 180
61 98 179
62 99 179
61 98 180
61 98 180
62 99 181
61 98 179
61 98 175
61 98 174
61 98 174
61 98 173
61 98 177
61 98 177
62 99 177
61 98 173
61 98 175
61 98 173
64 100 170
125 150 122
165 188 51
170 193 0
167 190 0
173 196 0
168 192 0
172 196 0
170 194 0
170 193 0
169 192 0
171 194 0
170 193 0
171 194 0
168 191 0
171 195 0
171 194 0
173 195 0
169 192 0
171 194 0
171 195 0
171 194 0
170 193 0
170 194 0
171 194 0
173 197 0
172 195 0
171 195 0
172 195 0
170 193 0
172 195 0
169 193 0
171 194 0
171 195 0
169 193 0
173 196 0
169 192 0
170 193 0
171 194 0
172 195 0
171 194 0
172 196 0
170 193 0
172 195 0
172 196 0
170 193 0
171 194 0
173 196 0
174 196 0
170 195 0
171 195 0
172 195 0
168 192 0
173 196 0
170 194 0
172 195 0
171 193 0
171 195 0
171 194 0
171 194 0
169 193 0
170 194 0
170 195 0
173 197 0
175 197 0
172 195 0
173 197 0
169 192 0
173 196 0
171 195 0
169 193 0
173 195 0
174 197 0
173 196 0
169 192 0
175 197 0
171 195 0
171 194 0
173 197 0
169 192 0
172 196 0
172 195 0
174 197 0
171 194 0
172 195 0
172 194 0
173 196 0
174 197 0
171 194 0
173 196 0
172 195 0
171 195 0
171 195 0
172 195 0
173 197 0
172 196 0
171 194 0
172 195 0
172 196 0
172 196 0
170 194 0
172 195 0
173 195 0
171 195 0
171 194 0
172 196 0
172 196 0
173 196 0
173 196 0
172 195 0
174 197 0
171 196 0
173 196 0
173 196 0
172 195 0
173 196 0
171 195 0
173 196 0
173 196 0
172 195 0
173 196 0
171 195 0
173 196 0
171 194 0
173 197 0
173 197 0
173 196 0
171 194 0
172 195 0
172 196 0
172 196 0
173 196 0
173 196 0
173 196 0
172 196 0
174 197 0
173 197 0
173 197 0
171 195 0
173 195 0
173 195 0
171 194 0
175 198 0
173 196 0
173 197 0
173 197 0
173 196 0
172 196 0
173 197 0
173 196 0
173 196 0
172 196 0
175 197 0
172 196 0
174 197 0
175 198 0
174 196 0
172 196 0
173 196 0
173 197 0
173 195 0
174 197 0
175 197 0
172 196 0
173 196 0
172 196 0
173 196 0
173 196 0
173 197 0
175 198 0
174 197 0
172 196 0
173 196 0
172 196 0
173 197 0
174 197 0
173 196 0
173 197 0
174 197 0
172 196 0
173 196 0
171 196 0
174 197 0
173 197 0
173 196 0
174 197 0
173 196 0
174 197 0
174 197 0
172 196 0
172 196 0
174 196 0
173 196 0
173 196 0
173 197 0
172 196 0
173 196 0
173 197 0
173 196 0
174 197 0
173 196 0
173 196 0
173 196 0
174 197 0
174 197 0
173 196 0
173 196 0
172 196 0
173 197 0
173 196 0
171 195 0
173 196 0
174 197 0
174 196 0
165 187 0
154 175 0
154 175 0
154 176 0
156 177 0
155 176 0
153 174 0
155 176 0
154 176 0
154 175 0
154 175 0
156 176 0
154 175 0
155 176 0
156 177 0
155 176 0
155 175 0
156 177 0
154 175 0
155 176 0
155 176 0
154 175 0
154 175 0
154 176 0
155 176 0
154 174 0
156 176 0
156 177 0
156 176 0
154 175 0
155 176 0
155 176 0
154 175 0
154 175 0
154 175 0
155 175 0
156 176 0
154 175 0
156 175 0
154 175 0
155 176 0
154 175 0
156 177 0
155 176 0
155 176 0
155 176 0
154 175 0
156 176 0
153 174 0
153 175 0
155 175 0
154 175 0
155 175 0
155 176 0
156 176 0
154 175 0
155 175 0
154 174 0
155 175 0
155 175 0
153 174 0
153 174 0
153 174 0
152 173 0
154 175 0
147 169 79
51 82 136
53 84 148
51 81 137
52 84 144
52 83 143
52 83 143
50 81 142
51 82 141
52 83 140
50 80 136
51 82 137
49 79 138
49 80 140
50 80 140
51 82 145
49 79 140
49 79 142
49 78 134
48 78 139
46 75 132
46 75 131
48 77 137
46 75 134
46 75 133
48 78 138
46 75 138
46 75 138
45 73 132
45 72 128
46 74 129
45 73 134
46 75 138
45 74 136
44 71 128
44 71 133
45 72 135
43 71 130
43 69 127
42 69 129
41 68 129
40 66 127
40 65 124
39 64 123
43 70 129
41 66 123
39 63 120
41 68 126
39 64 119
37 61 118
40 65 121
38 62 118
37 61 115
35 59 112
39 64 119
39 64 118
39 64 114
39 64 114
39 65 116
47 72 118
52 82 144
58 93 168
59 95 171
60 96 174
59 96 173
61 97 175
61 97 175
60 97 176
61 97 177
60 97 178
61 98 178
60 97 176
61 98 178
61 98 176
61 98 179
61 99 181
61 98 179
62 99 179
61 99 180
61 98 180
61 99 181
61 99 180
61 99 181
61 98 180
61 99 181
61 99 180
62 99 181
62 99 181
61 99 181
61 98 181
62 99 181
62 99 181
61 99 181
61 99 181
61 99 181
62 99 181
61 99 181
61 98 181
62 99 181
62 99 181
61 99 181
61 98 181
62 99 181
61 98 180
61 99 181
62 99 181
61 99 180
61 99 179
61 98 181
61 99 180
61 99 179
61 99 180
61 98 176
62 99 179
62 99 179
62 98 174
62 99 176
61 98 177
62 98 175
61 98 172
62 99 179
61 98 170
61 98 166
66 102 170
138 163 105
171 195 0
170 193 0
170 194 0
171 193 0
173 197 0
172 194 0
172 196 0
170 194 0
169 193 0
170 194 0
171 194 0
170 194 0
170 194 0
172 195 0
170 194 0
171 194 0
166 189 0
170 193 0
170 194 0
171 194 0
172 196 0
173 196 0
170 194 0
171 194 0
170 194 0
169 192 0
169 192 0
171 194 0
173 196 0
170 193 0
169 193 0
171 195 0
173 196 0
171 195 0
171 195 0
171 194 0
171 194 0
172 195 0
171 195 0
171 195 0
171 193 0
170 194 0
173 196 0
169 193 0
171 195 0
174 197 0
169 191 0
169 193 0
171 194 0
172 195 0
172 195 0
173 196 0
171 194 0
170 193 0
171 194 0
172 195 0
170 193 0
172 195 0
171 194 0
172 195 0
171 195 0
171 194 0
171 194 0
171 195 0
171 194 0
172 195 0
171 194 0
169 192 0
172 196 0
171 195 0
169 193 0
171 195 0
174 197 0
174 197 0
174 196 0
170 193 0
172 196 0
175 198 0
172 195 0
167 190 0
172 195 0
174 197 0
170 193 0
173 196 0
171 194 0
175 197 0
171 193 0
171 194 0
173 196 0
168 191 0
170 193 0
172 195 0
171 194 0
174 197 0
172 196 0
173 196 0
171 195 0
171 194 0
173 197 0
173 196 0
173 196 0
172 195 0
173 195 0
172 196 0
176 198 0
173 196 0
173 196 0
171 194 0
173 197 0
172 196 0
173 196 0
172 195 0
171 194 0
175 198 0
170 193 0
172 195 0
174 197 0
172 195 0
171 194 0
173 196 0
173 197 0
172 195 0
171 194 0
171 194 0
172 196 0
172 196 0
174 197 0
172 195 0
173 197 0
174 197 0
173 197 0
171 195 0
172 197 0
173 197 0
173 197 0
173 196 0
172 195 0
172 196 0
172 195 0
173 197 0
173 197 0
174 197 0
174 197 0
174 198 0
171 195 0
173 197 0
173 197 0
173 196 0
173 196 0
171 195 0
175 198 0
174 197 0
174 198 0
173 195 0
173 197 0
174 198 0
173 197 0
172 196 0
174 196 0
174 197 0
174 197 0
171 194 0
174 197 0
173 197 0
173 196 0
172 195 0
172 196 0
174 198 0
173 197 0
173 196 0
174 197 0
174 197 0
174 197 0
172 196 0
173 196 0
173 196 0
174 197 0
173 197 0
173 196 0
174 196 0
173 196 0
175 197 0
173 197 0
174 197 0
173 197 0
175 198 0
174 197 0
175 197 0
173 196 0
173 197 0
172 195 0
174 197 0
173 196 0
174 197 0
172 196 0
174 198 0
175 197 0
174 197 0
174 197 0
173 196 0
172 196 0
173 196 0
173 197 0
175 197 0
172 196 0
172 195 0
174 197 0
174 196 0
173 196 0
173 196 0
166 188 0
155 176 0
156 176 0
155 176 0
155 176 0
154 175 0
156 176 0
155 176 0
155 176 0
154 175 0
154 176 0
154 175 0
155 176 0
155 176 0
155 176 0
154 175 0
155 176 0
157 177 0
156 176 0
155 176 0
156 176 0
156 177 0
155 176 0
155 176 0
154 175 0
155 176 0
156 176 0
157 177 0
156 176 0
154 175 0
156 176 0
155 176 0
153 174 0
154 175 0
155 176 0
154 175 0
154 175 0
155 175 0
155 176 0
155 176 0
155 176 0
155 176 0
153 174 0
153 175 0
155 176 0
155 176 0
155 176 0
156 177 0
155 175 0
155 175 0
154 175 0
155 176 0
153 173 0
153 175 0
156 176 0
155 176 0
156 176 0
154 176 0
154 175 0
154 176 0
155 176 0
154 176 0
154 176 0
154 175 0
155 176 0
153 173 36
52 83 139
51 82 141
52 83 144
50 81 139
51 82 134
50 81 137
51 81 140
50 80 138
51 82 141
51 82 143
49 79 135
50 81 141
50 79 141
50 80 140
50 79 135
50 80 141
48 78 136
49 78 138
48 77 134
48 78 134
49 79 140
48 77 138
47 76 139
48 77 136
46 75 133
48 77 138
44 72 131
45 73 130
47 75 133
47 76 137
46 74 133
44 71 126
45 72 130
41 67 122
45 73 138
43 69 128
44 72 133
41 67 124
45 72 132
41 67 128
39 64 121
41 67 125
40 66 125
38 63 121
42 68 126
38 62 119
40 66 128
40 65 120
41 66 125
38 62 118
38 62 119
37 60 116
37 62 117
39 63 115
41 66 115
37 60 108
35 58 109
42 68 120
56 90 163
59 95 172
58 93 166
60 97 176
59 96 174
61 97 175
60 97 175
60 97 177
61 98 177
61 98 176
61 99 180
60 97 176
61 97 178
61 98 180
60 98 178
61 98 179
62 99 181
61 99 181
61 98 178
61 98 179
62 99 179
61 99 181
61 98 181
62 99 181
62 99 179
61 99 181
62 99 181
61 99 181
61 98 181
61 98 181
61 99 181
61 99 181
62 99 181
62 99 181
61 99 181
62 99 181
61 98 181
61 98 181
61 98 181
61 99 181
61 99 181
61 98 179
61 99 181
62 99 180
61 98 180
61 99 181
61 98 180
61 98 179
61 99 180
62 99 180
61 99 179
61 98 180
62 99 180
61 98 179
61 98 176
61 99 177
62 99 179
61 98 176
61 98 177
61 98 175
61 98 175
61 98 172
62 99 178
61 98 173
61 98 173
61 98 171
92 122 150
148 173 90
172 195 0
170 193 0
170 194 0
171 195 0
168 191 0
170 194 0
169 193 0
173 197 0
173 196 0
171 195 0
170 193 0
173 196 0
171 194 0
173 196 0
171 194 0
169 193 0
172 195 0
169 193 0
171 196 0
171 195 0
172 194 0
169 192 0
171 193 0
173 196 0
171 195 0
170 193 0
171 194 0
170 193 0
172 195 0
170 194 0
172 196 0
170 193 0
174 196 0
171 194 0
170 192 0
172 196 0
171 195 0
172 196 0
172 195 0
172 195 0
174 197 0
172 195 0
170 193 0
173 196 0
171 194 0
170 195 0
171 194 0
170 193 0
173 196 0
171 193 0
173 196 0
173 195 0
171 195 0
171 194 0
173 196 0
169 193 0
174 197 0
171 193 0
173 196 0
170 192 0
170 193 0
172 195 0
171 195 0
172 195 0
172 195 0
170 194 0
170 194 0
172 196 0
172 195 0
173 196 0
170 194 0
172 196 0
169 193 0
171 195 0
173 197 0
170 192 0
171 195 0
173 196 0
171 195 0
171 194 0
171 195 0
174 197 0
174 197 0
172 196 0
171 194 0
174 198 0
173 196 0
171 194 0
170 194 0
173 196 0
173 197 0
169 192 0
173 197 0
172 195 0
174 197 0
172 196 0
175 198 0
175 198 0
173 196 0
172 195 0
173 196 0
172 196 0
174 198 0
173 197 0
172 196 0
175 198 0
172 195 0
171 194 0
172 195 0
171 195 0
173 197 0
171 194 0
171 195 0
169 192 0
173 197 0
174 196 0
173 196 0
172 194 0
174 197 0
174 197 0
173 196 0
173 197 0
172 196 0
172 196 0
171 195 0
175 197 0
175 198 0
171 195 0
173 196 0
174 197 0
172 195 0
173 196 0
174 197 0
175 198 0
172 196 0
173 196 0
173 197 0
174 197 0
173 196 0
172 196 0
174 196 0
174 197 0
173 196 0
173 197 0
173 196 0
171 195 0
172 196 0
173 196 0
173 197 0
175 198 0
172 196 0
174 197 0
174 196 0
174 197 0
171 195 0
173 197 0
174 198 0
176 199 0
173 197 0
174 197 0
175 197 0
174 197 0
172 196 0
173 196 0
173 196 0
174 197 0
174 197 0
174 198 0
174 197 0
173 196 0
174 197 0
173 197 0
171 196 0
173 196 0
173 197 0
173 196 0
173 196 0
173 197 0
174 197 0
172 196 0
174 197 0
172 196 0
174 197 0
172 196 0
174 196 0
172 196 0
173 196 0
174 197 0
173 196 0
175 197 0
172 196 0
172 195 0
174 197 0
174 197 0
173 196 0
173 197 0
172 196 0
171 195 0
174 197 0
173 196 0
172 196 0
173 196 0
172 196 0
172 196 0
173 196 0
172 196 0
172 195 0
172 195 0
167 189 0
156 176 0
156 177 0
155 176 0
154 175 0
154 175 0
156 176 0
155 176 0
154 175 0
155 176 0
155 176 0
156 177 0
156 176 0
156 177 0
156 176 0
155 176 0
156 176 0
155 175 0
156 176 0
154 175 0
155 176 0
155 176 0
153 175 0
155 176 0
156 176 0
157 177 0
156 176 0
156 176 0
153 175 0
154 175 0
154 175 0
154 176 0
157 177 0
155 176 0
155 176 0
156 176 0
155 176 0
154 175 0
155 175 0
156 176 0
156 176 0
153 175 0
155 176 0
154 175 0
155 176 0
154 175 0
155 175 0
156 176 0
155 175 0
152 174 0
155 176 0
157 177 0
155 176 0
156 177 0
155 176 0
154 175 0
154 175 0
154 175 0
155 176 0
155 175 0
155 176 0
154 175 0
154 175 0
155 176 0
154 175 0
153 174 0
55 86 140
51 83 138
53 84 137
52 83 139
51 81 134
52 84 142
51 81 142
51 82 140
51 81 139
50 80 135
51 82 141
49 78 134
50 80 135
50 79 131
49 79 137
50 80 142
50 80 141
48 78 140
48 78 139
48 78 136
46 75 129
47 76 133
47 76 138
46 74 134
46 75 135
47 75 133
45 73 133
45 72 135
44 71 127
44 71 130
43 70 127
43 71 127
44 72 132
43 70 131
43 70 130
42 68 124
42 69 130
41 67 125
40 66 124
39 64 123
40 66 126
41 66 123
39 64 123
39 65 122
40 66 126
39 64 120
37 61 118
38 62 120
37 61 116
36 58 108
39 63 119
37 62 119
39 64 118
38 62 117
36 59 110
40 65 120
49 79 144
56 90 163
59 95 172
58 94 168
59 95 168
60 96 173
60 96 174
60 97 175
61 98 177
61 98 178
61 98 174
60 97 179
62 99 178
60 97 177
61 98 179
61 98 180
61 98 178
61 99 180
61 98 178
62 99 179
62 99 181
62 99 179
61 98 178
61 98 179
62 99 179
62 99 181
61 99 180
61 98 181
62 99 181
61 99 180
61 99 181
61 99 180
61 99 181
62 99 181
62 99 181
61 99 181
61 98 181
62 99 180
62 99 180
61 99 181
62 99 181
61 99 181
61 98 181
61 99 181
61 99 180
61 98 179
61 98 181
61 98 180
62 99 181
61 98 181
61 98 180
61 98 179
61 98 179
61 99 179
61 98 179
61 98 177
62 98 177
62 99 179
61 98 178
61 98 175
61 98 176
62 98 175
61 97 168
61 98 175
61 98 175
61 98 170
61 98 172
61 98 176
61 98 167
65 100 166
121 147 123
169 192 18
172 195 0
172 196 0
169 192 0
169 194 0
171 194 0
171 194 0
172 195 0
169 192 0
171 194 0
171 195 0
173 196 0
172 195 0
170 193 0
172 194 0
168 190 0
169 193 0
170 194 0
171 195 0
172 195 0
172 195 0
171 194 0
173 196 0
173 196 0
171 193 0
171 195 0
171 195 0
172 196 0
170 194 0
171 193 0
171 193 0
170 194 0
171 194 0
171 195 0
173 196 0
172 196 0
171 194 0
174 196 0
173 196 0
172 196 0
170 195 0
172 196 0
172 195 0
171 194 0
172 195 0
171 194 0
172 196 0
170 194 0
173 196 0
173 196 0
171 194 0
170 194 0
174 197 0
170 193 0
171 195 0
173 194 0
173 196 0
174 197 0
168 192 0
174 197 0
171 195 0
169 192 0
170 193 0
172 194 0
173 196 0
172 196 0
171 194 0
170 194 0
172 194 0
174 198 0
170 193 0
172 196 0
171 195 0
176 198 0
171 195 0
171 195 0
172 196 0
173 196 0
171 194 0
173 197 0
175 198 0
173 196 0
172 195 0
174 197 0
171 193 0
174 197 0
173 196 0
173 195 0
173 196 0
172 195 0
174 197 0
172 196 0
171 195 0
173 195 0
171 194 0
171 195 0
171 195 0
172 195 0
175 197 0
172 196 0
173 196 0
174 197 0
173 197 0
172 196 0
170 193 0
171 194 0
174 197 0
173 195 0
170 194 0
171 194 0
170 194 0
172 195 0
172 195 0
173 197 0
173 196 0
172 196 0
172 195 0
175 198 0
173 197 0
172 196 0
174 196 0
172 196 0
170 193 0
172 196 0
174 197 0
172 196 0
175 198 0
173 196 0
173 197 0
173 197 0
172 195 0
173 196 0
174 197 0
173 197 0
172 196 0
173 196 0
174 197 0
174 197 0
172 195 0
172 196 0
174 197 0
171 194 0
173 196 0
175 198 0
172 196 0
173 197 0
172 195 0
173 196 0
174 197 0
173 196 0
172 196 0
173 196 0
173 197 0
172 196 0
174 197 0
174 196 0
174 198 0
173 196 0
172 195 0
175 197 0
173 196 0
175 198 0
172 196 0
175 198 0
173 197 0
174 197 0
172 196 0
174 197 0
173 196 0
175 198 0
175 197 0
174 197 0
173 196 0
175 198 0
175 198 0
172 196 0
173 197 0
174 197 0
173 197 0
174 197 0
175 198 0
173 196 0
174 197 0
173 197 0
174 198 0
173 196 0
172 196 0
173 197 0
173 196 0
174 197 0
175 198 0
173 196 0
173 196 0
173 196 0
173 196 0
173 196 0
174 197 0
173 196 0
173 196 0
172 196 0
173 196 0
173 196 0
174 197 0
173 196 0
172 196 0
172 195 0
174 196 0
170 192 0
155 175 0
155 176 0
155 176 0
156 176 0
155 175 0
153 175 0
154 174 0
155 176 0
154 175 0
155 175 0
154 175 0
155 176 0
155 176 0
155 176 0
155 176 0
155 175 0
155 175 0
156 177 0
156 177 0
154 175 0
154 176 0
155 175 0
154 176 0
156 176 0
155 176 0
154 175 0
154 175 0
153 174 0
155 176 0
155 176 0
153 174 0
154 175 0
154 176 0
155 175 0
154 175 0
153 175 0
154 175 0
153 175 0
155 176 0
155 176 0
154 175 0
154 175 0
155 175 0
154 176 0
156 176 0
154 175 0
154 176 0
156 176 0
153 175 0
154 175 0
155 175 0
156 177 0
155 176 0
154 175 0
153 174 0
155 176 0
154 175 0
155 176 0
154 176 0
155 176 0
154 176 0
154 175 0
155 176 0
156 176 0
155 176 0
74 101 133
52 83 140
51 82 140
51 82 137
51 82 138
51 82 140
51 81 139
52 83 143
51 81 143
49 80 129
50 80 136
49 79 135
49 78 131
49 79 137
49 79 141
48 77 134
49 79 138
48 78 138
48 77 137
47 75 129
48 77 135
48 77 135
47 76 135
47 76 137
47 77 135
46 75 131
44 71 125
46 75 135
45 72 128
43 70 128
44 72 131
42 69 126
45 73 133
43 69 129
40 65 118
41 67 124
40 66 125
41 68 127
41 67 127
42 67 125
41 67 125
39 64 123
39 64 122
39 63 122
40 64 120
39 64 124
37 61 116
39 63 120
35 58 113
40 64 120
38 62 117
38 62 117
34 56 105
33 54 105
39 64 118
54 87 160
59 95 170
58 94 170
59 96 174
61 97 174
60 96 172
59 96 173
60 97 175
60 96 173
60 96 174
60 97 172
61 98 176
62 98 178
62 99 177
61 98 178
61 97 176
61 99 180
62 99 180
61 98 177
61 98 178
61 98 179
62 99 179
61 98 179
61 99 180
62 99 179
61 98 179
61 98 181
62 99 181
61 98 179
61 99 180
61 98 181
61 99 181
61 98 181
61 98 181
61 99 181
62 99 181
61 98 181
61 99 181
61 98 180
61 98 180
61 99 181
61 98 179
61 99 181
62 99 180
61 99 181
61 99 180
62 99 181
61 99 181
61 98 180
62 99 181
62 99 180
61 98 179
61 98 179
61 98 180
61 98 178
61 98 179
61 99 179
61 98 176
61 98 178
62 99 181
61 98 176
62 99 180
61 98 177
61 98 175
62 99 177
61 98 177
61 98 170
61 98 174
61 98 172
61 98 171
61 98 172
62 98 175
100 128 150
163 186 60
170 194 0
172 194 0
171 194 0
173 195 0
173 196 0
172 195 0
171 194 0
171 195 0
171 195 0
169 192 0
171 194 0
170 193 0
168 191 0
172 195 0
172 195 0
172 195 0
171 194 0
170 193 0
171 194 0
171 195 0
171 194 0
170 193 0
173 196 0
173 196 0
171 194 0
171 194 0
173 195 0
172 195 0
170 193 0
169 192 0
172 195 0
169 193 0
171 194 0
171 194 0
169 193 0
171 194 0
170 194 0
172 196 0
170 193 0
172 195 0
169 192 0
171 194 0
171 194 0
170 193 0
171 195 0
173 197 0
169 193 0
172 196 0
174 196 0
169 192 0
172 195 0
171 195 0
170 193 0
170 194 0
171 195 0
169 192 0
173 197 0
174 198 0
172 195 0
171 195 0
172 195 0
170 195 0
172 196 0
168 191 0
172 195 0
171 194 0
170 194 0
171 194 0
171 195 0
171 194 0
172 195 0
172 195 0
173 196 0
172 196 0
172 196 0
173 197 0
171 195 0
172 196 0
172 194 0
172 196 0
172 194 0
170 194 0
171 195 0
169 193 0
173 196 0
172 196 0
172 196 0
172 195 0
174 196 0
171 194 0
170 194 0
173 196 0
173 196 0
172 195 0
173 196 0
173 197 0
172 196 0
173 196 0
172 195 0
173 196 0
172 196 0
172 196 0
173 195 0
172 196 0
171 194 0
173 196 0
172 196 0
171 195 0
172 194 0
172 196 0
173 196 0
171 195 0
174 198 0
173 196 0
173 196 0
171 195 0
173 195 0
171 194 0
173 196 0
172 196 0
175 198 0
171 195 0
173 196 0
172 196 0
174 196 0
172 196 0
172 195 0
171 194 0
174 197 0
173 196 0
173 196 0
175 198 0
173 197 0
173 196 0
173 196 0
174 196 0
172 196 0
173 196 0
172 195 0
172 196 0
174 196 0
173 196 0
173 197 0
173 197 0
173 195 0
173 197 0
173 196 0
173 197 0
174 198 0
173 197 0
175 197 0
174 197 0
173 197 0
175 197 0
171 195 0
173 197 0
173 196 0
171 194 0
174 197 0
173 196 0
173 196 0
173 196 0
174 197 0
172 196 0
174 197 0
174 197 0
174 197 0
173 196 0
173 197 0
174 197 0
173 197 0
172 195 0
175 197 0
172 196 0
173 196 0
172 196 0
174 197 0
174 197 0
172 196 0
174 197 0
174 197 0
172 195 0
173 197 0
173 196 0
175 197 0
173 196 0
173 196 0
174 197 0
173 196 0
171 195 0
173 196 0
172 196 0
173 196 0
174 197 0
173 196 0
174 197 0
173 196 0
172 196 0
172 195 0
172 196 0
172 195 0
172 195 0
172 196 0
173 196 0
172 195 0
173 196 0
156 177 0
155 176 0
154 175 0
154 176 0
154 175 0
155 176 0
156 176 0
154 175 0
155 176 0
156 177 0
155 176 0
154 175 0
155 176 0
155 176 0
155 175 0
156 176 0
153 175 0
155 176 0
155 176 0
155 176 0
155 176 0
156 176 0
156 177 0
156 176 0
156 176 0
156 176 0
155 176 0
156 175 0
156 176 0
155 176 0
156 177 0
154 175 0
155 176 0
155 176 0
154 175 0
155 176 0
156 177 0
155 176 0
156 176 0
156 177 0
152 173 0
152 173 0
154 175 0
153 174 0
153 174 0
153 175 0
155 176 0
154 175 0
156 176 0
155 176 0
156 176 0
155 176 0
156 176 0
155 176 0
155 175 0
155 175 0
154 175 0
155 175 0
153 174 0
155 176 0
154 175 0
154 175 0
154 175 0
155 175 0
155 176 0
84 109 130
50 81 141
52 83 142
52 83 138
51 82 134
50 80 139
52 83 140
49 79 135
50 80 137
50 81 137
49 78 131
50 80 138
50 80 136
50 80 137
47 75 131
49 79 138
48 77 130
46 74 133
48 77 135
48 78 138
47 76 137
45 73 129
46 75 132
46 73 129
46 74 131
46 74 129
45 73 132
44 72 130
45 73 128
41 66 116
43 70 126
46 74 134
45 73 135
43 69 126
44 72 131
40 66 121
42 69 125
42 69 128
40 66 122
42 68 127
39 64 121
41 66 122
39 64 121
38 63 121
38 62 119
36 59 112
37 61 116
35 58 112
33 55 109
35 58 110
37 61 115
38 62 116
33 56 110
45 73 137
56 91 166
60 95 166
59 95 171
60 97 176
59 95 172
60 97 173
61 97 172
60 97 174
61 98 178
61 98 175
62 99 180
60 96 173
61 98 178
62 99 178
61 98 177
61 98 178
61 99 180
61 98 178
61 98 180
61 98 179
61 98 179
61 98 177
62 99 180
61 99 180
62 99 179
62 99 180
61 99 180
61 99 180
61 98 181
61 98 181
61 99 179
61 99 180
61 99 181
61 99 181
61 98 181
61 98 180
61 99 181
61 99 181
61 98 180
61 98 180
62 99 180
62 99 180
62 99 181
61 98 180
61 99 181
62 99 178
62 99 179
62 99 181
61 98 179
61 98 179
61 98 179
62 99 179
62 99 180
61 98 177
61 98 178
61 98 179
62 98 176
61 99 179
61 98 180
61 98 178
62 98 178
61 98 176
61 98 176
61 98 175
62 98 174
61 98 176
61 98 173
62 99 178
61 97 172
61 98 176
61 97 173
61 98 173
61 98 174
61 98 174
76 109 162
149 174 82
171 195 0
170 193 0
168 192 0
171 194 0
170 192 0
169 193 0
169 191 0
171 195 0
170 193 0
172 194 0
170 192 0
169 192 0
169 193 0
173 195 0
171 195 0
172 195 0
172 195 0
172 195 0
170 194 0
173 196 0
172 195 0
168 192 0
172 196 0
169 192 0
167 191 0
171 194 0
169 191 0
170 193 0
170 192 0
173 196 0
170 193 0
171 194 0
173 196 0
172 195 0
171 193 0
173 196 0
173 196 0
172 194 0
172 195 0
172 195 0
170 193 0
171 195 0
171 195 0
170 192 0
172 195 0
171 194 0
174 197 0
172 195 0
170 193 0
173 195 0
172 195 0
166 190 0
170 194 0
172 195 0
171 194 0
174 197 0
173 196 0
173 196 0
172 196 0
172 195 0
171 193 0
173 196 0
173 196 0
170 193 0
172 195 0
173 197 0
173 195 0
174 197 0
171 194 0
175 197 0
170 193 0
171 194 0
169 192 0
173 197 0
173 196 0
173 196 0
172 196 0
174 197 0
172 196 0
173 196 0
174 197 0
172 195 0
172 195 0
174 197 0
173 196 0
171 194 0
174 197 0
174 197 0
172 196 0
172 196 0
171 195 0
174 198 0
173 196 0
174 197 0
172 195 0
172 195 0
173 196 0
173 196 0
173 196 0
172 195 0
171 194 0
174 196 0
173 196 0
174 197 0
171 195 0
173 197 0
171 195 0
173 196 0
172 195 0
173 195 0
168 192 0
173 196 0
174 198 0
172 196 0
173 197 0
172 196 0
170 193 0
172 195 0
174 196 0
172 195 0
174 196 0
173 195 0
171 195 0
174 198 0
172 196 0
174 197 0
175 198 0
173 197 0
172 194 0
173 197 0
172 195 0
172 196 0
173 197 0
172 196 0
172 195 0
170 193 0
173 196 0
174 197 0
173 196 0
174 197 0
170 193 0
171 194 0
174 197 0
174 197 0
173 196 0
174 196 0
171 196 0
173 197 0
173 195 0
171 195 0
173 196 0
173 196 0
173 196 0
174 196 0
172 195 0
174 197 0
172 196 0
173 196 0
175 197 0
174 197 0
173 197 0
171 195 0
173 197 0
175 198 0
172 196 0
173 196 0
172 196 0
173 197 0
174 197 0
171 195 0
172 196 0
173 196 0
173 196 0
172 196 0
172 196 0
174 197 0
173 196 0
174 196 0
173 197 0
172 195 0
173 196 0
175 197 0
174 197 0
173 196 0
172 196 0
172 196 0
172 196 0
172 196 0
173 197 0
173 196 0
173 196 0
174 197 0
173 196 0
171 195 0
173 197 0
173 196 0
173 196 0
170 194 0
175 197 0
173 196 0
173 196 0
174 197 0
173 196 0
173 196 0
172 196 0
159 180 0
155 176 0
156 176 0
155 176 0
155 176 0
154 175 0
155 175 0
155 176 0
155 176 0
155 176 0
155 176 0
156 176 0
156 176 0
155 175 0
153 174 0
155 176 0
156 176 0
154 175 0
155 175 0
155 176 0
156 177 0
155 176 0
156 176 0
155 176 0
154 175 0
154 176 0
155 176 0
154 175 0
154 175 0
156 176 0
154 175 0
153 174 0
155 176 0
156 176 0
153 175 0
154 175 0
154 175 0
154 175 0
153 175 0
155 176 0
153 174 0
155 175 0
155 176 0
153 174 0
153 175 0
155 176 0
156 176 0
153 174 0
155 176 0
155 176 0
154 175 0
156 177 0
155 176 0
156 176 0
155 176 0
155 176 0
155 176 0
155 175 0
154 175 0
155 176 0
153 174 0
154 175 0
156 176 0
153 173 0
156 176 0
84 108 124
51 81 131
51 82 143
51 81 137
52 83 138
50 80 139
51 81 134
49 79 134
50 80 135
51 81 136
49 79 133
49 79 138
50 80 137
48 78 134
50 80 138
47 76 134
47 76 135
48 78 132
47 76 132
48 78 140
48 77 134
47 75 133
45 73 131
46 74 132
45 72 128
43 70 128
45 72 129
44 71 129
42 69 122
45 73 128
44 71 128
42 69 126
42 69 127
42 69 127
37 62 117
42 68 125
39 63 117
40 66 121
37 62 116
40 65 122
41 66 124
38 62 118
39 64 118
35 58 113
35 57 109
39 63 119
35 58 111
36 59 113
36 59 110
35 57 113
36 59 114
34 57 112
46 75 140
57 92 165
58 94 166
59 95 173
60 96 171
59 95 172
60 96 170
60 97 177
61 97 173
61 98 178
61 98 176
61 98 178
60 97 174
62 99 178
61 98 178
61 97 175
61 98 177
61 98 178
62 99 179
60 98 177
61 98 179
62 99 180
61 98 179
61 99 176
62 99 181
61 99 180
61 99 179
61 98 180
62 99 179
61 98 179
62 99 180
61 99 180
61 99 180
62 99 179
61 99 181
61 98 178
61 98 181
62 99 180
61 99 181
61 98 181
62 99 181
61 98 180
61 98 179
61 98 180
61 98 179
61 99 181
62 99 179
61 98 181
61 99 181
61 98 180
61 98 179
61 98 179
62 99 180
60 98 181
61 98 177
61 97 177
61 98 178
61 98 177
61 98 179
61 98 179
61 97 175
61 98 177
62 99 180
61 98 176
61 98 174
61 98 175
62 99 176
62 98 174
61 97 171
61 97 173
61 98 174
61 97 171
61 98 175
62 98 172
61 98 173
60 97 164
61 98 170
61 97 167
132 157 118
167 191 18
169 192 0
169 193 0
171 194 0
169 192 0
170 194 0
169 192 0
170 193 0
173 195 0
169 192 0
172 195 0
169 192 0
168 191 0
172 195 0
171 194 0
169 192 0
172 195 0
171 194 0
170 193 0
168 190 0
167 191 0
174 197 0
171 194 0
168 192 0
171 195 0
169 191 0
169 192 0
172 194 0
171 194 0
168 190 0
172 195 0
172 195 0
172 195 0
173 196 0
171 194 0
171 194 0
172 196 0
174 196 0
170 195 0
171 194 0
171 195 0
169 193 0
168 192 0
172 194 0
170 193 0
174 198 0
172 195 0
172 195 0
174 196 0
173 196 0
174 197 0
170 194 0
171 194 0
171 195 0
171 194 0
172 195 0
173 196 0
172 194 0
172 196 0
172 195 0
171 193 0
171 195 0
171 195 0
171 194 0
172 196 0
172 195 0
171 195 0
174 197 0
171 195 0
171 195 0
171 195 0
169 192 0
173 196 0
172 195 0
172 195 0
171 195 0
173 196 0
172 196 0
170 192 0
172 196 0
170 194 0
172 195 0
172 196 0
169 191 0
172 195 0
171 196 0
172 194 0
171 194 0
171 194 0
174 197 0
172 196 0
171 194 0
173 197 0
173 196 0
173 195 0
170 194 0
173 196 0
170 194 0
173 197 0
175 198 0
171 195 0
172 195 0
172 196 0
173 196 0
173 196 0
170 194 0
172 196 0
174 197 0
172 195 0
172 195 0
171 194 0
172 195 0
173 197 0
173 196 0
173 196 0
174 197 0
175 197 0
174 197 0
175 197 0
174 197 0
171 194 0
174 196 0
171 195 0
175 197 0
174 196 0
174 197 0
172 197 0
171 194 0
174 197 0
173 197 0
173 196 0
173 196 0
174 197 0
175 198 0
174 197 0
173 196 0
172 195 0
174 197 0
174 197 0
172 196 0
174 197 0
174 197 0
172 196 0
174 198 0
174 197 0
174 197 0
173 197 0
172 196 0
173 196 0
173 197 0
174 197 0
173 196 0
172 195 0
173 196 0
171 194 0
171 195 0
173 197 0
174 197 0
174 197 0
171 194 0
175 198 0
173 196 0
173 196 0
174 197 0
172 196 0
173 196 0
175 197 0
173 197 0
173 197 0
172 196 0
175 198 0
173 197 0
174 197 0
172 196 0
173 196 0
175 198 0
173 196 0
174 197 0
175 197 0
174 197 0
173 196 0
174 197 0
174 197 0
174 197 0
174 196 0
175 198 0
172 196 0
173 197 0
174 197 0
173 197 0
171 195 0
173 196 0
173 196 0
173 196 0
173 196 0
173 196 0
173 197 0
172 195 0
173 196 0
170 194 0
172 195 0
172 195 0
171 194 0
172 196 0
159 181 0
153 174 0
155 176 0
154 175 0
155 176 0
154 175 0
155 176 0
155 175 0
154 175 0
154 175 0
155 176 0
154 175 0
155 176 0
154 175 0
155 175 0
156 176 0
154 174 0
155 176 0
155 176 0
155 175 0
155 176 0
155 176 0
156 176 0
153 174 0
154 175 0
154 175 0
156 176 0
154 175 0
153 174 0
155 176 0
153 174 0
154 175 0
154 175 0
153 175 0
155 176 0
155 175 0
156 176 0
155 176 0
154 175 0
155 175 0
156 176 0
154 175 0
154 174 0
154 175 0
154 175 0
155 176 0
155 176 0
154 175 0
155 175 0
153 174 0
155 176 0
155 175 0
155 176 0
155 175 0
154 175 0
155 175 0
156 177 0
156 176 0
153 174 0
154 175 0
155 175 0
154 174 0
154 174 0
155 176 0
154 175 0
103 125 102
53 84 137
52 83 141
51 81 131
50 80 134
52 83 140
49 79 136
50 80 132
49 78 129
50 80 135
50 80 136
51 81 137
49 79 133
48 78 132
50 79 134
46 74 130
49 78 134
46 75 131
48 77 135
44 71 127
47 76 134
46 73 127
45 73 130
44 71 127
42 68 116
46 74 134
47 75 137
44 72 129
43 69 126
44 71 127
42 68 122
41 67 125
42 68 124
43 70 129
41 68 125
42 68 127
37 60 114
41 67 124
38 63 121
40 66 123
38 62 118
35 58 112
36 60 115
35 59 113
33 55 111
34 57 112
36 60 118
36 59 115
33 55 108
30 51 105
35 57 109
46 75 136
56 91 162
59 95 174
59 95 165
60 97 175
60 96 170
61 97 173
59 94 167
60 96 170
61 98 174
61 97 176
61 98 176
62 99 178
61 98 178
61 97 174
61 98 179
61 98 177
61 98 180
61 98 174
61 98 177
61 99 180
61 98 178
62 99 178
61 98 177
61 98 178
61 98 176
61 99 178
61 98 179
62 99 179
62 99 181
62 99 181
62 99 181
60 98 179
61 99 181
62 99 180
61 98 180
62 99 180
61 99 181
61 98 181
61 99 181
61 99 181
61 98 181
61 99 180
61 98 180
61 98 181
61 98 181
61 98 181
61 98 180
61 98 179
62 99 181
61 98 180
62 99 181
62 99 180
61 98 180
62 99 180
60 97 177
61 98 180
62 99 177
61 98 180
61 98 175
60 97 175
61 98 178
61 98 178
60 97 175
61 99 178
61 98 175
61 98 176
61 98 177
60 97 175
61 97 174
61 97 171
61 98 173
61 98 172
60 97 174
62 98 172
61 97 173
62 99 177
61 97 168
60 97 162
62 98 169
107 134 138
169 192 31
170 193 0
171 195 0
171 195 0
174 196 0
172 195 0
170 194 0
169 191 0
173 196 0
168 193 0
171 194 0
169 193 0
173 196 0
170 193 0
170 194 0
173 196 0
171 195 0
171 194 0
170 193 0
167 191 0
166 191 0
169 192 0
172 195 0
172 195 0
168 191 0
173 196 0
167 190 0
173 196 0
172 195 0
171 194 0
169 193 0
170 194 0
170 194 0
172 195 0
172 195 0
172 195 0
173 196 0
169 193 0
171 195 0
168 190 0
171 194 0
168 191 0
171 195 0
169 193 0
168 191 0
173 196 0
169 192 0
170 193 0
173 195 0
172 195 0
171 194 0
172 195 0
168 192 0
171 193 0
173 195 0
170 193 0
172 195 0
174 197 0
172 194 0
173 196 0
173 196 0
170 194 0
173 196 0
170 193 0
172 196 0
172 194 0
171 195 0
174 197 0
170 193 0
171 195 0
170 193 0
171 194 0
175 197 0
171 193 0
173 195 0
173 196 0
171 194 0
171 195 0
171 195 0
173 197 0
173 195 0
173 196 0
172 195 0
172 196 0
172 196 0
170 194 0
171 194 0
173 195 0
171 195 0
171 195 0
173 196 0
171 195 0
172 196 0
171 195 0
172 195 0
175 198 0
172 195 0
173 197 0
172 197 0
174 197 0
174 197 0
174 196 0
173 196 0
174 197 0
171 194 0
174 197 0
172 195 0
173 197 0
173 196 0
173 196 0
173 197 0
172 195 0
171 195 0
171 194 0
171 194 0
173 196 0
173 197 0
171 194 0
173 196 0
171 195 0
171 194 0
171 195 0
171 195 0
173 197 0
172 196 0
174 198 0
174 197 0
174 197 0
171 194 0
173 196 0
172 195 0
174 197 0
172 196 0
174 197 0
172 195 0
174 196 0
173 196 0
172 196 0
173 197 0
172 196 0
174 197 0
175 198 0
172 196 0
173 196 0
174 197 0
172 196 0
172 196 0
173 196 0
171 194 0
170 194 0
173 196 0
173 196 0
170 194 0
172 196 0
174 197 0
173 196 0
172 195 0
175 198 0
171 195 0
173 197 0
173 197 0
172 196 0
173 196 0
174 197 0
174 197 0
173 197 0
174 197 0
174 197 0
173 197 0
173 197 0
173 197 0
174 197 0
174 197 0
173 196 0
173 197 0
172 195 0
173 196 0
172 196 0
174 197 0
173 196 0
173 196 0
175 198 0
174 197 0
172 195 0
174 196 0
173 196 0
171 195 0
171 195 0
172 196 0
173 196 0
174 197 0
173 196 0
171 195 0
173 196 0
173 196 0
171 194 0
173 196 0
174 197 0
172 195 0
172 195 0
172 195 0
172 195 0
173 196 0
162 184 0
155 175 0
155 176 0
155 176 0
156 176 0
155 176 0
157 177 0
155 176 0
154 176 0
153 174 0
155 176 0
157 177 0
156 176 0
154 175 0
154 175 0
153 175 0
155 175 0
156 176 0
155 176 0
153 175 0
155 175 0
154 175 0
156 177 0
155 175 0
156 176 0
156 176 0
155 176 0
155 176 0
154 175 0
156 177 0
155 176 0
154 175 0
155 176 0
155 175 0
154 175 0
154 176 0
154 175 0
154 175 0
154 175 0
156 176 0
155 175 0
154 175 0
154 175 0
154 175 0
154 175 0
155 176 0
156 176 0
152 173 0
154 175 0
155 176 0
155 176 0
154 175 0
155 176 0
155 176 0
155 176 0
155 176 0
155 176 0
154 175 0
154 175 0
157 177 0
153 174 0
154 175 0
155 176 0
155 176 0
153 174 0
113 135 100
52 83 134
53 84 140
51 82 137
50 80 132
52 82 138
50 80 134
52 82 141
50 80 134
47 76 130
50 80 135
48 77 134
48 76 127
48 77 134
48 77 135
47 76 126
47 76 132
48 77 131
49 79 139
47 76 131
45 73 128
44 71 122
44 71 129
43 70 126
43 70 130
45 72 127
43 69 124
43 70 126
45 73 126
46 74 134
42 69 122
42 68 122
41 68 126
42 68 127
38 62 116
37 62 117
39 64 119
38 62 116
39 63 119
42 69 128
37 61 117
34 56 112
37 61 116
35 58 111
36 59 112
35 57 112
35 57 110
36 59 112
31 52 103
36 58 111
52 83 150
58 93 165
57 92 163
59 94 168
60 96 172
60 96 170
58 95 171
60 97 174
60 96 171
60 97 172
61 98 176
61 98 175
59 96 171
62 99 178
61 98 173
62 99 178
61 98 175
62 99 179
62 99 179
60 97 176
62 99 178
62 99 178
61 98 178
61 98 175
62 99 180
61 98 178
62 99 179
61 98 180
61 99 180
61 99 179
61 99 179
61 99 180
61 99 181
62 99 179
62 99 180
62 99 180
61 99 181
61 99 179
61 98 180
61 99 180
61 98 179
61 98 180
61 99 181
61 99 180
61 99 180
61 98 178
61 98 178
61 99 181
61 99 180
61 98 179
61 98 180
62 98 178
61 98 179
61 98 181
61 98 180
61 98 178
61 98 177
61 98 176
61 98 178
61 98 180
61 98 178
61 99 180
61 97 175
61 98 178
61 98 176
62 98 175
61 97 176
61 97 175
60 97 174
61 98 175
61 98 177
60 96 166
62 98 173
60 96 171
60 97 171
62 99 173
59 95 165
61 97 173
61 98 170
61 97 170
61 98 173
62 98 174
103 131 145
164 188 36
168 191 0
170 194 0
170 194 0
171 195 0
171 194 0
167 191 0
170 193 0
171 194 0
170 193 0
171 194 0
169 192 0
172 196 0
170 192 0
168 192 0
166 189 0
169 193 0
171 195 0
172 194 0
169 193 0
170 193 0
173 196 0
169 193 0
173 196 0
169 192 0
171 195 0
172 195 0
170 194 0
171 195 0
169 193 0
172 195 0
173 196 0
169 192 0
171 195 0
171 194 0
173 196 0
172 195 0
172 196 0
172 194 0
168 192 0
172 196 0
172 195 0
172 195 0
173 196 0
172 194 0
174 196 0
169 192 0
171 193 0
171 194 0
171 195 0
172 195 0
170 193 0
171 194 0
174 197 0
169 193 0
170 193 0
172 195 0
174 197 0
172 196 0
172 196 0
170 194 0
173 196 0
172 194 0
170 194 0
170 194 0
173 196 0
173 197 0
172 196 0
173 196 0
171 193 0
172 194 0
170 194 0
171 194 0
171 193 0
171 194 0
172 195 0
173 196 0
169 192 0
170 193 0
171 194 0
173 196 0
173 196 0
174 197 0
175 197 0
171 194 0
171 194 0
172 194 0
174 197 0
173 196 0
173 197 0
173 195 0
171 195 0
173 196 0
170 193 0
172 196 0
173 196 0
171 195 0
171 195 0
171 194 0
172 196 0
173 196 0
170 194 0
172 196 0
173 196 0
174 197 0
174 196 0
174 197 0
172 195 0
173 196 0
171 195 0
172 195 0
173 197 0
173 196 0
173 197 0
172 195 0
171 195 0
174 197 0
171 195 0
170 194 0
173 196 0
174 198 0
170 194 0
174 198 0
172 196 0
172 196 0
173 196 0
174 197 0
172 196 0
174 198 0
172 196 0
170 193 0
173 196 0
174 197 0
173 197 0
174 197 0
175 198 0
171 195 0
174 198 0
169 193 0
173 197 0
169 193 0
172 195 0
174 197 0
173 197 0
174 197 0
173 196 0
173 196 0
172 195 0
174 197 0
172 196 0
173 196 0
173 196 0
175 198 0
173 197 0
173 196 0
174 197 0
172 195 0
172 196 0
173 196 0
173 197 0
173 197 0
174 197 0
174 197 0
173 196 0
174 197 0
174 197 0
173 197 0
171 195 0
173 197 0
173 196 0
171 196 0
171 195 0
173 196 0
173 196 0
173 196 0
173 197 0
173 196 0
173 196 0
174 196 0
173 196 0
172 196 0
175 197 0
175 197 0
174 197 0
172 196 0
173 196 0
173 197 0
173 195 0
172 195 0
172 196 0
171 195 0
172 196 0
172 195 0
173 196 0
171 195 0
172 195 0
172 195 0
171 195 0
172 195 0
171 195 0
172 195 0
173 196 0
167 189 0
155 176 0
155 176 0
155 175 0
155 175 0
154 175 0
155 176 0
156 176 0
155 176 0
156 177 0
155 175 0
155 176 0
154 175 0
154 175 0
155 176 0
155 175 0
156 176 0
156 176 0
155 175 0
155 176 0
154 175 0
156 176 0
155 176 0
155 176 0
155 176 0
155 176 0
155 176 0
155 176 0
154 175 0
153 174 0
154 175 0
155 176 0
153 175 0
155 175 0
155 176 0
156 176 0
155 176 0
154 175 0
155 176 0
155 176 0
155 175 0
154 175 0
153 174 0
155 176 0
154 175 0
155 176 0
154 175 0
154 176 0
155 176 0
154 175 0
155 176 0
155 176 0
154 176 0
155 176 0
154 175 0
154 175 0
153 173 0
154 174 0
156 176 0
154 175 0
154 175 0
153 174 0
155 175 0
156 176 0
153 174 0
123 144 90
52 83 140
53 84 141
51 81 137
50 80 130
52 82 137
50 80 133
48 77 127
49 78 137
50 80 136
49 78 125
49 79 135
50 80 139
49 78 131
50 80 139
47 75 130
47 75 132
50 80 137
46 74 121
46 74 134
46 73 127
47 75 131
45 72 124
43 70 124
43 70 119
45 72 128
42 69 122
43 70 126
43 70 128
41 67 125
40 66 120
41 68 123
39 64 117
41 67 124
37 61 113
40 65 119
38 62 119
38 63 116
40 65 119
36 59 111
36 60 114
36 59 111
38 62 118
34 56 110
35 57 111
34 56 109
35 58 110
35 57 111
33 55 108
52 84 150
56 90 160
58 93 163
59 94 169
60 96 171
60 96 172
60 96 171
60 96 171
60 96 169
60 97 175
60 97 174
61 98 174
61 98 173
61 99 179
61 98 177
61 98 173
61 98 176
61 98 178
61 98 178
61 98 178
61 98 177
62 99 175
62 99 181
61 99 180
61 98 178
61 98 176
61 98 178
61 98 176
62 99 179
61 98 180
61 98 178
62 99 181
62 99 178
61 98 176
61 99 180
62 99 180
61 99 180
62 99 180
61 98 180
61 99 181
61 98 180
61 98 181
61 98 180
61 99 181
61 99 180
61 98 179
61 98 177
62 99 180
62 99 180
61 98 179
61 98 179
61 99 181
60 97 175
61 98 180
61 99 180
61 98 178
62 98 178
61 97 177
61 98 177
61 98 179
61 98 177
60 97 175
61 97 175
61 98 176
61 98 177
61 98 178
61 97 174
62 98 178
60 97 174
60 96 170
61 98 174
61 98 174
61 98 177
61 98 174
60 97 172
61 98 174
60 96 171
60 96 167
61 98 171
61 97 172
60 96 165
61 97 170
61 97 171
60 97 165
89 118 151
165 187 36
172 195 0
170 194 0
171 195 0
169 192 0
170 193 0
170 193 0
172 194 0
167 191 0
171 194 0
169 191 0
170 193 0
172 195 0
170 194 0
169 193 0
169 193 0
171 195 0
172 195 0
170 194 0
166 190 0
168 191 0
172 195 0
169 192 0
170 194 0
169 193 0
174 197 0
172 195 0
173 196 0
170 193 0
169 192 0
170 193 0
169 192 0
170 193 0
173 197 0
171 194 0
170 193 0
171 194 0
170 194 0
170 193 0
173 197 0
169 192 0
171 195 0
172 196 0
171 194 0
172 194 0
171 194 0
167 190 0
171 195 0
167 192 0
172 195 0
172 195 0
170 194 0
173 196 0
170 194 0
171 195 0
170 193 0
170 194 0
172 193 0
170 193 0
173 197 0
168 191 0
172 195 0
174 196 0
171 194 0
172 194 0
172 195 0
171 194 0
168 193 0
170 193 0
171 194 0
169 193 0
168 193 0
173 197 0
171 195 0
173 197 0
171 194 0
171 195 0
171 195 0
171 193 0
172 196 0
170 193 0
173 196 0
171 194 0
171 194 0
174 197 0
172 195 0
170 194 0
172 194 0
169 192 0
170 192 0
171 195 0
173 196 0
170 193 0
173 197 0
173 196 0
171 195 0
172 195 0
174 197 0
174 197 0
173 196 0
172 196 0
172 196 0
170 193 0
171 193 0
170 194 0
172 195 0
171 194 0
170 194 0
173 196 0
173 196 0
173 197 0
172 195 0
175 198 0
172 195 0
172 196 0
173 197 0
171 194 0
174 197 0
173 196 0
172 196 0
171 195 0
173 196 0
174 196 0
173 197 0
172 195 0
173 196 0
173 196 0
173 196 0
175 197 0
175 197 0
171 195 0
174 196 0
173 196 0
174 197 0
174 197 0
174 196 0
172 196 0
172 196 0
172 196 0
174 197 0
172 196 0
174 197 0
170 194 0
172 196 0
171 194 0
174 197 0
173 196 0
173 197 0
174 197 0
172 196 0
174 197 0
173 196 0
174 197 0
171 194 0
173 196 0
172 195 0
175 197 0
172 194 0
173 196 0
173 197 0
172 195 0
174 197 0
174 197 0
173 197 0
174 197 0
174 197 0
174 197 0
173 196 0
172 196 0
172 196 0
174 197 0
172 196 0
172 196 0
173 195 0
172 196 0
172 196 0
174 197 0
174 197 0
174 197 0
172 196 0
172 196 0
173 196 0
174 197 0
172 196 0
173 196 0
173 197 0
173 196 0
174 196 0
173 196 0
172 195 0
173 196 0
173 196 0
172 195 0
171 194 0
174 197 0
171 194 0
172 195 0
174 197 0
172 196 0
171 195 0
171 195 0
171 194 0
155 176 0
156 176 0
157 177 0
155 176 0
154 175 0
155 175 0
156 176 0
155 176 0
154 175 0
155 176 0
154 176 0
153 174 0
155 176 0
154 175 0
155 175 0
156 176 0
157 177 0
155 175 0
154 175 0
153 174 0
155 175 0
156 176 0
156 176 0
156 176 0
154 175 0
154 175 0
155 176 0
155 176 0
155 176 0
154 175 0
155 175 0
156 176 0
155 176 0
156 176 0
154 175 0
154 175 0
155 175 0
155 176 0
155 176 0
155 176 0
154 175 0
154 175 0
155 176 0
153 175 0
155 176 0
155 176 0
153 174 0
155 175 0
155 176 0
154 175 0
153 174 0
155 176 0
154 175 0
155 176 0
154 175 0
154 175 0
154 175 0
154 175 0
152 173 0
154 175 0
155 176 0
153 174 0
155 176 0
155 176 0
139 159 64
51 82 131
50 79 132
52 83 138
51 82 134
50 79 134
50 80 128
51 82 141
48 77 129
49 79 134
50 81 137
49 78 135
49 79 133
49 78 133
48 77 134
49 78 135
47 75 136
46 75 133
46 74 131
44 71 122
45 72 125
43 69 123
46 73 126
45 73 128
45 73 127
42 67 115
42 69 119
43 70 124
43 70 125
41 67 124
41 67 124
41 67 121
41 67 122
39 64 116
37 61 113
38 62 117
38 63 119
39 63 119
36 59 108
36 59 111
37 60 114
31 52 107
34 56 112
35 57 106
34 56 108
33 55 106
28 48 97
36 60 116
51 82 148
59 93 163
58 94 165
58 93 169
59 96 170
59 95 167
60 96 169
60 96 170
59 95 167
60 96 173
61 97 171
61 98 176
61 97 175
61 98 177
60 97 172
61 98 175
62 99 178
61 98 178
61 98 178
61 98 175
61 98 178
61 98 179
61 98 178
61 98 178
62 99 177
61 99 181
61 98 177
61 98 174
61 98 178
61 98 180
61 98 177
61 98 180
61 98 181
61 98 180
61 99 180
61 98 181
61 98 178
62 99 180
61 99 180
62 99 181
61 98 179
62 99 179
62 99 180
62 99 179
61 98 181
61 99 181
61 98 180
62 99 180
62 98 179
61 98 179
62 99 179
62 99 180
61 98 179
61 98 177
61 98 180
61 98 177
61 98 177
61 98 179
60 97 179
61 98 178
61 98 179
61 98 176
61 98 175
61 98 175
61 98 177
62 98 176
61 97 173
61 98 178
61 98 176
61 98 177
61 98 175
61 97 172
62 98 179
61 98 174
60 95 168
61 97 172
60 96 169
61 98 174
60 95 166
60 95 165
61 98 170
61 98 173
61 97 171
61 97 170
61 97 165
60 96 167
92 121 154
155 178 65
170 194 0
169 192 0
173 196 0
169 192 0
170 193 0
169 193 0
170 194 0
168 192 0
169 193 0
170 194 0
171 195 0
170 193 0
171 194 0
171 194 0
170 193 0
171 194 0
173 195 0
169 193 0
171 194 0
169 192 0
171 194 0
169 192 0
171 195 0
169 192 0
166 189 0
172 195 0
171 195 0
169 193 0
167 190 0
169 192 0
172 194 0
173 196 0
171 194 0
171 195 0
170 193 0
170 193 0
172 196 0
169 193 0
170 194 0
171 194 0
171 194 0
172 195 0
171 194 0
172 196 0
171 195 0
172 195 0
172 196 0
172 195 0
170 193 0
174 197 0
172 195 0
171 195 0
172 197 0
174 197 0
174 196 0
173 196 0
170 194 0
170 193 0
170 191 0
170 193 0
170 193 0
174 196 0
169 192 0
171 194 0
172 195 0
171 195 0
171 195 0
171 194 0
171 193 0
171 194 0
174 197 0
173 195 0
172 195 0
170 193 0
172 195 0
170 194 0
167 190 0
173 196 0
171 194 0
173 196 0
170 194 0
171 194 0
174 197 0
171 195 0
173 196 0
174 196 0
174 196 0
172 195 0
173 196 0
170 193 0
172 194 0
174 196 0
171 195 0
172 195 0
172 195 0
172 195 0
172 196 0
174 197 0
172 196 0
173 196 0
171 195 0
174 197 0
174 197 0
171 194 0
173 196 0
173 196 0
173 196 0
171 194 0
171 193 0
172 195 0
174 197 0
173 196 0
169 193 0
174 198 0
173 196 0
172 195 0
173 197 0
172 196 0
172 196 0
173 196 0
171 195 0
173 196 0
171 194 0
170 194 0
172 195 0
175 198 0
176 198 0
172 195 0
174 196 0
176 199 0
173 197 0
172 194 0
174 196 0
172 196 0
173 196 0
174 198 0
174 198 0
174 196 0
174 197 0
173 197 0
174 198 0
173 197 0
173 196 0
173 197 0
173 197 0
171 195 0
173 196 0
174 197 0
174 197 0
172 196 0
173 196 0
172 195 0
174 198 0
172 195 0
173 196 0
173 197 0
173 196 0
172 196 0
172 196 0
173 197 0
173 197 0
175 197 0
173 197 0
173 196 0
174 197 0
173 196 0
174 197 0
175 198 0
173 196 0
172 196 0
172 196 0
174 197 0
172 195 0
174 197 0
173 195 0
172 195 0
172 196 0
173 196 0
172 196 0
174 197 0
172 195 0
171 195 0
172 196 0
173 197 0
173 196 0
173 196 0
173 196 0
175 197 0
172 195 0
173 196 0
173 195 0
171 194 0
171 194 0
171 195 0
173 196 0
171 194 0
173 196 0
173 196 0
172 196 0
173 196 0
155 176 0
154 175 0
156 176 0
154 175 0
155 176 0
155 175 0
155 176 0
154 175 0
155 176 0
156 176 0
155 176 0
155 176 0
155 176 0
154 175 0
156 176 0
156 176 0
154 176 0
154 175 0
156 176 0
155 176 0
155 176 0
155 176 0
155 176 0
154 175 0
154 175 0
155 175 0
154 175 0
154 175 0
155 175 0
155 176 0
155 176 0
154 175 0
154 175 0
155 176 0
153 174 0
155 176 0
154 175 0
155 175 0
154 175 0
153 174 0
155 175 0
155 176 0
155 175 0
152 173 0
156 176 0
155 176 0
154 175 0
155 176 0
155 176 0
154 175 0
155 176 0
155 176 0
153 174 0
154 175 0
154 175 0
154 175 0
155 175 0
156 176 0
154 175 0
155 175 0
154 175 0
155 175 0
155 175 0
155 176 0
138 160 56
50 81 137
51 82 134
51 81 136
52 83 140
49 79 129
51 81 132
49 79 133
48 78 131
49 79 132
50 80 137
49 78 135
49 77 124
47 75 125
47 75 127
47 76 136
47 76 132
46 75 133
46 74 130
47 76 131
46 74 130
43 70 120
44 70 120
43 69 122
44 71 123
44 71 128
39 64 114
41 67 114
41 66 121
43 70 129
41 68 127
42 68 122
39 64 115
41 67 125
37 62 120
39 64 120
36 59 110
35 58 113
38 63 117
37 60 114
36 59 112
33 55 106
35 58 113
33 55 108
33 54 106
31 52 103
34 57 109
52 84 153
55 88 155
59 94 165
58 93 163
59 95 166
58 94 168
60 96 170
61 97 173
61 97 174
60 96 167
60 96 169
61 98 175
61 97 173
60 97 175
60 97 172
61 98 175
61 98 176
61 98 177
61 98 175
62 99 175
62 99 176
61 98 177
61 99 179
61 98 175
61 98 178
61 99 180
61 98 178
62 99 179
61 99 179
61 98 179
61 99 181
61 99 179
61 99 179
62 99 179
61 99 180
62 99 179
61 98 180
61 98 180
61 99 180
61 98 179
61 99 181
61 99 180
61 98 177
62 99 180
62 99 181
62 99 179
61 98 179
61 99 179
61 98 178
61 98 179
61 98 179
61 98 178
61 98 178
61 98 178
61 98 179
62 98 177
61 98 179
62 99 179
61 98 178
61 99 180
61 98 180
61 97 177
61 99 180
62 99 178
61 98 179
61 98 177
61 98 179
61 99 178
61 98 175
60 96 169
60 96 171
60 97 173
61 97 174
59 95 171
60 96 173
60 96 172
60 96 174
60 97 174
61 97 171
60 96 170
61 98 175
61 97 170
61 97 169
61 97 168
62 98 171
60 95 158
61 97 165
61 97 167
100 127 148
163 187 51
172 194 0
171 194 0
170 193 0
172 195 0
170 192 0
170 193 0
170 193 0
173 196 0
172 196 0
170 193 0
169 192 0
169 192 0
171 195 0
167 191 0
170 193 0
172 195 0
167 190 0
169 193 0
169 192 0
172 195 0
170 193 0
171 193 0
174 197 0
168 190 0
172 195 0
170 193 0
173 196 0
171 193 0
171 194 0
172 195 0
171 194 0
173 196 0
169 193 0
170 192 0
172 196 0
169 193 0
172 195 0
170 193 0
175 197 0
172 195 0
169 193 0
171 194 0
170 192 0
173 196 0
172 195 0
173 197 0
172 196 0
173 196 0
171 194 0
170 194 0
168 191 0
171 194 0
172 196 0
173 196 0
172 194 0
170 193 0
170 194 0
171 195 0
171 195 0
172 195 0
171 195 0
174 197 0
169 193 0
171 194 0
172 196 0
169 192 0
170 194 0
170 192 0
175 197 0
173 196 0
170 193 0
171 194 0
171 194 0
173 196 0
170 193 0
172 196 0
172 196 0
168 191 0
173 196 0
174 197 0
173 196 0
173 195 0
172 195 0
173 195 0
171 194 0
170 193 0
173 196 0
172 195 0
171 195 0
171 194 0
172 195 0
173 196 0
172 196 0
170 194 0
170 193 0
173 196 0
172 195 0
173 197 0
173 196 0
174 197 0
172 195 0
173 195 0
171 194 0
172 196 0
172 195 0
173 196 0
171 195 0
172 195 0
173 197 0
171 194 0
173 195 0
173 196 0
172 195 0
173 195 0
172 195 0
173 196 0
174 197 0
171 193 0
172 195 0
174 196 0
173 196 0
174 197 0
173 197 0
171 194 0
172 195 0
171 195 0
172 195 0
171 195 0
173 196 0
173 196 0
172 195 0
172 195 0
173 196 0
173 197 0
174 196 0
173 197 0
173 197 0
170 193 0
172 196 0
173 196 0
171 194 0
172 195 0
173 196 0
175 198 0
173 196 0
174 197 0
173 195 0
174 197 0
174 197 0
173 196 0
174 197 0
172 196 0
174 197 0
173 197 0
173 196 0
172 196 0
173 196 0
173 197 0
175 198 0
172 196 0
174 197 0
174 197 0
171 195 0
173 196 0
174 197 0
172 196 0
173 196 0
172 196 0
172 195 0
174 197 0
171 196 0
172 196 0
173 196 0
172 196 0
172 196 0
172 196 0
175 197 0
174 197 0
173 197 0
172 196 0
171 196 0
172 195 0
173 196 0
172 196 0
172 195 0
171 195 0
171 195 0
172 195 0
174 196 0
172 195 0
171 194 0
172 196 0
171 195 0
173 196 0
171 194 0
171 195 0
173 196 0
172 195 0
172 196 0
158 180 0
153 174 0
154 175 0
154 175 0
154 175 0
154 175 0
156 177 0
154 175 0
156 176 0
154 175 0
155 176 0
155 175 0
155 176 0
155 176 0
154 175 0
155 176 0
153 174 0
154 175 0
154 175 0
155 176 0
156 177 0
154 175 0
155 176 0
153 175 0
154 175 0
153 174 0
154 176 0
155 175 0
154 175 0
155 175 0
154 175 0
155 175 0
155 176 0
155 176 0
154 175 0
155 176 0
154 175 0
156 176 0
151 173 0
152 174 0
154 175 0
154 175 0
154 176 0
155 176 0
156 176 0
156 176 0
155 176 0
154 174 0
153 173 0
154 175 0
154 175 0
154 175 0
156 176 0
156 176 0
155 176 0
154 175 0
154 175 0
154 175 0
156 176 0
154 175 0
155 176 0
154 174 0
155 176 0
154 175 0
147 168 36
49 79 129
51 82 142
51 82 135
50 79 131
49 78 130
48 78 127
48 78 129
50 80 134
47 76 124
51 81 139
48 77 124
47 75 129
47 75 128
47 75 126
46 74 126
45 73 121
47 76 128
44 71 123
46 74 130
43 69 119
45 72 124
42 68 119
43 70 124
45 72 125
44 71 124
41 67 118
41 67 119
41 67 125
40 65 116
41 67 121
39 64 118
38 61 111
38 62 115
35 58 111
37 61 109
39 64 119
36 59 112
36 58 112
31 52 102
34 55 107
32 52 99
37 60 115
35 57 107
31 52 104
33 54 107
52 83 146
57 92 160
58 93 165
58 93 164
59 95 172
59 95 163
60 96 168
60 97 170
60 96 172
60 96 168
60 97 171
61 97 171
60 96 170
61 98 176
61 98 175
61 97 177
61 97 174
61 98 177
61 98 177
61 98 177
61 98 177
60 98 173
62 99 176
61 98 179
61 98 175
61 98 178
61 98 178
61 98 176
61 98 176
61 99 180
61 99 179
62 99 179
61 99 179
62 99 179
62 99 179
62 99 179
61 98 175
62 99 180
61 98 177
61 99 180
61 99 180
62 99 179
61 98 179
61 98 179
61 98 180
61 98 178
61 98 179
61 98 179
61 98 181
62 99 178
62 99 179
61 98 179
62 99 178
61 98 179
61 98 179
61 98 179
60 97 176
61 98 180
61 98 176
61 98 177
61 98 176
60 97 174
60 97 176
61 97 171
60 96 174
60 96 173
61 97 172
60 97 175
62 98 174
61 97 174
61 98 175
61 97 175
61 97 171
61 97 175
61 98 177
60 96 170
61 98 178
61 96 170
61 98 174
60 96 169
60 97 172
60 97 170
60 96 170
60 96 168
60 96 167
60 96 166
60 95 163
61 98 170
60 96 165
62 98 167
97 127 145
167 189 32
172 196 0
171 195 0
171 194 0
171 194 0
169 192 0
170 193 0
171 195 0
169 193 0
171 194 0
172 196 0
172 195 0
165 188 0
171 194 0
171 194 0
170 193 0
166 189 0
172 193 0
169 192 0
171 194 0
173 196 0
170 193 0
169 193 0
170 194 0
170 192 0
168 191 0
172 195 0
172 195 0
171 194 0
169 192 0
172 195 0
170 194 0
169 192 0
171 194 0
170 193 0
172 196 0
170 193 0
169 192 0
168 191 0
168 192 0
170 193 0
171 193 0
171 194 0
171 194 0
173 196 0
170 193 0
171 195 0
172 196 0
172 195 0
172 195 0
169 192 0
172 196 0
169 193 0
171 194 0
172 194 0
171 194 0
169 192 0
172 195 0
172 196 0
173 196 0
169 192 0
172 196 0
169 192 0
173 196 0
173 196 0
169 192 0
171 194 0
173 196 0
171 195 0
170 194 0
172 194 0
173 196 0
171 194 0
172 195 0
173 195 0
170 193 0
166 190 0
172 194 0
173 196 0
171 194 0
173 197 0
173 196 0
172 195 0
171 194 0
172 195 0
173 196 0
172 196 0
172 195 0
172 195 0
173 196 0
172 195 0
172 196 0
170 194 0
173 196 0
171 194 0
175 198 0
172 195 0
170 194 0
172 195 0
174 197 0
170 194 0
170 193 0
171 196 0
171 194 0
170 194 0
171 195 0
173 196 0
173 196 0
169 192 0
170 193 0
169 192 0
171 194 0
171 194 0
173 197 0
173 195 0
172 196 0
172 196 0
171 195 0
173 196 0
174 197 0
170 194 0
175 197 0
174 198 0
173 196 0
174 197 0
174 196 0
174 197 0
173 196 0
172 195 0
170 194 0
172 196 0
172 195 0
173 197 0
173 196 0
172 196 0
173 196 0
173 194 0
174 196 0
173 196 0
172 195 0
174 197 0
174 197 0
174 196 0
170 193 0
170 194 0
174 197 0
173 197 0
173 196 0
174 197 0
173 196 0
173 197 0
173 196 0
173 197 0
173 197 0
173 196 0
173 196 0
174 196 0
174 197 0
174 197 0
173 196 0
173 196 0
172 196 0
174 197 0
174 197 0
172 195 0
174 197 0
173 196 0
174 197 0
172 196 0
175 197 0
176 198 0
174 197 0
172 195 0
173 196 0
175 197 0
173 196 0
173 196 0
173 196 0
175 197 0
173 196 0
173 197 0
171 194 0
170 194 0
173 196 0
172 195 0
173 196 0
173 196 0
171 194 0
172 195 0
173 196 0
173 196 0
173 196 0
172 196 0
173 196 0
171 195 0
173 196 0
172 196 0
170 193 0
171 195 0
161 183 0
153 175 0
154 175 0
155 176 0
155 176 0
154 175 0
154 175 0
154 175 0
155 174 0
155 176 0
154 176 0
155 176 0
154 175 0
154 175 0
156 176 0
155 176 0
154 175 0
156 176 0
155 175 0
154 175 0
153 175 0
157 177 0
154 175 0
155 176 0
155 175 0
153 175 0
155 176 0
155 176 0
154 175 0
155 175 0
155 176 0
156 177 0
155 175 0
155 176 0
155 176 0
153 174 0
155 176 0
154 174 0
154 175 0
154 175 0
155 175 0
153 174 0
154 175 0
155 175 0
155 176 0
155 176 0
155 176 0
155 176 0
155 176 0
154 175 0
155 176 0
155 176 0
156 177 0
153 174 0
154 175 0
155 176 0
155 175 0
154 175 0
153 174 0
154 174 0
155 175 0
155 175 0
154 175 0
153 174 0
152 173 28
53 83 130
51 81 137
49 78 125
50 81 134
50 81 131
51 82 134
49 78 133
48 77 119
47 77 134
48 77 123
47 76 126
47 76 126
49 78 133
45 73 122
47 75 128
45 73 120
47 75 127
46 75 127
45 73 128
40 66 116
46 74 124
43 70 121
43 70 117
42 68 116
44 72 123
42 67 119
39 64 112
40 66 117
42 67 119
39 63 119
39 63 114
37 61 117
37 61 112
37 61 114
40 65 119
32 54 104
37 61 116
34 56 106
29 49 97
32 54 101
34 56 109
32 52 101
32 52 105
31 51 102
49 79 144
55 90 155
58 93 157
58 94 161
59 95 167
60 95 165
59 95 167
60 96 172
60 96 170
61 97 171
60 97 169
61 97 172
61 98 177
61 98 178
60 97 171
61 98 173
61 98 172
61 98 175
61 98 176
61 97 170
61 98 177
61 98 178
62 99 173
62 99 176
62 98 177
61 98 173
61 99 178
61 98 177
61 98 177
61 99 179
61 98 178
61 98 177
61 98 178
62 99 177
61 99 178
62 99 178
61 98 177
61 98 179
61 99 179
61 98 177
61 98 177
62 99 180
62 99 177
61 99 181
62 99 180
61 98 179
62 99 180
62 99 180
61 98 179
61 98 180
61 98 176
62 99 181
61 98 179
61 98 178
61 98 179
61 98 179
61 99 179
61 98 179
61 98 178
62 98 176
61 98 176
60 97 176
61 98 176
61 98 177
61 98 178
61 97 174
60 97 174
60 96 173
61 98 176
61 98 177
61 97 176
61 98 177
61 96 171
61 97 173
60 96 172
61 98 177
60 95 166
60 95 166
61 97 177
60 95 168
60 96 170
60 96 170
60 96 168
60 96 167
61 97 171
60 95 165
60 95 166
61 97 168
60 96 164
60 96 162
61 95 162
59 94 153
106 132 134
164 188 31
170 193 0
170 193 0
170 192 0
170 194 0
172 195 0
169 192 0
167 189 0
169 192 0
169 192 0
170 193 0
172 195 0
166 189 0
171 193 0
169 192 0
170 192 0
169 192 0
171 194 0
169 193 0
167 190 0
172 195 0
173 196 0
171 194 0
172 196 0
173 194 0
170 193 0
169 192 0
171 193 0
171 195 0
171 194 0
173 195 0
171 194 0
171 194 0
168 191 0
170 194 0
172 195 0
170 193 0
171 195 0
173 195 0
173 196 0
171 195 0
171 195 0
171 195 0
171 195 0
173 196 0
171 194 0
170 192 0
170 192 0
170 193 0
171 194 0
171 193 0
169 193 0
171 194 0
170 193 0
172 195 0
173 196 0
172 196 0
169 192 0
171 194 0
172 195 0
172 196 0
170 193 0
170 194 0
171 195 0
173 196 0
174 197 0
171 195 0
171 195 0
173 197 0
171 194 0
171 194 0
170 194 0
169 192 0
170 194 0
171 194 0
172 196 0
172 195 0
170 194 0
173 196 0
171 194 0
172 196 0
173 196 0
171 195 0
172 195 0
174 197 0
172 195 0
172 195 0
172 194 0
173 195 0
173 196 0
172 194 0
172 195 0
173 196 0
168 192 0
171 195 0
173 196 0
173 196 0
171 195 0
173 196 0
174 197 0
173 195 0
172 195 0
173 196 0
171 195 0
173 196 0
173 196 0
172 195 0
170 193 0
173 197 0
173 197 0
174 197 0
170 193 0
173 196 0
173 196 0
169 192 0
171 195 0
174 196 0
173 196 0
172 194 0
171 195 0
174 198 0
173 197 0
173 196 0
174 197 0
172 195 0
173 195 0
173 196 0
174 197 0
171 195 0
173 196 0
172 195 0
174 197 0
173 197 0
172 195 0
172 196 0
172 196 0
173 197 0
173 197 0
173 196 0
173 196 0
172 196 0
171 195 0
174 197 0
174 197 0
173 197 0
171 195 0
173 196 0
172 195 0
174 197 0
172 195 0
172 195 0
173 196 0
173 196 0
173 196 0
172 195 0
173 196 0
173 197 0
173 196 0
173 197 0
175 198 0
173 196 0
172 196 0
173 196 0
174 197 0
172 195 0
172 196 0
174 197 0
173 196 0
174 197 0
173 196 0
175 197 0
174 197 0
173 196 0
173 196 0
173 196 0
173 196 0
174 196 0
174 197 0
173 196 0
171 195 0
172 195 0
173 196 0
173 196 0
172 195 0
172 196 0
172 196 0
171 195 0
173 196 0
174 196 0
172 195 0
172 195 0
174 197 0
173 196 0
173 196 0
172 195 0
172 195 0
171 194 0
173 196 0
161 183 0
155 176 0
154 175 0
156 176 0
153 175 0
153 174 0
155 175 0
155 175 0
154 175 0
154 174 0
154 175 0
156 176 0
154 173 0
155 176 0
154 175 0
154 175 0
155 176 0
154 175 0
153 174 0
155 176 0
155 176 0
155 176 0
154 175 0
155 176 0
154 175 0
155 176 0
156 176 0
153 174 0
153 175 0
154 175 0
153 174 0
154 175 0
152 173 0
155 175 0
155 176 0
155 176 0
154 175 0
155 175 0
154 175 0
154 175 0
154 175 0
154 175 0
154 175 0
155 175 0
154 175 0
154 175 0
155 176 0
154 175 0
155 176 0
154 175 0
152 174 0
154 175 0
155 176 0
154 175 0
155 176 0
154 175 0
155 175 0
156 176 0
154 175 0
154 174 0
155 176 0
153 174 0
153 174 0
156 176 0
155 176 0
78 104 128
51 81 135
51 82 133
50 80 134
50 80 135
49 78 130
49 79 133
49 79 131
48 77 128
49 78 130
48 76 126
47 75 124
45 73 121
45 72 126
46 74 127
46 74 125
46 74 123
43 70 122
46 74 128
44 71 123
45 72 122
43 70 121
44 71 124
42 68 120
42 68 117
43 70 122
41 67 117
42 68 119
39 64 116
40 65 116
38 63 112
40 64 114
38 63 116
37 61 114
36 59 111
36 58 104
35 58 109
35 57 109
32 53 101
29 49 95
32 53 103
33 54 105
27 47 98
45 72 128
55 88 152
58 93 164
58 93 160
60 95 166
58 94 169
59 95 168
60 96 165
61 97 167
60 96 172
61 97 175
60 97 174
60 97 173
61 98 175
61 97 168
61 98 172
61 97 173
61 98 173
61 98 177
61 99 179
62 98 176
61 98 177
61 98 175
61 98 175
61 98 177
61 98 178
61 98 174
61 98 176
62 99 177
61 98 176
62 99 179
61 99 180
62 99 181
61 99 177
62 99 178
61 99 178
62 99 177
62 99 179
62 99 179
62 99 180
61 99 179
62 99 178
61 98 179
61 98 181
61 98 179
61 99 180
61 98 177
61 98 176
62 99 180
61 98 179
61 98 177
62 98 176
61 98 179
61 97 177
61 97 176
61 98 179
61 97 177
61 98 177
61 98 179
61 98 178
61 97 175
60 97 175
61 97 174
61 97 172
60 97 178
61 98 179
61 98 178
61 97 176
60 97 177
60 95 170
61 97 174
62 99 178
60 96 174
60 97 174
60 96 170
60 96 172
61 97 172
59 94 167
61 97 171
60 96 174
59 94 168
60 96 170
60 96 168
60 95 167
61 96 168
60 96 166
58 93 158
60 96 166
60 96 163
59 95 166
60 95 158
60 96 161
61 97 166
60 96 157
111 139 135
169 192 0
168 190 0
169 193 0
171 194 0
171 194 0
168 191 0
169 191 0
169 193 0
170 193 0
170 194 0
173 196 0
171 194 0
170 193 0
171 193 0
170 194 0
172 196 0
172 195 0
168 191 0
171 194 0
170 193 0
169 193 0
168 192 0
171 194 0
170 194 0
168 190 0
171 194 0
168 191 0
170 194 0
171 194 0
169 192 0
170 194 0
166 189 0
171 194 0
170 193 0
172 195 0
168 191 0
170 193 0
169 194 0
169 193 0
172 195 0
172 195 0
170 194 0
167 192 0
169 192 0
168 191 0
172 194 0
171 194 0
170 193 0
167 191 0
170 193 0
171 194 0
171 194 0
172 195 0
172 195 0
173 197 0
170 194 0
171 193 0
170 194 0
171 194 0
170 193 0
171 194 0
172 195 0
174 197 0
169 193 0
171 193 0
168 191 0
169 193 0
171 193 0
170 194 0
173 196 0
172 196 0
170 194 0
173 196 0
169 193 0
173 196 0
171 195 0
170 193 0
168 192 0
173 195 0
172 195 0
173 197 0
172 195 0
170 193 0
171 195 0
175 197 0
172 196 0
170 193 0
174 196 0
170 193 0
172 194 0
170 194 0
172 196 0
171 194 0
173 196 0
172 195 0
172 196 0
173 196 0
173 197 0
172 196 0
171 194 0
171 195 0
173 197 0
174 197 0
173 196 0
174 196 0
172 195 0
172 195 0
173 195 0
174 196 0
167 191 0
172 194 0
174 197 0
172 196 0
172 196 0
171 194 0
173 196 0
175 198 0
171 194 0
172 196 0
172 196 0
172 196 0
171 194 0
171 194 0
173 197 0
172 195 0
172 194 0
170 193 0
171 195 0
174 197 0
172 195 0
174 197 0
174 196 0
169 193 0
174 197 0
172 195 0
172 195 0
172 195 0
173 197 0
174 197 0
173 197 0
172 196 0
173 197 0
173 197 0
173 196 0
172 195 0
173 196 0
172 195 0
174 197 0
172 195 0
174 196 0
173 196 0
173 196 0
172 195 0
173 197 0
172 196 0
173 197 0
174 197 0
172 195 0
172 196 0
174 197 0
172 195 0
174 197 0
172 196 0
173 196 0
173 196 0
171 195 0
172 196 0
173 196 0
171 195 0
173 195 0
174 197 0
173 196 0
172 196 0
172 195 0
173 196 0
173 196 0
172 195 0
173 196 0
172 195 0
173 196 0
171 194 0
173 196 0
172 195 0
174 196 0
172 195 0
174 197 0
173 196 0
173 196 0
173 196 0
175 197 0
170 194 0
172 196 0
172 196 0
171 194 0
171 194 0
171 194 0
174 196 0
167 189 0
155 176 0
155 176 0
154 174 0
154 175 0
154 175 0
155 175 0
154 175 0
155 175 0
155 176 0
157 177 0
156 176 0
155 176 0
154 175 0
156 177 0
155 176 0
153 174 0
154 175 0
156 176 0
155 175 0
153 174 0
155 176 0
155 175 0
155 176 0
155 175 0
155 176 0
154 175 0
155 175 0
154 174 0
153 174 0
155 176 0
154 175 0
153 175 0
154 175 0
154 176 0
154 176 0
153 174 0
154 175 0
155 176 0
154 175 0
154 175 0
154 175 0
154 175 0
155 176 0
154 175 0
155 175 0
157 177 0
155 175 0
154 175 0
155 176 0
155 175 0
154 175 0
155 175 0
154 175 0
153 174 0
153 174 0
154 175 0
155 175 0
156 177 0
154 175 0
155 176 0
154 175 0
155 176 0
156 176 0
154 174 0
78 102 117
50 80 133
49 79 130
48 78 121
51 81 137
48 77 127
50 80 130
48 77 118
48 77 118
48 76 127
47 76 126
48 76 127
45 73 121
46 73 122
44 71 122
48 76 124
44 71 119
45 73 124
43 69 119
45 72 127
43 70 119
42 68 111
41 67 113
42 68 120
42 68 123
42 68 119
41 66 118
42 68 123
39 64 113
40 65 117
38 61 111
35 58 111
39 64 116
34 57 108
34 56 104
38 61 113
31 52 102
31 52 100
33 55 105
30 50 97
30 50 99
24 41 84
43 69 124
55 88 151
56 91 161
57 92 158
60 96 171
59 94 160
60 96 170
61 97 169
60 97 173
61 97 168
60 97 171
61 97 167
61 97 173
61 97 171
60 97 168
61 98 175
61 97 173
61 98 176
61 98 174
62 98 176
61 98 174
62 99 176
61 98 178
61 98 180
61 98 173
61 98 175
61 98 177
62 99 176
61 98 175
61 98 177
61 98 175
61 98 178
62 99 178
61 98 173
61 98 176
62 99 176
61 98 178
61 99 179
61 98 178
61 98 178
61 98 177
61 98 177
62 99 180
61 98 180
61 99 178
61 98 179
60 97 177
61 98 176
62 98 177
62 99 179
61 98 178
61 98 176
61 97 177
61 98 176
61 98 176
62 98 178
61 98 177
61 97 175
61 98 176
61 98 174
61 98 176
61 97 175
61 97 177
61 97 175
62 98 178
61 97 177
60 97 172
60 97 174
60 96 172
61 97 178
60 96 173
61 98 178
61 97 174
60 96 170
60 97 174
60 96 170
62 98 174
60 97 174
60 95 167
60 96 169
60 95 167
60 95 165
60 95 166
59 94 162
61 97 174
59 95 170
60 95 165
61 96 169
59 94 161
59 95 162
59 95 168
59 95 163
60 96 161
60 95 168
61 98 170
61 97 164
130 154 110
169 191 0
166 189 0
169 192 0
171 193 0
170 193 0
169 191 0
171 195 0
169 192 0
169 192 0
170 193 0
168 191 0
169 192 0
170 193 0
171 195 0
169 192 0
172 195 0
170 192 0
169 192 0
170 193 0
167 191 0
170 193 0
170 193 0
173 195 0
169 193 0
171 192 0
170 193 0
171 194 0
169 192 0
170 192 0
169 192 0
167 191 0
171 196 0
171 195 0
172 194 11
166 186 11
163 180 7
151 165 28
152 165 28
143 149 36
148 156 36
142 144 37
143 148 35
144 143 36
145 148 43
133 130 41
123 122 32
131 129 34
130 125 28
142 140 45
136 139 30
136 140 30
143 145 32
146 151 34
147 154 33
151 159 30
154 166 32
163 181 30
156 169 26
167 185 23
166 188 11
172 195 0
173 196 0
168 192 0
170 194 0
172 196 0
170 194 0
172 195 0
172 195 0
169 191 0
172 194 0
168 192 0
172 196 0
172 195 0
168 191 0
172 195 0
174 197 0
170 194 0
169 192 0
172 195 0
170 193 0
174 198 0
171 193 0
172 195 0
171 195 0
173 196 0
170 194 0
172 195 0
172 195 0
169 193 0
173 197 0
172 196 0
172 195 0
172 194 0
173 196 0
171 194 0
173 196 0
172 195 0
172 195 0
173 196 0
172 195 0
171 195 0
172 196 0
171 195 0
172 196 0
173 196 0
172 195 0
171 194 0
170 194 0
171 194 0
173 197 0
170 193 0
173 196 0
174 197 0
175 198 0
169 193 0
172 196 0
173 197 0
172 194 0
172 196 0
171 195 0
172 196 0
173 196 0
172 195 0
172 196 0
173 197 0
171 194 0
175 198 0
173 197 0
173 197 0
173 197 0
172 195 0
173 197 0
172 195 0
173 197 0
173 196 0
171 195 0
172 195 0
173 197 0
174 196 0
172 195 0
174 197 0
174 197 0
173 196 0
175 198 0
174 197 0
170 193 0
175 198 0
174 198 0
173 196 0
172 195 0
172 195 0
172 194 0
173 196 0
172 196 0
173 196 0
174 197 0
172 196 0
175 197 0
171 195 0
172 196 0
174 197 0
174 197 0
173 197 0
174 196 0
173 196 0
174 197 0
172 196 0
173 196 0
173 196 0
173 196 0
173 196 0
173 196 0
173 197 0
173 196 0
173 196 0
172 195 0
174 197 0
172 196 0
171 194 0
172 196 0
172 195 0
172 195 0
171 195 0
172 196 0
170 195 0
172 195 0
172 196 0
172 195 0
172 195 0
172 195 0
171 195 0
170 194 0
174 196 0
173 196 0
171 194 0
171 195 0
168 191 0
155 176 0
154 175 0
154 175 0
155 176 0
153 175 0
154 175 0
155 176 0
155 175 0
153 175 0
153 175 0
153 174 0
157 177 0
155 176 0
154 175 0
154 175 0
155 175 0
154 175 0
154 175 0
156 176 0
154 175 0
154 175 0
155 176 0
155 175 0
155 176 0
153 175 0
156 176 0
154 175 0
154 175 0
155 175 0
154 175 0
154 175 0
154 175 0
153 175 0
155 175 0
154 175 0
153 174 0
155 175 0
154 174 0
155 174 0
155 175 0
153 174 0
156 176 0
155 176 0
152 173 0
154 175 0
154 175 0
155 176 0
154 175 0
153 174 0
154 175 0
154 175 0
154 175 0
152 173 0
155 176 0
154 175 0
154 175 0
154 175 0
156 176 0
151 173 0
154 175 0
155 176 0
153 175 0
152 173 0
155 176 0
87 109 113
51 81 131
50 81 134
50 80 124
50 79 126
47 75 123
48 77 123
48 77 125
49 78 124
47 76 125
49 78 130
46 74 124
46 74 126
44 72 119
44 71 118
44 71 117
48 77 129
45 73 127
43 70 114
42 68 115
43 69 120
45 72 126
43 69 119
45 72 127
41 67 114
41 67 116
39 63 116
39 64 113
38 62 111
38 63 113
36 60 111
39 63 116
37 60 110
35 58 107
36 59 108
32 53 105
32 52 101
34 56 106
32 53 102
31 52 102
26 44 89
36 59 113
55 89 157
57 92 158
58 94 162
59 94 165
58 93 160
58 94 164
60 96 172
60 96 171
61 98 169
59 95 159
60 96 167
61 97 170
61 97 173
60 97 168
61 98 172
61 98 177
60 97 165
60 96 168
62 99 176
62 98 172
61 98 178
61 97 171
62 99 175
61 98 173
62 99 175
62 99 176
61 98 170
61 99 177
61 98 176
62 99 177
62 99 176
61 98 175
62 99 178
62 99 176
61 99 180
62 99 177
61 99 178
61 98 178
62 98 177
62 99 181
62 99 177
61 98 179
61 98 176
61 98 176
61 97 174
62 98 175
61 98 177
60 97 175
61 98 177
61 98 174
62 99 179
60 97 176
61 99 180
61 98 178
61 98 174
61 98 177
61 98 175
61 98 177
60 97 175
61 98 176
62 99 176
61 99 180
61 98 178
60 95 172
61 97 174
61 97 174
61 97 175
59 95 172
61 96 173
61 96 172
60 96 176
60 97 174
61 97 175
60 97 175
60 95 172
59 95 172
61 96 171
60 96 172
60 96 169
60 96 170
61 97 174
61 97 174
59 95 166
61 96 167
60 96 165
60 95 165
60 96 168
59 95 167
59 94 162
61 96 169
61 97 167
60 95 161
60 94 157
61 97 170
60 96 166
60 95 154
65 98 154
152 176 65
168 191 0
169 192 0
170 193 0
166 190 0
171 194 0
170 193 0
169 192 0
168 191 0
172 194 0
167 191 0
168 192 0
170 192 0
170 193 0
171 193 0
167 191 0
165 188 0
171 194 0
170 193 0
168 191 0
171 194 0
169 192 0
170 193 0
170 193 0
169 192 0
167 190 0
167 188 5
162 180 28
156 168 30
152 161 33
130 131 37
129 120 46
125 114 46
115 93 35
119 100 45
110 90 39
112 92 38
118 96 42
123 103 53
114 95 42
103 82 32
116 94 42
109 90 42
114 95 46
119 100 44
117 96 44
108 90 33
122 103 50
126 104 49
120 100 47
110 90 41
118 98 42
115 95 43
115 96 46
115 98 39
123 104 51
119 99 46
114 92 38
127 107 52
109 90 42
124 111 48
123 115 40
136 134 38
148 156 27
151 161 30
154 168 26
163 183 21
168 191 2
171 194 0
173 196 0
170 192 0
172 196 0
171 194 0
172 195 0
175 198 0
172 194 0
172 195 0
171 195 0
170 194 0
172 196 0
172 195 0
172 196 0
172 194 0
172 195 0
172 196 0
172 196 0
170 192 0
173 196 0
172 196 0
173 194 0
172 195 0
173 196 0
171 194 0
173 196 0
171 195 0
171 194 0
171 194 0
171 195 0
173 196 0
172 194 0
172 195 0
170 192 0
172 196 0
170 194 0
173 196 0
172 195 0
169 192 0
173 195 0
171 195 0
173 196 0
173 196 0
170 194 0
173 195 0
173 196 0
172 195 0
174 197 0
172 195 0
175 197 0
173 196 0
174 197 0
173 196 0
170 193 0
172 195 0
172 196 0
173 197 0
174 197 0
173 196 0
173 196 0
173 196 0
173 196 0
174 197 0
173 196 0
172 194 0
172 195 0
172 195 0
172 195 0
174 197 0
175 198 0
172 195 0
171 195 0
172 195 0
171 195 0
172 195 0
169 194 0
174 197 0
174 197 0
174 196 0
172 196 0
173 196 0
173 196 0
175 197 0
173 196 0
174 197 0
174 197 0
172 195 0
173 196 0
173 196 0
174 197 0
173 196 0
173 196 0
174 197 0
173 196 0
173 196 0
171 195 0
172 196 0
171 195 0
173 196 0
173 196 0
171 195 0
172 196 0
173 196 0
173 196 0
171 195 0
173 197 0
171 195 0
172 195 0
173 196 0
173 195 0
172 195 0
173 195 0
172 196 0
172 195 0
173 196 0
173 196 0
171 195 0
169 192 0
173 196 0
172 195 0
174 196 0
172 195 0
173 196 0
173 196 0
172 195 0
173 196 0
173 195 0
172 195 0
171 194 0
155 176 0
153 175 0
154 175 0
155 176 0
154 174 0
153 174 0
155 175 0
155 175 0
154 175 0
156 176 0
154 175 0
154 175 0
154 175 0
153 173 0
153 174 0
155 175 0
154 175 0
154 176 0
154 175 0
155 175 0
156 176 0
155 175 0
154 175 0
153 174 0
153 174 0
154 175 0
155 176 0
153 174 0
155 175 0
155 176 0
155 175 0
154 175 0
154 175 0
154 174 0
154 175 0
153 174 0
155 175 0
156 176 0
154 175 0
153 174 0
154 175 0
155 176 0
155 176 0
154 175 0
154 175 0
154 175 0
154 174 0
155 176 0
154 175 0
156 176 0
156 176 0
154 175 0
152 173 0
154 175 0
153 174 0
153 175 0
154 174 0
154 174 0
155 176 0
154 175 0
154 175 0
153 175 0
154 174 0
155 175 0
105 127 95
50 80 131
52 83 133
50 80 127
49 79 134
50 79 129
47 76 122
46 75 121
49 78 131
49 78 128
47 76 122
48 76 124
47 75 125
46 74 123
44 71 114
48 76 124
44 71 114
44 70 114
45 72 122
44 71 128
43 70 124
42 69 117
42 68 121
43 69 114
41 66 115
39 63 112
39 63 110
38 61 113
37 60 100
37 61 108
37 60 111
39 63 115
37 60 107
36 60 112
33 55 105
34 56 109
34 56 107
32 52 100
31 52 95
30 50 98
30 50 96
53 86 152
57 92 160
57 92 158
58 93 168
61 97 170
60 95 162
60 95 166
60 97 174
59 95 163
60 95 168
61 98 170
60 96 170
61 98 175
61 98 172
61 97 169
61 98 174
61 98 173
61 98 171
62 99 178
61 98 174
60 97 169
62 99 175
62 99 179
61 98 175
61 98 175
61 98 176
60 97 172
61 98 172
61 98 176
61 98 176
61 99 179
62 99 177
61 98 176
61 99 179
62 99 174
60 98 174
61 98 176
61 98 176
61 98 178
62 99 180
60 97 175
61 98 173
62 99 179
61 98 179
61 99 179
61 98 176
61 98 174
61 98 176
62 98 176
62 99 178
60 97 170
60 97 174
61 98 178
61 98 177
61 98 176
61 98 175
61 98 175
61 98 177
61 97 175
62 99 179
60 96 174
61 97 177
61 97 175
61 97 174
61 97 172
61 97 176
61 97 173
62 98 178
59 95 169
59 96 172
60 96 173
60 96 173
60 96 172
60 96 173
61 97 173
60 96 170
60 97 173
61 97 172
59 95 169
59 94 165
59 94 166
59 94 164
60 96 170
60 96 174
58 92 160
60 95 164
60 96 172
60 95 164
60 96 169
59 94 164
61 95 161
59 94 165
60 95 162
61 96 165
61 96 162
60 95 157
60 95 165
60 95 158
76 108 158
162 186 44
170 194 0
166 188 0
170 193 0
168 191 0
171 195 0
171 194 0
169 192 0
169 192 0
168 190 0
170 193 0
170 193 0
170 193 0
168 192 0
168 191 0
169 193 0
171 194 0
171 195 0
170 192 0
168 191 0
167 188 11
155 172 8
145 156 28
134 134 40
118 109 41
107 88 34
105 84 36
116 94 39
114 93 42
119 99 46
115 97 44
113 94 41
117 98 48
108 86 34
107 86 34
108 88 38
116 98 42
112 93 43
122 102 49
110 88 37
120 101 49
117 95 45
110 89 39
118 99 46
114 96 42
115 95 41
129 108 54
111 88 29
122 106 48
107 88 34
116 96 42
111 91 36
117 97 41
123 103 48
118 100 52
115 95 48
122 100 43
111 91 40
106 85 37
115 97 42
114 95 44
114 94 37
124 105 50
115 95 46
120 99 44
114 95 42
120 101 43
123 116 33
140 144 36
146 155 25
160 174 22
170 191 16
173 196 0
171 194 0
174 197 0
170 195 0
172 196 0
171 194 0
170 194 0
171 195 0
169 193 0
166 190 0
174 197 0
170 193 0
172 195 0
171 195 0
174 198 0
171 194 0
168 191 0
171 194 0
173 196 0
173 196 0
173 197 0
174 196 0
174 196 0
172 195 0
172 195 0
174 197 0
171 195 0
169 191 0
171 194 0
171 194 0
171 195 0
174 197 0
172 196 0
173 196 0
171 194 0
169 192 0
170 194 0
173 196 0
174 197 0
172 196 0
173 196 0
172 195 0
172 195 0
171 194 0
173 195 0
171 195 0
173 197 0
173 197 0
174 197 0
174 197 0
172 195 0
173 197 0
172 195 0
172 196 0
172 195 0
173 196 0
172 196 0
172 195 0
170 194 0
172 195 0
173 196 0
171 193 0
174 197 0
172 195 0
171 195 0
173 196 0
175 197 0
171 194 0
173 197 0
173 196 0
173 195 0
174 197 0
171 195 0
173 197 0
175 198 0
172 196 0
174 195 0
172 196 0
171 195 0
173 196 0
171 195 0
172 196 0
172 196 0
173 196 0
173 196 0
172 196 0
173 196 0
172 195 0
171 195 0
175 198 0
174 197 0
172 195 0
173 196 0
171 195 0
173 197 0
172 196 0
173 196 0
172 196 0
174 197 0
172 195 0
174 196 0
173 196 0
171 195 0
172 195 0
171 194 0
173 196 0
171 194 0
174 196 0
172 195 0
174 197 0
172 195 0
173 196 0
172 195 0
173 196 0
172 195 0
173 196 0
172 195 0
170 193 0
172 195 0
172 196 0
171 194 0
173 196 0
172 195 0
173 196 0
155 178 0
154 175 0
153 174 0
155 176 0
154 175 0
155 175 0
155 175 0
156 176 0
153 175 0
155 176 0
156 176 0
156 176 0
153 174 0
154 174 0
156 176 0
155 176 0
155 176 0
155 175 0
152 173 0
156 176 0
154 175 0
155 176 0
156 176 0
154 176 0
155 175 0
153 174 0
155 175 0
153 174 0
155 175 0
155 176 0
153 174 0
154 175 0
155 176 0
155 176 0
154 175 0
155 176 0
154 175 0
153 175 0
155 175 0
154 175 0
155 175 0
157 176 0
152 174 0
152 174 0
154 175 0
154 175 0
154 175 0
154 174 0
153 174 0
156 176 0
154 175 0
152 173 0
155 176 0
154 175 0
155 176 0
154 175 0
153 174 0
155 175 0
156 176 0
154 175 0
154 174 0
154 176 0
155 176 0
153 173 0
114 135 89
50 80 124
50 80 127
48 78 129
49 79 128
48 77 126
49 79 124
49 78 126
47 75 123
50 80 131
46 74 123
46 75 123
47 76 121
45 73 124
47 76 132
45 73 121
47 76 131
43 69 112
43 69 119
42 69 118
43 70 122
41 67 115
42 69 121
43 70 125
40 66 117
40 64 115
39 64 112
38 63 111
39 64 114
39 64 112
36 59 109
35 57 105
36 59 105
34 55 99
34 55 102
33 54 100
33 54 103
31 52 103
30 50 96
31 51 100
49 79 136
55 87 151
57 92 157
56 91 158
59 94 166
59 94 164
60 96 171
60 96 167
60 96 171
59 95 165
60 96 169
61 97 168
60 97 169
61 98 174
60 96 170
62 98 170
61 98 174
61 98 175
61 98 172
62 99 173
61 98 172
61 98 173
62 98 176
61 97 171
62 99 176
61 98 174
61 98 175
61 98 173
61 98 174
61 98 175
61 98 176
62 99 175
61 99 180
61 98 172
61 98 171
61 98 176
61 98 176
62 99 175
61 98 177
62 99 180
61 98 176
61 98 175
61 98 179
61 98 175
61 98 176
61 97 176
61 98 175
61 98 177
61 98 174
61 98 177
60 97 174
61 98 178
62 99 177
61 98 177
60 97 174
61 98 176
62 99 179
61 98 177
60 96 170
61 98 176
61 98 177
61 98 175
60 96 172
60 97 177
60 96 172
61 97 176
61 98 176
60 96 173
60 96 173
60 96 171
60 96 170
61 97 176
60 96 171
59 95 168
59 94 167
60 96 169
60 96 171
61 97 174
59 94 169
59 95 168
61 97 175
60 95 169
60 94 163
59 94 162
60 96 171
59 94 168
59 95 167
58 93 164
61 96 169
59 94 162
58 91 158
61 96 169
60 95 162
59 94 161
60 96 164
60 94 161
60 94 160
60 95 155
60 95 160
61 96 161
109 135 134
167 189 0
171 193 0
169 192 0
170 193 0
169 191 0
169 192 0
169 192 0
172 195 0
170 193 0
171 194 0
170 193 0
170 192 0
171 193 0
170 194 0
168 191 0
166 188 11
152 168 11
150 153 38
109 101 27
117 99 42
119 100 47
109 85 30
110 92 46
112 92 44
109 91 42
113 94 44
109 93 47
101 80 27
113 94 42
105 87 41
109 89 38
119 98 45
115 96 42
125 106 54
113 93 42
113 93 37
114 96 47
120 101 48
110 90 43
110 91 42
121 100 49
116 92 35
103 85 39
116 98 44
119 98 43
113 92 42
111 90 41
111 90 36
117 95 41
113 91 38
108 89 40
121 101 48
115 95 42
112 92 39
116 94 38
121 105 53
116 97 44
121 101 44
116 98 49
121 102 49
113 94 39
126 106 52
125 103 49
116 96 43
112 91 41
115 94 43
112 88 34
111 91 38
117 95 42
120 102 49
113 94 39
129 118 44
129 130 34
150 163 27
164 182 30
169 193 0
172 195 0
175 198 0
171 195 0
172 195 0
171 195 0
173 196 0
173 196 0
173 196 0
168 192 0
171 195 0
172 194 0
172 195 0
173 196 0
170 194 0
171 195 0
175 197 0
174 197 0
173 196 0
172 195 0
170 193 0
171 196 0
173 196 0
174 196 0
171 195 0
173 196 0
173 197 0
173 196 0
173 197 0
171 193 0
173 196 0
172 195 0
172 195 0
172 196 0
172 196 0
174 196 0
172 194 0
172 195 0
173 196 0
171 195 0
172 196 0
172 196 0
172 195 0
173 196 0
170 193 0
171 195 0
172 195 0
170 194 0
172 196 0
173 196 0
171 194 0
172 195 0
173 196 0
171 194 0
171 194 0
172 195 0
173 196 0
174 197 0
172 194 0
173 197 0
173 197 0
172 195 0
173 195 0
172 195 0
172 196 0
173 197 0
173 197 0
172 195 0
174 198 0
174 197 0
174 197 0
173 196 0
174 196 0
173 197 0
172 196 0
172 195 0
172 196 0
173 196 0
173 196 0
175 198 0
173 196 0
172 195 0
173 196 0
171 195 0
173 196 0
171 195 0
174 197 0
173 196 0
174 197 0
172 196 0
174 197 0
171 195 0
172 196 0
172 195 0
172 195 0
170 194 0
174 197 0
174 196 0
172 195 0
171 195 0
172 195 0
174 197 0
172 194 0
172 195 0
172 195 0
171 195 0
172 196 0
172 195 0
171 195 0
171 195 0
172 195 0
173 195 0
170 194 0
171 195 0
171 194 0
172 194 0
172 195 0
172 195 0
172 195 0
173 196 0
160 182 0
153 174 0
154 175 0
155 176 0
153 175 0
156 177 0
153 174 0
155 176 0
153 174 0
154 175 0
154 175 0
154 175 0
155 175 0
153 174 0
155 176 0
154 175 0
154 175 0
154 175 0
155 175 0
154 175 0
154 175 0
155 175 0
154 174 0
153 174 0
154 175 0
154 175 0
155 176 0
154 175 0
154 175 0
153 175 0
154 175 0
156 176 0
154 174 0
153 174 0
153 174 0
153 174 0
155 176 0
153 175 0
153 174 0
155 175 0
154 175 0
154 174 0
155 176 0
154 175 0
155 175 0
155 175 0
154 175 0
155 175 0
153 174 0
155 176 0
153 174 0
153 174 0
154 175 0
154 175 0
156 176 0
153 174 0
155 175 0
152 174 0
155 175 0
154 173 0
153 174 0
155 175 0
154 174 0
155 175 0
121 143 81
51 82 132
49 79 123
49 79 125
47 76 122
49 79 124
49 78 127
48 77 129
50 80 129
47 75 122
48 76 122
48 77 129
48 77 124
46 73 123
45 72 118
44 70 124
44 70 115
45 72 118
43 69 117
41 67 111
45 73 119
41 67 119
42 67 115
42 68 116
41 66 115
40 65 111
38 63 107
40 65 115
36 59 110
36 59 101
38 61 108
34 56 103
36 58 100
33 55 101
32 53 99
35 58 110
30 50 95
27 45 87
26 44 86
41 67 126
57 91 162
57 91 159
60 95 168
58 93 161
59 95 161
59 95 164
59 95 170
60 95 165
60 96 165
60 96 169
60 97 168
61 96 169
61 97 165
61 98 170
61 97 171
60 97 169
62 98 171
62 99 176
61 98 171
60 97 171
62 99 176
62 99 179
62 99 177
61 98 171
61 98 177
61 98 170
62 99 177
61 98 173
62 98 175
61 98 174
62 99 177
61 98 176
61 98 176
61 98 175
61 98 171
61 98 176
62 99 178
61 98 175
61 98 170
62 99 177
62 99 178
61 98 176
61 98 177
61 98 173
62 99 178
62 99 177
61 99 180
61 98 176
61 98 175
61 98 178
61 98 177
62 99 177
61 98 178
61 98 175
61 98 175
61 98 179
61 97 175
60 97 176
61 97 174
61 97 171
61 97 176
61 98 176
60 96 172
61 98 176
60 97 175
61 98 174
59 94 168
60 96 174
60 97 175
60 96 172
59 95 170
60 96 172
61 97 175
60 96 172
59 93 163
61 97 174
61 97 175
60 96 170
59 95 172
60 95 170
58 92 162
58 92 159
60 95 165
59 94 167
60 95 165
58 92 160
60 95 169
60 95 167
60 94 164
60 95 159
58 92 156
58 92 160
59 93 160
60 95 158
59 95 161
59 93 157
60 95 161
59 93 157
60 95 158
60 96 161
59 94 147
134 159 96
168 191 0
170 193 0
170 195 0
166 189 0
173 196 0
172 195 0
167 190 0
170 193 0
168 192 0
170 193 0
169 192 0
154 171 23
147 154 46
132 125 48
112 92 40
113 96 47
107 85 37
110 91 39
119 101 54
121 101 50
114 94 40
111 92 42
97 79 35
113 96 48
113 94 49
115 93 41
98 77 30
121 101 45
112 93 44
114 94 42
114 94 40
104 86 32
112 90 39
106 88 43
109 89 37
119 101 48
118 98 46
119 99 44
108 87 37
105 86 33
108 88 38
121 98 40
105 86 37
112 93 38
119 96 41
110 90 44
120 100 45
121 100 48
115 94 37
105 86 30
126 107 56
121 101 42
118 97 44
110 91 39
115 94 45
109 89 39
117 98 49
123 104 48
102 80 32
113 93 42
114 94 43
121 102 49
108 85 35
118 95 37
111 90 37
121 102 51
122 100 46
117 97 43
118 101 50
125 103 49
106 87 37
108 86 37
103 81 35
112 90 37
117 101 44
133 131 31
151 158 32
164 180 21
172 195 0
173 196 0
171 194 0
171 193 0
174 197 0
169 192 0
173 196 0
171 195 0
172 196 0
170 193 0
172 195 0
170 193 0
172 196 0
173 196 0
171 195 0
173 196 0
173 195 0
171 194 0
174 197 0
171 193 0
171 195 0
172 196 0
171 194 0
173 197 0
171 195 0
170 193 0
173 196 0
171 194 0
173 196 0
172 196 0
173 196 0
171 195 0
173 196 0
172 195 0
172 195 0
175 197 0
173 197 0
173 197 0
172 195 0
170 194 0
173 197 0
171 194 0
173 197 0
174 197 0
171 195 0
173 197 0
173 196 0
174 197 0
172 195 0
175 198 0
172 195 0
173 197 0
172 195 0
173 196 0
172 194 0
171 194 0
172 195 0
174 197 0
173 197 0
175 197 0
174 198 0
172 195 0
172 194 0
173 196 0
173 197 0
172 195 0
171 195 0
172 196 0
173 196 0
171 195 0
174 197 0
173 197 0
173 196 0
175 197 0
174 197 0
173 196 0
174 196 0
172 196 0
173 197 0
173 196 0
173 196 0
173 196 0
173 196 0
171 196 0
171 195 0
174 197 0
172 195 0
173 196 0
174 197 0
172 196 0
172 195 0
174 197 0
171 195 0
173 196 0
171 195 0
172 195 0
173 197 0
171 195 0
172 195 0
173 196 0
171 195 0
172 195 0
171 195 0
171 195 0
171 195 0
172 195 0
172 195 0
172 196 0
170 194 0
172 195 0
172 196 0
171 194 0
171 194 0
171 194 0
172 195 0
171 195 0
161 183 0
153 174 0
154 175 0
154 175 0
154 175 0
153 174 0
154 175 0
156 177 0
156 177 0
154 175 0
155 176 0
154 175 0
153 175 0
154 175 0
155 176 0
155 176 0
154 174 0
154 175 0
154 175 0
154 175 0
156 177 0
153 175 0
154 175 0
155 176 0
155 176 0
155 176 0
153 174 0
152 173 0
154 174 0
154 174 0
153 174 0
155 175 0
154 175 0
154 175 0
154 175 0
153 174 0
154 174 0
154 175 0
155 175 0
153 174 0
155 176 0
155 175 0
155 175 0
154 175 0
154 175 0
152 173 0
154 175 0
153 174 0
155 176 0
155 175 0
153 174 0
153 174 0
154 175 0
153 174 0
154 175 0
154 174 0
154 174 0
155 175 0
154 174 0
152 174 0
154 174 0
153 175 0
155 175 0
154 175 0
124 144 81
49 79 120
49 78 124
48 78 123
48 77 125
48 77 123
49 78 130
48 77 120
48 77 123
47 75 123
46 74 122
49 78 130
46 74 124
45 73 128
45 73 117
42 68 116
43 69 114
44 70 121
46 74 124
42 68 116
42 67 112
42 68 121
41 66 117
38 63 108
41 66 119
38 63 109
39 64 110
40 65 116
39 64 114
36 59 103
35 58 102
37 61 110
30 50 94
34 56 104
33 54 99
25 43 86
28 47 89
27 45 81
33 54 99
54 87 150
54 87 152
59 95 168
58 93 162
58 92 156
58 94 167
60 96 167
61 98 171
60 96 165
60 96 169
60 96 166
61 97 168
61 98 171
61 97 168
61 98 175
61 97 168
62 99 177
61 98 174
61 98 173
61 97 172
62 99 174
61 97 170
62 99 175
62 98 172
61 98 175
61 98 173
61 98 177
61 98 173
62 99 177
62 99 176
62 98 175
61 98 177
61 98 172
61 98 175
61 98 174
61 98 170
61 98 173
61 98 172
61 98 175
62 99 176
62 98 175
61 98 177
61 98 172
61 98 174
61 98 177
61 97 170
61 98 173
61 98 175
61 98 174
61 98 178
61 98 176
62 99 177
61 98 173
61 98 176
61 97 175
61 98 179
61 98 177
61 98 177
60 96 173
60 96 169
60 95 171
60 97 175
61 98 176
60 96 174
60 96 174
61 98 177
60 96 174
60 96 171
59 95 171
61 98 177
60 95 170
60 96 173
60 96 173
60 96 172
59 95 169
59 94 165
60 96 169
60 95 166
61 97 174
59 94 166
60 95 171
59 93 165
58 92 162
60 95 166
59 94 169
58 93 165
59 92 161
58 92 162
59 93 160
59 94 164
59 95 169
59 92 158
59 94 161
60 94 159
59 94 159
57 91 148
59 94 164
59 93 157
59 93 159
60 95 158
59 93 158
59 94 154
72 103 148
161 185 45
168 192 0
168 191 0
169 192 0
168 191 0
167 190 0
169 192 0
168 192 0
162 182 19
143 152 37
119 110 43
119 100 47
100 79 30
103 85 37
110 91 41
117 96 46
117 97 47
101 84 37
111 91 41
109 88 36
104 83 34
103 82 32
116 95 39
118 95 40
103 85 35
108 90 39
107 87 30
114 94 44
113 97 41
113 90 37
105 86 38
116 96 41
110 89 36
107 87 36
109 91 44
110 89 42
118 99 42
116 96 47
109 89 39
115 95 41
114 91 39
121 100 45
117 97 44
129 108 52
118 99 45
104 83 28
116 96 40
105 85 36
116 96 43
121 101 44
115 93 41
107 87 36
112 92 41
113 91 37
114 94 40
117 97 45
120 101 46
111 94 41
111 91 39
115 92 38
118 98 47
124 107 54
108 86 37
109 89 36
108 89 39
120 103 51
107 85 31
116 97 45
120 100 45
117 96 46
106 85 36
119 101 47
104 83 37
111 91 43
120 104 57
113 97 48
117 101 48
113 93 41
117 105 42
138 135 41
155 169 17
167 187 11
174 196 0
171 194 0
170 193 0
171 194 0
173 196 0
172 196 0
172 196 0
172 195 0
166 190 0
174 198 0
171 195 0
173 196 0
173 196 0
171 195 0
170 193 0
174 197 0
173 196 0
170 194 0
171 194 0
175 197 0
171 194 0
171 194 0
171 193 0
168 192 0
173 195 0
172 195 0
173 196 0
173 196 0
171 195 0
174 196 0
171 194 0
174 197 0
173 195 0
173 196 0
172 195 0
173 196 0
171 195 0
173 197 0
169 192 0
174 196 0
172 196 0
174 197 0
174 197 0
173 197 0
172 196 0
171 194 0
173 196 0
172 196 0
169 193 0
172 196 0
173 197 0
172 195 0
173 196 0
173 196 0
173 196 0
173 196 0
175 197 0
171 194 0
174 197 0
172 196 0
171 195 0
173 197 0
173 196 0
174 197 0
173 196 0
173 196 0
175 198 0
175 198 0
172 195 0
174 196 0
172 195 0
172 196 0
174 197 0
174 197 0
173 196 0
174 197 0
173 197 0
171 195 0
173 196 0
173 196 0
172 196 0
172 196 0
173 196 0
171 195 0
172 195 0
174 197 0
174 197 0
172 195 0
174 197 0
173 196 0
172 195 0
173 196 0
173 196 0
173 195 0
174 197 0
173 196 0
172 196 0
173 196 0
171 195 0
172 195 0
172 195 0
172 194 0
173 196 0
173 196 0
172 196 0
172 195 0
172 195 0
170 192 0
169 193 0
171 195 0
172 195 0
170 193 0
165 188 0
154 175 0
155 175 0
155 175 0
154 175 0
153 175 0
154 175 0
155 175 0
154 175 0
154 175 0
154 175 0
154 174 0
155 175 0
154 175 0
154 175 0
153 174 0
153 174 0
154 175 0
154 175 0
156 176 0
156 176 0
153 174 0
155 176 0
154 175 0
155 176 0
153 174 0
154 175 0
154 174 0
154 174 0
156 176 0
155 175 0
154 175 0
153 174 0
153 174 0
152 174 0
153 174 0
154 174 0
153 173 0
155 176 0
153 174 0
153 174 0
152 173 0
154 174 0
154 175 0
154 175 0
155 175 0
154 175 0
155 175 0
155 175 0
153 175 0
154 175 0
152 174 0
154 175 0
153 174 0
153 174 0
153 175 0
155 175 0
153 175 0
153 174 0
153 174 0
153 174 0
153 174 0
153 173 0
153 175 0
133 155 63
51 81 130
49 79 117
50 80 133
49 78 129
47 76 118
47 76 122
47 75 120
49 78 122
46 74 123
46 73 117
46 73 118
47 75 125
45 72 117
46 74 123
44 70 124
44 72 123
43 70 116
44 71 120
44 70 116
40 66 108
44 71 117
41 67 114
41 66 112
40 65 111
40 65 114
38 62 109
39 63 108
39 64 115
34 56 104
30 49 89
34 56 99
36 58 106
33 54 95
32 52 99
32 54 97
30 50 91
30 49 92
47 76 129
57 92 160
56 90 148
58 94 163
59 94 160
60 96 167
59 94 165
60 96 162
60 96 164
61 97 172
60 97 170
61 97 166
60 97 162
61 97 169
60 97 169
61 98 172
61 98 175
62 98 168
61 97 167
61 97 169
61 98 171
61 98 168
61 98 171
61 98 171
61 98 172
61 98 174
61 98 172
61 98 176
61 98 176
61 98 175
62 99 174
62 99 180
62 98 175
62 99 176
61 98 172
61 98 171
61 99 177
61 98 177
62 99 177
61 98 177
61 98 176
62 99 177
61 98 176
61 98 177
61 98 175
61 98 176
61 98 177
61 98 177
60 97 173
61 98 175
61 98 177
62 99 179
60 97 173
61 99 177
61 97 174
61 98 176
62 99 176
61 98 176
61 98 176
60 95 170
62 99 179
60 96 173
61 98 177
60 96 171
60 95 172
61 97 173
61 97 176
60 96 173
60 97 178
61 97 172
60 96 172
60 97 175
61 97 173
60 95 170
60 97 173
60 95 168
59 95 172
58 92 161
60 96 174
59 94 166
60 95 169
59 94 166
60 93 159
58 93 163
59 94 165
59 94 162
59 93 160
59 92 157
59 94 166
57 91 157
59 95 167
60 94 162
58 91 160
58 92 156
59 93 159
59 92 155
59 94 161
60 95 162
59 93 157
58 92 156
59 93 158
60 95 159
59 94 154
59 94 148
100 127 134
168 191 0
171 194 0
169 192 0
169 191 0
164 183 12
145 156 33
119 109 34
110 91 39
108 90 40
105 83 33
112 93 45
109 90 38
115 97 43
111 94 46
110 90 40
113 94 43
102 85 41
107 88 39
119 101 48
113 95 39
117 97 45
117 96 43
114 96 44
101 81 36
116 93 40
110 92 43
105 85 34
107 88 32
116 96 42
112 89 32
110 92 46
116 95 38
119 98 42
115 94 37
112 91 39
113 93 39
119 98 43
106 89 36
105 84 35
115 95 35
99 80 28
111 93 44
110 91 39
125 105 48
111 93 43
110 90 41
111 91 39
118 99 47
114 95 41
119 101 47
115 95 40
121 103 47
112 94 41
110 90 42
108 89 38
114 93 36
116 95 43
117 96 43
120 100 43
119 100 46
104 80 26
115 96 43
113 91 39
115 94 43
114 93 42
115 96 46
103 84 37
117 99 46
112 93 40
104 84 35
113 91 37
119 99 44
114 94 42
110 87 34
112 94 45
113 96 43
114 94 44
115 93 38
116 95 45
114 95 44
131 115 57
134 138 28
148 161 18
167 188 12
173 196 0
171 194 0
169 193 0
173 195 0
173 196 0
170 193 0
170 194 0
172 196 0
173 196 0
172 195 0
171 195 0
169 192 0
174 197 0
171 194 0
168 191 0
171 194 0
172 195 0
174 197 0
170 194 0
173 195 0
173 196 0
171 194 0
173 196 0
171 194 0
171 194 0
173 196 0
171 194 0
172 195 0
172 195 0
170 194 0
170 194 0
171 195 0
172 195 0
172 196 0
170 194 0
173 196 0
172 195 0
171 194 0
173 196 0
166 189 0
173 197 0
174 197 0
171 194 0
172 194 0
171 193 0
170 194 0
173 197 0
173 196 0
175 197 0
172 195 0
173 196 0
172 196 0
174 197 0
172 196 0
174 197 0
174 197 0
174 197 0
171 195 0
173 197 0
172 196 0
171 195 0
170 194 0
169 193 0
173 196 0
173 197 0
173 196 0
173 196 0
173 196 0
174 197 0
173 196 0
171 195 0
173 197 0
172 196 0
173 196 0
174 197 0
173 196 0
172 195 0
173 197 0
174 197 0
173 195 0
173 196 0
173 196 0
172 196 0
173 196 0
174 196 0
172 196 0
173 195 0
172 195 0
172 196 0
173 196 0
174 197 0
173 196 0
171 195 0
171 194 0
171 194 0
172 195 0
172 196 0
173 196 0
171 195 0
171 194 0
173 196 0
171 194 0
171 195 0
173 196 0
171 195 0
171 194 0
170 193 0
172 195 0
172 195 0
169 191 0
154 175 0
152 174 0
154 174 0
153 174 0
155 175 0
155 176 0
154 175 0
154 175 0
153 173 0
154 175 0
153 175 0
153 174 0
154 174 0
154 175 0
155 176 0
155 175 0
154 175 0
153 173 0
155 174 0
152 173 0
155 175 0
154 175 0
153 174 0
152 173 0
154 175 0
155 176 0
154 175 0
153 175 0
153 173 0
155 175 0
154 175 0
154 175 0
153 174 0
153 174 0
153 174 0
153 174 0
152 173 0
154 175 0
154 176 0
154 175 0
156 176 0
155 175 0
153 174 0
154 175 0
154 174 0
154 174 0
155 175 0
153 174 0
153 174 0
153 174 0
155 175 0
156 176 0
154 175 0
155 176 0
154 175 0
153 174 0
153 175 0
153 173 0
155 176 0
153 174 0
155 176 0
154 175 0
154 175 0
149 170 20
50 79 127
49 78 120
49 78 119
48 77 118
47 75 118
49 78 124
47 75 121
48 76 128
45 73 115
45 73 119
45 72 113
45 72 109
48 77 123
47 75 121
45 72 124
43 70 116
45 72 118
44 71 110
46 74 126
43 70 119
40 65 107
38 62 111
41 66 115
38 63 106
38 63 109
41 66 113
37 60 103
35 57 105
39 64 112
38 62 108
33 54 98
31 52 92
31 51 99
30 50 91
26 43 83
33 54 102
32 53 102
56 89 154
57 91 150
57 91 157
58 93 160
59 94 158
59 94 166
59 95 164
60 95 161
60 96 164
60 96 167
61 97 169
61 97 169
60 96 163
60 97 169
60 97 173
61 97 166
61 98 171
61 97 168
61 97 169
62 99 176
61 98 175
61 97 168
61 98 175
61 98 176
61 98 174
62 99 177
61 98 176
61 98 172
61 98 176
61 98 175
61 97 169
61 98 172
61 98 174
62 98 173
62 99 178
61 98 174
62 99 176
61 98 174
61 98 176
62 99 175
62 98 175
61 98 172
61 98 175
62 99 178
62 99 178
61 98 177
61 98 175
62 98 175
61 98 178
61 98 175
61 98 178
61 97 172
61 97 172
60 97 171
60 97 169
61 98 178
61 97 173
60 96 174
61 98 177
61 98 179
61 98 174
61 97 174
60 97 172
60 96 173
61 98 176
61 97 171
61 97 175
59 94 167
61 97 176
60 96 171
60 94 165
61 98 175
60 96 174
61 96 169
59 93 163
59 95 168
58 92 163
58 92 161
59 94 168
60 95 170
59 94 167
60 96 168
59 94 166
58 93 165
57 91 157
57 90 154
59 92 161
57 91 157
59 95 165
59 93 161
60 95 167
59 93 163
58 91 155
58 92 155
58 92 157
60 93 155
58 90 147
59 92 155
59 92 152
59 92 155
58 92 161
59 94 158
59 92 147
59 92 146
60 94 151
140 164 83
170 192 0
160 178 25
129 126 34
113 95 46
111 93 46
109 88 39
110 90 45
113 94 45
105 88 38
98 79 31
104 84 33
109 90 41
108 89 41
122 105 53
114 95 46
106 87 38
104 86 29
121 102 50
105 85 35
125 103 47
108 90 38
117 100 47
113 92 44
105 85 33
105 86 40
112 91 40
117 96 40
117 96 41
120 103 53
112 91 38
113 92 37
120 99 44
111 92 38
113 93 41
110 89 35
110 91 38
107 90 42
116 98 41
119 100 41
108 89 39
115 95 42
118 95 36
107 85 36
112 89 40
101 84 37
116 94 36
111 89 37
119 98 43
108 85 32
114 93 42
103 83 35
106 84 33
118 99 47
119 97 41
117 95 46
117 96 32
103 83 30
119 99 43
119 99 47
117 96 40
117 99 44
109 88 36
111 90 40
116 94 41
116 97 44
118 98 43
126 105 48
114 94 42
112 91 42
114 92 39
117 98 47
112 91 38
118 100 47
112 93 40
117 100 46
121 101 47
109 86 39
105 84 30
110 90 38
102 85 34
117 96 45
123 104 51
124 104 47
127 127 36
155 167 30
171 194 0
172 196 0
173 195 0
171 195 0
170 193 0
174 196 0
170 195 0
171 194 0
171 194 0
173 196 0
172 196 0
173 196 0
171 194 0
174 196 0
172 195 0
171 194 0
173 197 0
170 193 0
172 195 0
172 194 0
174 197 0
175 198 0
174 196 0
171 194 0
173 195 0
170 193 0
170 193 0
171 195 0
172 195 0
171 195 0
173 196 0
173 196 0
173 196 0
171 194 0
175 198 0
173 196 0
174 197 0
171 195 0
172 196 0
174 197 0
173 197 0
175 198 0
174 197 0
173 197 0
175 197 0
169 192 0
171 194 0
172 196 0
172 195 0
173 197 0
173 196 0
171 194 0
174 197 0
173 196 0
174 196 0
171 194 0
174 197 0
173 196 0
173 197 0
172 195 0
171 194 0
175 197 0
173 196 0
173 196 0
172 196 0
174 197 0
172 196 0
172 196 0
174 197 0
171 195 0
173 196 0
173 196 0
173 196 0
172 196 0
173 196 0
174 196 0
174 197 0
172 196 0
173 195 0
173 196 0
172 195 0
171 195 0
171 195 0
174 197 0
173 196 0
172 195 0
171 195 0
172 196 0
172 195 0
172 195 0
172 195 0
172 195 0
172 195 0
170 193 0
174 197 0
171 195 0
172 194 0
171 195 0
171 195 0
171 194 0
170 194 0
172 195 0
170 193 0
172 195 0
171 194 0
171 195 0
171 194 0
171 194 0
155 175 0
154 175 0
154 175 0
156 176 0
154 175 0
153 175 0
154 174 0
153 174 0
154 175 0
155 175 0
155 175 0
155 176 0
153 174 0
153 175 0
154 175 0
154 175 0
153 174 0
155 176 0
154 175 0
154 175 0
155 176 0
154 175 0
153 174 0
155 175 0
155 176 0
155 175 0
155 175 0
154 175 0
154 174 0
153 174 0
154 175 0
152 173 0
155 175 0
153 174 0
154 174 0
154 175 0
155 176 0
154 174 0
154 175 0
154 175 0
154 175 0
153 174 0
155 175 0
154 174 0
155 176 0
154 175 0
154 175 0
155 176 0
155 175 0
153 174 0
154 175 0
155 175 0
155 176 0
152 173 0
153 174 0
152 173 0
154 174 0
154 175 0
154 174 0
155 175 0
154 175 0
152 173 0
153 174 0
150 170 30
50 80 129
50 80 126
48 77 122
48 77 125
48 76 123
48 76 129
46 74 122
46 74 118
48 76 123
47 76 125
45 72 115
45 72 112
42 69 116
43 70 110
43 69 112
43 70 116
43 69 115
42 68 112
43 69 115
41 66 110
41 66 109
43 70 116
39 64 105
41 67 113
40 65 110
38 62 107
35 57 103
38 62 108
36 59 103
37 60 104
33 55 95
31 52 87
33 55 95
34 55 100
31 52 93
24 41 78
49 79 140
55 88 152
55 89 149
58 94 157
57 92 158
58 92 160
59 94 160
60 96 163
60 96 159
59 95 162
60 95 165
61 98 172
59 95 161
60 97 165
61 97 169
61 97 166
62 99 176
61 98 173
61 98 171
61 98 172
61 98 171
61 98 171
61 98 174
62 99 176
60 97 164
61 98 176
61 97 167
61 98 172
61 98 174
61 98 173
62 99 176
61 98 171
62 98 172
61 98 172
61 98 171
61 98 171
61 98 171
61 98 173
62 98 174
61 98 178
61 98 176
61 98 173
61 98 175
61 97 169
61 98 175
61 98 171
62 98 176
61 97 175
62 98 174
61 98 176
61 98 179
61 98 173
61 98 172
61 98 178
61 96 168
60 97 174
61 98 175
61 98 176
60 97 174
60 97 173
60 97 174
60 96 171
61 97 172
60 96 169
60 96 170
60 95 169
61 96 171
60 96 172
59 94 164
59 95 171
60 95 167
60 95 169
60 96 173
59 95 170
59 94 165
60 96 172
59 94 165
60 95 166
59 94 167
58 93 165
59 93 162
59 94 165
58 92 161
60 95 166
58 91 158
59 94 165
58 92 163
60 94 160
58 91 157
59 93 162
59 93 160
58 92 162
58 91 157
59 93 157
59 93 157
58 92 158
59 92 155
59 92 157
59 93 160
59 92 155
58 91 147
60 95 162
58 92 152
58 91 141
59 92 145
59 92 144
95 107 108
123 117 42
101 81 36
103 86 40
100 81 30
111 95 47
115 98 51
99 81 41
106 87 32
104 86 31
113 93 40
114 95 46
104 84 32
104 85 39
109 88 35
109 86 33
110 91 39
111 89 39
108 90 42
110 92 43
114 97 47
114 93 42
105 85 38
108 88 36
113 94 43
104 85 37
117 95 41
100 78 25
107 89 37
111 90 42
126 106 47
114 94 32
106 81 27
116 98 47
105 82 33
113 93 40
116 95 41
104 83 33
101 82 38
109 90 38
118 99 40
106 87 37
112 88 37
104 81 32
111 91 34
114 96 40
109 87 29
116 97 44
115 96 44
120 97 39
117 96 44
107 86 35
111 93 43
110 90 42
115 94 37
118 95 38
102 79 26
109 89 38
104 84 31
119 100 46
115 93 43
117 96 41
115 92 34
112 94 46
108 88 36
114 93 38
119 99 40
114 92 38
112 94 44
117 100 46
115 94 43
107 90 44
113 92 42
111 90 39
116 94 44
115 96 46
113 93 38
124 107 53
119 99 44
117 97 46
109 88 39
121 102 51
116 96 42
108 89 39
109 90 35
122 102 52
110 95 38
147 151 43
158 174 23
170 192 0
170 194 0
171 194 0
173 197 0
170 193 0
171 194 0
172 195 0
173 195 0
173 195 0
172 197 0
172 194 0
170 194 0
170 193 0
172 195 0
172 194 0
172 195 0
173 197 0
172 196 0
175 196 0
171 194 0
171 195 0
171 194 0
173 195 0
172 196 0
170 193 0
171 193 0
172 196 0
172 194 0
172 196 0
173 197 0
174 197 0
175 197 0
171 194 0
172 195 0
172 195 0
173 196 0
170 195 0
173 196 0
170 193 0
170 195 0
171 194 0
170 193 0
173 197 0
172 195 0
173 195 0
171 195 0
173 196 0
174 197 0
172 195 0
172 196 0
174 196 0
174 197 0
175 198 0
171 195 0
170 193 0
170 194 0
173 196 0
169 193 0
174 197 0
172 196 0
173 197 0
174 197 0
173 196 0
173 196 0
174 197 0
172 196 0
173 196 0
172 196 0
174 197 0
173 196 0
173 196 0
172 195 0
173 196 0
173 196 0
173 196 0
173 196 0
174 197 0
173 196 0
171 195 0
173 196 0
172 195 0
173 196 0
173 195 0
171 196 0
173 196 0
170 194 0
170 194 0
172 195 0
172 195 0
173 196 0
171 195 0
171 195 0
171 194 0
172 195 0
171 194 0
171 194 0
170 193 0
172 195 0
171 194 0
171 194 0
171 195 0
172 195 0
169 194 0
171 194 0
173 195 0
157 179 0
154 175 0
154 174 0
155 175 0
156 176 0
155 175 0
157 176 0
155 176 0
153 174 0
155 175 0
157 177 0
154 175 0
153 174 0
154 175 0
154 175 0
155 175 0
154 174 0
152 173 0
153 174 0
154 175 0
155 175 0
155 176 0
154 175 0
153 174 0
154 176 0
154 174 0
154 174 0
155 175 0
154 175 0
154 175 0
154 175 0
152 174 0
155 175 0
152 173 0
154 175 0
153 173 0
152 173 0
155 175 0
154 175 0
154 175 0
153 174 0
154 174 0
156 176 0
155 176 0
152 173 0
153 174 0
153 174 0
154 175 0
152 173 0
153 174 0
155 175 0
152 172 0
154 175 0
155 175 0
155 175 0
154 175 0
156 176 0
155 176 0
154 175 0
153 174 0
152 173 0
153 174 0
153 174 0
154 175 0
59 87 120
48 78 115
49 78 122
51 81 128
50 79 125
48 78 127
47 75 116
48 77 124
47 76 119
46 73 110
46 74 117
43 70 111
45 72 115
45 72 118
43 70 113
46 73 119
41 67 111
40 65 109
43 69 108
42 68 114
43 69 119
41 66 109
40 64 104
35 58 95
37 60 109
37 60 103
35 58 103
33 55 100
32 53 95
33 55 99
32 53 96
33 54 99
31 51 93
31 52 91
32 52 94
43 69 120
55 87 148
57 91 158
58 93 156
57 91 156
60 96 163
60 95 160
61 97 167
62 98 169
61 98 171
61 97 167
61 97 166
61 97 172
61 98 174
61 97 168
60 96 165
62 98 171
60 97 165
61 97 167
62 98 170
62 98 170
61 98 171
62 99 178
61 98 168
61 97 170
62 99 172
62 99 175
62 99 172
61 98 171
62 98 167
62 99 177
61 98 174
61 98 173
61 98 172
61 98 172
61 98 174
61 97 168
61 98 177
61 97 171
61 98 168
62 99 177
61 98 174
61 98 175
61 98 174
61 98 173
60 97 169
62 99 177
61 98 173
60 95 169
61 98 174
61 98 176
61 98 174
60 97 168
61 98 177
61 97 174
61 97 174
61 98 173
61 98 174
60 97 176
61 98 176
61 98 177
60 96 174
60 95 167
60 95 168
61 97 176
61 96 171
61 96 172
60 96 170
59 94 169
60 97 172
60 95 170
59 94 166
59 95 172
60 96 171
59 93 162
61 96 171
60 95 171
59 93 165
60 95 167
61 97 174
59 94 166
58 93 165
56 90 158
58 92 162
59 94 169
58 91 154
58 92 162
58 92 162
57 91 161
58 92 161
56 89 152
58 92 159
58 92 158
59 93 161
58 91 158
57 90 152
57 91 156
57 91 151
58 92 157
58 91 150
56 88 144
56 87 139
58 92 148
57 90 145
58 92 148
79 91 120
104 93 74
110 93 42
110 90 41
100 82 32
111 94 40
96 79 31
109 91 43
114 96 46
98 79 37
103 86 38
102 84 40
103 86 37
106 87 39
100 82 35
107 89 39
103 81 26
107 86 38
103 85 38
107 86 36
108 89 38
109 87 36
107 86 29
105 84 33
105 84 37
117 97 44
113 95 41
110 87 34
121 103 46
109 92 36
111 90 35
121 104 45
100 83 35
113 93 36
114 95 47
113 95 39
108 86 33
107 90 36
110 89 37
114 93 44
109 92 43
105 85 30
106 86 36
115 95 44
113 93 40
113 91 34
106 88 36
106 85 31
109 90 33
117 97 40
112 92 35
118 98 41
114 95 40
119 99 47
109 86 30
118 94 37
112 93 34
114 94 40
104 86 33
105 85 34
114 91 33
124 103 48
114 93 36
108 85 33
117 98 45
111 91 37
107 84 30
115 97 44
105 83 35
112 93 40
108 87 33
107 88 37
115 94 38
102 83 36
114 95 39
113 95 44
106 88 39
103 82 37
117 99 48
114 91 39
113 95 44
114 94 41
112 92 41
120 102 46
108 87 37
116 97 44
118 97 42
108 90 40
115 95 43
109 91 35
119 101 50
119 108 32
140 146 26
171 193 5
170 193 0
172 194 0
173 196 0
171 194 0
171 194 0
173 197 0
173 195 0
172 195 0
170 193 0
174 197 0
169 193 0
171 194 0
172 195 0
173 197 0
173 196 0
171 194 0
170 193 0
173 196 0
172 195 0
173 196 0
174 197 0
173 196 0
173 196 0
173 196 0
170 193 0
174 197 0
173 196 0
173 196 0
173 196 0
172 195 0
172 195 0
170 194 0
173 196 0
171 194 0
172 195 0
172 194 0
172 195 0
171 195 0
171 195 0
172 196 0
173 196 0
174 197 0
172 195 0
173 197 0
172 196 0
173 196 0
172 195 0
174 197 0
171 194 0
176 198 0
173 197 0
173 196 0
173 196 0
170 194 0
172 196 0
172 196 0
173 196 0
173 196 0
172 196 0
173 196 0
172 195 0
173 197 0
173 196 0
175 197 0
173 196 0
174 197 0
174 196 0
173 196 0
174 197 0
171 195 0
173 196 0
172 196 0
174 197 0
173 196 0
174 197 0
171 195 0
172 195 0
171 195 0
174 197 0
171 195 0
173 195 0
172 196 0
174 196 0
172 195 0
172 195 0
172 194 0
171 194 0
173 196 0
174 196 0
171 195 0
172 196 0
173 196 0
171 194 0
171 194 0
172 195 0
171 193 0
171 194 0
171 194 0
170 193 0
169 193 0
171 194 0
170 193 0
160 181 0
155 175 0
154 175 0
155 175 0
154 175 0
153 174 0
154 175 0
155 176 0
155 176 0
154 174 0
155 175 0
152 173 0
153 175 0
155 175 0
154 175 0
152 173 0
153 174 0
154 174 0
153 174 0
155 176 0
154 175 0
155 175 0
154 175 0
154 175 0
153 174 0
155 175 0
154 175 0
153 173 0
155 175 0
154 174 0
155 175 0
156 176 0
156 176 0
155 175 0
154 175 0
153 175 0
154 174 0
155 176 0
152 174 0
155 175 0
154 174 0
154 174 0
155 175 0
153 173 0
155 176 0
155 175 0
153 174 0
152 173 0
153 174 0
155 175 0
152 173 0
153 174 0
155 176 0
155 175 0
153 174 0
154 175 0
154 175 0
155 176 0
154 175 0
152 174 0
154 174 0
154 175 0
154 174 0
153 174 0
78 102 105
48 77 121
49 78 121
48 77 118
46 75 115
47 76 119
45 72 109
46 74 115
46 73 111
46 74 111
45 73 117
44 71 113
44 71 127
46 73 113
44 71 117
42 68 112
44 70 114
40 65 114
43 69 114
42 68 117
39 63 102
40 65 104
38 62 101
37 60 104
35 57 98
38 62 101
35 57 101
34 56 97
33 54 94
30 49 87
32 52 92
31 52 88
28 47 83
29 47 85
31 51 94
52 83 141
56 89 143
58 92 154
59 94 164
59 93 157
60 95 159
59 94 161
60 96 163
59 94 157
60 96 163
60 97 167
60 97 168
61 97 166
61 98 169
61 97 166
61 97 166
61 97 169
61 98 169
61 98 170
62 98 170
61 98 173
61 97 169
62 99 176
61 98 169
61 98 170
61 98 171
61 98 173
61 98 175
62 98 173
61 98 171
62 99 171
61 98 172
61 98 171
60 97 163
61 98 172
61 98 175
61 98 170
61 98 170
61 97 172
62 98 170
62 98 173
62 99 176
60 97 172
61 97 171
62 99 174
61 97 170
61 97 166
61 98 179
60 97 171
62 98 175
61 98 173
60 96 168
61 98 174
60 96 168
61 97 170
61 97 174
62 99 178
62 99 176
60 97 171
60 96 172
61 97 175
61 97 175
60 96 174
61 97 172
60 96 171
60 95 167
59 93 166
61 97 172
60 96 171
59 95 166
60 95 169
59 94 168
59 94 167
59 95 168
59 95 172
59 93 162
60 95 168
58 92 162
59 93 162
60 95 169
59 93 163
59 93 163
59 94 165
58 92 163
59 93 162
59 94 164
59 93 164
59 93 162
57 90 152
57 91 155
58 92 163
57 91 157
58 91 157
58 91 155
58 91 157
57 91 155
58 91 152
58 91 157
57 89 147
58 90 144
58 92 155
57 90 150
59 93 159
76 91 126
94 85 67
117 98 47
104 85 42
88 70 30
99 83 40
108 87 38
108 90 40
102 84 31
103 87 39
101 83 38
105 87 37
109 89 32
105 85 33
108 91 42
108 90 25
103 85 31
104 85 38
102 84 36
112 93 39
100 80 35
98 77 29
99 78 31
114 94 41
108 88 38
105 85 34
108 88 39
109 91 38
107 88 35
111 93 43
105 84 32
114 98 49
118 96 43
100 80 30
100 79 28
108 89 39
109 89 32
121 100 44
107 86 32
107 85 30
108 86 24
119 97 40
102 82 32
112 91 38
113 94 43
105 83 25
104 81 26
106 90 42
111 91 38
113 91 36
111 90 36
113 94 37
114 92 37
116 99 43
116 96 39
102 81 37
105 85 36
105 85 30
112 93 43
109 88 37
117 97 41
105 84 32
109 89 34
118 99 44
109 86 33
113 94 43
118 100 47
108 88 37
116 94 41
119 97 42
119 100 50
112 88 32
110 91 41
108 87 29
110 90 36
111 93 39
109 89 38
112 90 35
116 93 42
106 85 38
104 80 32
111 88 33
109 88 38
109 90 40
110 90 40
110 89 39
117 99 45
114 93 37
110 92 43
116 96 42
119 102 53
112 93 44
118 99 45
116 98 48
107 90 40
119 103 47
140 145 34
168 187 19
171 195 0
173 197 0
172 195 0
171 194 0
171 194 0
172 196 0
172 195 0
172 194 0
172 195 0
173 196 0
171 194 0
173 196 0
171 193 0
173 196 0
174 197 0
173 195 0
174 197 0
173 197 0
170 194 0
174 196 0
171 194 0
172 195 0
172 195 0
173 197 0
171 194 0
174 197 0
170 193 0
172 195 0
170 193 0
174 197 0
174 197 0
174 197 0
173 195 0
171 195 0
174 195 0
174 197 0
174 197 0
169 193 0
174 198 0
173 196 0
170 193 0
172 196 0
173 197 0
174 197 0
175 198 0
173 196 0
172 195 0
173 197 0
173 196 0
172 195 0
172 195 0
173 196 0
172 196 0
171 195 0
171 195 0
172 195 0
172 196 0
172 195 0
172 195 0
170 195 0
170 194 0
175 198 0
173 196 0
174 197 0
173 196 0
173 196 0
174 197 0
172 195 0
174 196 0
175 197 0
173 196 0
171 194 0
172 196 0
173 196 0
172 195 0
173 196 0
174 196 0
172 196 0
170 194 0
175 197 0
170 194 0
170 194 0
171 195 0
173 196 0
171 194 0
171 194 0
174 196 0
173 195 0
172 195 0
172 196 0
170 194 0
171 194 0
171 194 0
169 193 0
169 192 0
171 194 0
172 195 0
172 195 0
171 194 0
171 193 0
159 181 0
154 175 0
155 176 0
154 175 0
154 175 0
155 176 0
154 175 0
154 174 0
155 175 0
153 174 0
154 175 0
154 175 0
153 175 0
153 174 0
155 176 0
154 175 0
154 175 0
154 174 0
154 175 0
151 172 0
153 174 0
153 175 0
154 175 0
155 176 0
154 174 0
154 175 0
154 175 0
154 175 0
153 174 0
153 174 0
155 175 0
153 174 0
153 175 0
154 175 0
154 175 0
152 172 0
154 175 0
154 175 0
154 174 0
153 174 0
153 174 0
155 175 0
153 174 0
153 174 0
155 175 0
154 174 0
154 175 0
154 175 0
153 174 0
154 174 0
155 175 0
154 174 0
155 176 0
152 174 0
152 173 0
154 175 0
155 175 0
154 174 0
152 173 0
155 176 0
153 174 0
154 175 0
153 174 0
154 175 0
78 101 104
49 78 124
49 78 126
48 77 121
48 76 124
47 76 119
47 76 120
46 74 111
47 76 119
44 72 107
47 75 119
46 74 118
44 70 109
44 72 109
42 67 109
44 71 119
42 67 115
43 69 116
40 65 104
39 63 105
37 60 95
40 64 107
38 61 92
37 61 102
34 55 92
36 58 96
38 61 103
35 58 102
34 56 96
35 56 93
35 58 101
28 47 88
28 47 81
31 51 89
43 69 116
55 89 147
56 90 154
59 94 163
60 96 166
59 95 162
60 96 167
59 94 156
61 96 164
60 96 160
61 97 167
60 96 164
60 96 163
60 96 165
61 97 164
61 97 168
61 97 162
61 98 171
61 98 168
61 98 168
62 98 169
61 98 174
61 98 171
61 98 169
61 98 168
61 98 170
61 98 172
61 98 175
61 98 171
62 98 174
61 98 169
61 98 170
61 98 176
61 98 168
61 98 174
61 98 172
61 98 176
61 98 176
62 99 175
61 98 172
61 98 173
61 98 175
61 98 171
61 98 172
61 98 175
61 98 174
61 98 171
61 98 172
61 97 170
60 97 170
62 98 175
60 95 166
61 97 175
60 97 174
61 98 173
61 98 174
62 98 174
61 98 176
61 97 172
60 97 175
61 97 172
61 97 176
61 98 176
61 97 171
60 95 165
61 97 174
60 96 172
60 96 169
60 95 167
60 95 169
60 95 170
59 93 165
59 94 165
60 97 173
60 94 165
58 93 163
59 95 170
59 94 166
59 94 163
59 94 166
59 94 168
58 92 162
58 92 161
59 93 161
56 89 156
59 92 157
58 91 154
58 92 159
57 89 151
58 91 155
57 90 154
57 90 155
57 89 154
57 89 152
57 91 161
59 92 159
56 87 145
57 90 155
58 93 161
56 88 139
57 90 148
56 89 151
65 89 133
89 88 96
104 88 42
104 85 37
101 82 35
102 86 41
115 98 45
100 83 37
109 92 42
105 87 33
105 87 37
101 82 26
111 92 38
108 88 39
103 86 39
101 80 31
99 86 41
101 83 36
99 82 33
112 93 39
101 82 35
113 94 45
113 96 41
105 83 28
95 75 23
101 82 37
115 94 43
94 74 25
115 96 39
105 86 31
105 83 31
109 87 31
109 87 34
112 92 40
109 89 39
105 85 34
111 92 41
115 96 37
109 88 32
103 83 34
110 90 36
102 78 24
110 88 35
111 89 39
109 87 34
110 88 35
115 96 42
113 92 38
106 87 41
122 103 42
114 93 37
108 86 31
102 84 30
107 86 28
113 92 39
116 96 41
102 80 21
113 93 39
110 88 34
105 84 23
100 81 27
109 88 31
112 92 40
112 93 39
111 91 40
101 78 27
111 89 36
106 85 31
108 87 39
109 88 38
108 88 36
115 94 39
112 93 44
116 96 39
111 89 36
104 82 34
107 87 37
116 96 47
108 86 31
113 91 37
111 93 41
115 93 41
122 103 47
111 92 41
114 95 43
122 103 49
105 85 42
114 95 46
113 93 37
118 100 49
106 86 36
104 84 33
107 88 40
111 90 39
99 83 40
107 90 41
108 87 42
114 93 38
124 105 52
119 98 47
137 141 34
165 183 21
172 196 0
170 193 0
174 197 0
169 192 0
174 197 0
172 195 0
171 194 0
170 193 0
169 192 0
170 194 0
172 196 0
173 196 0
173 196 0
168 192 0
171 195 0
172 195 0
170 194 0
171 194 0
171 193 0
174 197 0
173 197 0
172 196 0
170 193 0
173 196 0
172 194 0
173 196 0
171 194 0
173 196 0
172 196 0
173 196 0
171 195 0
171 194 0
173 197 0
173 196 0
171 195 0
172 196 0
172 196 0
171 195 0
174 197 0
170 192 0
172 194 0
172 196 0
172 195 0
172 195 0
173 197 0
172 195 0
172 195 0
173 197 0
171 194 0
172 195 0
174 197 0
173 197 0
174 197 0
171 194 0
173 196 0
172 196 0
174 197 0
173 196 0
172 196 0
174 197 0
173 196 0
173 196 0
171 194 0
173 196 0
172 196 0
174 196 0
175 197 0
172 195 0
173 196 0
173 196 0
173 197 0
173 196 0
173 196 0
172 196 0
173 196 0
173 196 0
173 196 0
173 196 0
173 196 0
171 195 0
171 194 0
172 196 0
169 193 0
173 196 0
172 195 0
171 194 0
170 194 0
171 193 0
173 195 0
172 195 0
172 195 0
171 194 0
171 194 0
171 194 0
171 194 0
171 193 0
170 194 0
170 194 0
166 188 0
153 174 0
153 174 0
155 176 0
155 176 0
153 174 0
153 174 0
156 176 0
153 174 0
152 173 0
153 174 0
155 175 0
154 175 0
155 175 0
154 175 0
153 174 0
155 175 0
152 173 0
154 175 0
155 175 0
152 173 0
154 175 0
153 174 0
154 175 0
154 174 0
154 175 0
154 175 0
155 175 0
153 174 0
152 173 0
153 174 0
154 174 0
155 175 0
154 175 0
155 175 0
154 175 0
153 174 0
154 175 0
154 174 0
155 176 0
155 175 0
153 174 0
153 174 0
154 174 0
152 173 0
154 174 0
155 175 0
155 175 0
152 174 0
152 173 0
154 175 0
155 175 0
153 173 0
154 175 0
156 177 0
153 174 0
155 176 0
156 176 0
153 174 0
153 173 0
153 174 0
152 174 0
154 175 0
152 173 0
92 115 102
48 78 117
47 76 118
48 77 122
46 74 102
48 78 126
47 75 110
45 72 105
47 75 114
45 72 117
44 72 106
44 71 114
43 69 107
44 71 114
42 68 113
42 67 102
40 64 107
43 70 114
41 66 105
41 66 106
38 63 103
39 63 111
37 61 99
35 57 93
37 59 96
34 57 100
33 54 97
33 54 95
36 59 100
35 57 92
32 53 94
31 51 89
29 48 81
30 49 89
52 83 140
59 93 158
58 93 161
59 94 159
59 95 158
58 93 150
60 95 159
61 96 163
60 95 161
61 97 165
61 97 168
60 96 158
60 96 167
61 97 164
61 97 165
61 98 173
61 98 168
61 98 168
62 98 165
61 97 165
61 98 173
62 98 173
61 97 169
61 98 178
61 98 169
61 98 176
61 98 168
61 97 168
62 99 173
61 97 168
61 98 174
61 98 172
61 98 170
61 98 170
61 97 168
62 99 175
61 98 173
61 97 169
62 98 174
61 98 171
61 97 168
62 98 174
61 98 172
60 97 173
61 98 174
61 97 170
61 97 170
61 98 173
61 98 176
61 98 176
62 98 173
60 96 170
60 96 171
61 97 169
60 96 170
60 96 172
60 96 172
61 98 174
61 97 170
60 96 170
60 96 170
61 96 170
60 97 174
60 96 168
61 96 168
61 97 172
61 96 172
60 96 171
60 95 167
60 95 167
60 96 168
60 96 169
60 95 167
60 97 174
58 92 159
59 94 167
58 92 162
59 94 165
59 95 168
57 90 157
58 92 161
58 93 164
57 90 156
57 90 155
58 92 159
58 91 155
57 89 149
57 91 161
57 90 154
57 88 144
56 88 149
58 91 157
56 88 152
57 88 148
58 90 150
56 87 147
57 90 158
56 88 150
58 91 154
57 89 145
58 91 155
74 89 121
96 80 51
105 88 41
96 76 31
105 87 42
107 91 41
100 83 40
102 85 41
104 87 39
99 81 37
113 93 41
102 81 31
110 92 44
104 87 36
103 84 36
107 87 35
93 73 30
107 87 37
108 89 40
105 81 32
99 79 30
110 91 39
110 91 35
103 83 31
111 90 36
96 75 30
105 87 27
107 88 35
111 91 39
111 89 38
95 76 30
114 94 37
106 83 28
110 86 28
105 85 35
107 89 35
109 91 40
103 85 31
105 85 33
114 93 39
114 94 40
104 81 30
119 97 40
110 90 41
110 89 34
113 89 33
110 88 34
108 87 36
112 93 36
111 91 34
103 81 28
107 83 29
106 85 35
112 92 37
116 94 34
116 97 45
114 93 39
108 89 31
115 95 38
109 90 33
116 95 40
110 87 32
105 84 35
101 82 33
97 74 22
115 93 35
107 84 31
99 79 28
102 82 32
101 79 25
108 89 34
115 95 43
110 92 41
110 87 35
113 90 33
119 101 44
114 95 40
110 91 41
103 85 34
104 83 31
106 87 35
117 97 43
114 95 39
120 99 46
109 87 41
112 93 41
115 93 40
115 95 43
116 98 47
111 91 40
118 98 48
107 88 41
120 102 47
114 91 42
115 93 40
103 81 34
116 97 44
103 82 35
124 105 47
107 88 38
117 100 51
106 89 42
103 86 36
127 126 35
160 176 20
172 195 0
173 195 0
169 193 0
173 196 0
172 194 0
171 195 0
171 194 0
172 195 0
174 197 0
173 195 0
170 193 0
172 196 0
172 196 0
171 195 0
175 198 0
173 197 0
170 194 0
171 195 0
172 195 0
171 195 0
173 197 0
171 193 0
172 195 0
170 194 0
173 197 0
171 194 0
173 196 0
173 196 0
174 197 0
171 195 0
172 195 0
173 196 0
170 194 0
171 195 0
172 196 0
171 194 0
171 194 0
173 196 0
172 195 0
172 196 0
172 195 0
168 191 0
173 197 0
174 197 0
173 197 0
169 193 0
174 198 0
173 197 0
174 197 0
171 195 0
173 196 0
173 196 0
170 194 0
173 196 0
174 197 0
174 197 0
172 195 0
173 196 0
173 196 0
173 196 0
174 196 0
174 196 0
171 195 0
172 195 0
172 195 0
172 195 0
172 195 0
171 195 0
174 197 0
174 197 0
171 195 0
172 195 0
172 195 0
172 195 0
172 195 0
174 196 0
173 196 0
172 195 0
172 194 0
171 195 0
171 194 0
171 195 0
171 194 0
169 193 0
172 195 0
171 194 0
170 193 0
173 195 0
174 196 0
171 194 0
172 194 0
171 194 0
172 195 0
171 194 0
173 195 0
171 194 0
167 190 0
153 174 0
154 174 0
154 174 0
154 175 0
155 176 0
153 174 0
154 175 0
154 175 0
154 175 0
153 174 0
153 174 0
154 174 0
152 173 0
154 175 0
153 174 0
155 175 0
153 174 0
154 174 0
155 175 0
154 175 0
152 173 0
154 174 0
156 176 0
154 174 0
151 173 0
154 175 0
152 173 0
154 175 0
154 174 0
154 175 0
155 176 0
152 173 0
154 175 0
155 175 0
154 175 0
153 174 0
154 175 0
154 174 0
153 173 0
153 174 0
153 174 0
154 175 0
154 175 0
154 175 0
153 174 0
152 172 0
154 174 0
153 174 0
153 173 0
153 174 0
152 173 0
153 174 0
154 175 0
156 176 0
154 174 0
152 173 0
152 173 0
155 176 0
154 175 0
154 174 0
153 174 0
153 174 0
152 173 0
111 131 78
47 76 106
50 79 128
47 76 115
48 77 119
47 75 117
47 75 117
47 75 119
46 74 117
46 74 113
47 75 122
44 71 103
43 69 100
41 67 111
40 65 102
43 69 108
39 64 104
40 65 109
39 63 99
38 62 99
40 65 108
40 65 102
40 64 108
36 59 101
36 59 98
36 60 106
36 59 102
35 58 98
33 54 88
25 42 76
31 51 84
33 55 93
28 47 82
41 66 108
54 87 146
56 90 153
59 94 158
59 94 159
59 94 153
59 95 155
60 96 163
61 97 167
59 95 162
60 96 164
60 96 162
61 97 164
60 96 162
60 96 164
62 98 170
60 97 169
61 98 172
62 98 171
62 98 172
61 98 173
62 98 170
61 98 167
61 98 167
61 98 167
62 99 174
61 98 168
61 98 170
61 98 167
61 98 172
61 98 170
61 98 165
60 97 162
61 98 170
62 99 173
62 98 171
62 98 171
61 98 172
62 98 173
62 98 172
61 97 168
62 99 177
61 98 173
62 99 178
61 98 171
61 98 176
61 97 172
61 98 172
61 98 171
61 98 178
61 97 174
61 98 174
61 98 177
61 97 166
61 98 176
61 98 173
61 97 173
61 97 168
61 97 173
61 98 174
61 97 172
61 98 174
61 96 168
61 97 174
60 97 173
60 96 167
59 95 169
61 96 172
60 96 170
60 95 168
59 94 165
60 95 170
61 97 170
59 93 166
59 95 168
59 93 160
60 95 168
59 94 168
59 93 164
56 89 156
57 91 161
58 92 161
58 91 156
58 92 161
58 91 161
58 91 154
57 90 155
57 90 154
57 91 157
56 88 154
56 89 153
57 90 155
57 89 151
57 89 149
58 90 154
58 89 146
56 87 146
56 89 152
57 89 152
56 87 142
59 84 138
90 79 67
100 86 40
95 77 33
109 90 43
108 88 42
112 94 48
110 91 38
99 82 42
106 89 42
105 88 41
102 83 36
94 75 30
109 86 32
109 90 37
99 79 31
102 84 35
112 94 43
97 78 38
103 81 28
104 82 27
98 80 33
102 84 35
110 92 36
108 88 37
108 89 39
104 83 33
112 92 39
97 75 24
101 82 37
105 84 29
112 96 43
108 86 33
107 88 41
105 84 33
113 91 40
106 84 29
113 92 36
97 78 25
108 87 34
111 91 35
105 85 31
107 88 39
106 88 36
110 88 32
99 78 31
114 92 31
116 96 40
103 84 28
117 96 41
112 87 28
105 85 34
106 88 42
105 87 35
107 85 35
99 77 23
111 90 40
112 89 40
115 93 35
118 97 41
104 83 34
113 95 45
114 94 35
113 90 34
107 86 34
120 98 41
108 89 33
110 90 34
121 100 41
119 98 41
108 87 29
107 84 32
122 100 44
120 100 36
104 83 30
111 92 33
102 80 29
114 94 38
106 82 30
95 76 30
95 74 21
110 87 36
107 88 40
112 92 36
116 95 38
118 98 42
103 82 34
117 97 38
109 92 45
113 93 41
111 91 38
113 93 41
108 90 40
114 93 40
101 79 33
110 90 39
113 94 37
109 90 37
109 90 40
108 89 37
116 99 51
105 85 38
109 91 43
119 99 50
117 99 46
117 96 41
120 102 50
136 136 33
164 181 17
170 193 0
169 193 0
175 198 0
171 194 0
170 194 0
170 193 0
172 195 0
169 192 0
168 191 0
169 192 0
173 197 0
171 194 0
172 195 0
171 193 0
172 195 0
172 195 0
173 196 0
172 194 0
171 194 0
173 196 0
173 197 0
173 196 0
170 193 0
171 194 0
173 196 0
173 195 0
173 196 0
172 196 0
171 193 0
172 196 0
172 195 0
173 196 0
173 196 0
171 194 0
171 195 0
174 197 0
175 198 0
172 195 0
169 192 0
172 195 0
171 195 0
172 195 0
172 196 0
169 191 0
175 198 0
172 195 0
174 197 0
173 196 0
172 195 0
172 196 0
172 195 0
173 196 0
172 195 0
171 195 0
173 196 0
173 196 0
172 195 0
172 196 0
171 194 0
173 196 0
172 195 0
172 195 0
171 195 0
172 196 0
170 194 0
174 196 0
173 196 0
174 197 0
171 195 0
173 196 0
171 195 0
171 195 0
172 195 0
171 195 0
172 195 0
173 196 0
172 195 0
172 195 0
173 196 0
171 194 0
174 197 0
172 195 0
169 192 0
170 194 0
172 196 0
170 193 0
170 194 0
170 193 0
170 193 0
170 193 0
172 195 0
170 193 0
170 193 0
170 193 0
169 192 0
155 175 0
153 174 0
153 174 0
154 175 0
155 175 0
155 175 0
154 174 0
154 175 0
154 174 0
156 176 0
154 174 0
153 174 0
154 174 0
154 175 0
153 174 0
152 173 0
154 175 0
151 172 0
153 174 0
154 174 0
154 175 0
153 173 0
153 174 0
155 176 0
154 175 0
152 172 0
155 175 0
155 175 0
155 175 0
152 174 0
154 175 0
154 175 0
152 173 0
153 174 0
154 174 0
154 175 0
155 175 0
153 174 0
152 173 0
153 174 0
152 173 0
153 174 0
154 174 0
155 175 0
153 173 0
153 174 0
155 175 0
153 174 0
154 175 0
154 175 0
155 175 0
152 174 0
153 173 0
151 172 0
153 174 0
153 174 0
156 176 0
154 175 0
153 173 0
153 174 0
154 175 0
153 174 0
154 175 0
112 133 90
49 78 112
47 76 121
46 73 115
48 76 118
47 75 117
48 76 115
47 75 113
47 75 112
43 70 99
44 70 112
45 72 115
42 68 109
45 72 116
44 70 108
44 71 110
41 66 112
41 66 105
42 67 107
42 67 110
39 64 100
40 65 112
39 63 102
36 59 98
37 59 97
37 60 104
34 56 93
35 57 93
36 58 101
31 51 89
28 46 77
28 46 80
30 49 81
51 82 135
55 88 152
58 93 148
57 92 153
59 95 157
60 96 158
59 94 157
59 95 161
60 96 161
60 95 160
60 96 160
61 97 163
61 98 167
61 98 171
60 96 162
61 98 169
61 97 163
61 98 171
61 98 169
61 98 167
61 98 170
62 98 173
61 98 172
61 98 170
62 98 173
61 98 169
62 98 173
61 98 168
61 98 171
61 97 166
61 98 168
62 99 177
62 98 174
61 98 172
62 99 177
61 98 177
62 99 174
61 98 170
61 97 168
61 97 169
61 98 169
62 98 175
62 99 175
62 98 175
61 98 173
61 97 171
61 98 173
60 97 169
61 98 172
62 98 170
60 97 172
61 97 169
60 96 168
61 97 171
61 97 169
61 97 172
61 96 166
61 98 172
61 96 170
61 97 173
60 96 168
61 97 169
60 97 174
61 97 172
59 95 168
60 96 166
60 95 168
59 94 165
59 95 168
60 96 168
59 94 170
60 97 173
60 95 167
59 94 159
60 96 167
60 95 169
58 92 156
60 95 166
58 91 155
57 90 152
57 91 160
57 91 159
59 93 166
57 92 161
56 90 158
58 91 154
58 90 152
57 89 156
56 88 148
55 86 147
56 89 154
57 89 150
55 87 145
55 87 149
57 88 147
55 85 137
56 88 150
57 88 145
54 84 131
82 94 128
97 82 56
106 87 40
93 74 27
99 81 36
94 78 37
99 79 30
108 90 40
105 88 38
97 79 35
103 86 42
105 87 41
101 81 30
103 84 31
97 81 29
94 75 30
105 84 38
99 82 29
104 81 24
100 80 31
112 91 39
102 82 25
97 76 30
112 92 43
106 85 36
96 75 23
108 87 36
110 89 35
114 93 39
103 81 33
115 92 36
114 93 39
102 78 24
105 85 33
114 90 33
104 84 32
107 86 37
105 84 36
113 95 44
108 89 35
114 93 39
105 86 31
103 84 30
114 94 42
106 85 29
105 83 31
118 97 43
106 87 36
114 91 37
106 84 33
111 89 29
118 96 40
110 88 30
105 85 29
106 86 35
118 97 38
107 83 18
115 93 35
107 88 38
124 104 45
102 81 30
111 89 38
113 89 32
115 93 33
101 78 28
107 86 32
107 85 32
115 93 35
107 86 31
107 90 38
110 91 38
105 84 21
106 86 34
113 91 34
112 91 37
105 85 36
110 90 43
115 94 34
113 91 33
113 89 31
112 87 31
111 91 34
108 91 36
118 98 42
98 76 27
110 94 42
107 86 37
115 94 43
112 95 40
113 94 37
106 87 34
111 90 35
118 97 47
109 89 39
100 81 30
106 87 37
105 87 39
104 82 29
115 97 41
112 93 39
107 87 36
108 89 42
101 83 37
105 84 36
107 85 37
102 85 38
112 93 39
119 101 51
118 99 49
115 99 48
141 143 39
166 186 11
171 194 0
171 194 0
173 196 0
172 196 0
172 194 0
170 193 0
171 196 0
171 194 0
171 194 0
173 196 0
172 196 0
172 195 0
172 196 0
171 193 0
174 197 0
174 198 0
171 194 0
173 196 0
173 196 0
171 195 0
174 197 0
173 197 0
169 192 0
172 195 0
172 195 0
170 194 0
172 195 0
173 196 0
171 195 0
173 197 0
171 195 0
169 192 0
173 196 0
171 195 0
170 194 0
174 197 0
167 190 0
170 194 0
170 193 0
171 194 0
173 196 0
168 192 0
171 194 0
171 194 0
174 197 0
171 195 0
173 197 0
173 196 0
171 195 0
174 197 0
170 193 0
172 195 0
171 195 0
172 196 0
172 196 0
172 196 0
172 195 0
172 196 0
173 196 0
172 196 0
172 196 0
174 197 0
173 196 0
171 195 0
172 194 0
173 195 0
173 196 0
170 194 0
172 195 0
171 195 0
172 195 0
171 195 0
171 195 0
172 195 0
171 195 0
171 194 0
171 194 0
173 196 0
173 195 0
172 195 0
173 196 0
171 194 0
170 193 0
171 195 0
171 194 0
170 194 0
170 193 0
171 194 0
172 195 0
170 193 0
170 193 0
171 193 0
170 193 0
155 176 0
153 174 0
154 175 0
151 172 0
154 174 0
152 172 0
154 175 0
153 174 0
153 175 0
151 173 0
152 173 0
153 173 0
152 174 0
153 173 0
154 174 0
154 175 0
154 174 0
152 173 0
155 175 0
154 175 0
154 175 0
152 173 0
156 176 0
153 174 0
153 173 0
154 174 0
154 175 0
155 175 0
154 175 0
154 174 0
151 171 0
154 175 0
155 175 0
154 175 0
152 173 0
153 174 0
153 174 0
152 173 0
153 174 0
153 174 0
154 174 0
153 174 0
154 175 0
155 176 0
152 173 0
154 174 0
155 176 0
154 174 0
155 174 0
152 173 0
153 173 0
154 175 0
153 174 0
152 173 0
154 174 0
152 173 0
154 175 0
152 173 0
154 175 0
153 174 0
152 172 0
153 174 0
153 173 0
121 142 76
49 78 124
47 76 109
47 76 115
45 73 110
46 74 114
47 75 115
47 76 115
45 73 100
44 71 110
45 72 100
45 71 113
42 67 101
44 70 107
41 66 98
41 67 106
42 67 108
42 67 107
43 70 115
40 64 107
40 65 98
41 67 108
41 65 106
37 61 93
37 61 96
36 59 96
36 59 103
35 57 92
29 48 79
33 54 91
30 50 84
29 47 85
37 61 98
53 85 139
56 89 149
57 92 157
59 95 156
58 94 159
59 94 157
61 97 166
59 94 154
61 96 162
61 97 164
61 97 165
61 97 167
61 97 163
61 97 165
61 97 166
60 96 164
61 98 166
62 98 172
61 97 165
62 98 171
62 98 167
62 98 171
61 98 165
61 98 169
62 99 175
61 98 169
61 98 170
61 98 173
61 97 166
61 98 168
61 98 170
61 98 170
62 99 175
61 98 169
61 98 169
61 98 167
61 97 166
62 98 175
61 98 171
62 99 176
61 97 166
61 98 168
61 97 171
61 98 168
61 98 172
62 98 171
62 98 175
61 98 173
62 99 175
60 97 173
61 98 173
61 98 173
61 97 172
61 97 174
61 97 172
61 97 169
61 96 166
61 97 172
59 95 167
60 96 171
61 97 170
61 97 168
60 96 169
60 96 171
60 95 166
60 95 168
60 95 166
60 95 168
60 95 168
60 96 171
58 93 162
59 94 165
58 91 153
59 94 167
58 92 161
59 92 160
56 90 158
57 91 158
58 92 162
58 92 159
59 93 162
59 94 167
58 91 158
57 90 157
56 89 155
56 88 150
55 87 152
58 91 157
57 90 153
58 90 151
56 88 150
56 88 152
56 87 146
56 87 145
54 84 135
55 86 148
56 85 134
54 85 142
78 83 113
100 85 47
101 86 46
97 81 36
101 83 35
98 83 39
109 93 45
93 74 32
100 81 32
109 89 34
100 82 35
106 86 34
91 72 27
103 83 34
95 77 31
97 80 36
99 80 31
97 78 34
100 80 31
94 75 18
101 79 33
100 78 29
101 83 35
108 85 32
105 83 29
105 85 33
105 88 38
104 82 24
108 85 37
110 90 36
103 83 31
110 89 33
102 79 31
106 88 35
101 81 24
95 72 22
100 78 24
102 81 35
111 91 40
93 72 19
113 91 34
112 92 35
108 87 35
107 86 31
121 102 42
112 91 30
104 84 32
110 91 30
112 93 34
105 86 36
109 87 32
110 88 31
113 90 31
110 90 37
99 82 27
112 92 40
118 96 38
106 84 33
111 90 35
102 78 27
103 84 29
107 85 31
116 92 35
104 84 28
112 91 37
107 87 36
100 78 28
110 88 34
106 84 30
110 89 36
108 87 36
111 92 38
102 82 29
101 81 37
118 95 36
109 89 38
115 92 32
107 88 32
109 89 38
108 88 32
107 86 31
106 84 31
114 95 40
114 97 37
120 99 40
110 88 33
96 74 18
117 99 43
104 83 28
111 91 44
104 83 32
105 84 28
113 95 42
107 85 27
110 90 37
107 87 38
105 83 30
114 94 37
107 87 32
108 90 42
115 96 42
113 94 41
108 90 40
115 95 42
110 89 35
104 84 32
103 82 29
118 100 48
104 85 37
118 99 49
97 80 35
106 85 37
115 100 45
146 150 32
172 195 11
168 191 0
172 194 0
174 196 0
173 196 0
172 195 0
174 197 0
172 195 0
173 197 0
171 194 0
172 195 0
170 194 0
171 195 0
172 196 0
169 192 0
170 194 0
172 195 0
171 193 0
172 194 0
171 193 0
173 196 0
173 196 0
171 194 0
170 193 0
173 195 0
173 196 0
172 194 0
172 194 0
173 196 0
170 192 0
172 196 0
175 198 0
174 197 0
172 196 0
168 191 0
172 196 0
173 197 0
172 195 0
171 194 0
172 195 0
172 196 0
173 197 0
174 198 0
169 193 0
173 196 0
172 196 0
174 196 0
173 196 0
173 196 0
171 194 0
174 197 0
174 196 0
171 195 0
173 196 0
172 196 0
172 196 0
171 195 0
173 196 0
173 196 0
172 195 0
172 195 0
172 195 0
173 196 0
171 194 0
171 194 0
172 195 0
172 195 0
173 196 0
171 195 0
173 196 0
172 196 0
172 196 0
171 195 0
172 195 0
172 195 0
171 195 0
174 196 0
170 194 0
172 195 0
171 194 0
171 194 0
173 195 0
172 194 0
171 195 0
173 195 0
173 195 0
172 194 0
172 195 0
170 194 0
171 193 0
172 194 0
170 193 0
160 181 0
154 174 0
154 174 0
154 174 0
152 174 0
155 176 0
154 175 0
156 176 0
154 175 0
154 174 0
152 173 0
155 175 0
153 174 0
154 174 0
152 174 0
154 175 0
155 175 0
153 175 0
153 173 0
154 174 0
155 175 0
154 175 0
153 174 0
155 175 0
152 173 0
155 175 0
154 175 0
153 174 0
154 174 0
154 175 0
153 174 0
154 174 0
152 174 0
151 173 0
153 174 0
155 175 0
152 173 0
154 174 0
155 176 0
153 174 0
151 173 0
155 175 0
152 174 0
152 173 0
154 175 0
155 175 0
153 174 0
154 175 0
153 174 0
152 172 0
154 174 0
153 173 0
153 174 0
153 174 0
155 175 0
154 174 0
154 175 0
155 175 0
153 174 0
154 175 0
154 174 0
154 175 0
153 173 0
136 157 57
49 79 112
47 75 110
49 77 118
47 75 109
47 74 114
47 75 114
48 77 116
44 70 103
44 71 106
46 73 113
42 68 100
44 70 107
45 72 111
42 68 108
40 65 97
42 68 115
42 67 106
38 62 89
41 66 105
37 60 93
42 67 110
36 59 93
37 60 100
36 59 99
35 58 96
35 58 93
33 53 90
31 51 85
29 49 83
29 48 83
27 45 76
46 74 118
58 92 159
56 90 145
58 93 150
59 94 155
59 95 155
59 94 157
59 95 159
60 95 161
60 96 159
61 96 160
60 96 161
61 97 164
60 96 160
60 96 159
60 96 160
61 98 169
62 98 166
61 97 166
61 98 167
62 99 173
61 97 165
61 98 169
61 97 163
61 98 170
61 97 169
61 98 165
61 98 168
61 97 164
61 97 165
61 97 165
61 98 166
62 99 175
61 97 162
61 98 169
61 98 168
61 98 168
61 97 166
61 98 170
62 99 174
61 98 173
61 98 169
62 98 173
61 97 168
60 96 165
61 98 170
61 98 172
61 97 166
62 99 171
61 97 172
62 98 167
61 97 171
61 97 170
60 96 166
61 97 170
61 97 172
61 98 176
59 95 165
60 96 165
60 96 164
60 95 163
60 95 165
60 96 170
60 95 166
62 98 175
59 94 167
59 94 164
59 94 166
61 96 172
58 92 158
60 96 169
58 92 160
59 93 164
60 96 170
59 94 163
59 93 164
60 94 166
59 94 162
57 92 163
56 89 151
58 92 159
57 91 160
57 90 154
59 93 160
57 90 154
57 90 154
56 89 152
57 89 152
57 88 141
56 89 148
56 88 146
57 88 150
57 89 152
57 88 144
57 87 143
55 86 144
55 86 140
61 88 145
81 78 90
92 76 36
91 74 32
99 79 36
101 82 38
98 81 41
103 82 34
92 74 26
107 88 42
101 86 40
95 75 27
97 79 28
101 80 27
99 84 36
90 68 25
97 80 28
106 86 37
94 73 24
94 71 19
105 84 35
110 92 36
106 83 34
93 74 27
107 88 36
99 78 33
114 92 34
108 86 30
108 87 29
102 84 34
111 91 33
97 77 30
99 79 33
102 83 27
100 80 25
99 82 33
105 85 30
100 80 32
95 75 25
107 87 26
108 86 33
115 93 39
106 86 23
110 92 34
108 88 32
105 80 26
107 86 35
109 86 29
110 90 33
110 88 31
110 87 34
111 91 29
114 93 38
102 78 21
115 95 35
98 77 30
109 87 32
109 89 35
104 80 27
105 85 28
105 84 31
106 83 27
107 84 31
115 94 34
109 90 29
108 88 35
116 92 34
107 89 38
103 82 27
108 84 34
107 85 28
116 94 31
105 84 31
108 86 31
112 90 33
102 79 23
109 85 29
103 83 30
112 91 38
113 95 40
108 89 26
103 82 33
109 89 34
105 86 36
106 86 32
116 94 37
104 82 25
111 90 40
115 94 42
112 90 36
96 78 31
112 92 42
108 83 31
106 83 32
114 97 39
107 87 36
105 84 27
109 91 38
110 89 36
111 87 35
104 81 27
108 92 42
112 91 44
112 93 39
122 103 45
104 84 37
101 83 32
116 95 41
111 93 36
120 100 46
105 87 44
109 90 40
110 92 45
101 79 31
118 99 45
104 86 34
123 112 42
161 178 21
172 195 0
170 193 0
171 193 0
170 192 0
172 195 0
170 193 0
173 196 0
171 195 0
169 191 0
172 195 0
173 196 0
173 197 0
173 196 0
170 194 0
171 194 0
170 193 0
171 196 0
170 193 0
171 195 0
172 195 0
170 194 0
173 196 0
174 197 0
172 194 0
172 195 0
171 194 0
172 196 0
172 196 0
172 196 0
168 192 0
172 195 0
173 197 0
172 196 0
174 197 0
172 195 0
171 194 0
171 195 0
173 196 0
171 194 0
174 196 0
172 196 0
170 194 0
171 194 0
173 196 0
172 196 0
174 197 0
173 196 0
172 195 0
173 196 0
171 195 0
173 196 0
171 195 0
171 195 0
173 196 0
171 194 0
175 197 0
171 195 0
175 197 0
172 195 0
172 195 0
172 195 0
171 194 0
173 196 0
171 195 0
172 195 0
173 195 0
172 195 0
174 197 0
172 196 0
172 195 0
173 195 0
172 195 0
170 193 0
172 195 0
172 194 0
171 195 0
170 194 0
174 196 0
172 195 0
171 194 0
171 194 0
171 194 0
171 194 0
171 194 0
171 194 0
172 195 0
169 192 0
171 194 0
169 192 0
170 193 0
162 183 0
153 174 0
153 174 0
154 175 0
153 174 0
155 175 0
152 173 0
154 174 0
153 174 0
152 174 0
152 173 0
155 176 0
153 173 0
154 175 0
154 174 0
154 175 0
153 173 0
153 174 0
155 175 0
154 174 0
152 173 0
154 174 0
154 175 0
152 172 0
155 176 0
153 174 0
154 175 0
153 174 0
153 174 0
152 174 0
153 174 0
152 173 0
153 174 0
152 173 0
153 174 0
155 175 0
154 174 0
153 174 0
154 175 0
153 174 0
154 174 0
153 174 0
153 173 0
152 173 0
153 174 0
152 172 0
153 174 0
154 174 0
154 175 0
152 173 0
154 174 0
153 174 0
152 173 0
153 173 0
153 174 0
155 176 0
153 173 0
153 174 0
154 175 0
152 173 0
153 174 0
155 176 0
153 174 0
144 164 33
48 76 114
48 76 111
48 77 111
47 76 112
49 78 122
46 74 115
47 76 113
44 71 107
46 74 113
45 71 108
45 72 110
43 70 114
44 71 109
43 69 111
43 69 112
39 63 97
42 67 108
37 60 90
39 64 97
42 67 100
39 64 106
38 62 96
35 58 83
35 57 98
33 54 88
34 56 83
33 54 80
31 52 84
29 48 81
30 48 83
34 55 94
53 86 141
57 91 154
59 94 156
58 93 152
59 94 157
59 94 149
59 94 156
59 94 158
60 96 155
60 96 160
60 96 156
61 97 163
61 97 165
61 97 169
61 98 167
61 98 167
61 97 165
61 97 165
61 97 166
60 96 161
61 97 165
61 97 163
61 97 165
60 96 157
61 98 166
61 97 164
62 98 173
61 98 168
61 98 170
62 98 169
61 98 171
62 99 174
61 98 170
61 98 168
62 99 174
61 97 167
61 98 173
61 97 166
61 97 171
60 97 165
62 98 172
60 96 165
61 98 170
62 99 173
61 98 170
61 98 170
61 97 170
61 97 167
61 98 174
61 97 167
61 97 169
62 98 172
60 96 166
61 97 167
59 95 160
61 97 168
61 96 169
61 96 168
61 97 173
60 96 167
61 97 169
60 96 167
60 96 171
59 93 162
59 95 165
61 97 171
61 96 169
59 94 161
60 95 166
59 94 160
59 93 162
58 91 160
59 94 164
59 94 162
57 91 160
60 95 167
59 94 165
57 91 161
58 92 159
58 91 156
58 91 155
60 94 164
58 92 158
56 88 152
56 88 151
57 90 155
58 91 156
57 89 155
55 86 148
56 88 154
54 85 143
55 87 147
56 87 145
55 86 145
53 82 129
54 84 142
54 84 140
96 91 88
111 94 48
92 75 35
110 94 47
95 79 34
106 88 40
109 91 43
98 77 31
91 77 35
104 88 40
109 92 44
99 81 38
100 82 34
102 83 37
99 82 35
100 80 30
104 87 36
95 73 28
104 86 36
109 89 34
100 79 28
90 72 22
104 85 36
100 84 36
101 81 34
104 83 29
106 86 35
100 81 28
102 80 17
111 89 36
112 91 36
102 82 33
114 93 38
112 93 33
102 80 26
108 86 31
113 89 25
114 92 37
107 88 36
99 79 23
109 89 30
102 80 32
95 78 27
102 83 34
102 77 23
112 89 34
110 92 35
100 81 24
107 86 34
111 89 32
109 85 25
114 94 41
106 85 30
103 85 29
112 92 38
116 94 35
99 79 26
105 82 27
114 92 30
113 98 39
108 87 27
116 96 41
109 90 35
111 89 24
101 80 28
113 93 38
102 84 26
106 86 28
107 85 30
111 92 32
113 91 35
103 80 26
104 81 28
118 101 41
118 98 38
114 94 41
107 88 30
114 91 33
115 95 42
103 84 32
111 94 37
108 87 28
97 77 30
109 89 32
109 87 33
108 89 35
109 89 29
107 86 27
104 82 32
103 82 27
114 93 38
105 85 30
112 91 33
98 80 32
110 89 39
104 86 38
111 92 41
101 83 33
95 75 30
101 81 28
98 80 28
105 83 31
103 86 32
111 89 36
106 85 33
104 86 41
116 95 43
107 86 37
109 90 41
111 90 38
115 95 45
112 92 42
100 83 37
102 86 35
112 92 44
102 82 38
101 83 39
110 91 40
136 145 29
168 189 11
173 196 0
174 197 0
171 195 0
167 190 0
171 194 0
170 194 0
172 196 0
172 196 0
172 195 0
170 194 0
169 193 0
174 197 0
172 196 0
173 195 0
174 197 0
171 194 0
173 196 0
172 195 0
171 195 0
172 195 0
173 197 0
171 195 0
171 193 0
173 196 0
173 196 0
173 196 0
170 194 0
171 194 0
173 196 0
171 194 0
172 195 0
175 197 0
172 195 0
172 195 0
173 196 0
171 194 0
173 195 0
172 195 0
173 196 0
173 197 0
173 197 0
173 196 0
173 197 0
173 196 0
171 194 0
173 196 0
172 195 0
171 195 0
170 194 0
169 192 0
173 195 0
173 196 0
172 195 0
173 196 0
171 195 0
173 196 0
171 194 0
172 194 0
172 195 0
172 196 0
173 196 0
172 195 0
171 195 0
171 194 0
173 196 0
171 195 0
171 194 0
171 195 0
170 194 0
171 194 0
171 195 0
171 195 0
172 195 0
171 194 0
171 194 0
173 196 0
171 195 0
172 195 0
170 193 0
171 194 0
170 193 0
172 195 0
171 194 0
169 192 0
169 193 0
172 194 0
170 193 0
171 193 0
164 185 0
153 174 0
152 173 0
154 175 0
156 176 0
153 174 0
154 175 0
153 174 0
153 174 0
153 174 0
154 174 0
152 173 0
153 174 0
154 175 0
152 173 0
153 174 0
154 174 0
154 175 0
153 173 0
154 175 0
151 171 0
153 174 0
155 175 0
153 173 0
153 174 0
152 174 0
153 174 0
156 176 0
154 174 0
154 174 0
153 174 0
153 173 0
154 174 0
153 174 0
154 174 0
152 173 0
154 174 0
154 174 0
153 174 0
152 173 0
151 172 0
153 174 0
153 174 0
153 173 0
153 174 0
154 174 0
154 174 0
154 174 0
154 175 0
154 174 0
152 173 0
153 173 0
155 176 0
153 173 0
154 175 0
153 174 0
154 175 0
154 175 0
154 174 0
153 174 0
154 175 0
153 174 0
153 173 0
148 168 22
49 78 115
49 77 107
46 74 101
45 73 109
46 73 101
45 71 109
47 75 111
46 74 114
43 70 102
42 67 100
45 72 107
44 70 106
44 71 107
42 68 99
37 60 92
38 62 99
39 62 102
39 63 91
42 66 106
37 60 93
39 63 96
37 60 83
33 54 87
34 55 87
32 52 78
36 58 92
33 53 87
29 49 73
30 49 80
31 51 81
41 67 105
57 91 143
59 94 155
59 93 153
57 92 149
60 96 166
59 94 158
60 96 158
60 96 165
59 95 159
61 97 162
60 96 162
60 97 161
61 97 161
61 97 159
62 98 170
61 98 165
62 98 170
61 98 165
61 97 163
60 96 155
61 97 163
61 97 169
61 98 165
61 98 172
61 98 167
60 97 165
60 97 165
62 98 170
61 97 157
61 98 168
61 98 168
61 97 167
61 98 174
60 97 166
61 98 171
61 97 168
62 98 174
62 98 174
61 98 170
61 98 171
61 97 167
61 97 170
62 98 168
62 98 172
61 98 171
61 97 168
61 98 173
61 97 170
61 98 172
61 97 170
61 97 169
61 97 170
61 97 172
61 97 173
60 95 158
61 97 166
61 96 168
60 96 165
60 96 165
60 95 163
61 96 168
60 96 167
60 95 165
60 95 167
60 97 173
61 97 171
60 94 161
59 94 162
60 95 164
60 96 166
59 94 164
57 91 160
57 90 153
58 92 161
59 94 163
58 93 163
56 89 156
59 92 160
59 94 165
58 92 158
57 91 161
57 91 161
56 89 152
56 89 152
56 88 149
54 86 149
55 86 142
57 89 149
57 88 148
55 87 147
56 88 153
54 85 144
54 85 143
53 83 136
56 86 142
55 85 145
84 84 86
107 89 45
103 87 42
89 72 30
95 73 21
88 71 30
89 72 24
97 80 41
94 76 31
87 69 26
91 73 28
98 79 29
101 80 32
99 81 35
100 79 33
106 88 36
89 71 24
106 87 37
102 84 32
100 80 27
98 77 23
97 79 32
107 87 38
99 78 25
106 84 30
103 83 27
106 84 32
94 75 25
107 88 31
100 81 27
98 79 28
105 84 23
115 94 38
109 90 40
100 82 28
105 85 26
101 79 26
102 80 22
105 84 26
101 83 29
104 81 19
120 97 40
106 91 32
107 87 29
104 81 20
109 87 27
107 88 27
96 77 23
110 89 35
101 82 18
102 80 29
104 81 19
99 78 27
102 83 29
107 87 31
108 87 27
104 84 28
112 91 36
104 82 23
107 84 24
106 84 25
98 74 23
112 91 29
108 89 39
105 83 32
109 86 31
106 82 25
112 91 33
108 86 26
111 91 34
107 87 35
109 88 32
109 86 24
110 86 30
102 80 23
108 86 26
106 81 23
111 89 38
100 79 23
112 94 36
98 78 27
107 85 28
113 94 35
103 81 28
113 90 30
112 93 32
104 84 29
108 89 31
106 85 32
105 83 37
107 85 29
109 88 36
107 85 34
102 78 28
117 99 47
100 82 35
105 83 30
106 87 34
112 93 36
102 82 26
101 84 32
107 89 41
108 89 36
107 87 33
111 89 35
105 84 31
119 101 46
110 92 44
103 82 32
118 98 44
117 95 42
117 97 46
109 90 39
101 82 36
106 88 42
112 93 46
108 88 39
118 99 41
99 79 36
109 90 45
114 108 30
157 175 11
170 193 0
170 194 0
172 195 0
170 193 0
171 195 0
173 196 0
172 196 0
172 195 0
172 196 0
173 196 0
170 193 0
173 195 0
171 194 0
174 197 0
172 195 0
174 197 0
171 195 0
172 196 0
174 197 0
170 194 0
171 194 0
174 197 0
171 193 0
173 197 0
170 194 0
172 196 0
172 195 0
173 196 0
169 193 0
173 196 0
169 193 0
171 194 0
170 194 0
173 195 0
173 196 0
174 197 0
174 196 0
171 195 0
170 194 0
171 194 0
173 196 0
173 196 0
172 196 0
172 195 0
174 197 0
172 195 0
172 196 0
172 195 0
171 195 0
174 197 0
171 195 0
172 195 0
174 196 0
172 195 0
172 195 0
174 197 0
172 195 0
171 194 0
173 195 0
171 195 0
171 193 0
172 195 0
172 194 0
173 196 0
171 195 0
173 195 0
172 195 0
171 195 0
174 196 0
170 193 0
172 195 0
171 195 0
171 194 0
170 193 0
171 194 0
171 194 0
171 194 0
170 194 0
171 194 0
171 194 0
170 193 0
170 194 0
170 192 0
168 192 0
169 193 0
167 191 0
168 192 0
166 189 0
154 174 0
153 174 0
153 174 0
152 173 0
153 174 0
154 175 0
154 175 0
154 174 0
152 173 0
151 171 0
152 173 0
153 174 0
153 174 0
155 175 0
156 176 0
155 175 0
155 176 0
152 173 0
153 174 0
152 173 0
155 176 0
153 173 0
153 173 0
154 174 0
152 174 0
153 173 0
152 173 0
153 173 0
154 175 0
153 174 0
152 173 0
155 175 0
153 174 0
154 175 0
153 174 0
153 174 0
154 174 0
153 174 0
155 175 0
152 173 0
154 174 0
152 172 0
153 173 0
152 173 0
152 172 0
153 174 0
153 174 0
153 173 0
153 174 0
154 174 0
153 174 0
152 173 0
153 173 0
154 175 0
153 173 0
153 173 0
152 173 0
153 174 0
152 173 0
152 172 0
154 175 0
154 174 0
151 171 14
53 81 111
48 77 108
47 75 112
45 72 107
48 76 110
45 71 111
47 75 109
45 72 113
44 72 112
42 68 101
45 73 108
43 69 100
44 70 105
41 66 106
40 66 90
42 68 110
43 69 110
42 67 103
38 62 99
39 62 101
38 62 96
36 59 95
35 57 97
34 55 79
31 52 81
32 53 86
29 48 70
29 49 77
31 51 81
24 41 67
49 79 127
56 90 146
59 94 158
58 93 156
59 94 159
59 94 155
60 95 157
60 96 157
60 96 160
60 96 158
60 96 153
60 96 155
60 96 158
60 96 161
60 96 159
62 98 169
61 98 169
61 97 165
61 97 161
63 99 172
61 98 166
62 98 167
62 98 167
62 98 167
60 97 164
61 97 164
61 98 165
61 98 169
61 98 172
61 98 172
61 97 168
61 97 167
61 98 167
61 97 168
61 97 166
61 98 169
62 98 171
61 97 159
61 97 167
60 97 163
61 98 172
61 98 170
62 98 171
61 97 165
60 96 165
61 97 166
61 97 169
60 97 162
61 97 164
60 97 169
60 96 167
60 96 163
61 97 168
60 96 167
60 96 169
61 96 164
60 96 169
61 98 173
61 97 169
60 96 170
60 96 166
60 95 162
61 97 169
60 95 166
61 97 173
59 93 160
60 95 162
59 94 163
61 97 168
59 94 159
59 93 160
59 92 155
60 95 166
58 93 163
58 92 158
58 91 154
58 91 154
58 91 153
58 92 157
57 89 148
56 87 145
58 90 153
56 88 152
57 88 149
57 89 149
56 89 151
55 85 141
56 88 154
55 87 149
56 87 145
54 86 144
53 84 138
55 87 149
53 81 129
55 85 142
55 84 141
77 76 73
99 80 37
104 90 46
100 86 37
91 72 31
92 75 35
97 80 35
99 79 38
105 85 37
92 76 32
93 73 25
93 76 27
92 75 25
92 73 29
94 75 27
103 87 37
102 82 30
100 79 29
103 84 33
100 80 31
107 87 35
97 76 29
99 82 32
103 86 35
92 71 20
113 94 32
93 75 27
104 85 37
104 81 24
99 78 28
88 68 27
103 83 25
106 86 28
107 87 29
105 85 31
112 86 27
105 84 31
98 78 28
103 85 30
108 87 31
101 81 18
111 94 36
102 78 25
111 89 31
103 79 21
107 83 27
108 86 26
102 81 26
113 91 32
106 85 34
110 90 32
109 86 25
101 80 20
108 83 31
110 91 32
106 84 31
112 91 36
105 83 27
101 81 29
109 89 35
110 90 36
104 82 27
102 83 33
107 85 28
109 88 30
113 91 30
109 88 32
99 77 11
107 85 27
99 79 23
111 91 35
115 95 39
107 88 31
114 94 35
116 98 40
116 97 36
110 89 25
115 92 32
114 92 39
112 90 35
97 79 24
107 86 26
112 92 34
106 85 32
107 86 34
113 91 32
111 91 32
93 74 25
113 91 33
115 95 35
103 83 34
103 80 28
101 78 26
108 89 34
105 86 31
99 79 31
103 80 32
119 98 45
113 94 43
103 81 31
109 86 31
108 86 34
103 85 34
101 83 36
101 78 24
112 94 35
107 89 40
108 90 38
114 94 46
109 87 36
114 94 40
101 77 27
102 81 35
107 89 36
106 84 32
112 93 38
108 89 40
110 89 36
103 84 34
108 88 33
111 92 43
106 90 39
117 101 50
134 139 19
169 192 0
172 195 0
171 195 0
173 195 0
171 195 0
170 193 0
173 197 0
172 195 0
172 195 0
172 196 0
171 194 0
171 194 0
174 196 0
171 195 0
173 196 0
172 195 0
172 195 0
173 196 0
172 195 0
173 196 0
171 194 0
174 197 0
174 196 0
171 193 0
169 192 0
173 196 0
170 193 0
171 194 0
173 197 0
172 196 0
172 196 0
174 197 0
172 195 0
173 197 0
172 195 0
172 196 0
176 198 0
174 197 0
172 195 0
174 196 0
174 197 0
172 196 0
173 196 0
171 196 0
172 195 0
175 197 0
174 197 0
174 196 0
172 195 0
173 196 0
173 197 0
172 196 0
171 194 0
174 197 0
173 196 0
173 196 0
172 195 0
171 195 0
172 195 0
173 196 0
169 194 0
171 194 0
172 195 0
171 195 0
171 195 0
172 195 0
172 195 0
173 195 0
171 194 0
171 194 0
173 196 0
173 196 0
171 195 0
173 196 0
168 192 0
171 194 0
171 194 0
168 191 0
171 194 0
170 193 0
170 193 0
171 194 0
171 193 0
170 193 0
170 193 0
170 194 0
167 190 0
154 174 0
153 173 0
153 173 0
153 174 0
153 173 0
153 174 0
154 175 0
154 174 0
152 173 0
154 174 0
153 173 0
154 175 0
153 174 0
155 175 0
152 173 0
153 174 0
153 173 0
154 175 0
154 174 0
153 173 0
152 172 0
154 175 0
153 174 0
154 174 0
154 175 0
154 175 0
154 175 0
153 174 0
154 174 0
154 174 0
154 175 0
153 173 0
151 172 0
154 175 0
153 173 0
153 174 0
151 172 0
153 174 0
153 173 0
152 173 0
153 174 0
154 174 0
153 173 0
152 173 0
154 175 0
153 173 0
155 175 0
152 173 0
152 173 0
153 173 0
153 174 0
153 173 0
151 172 0
154 174 0
154 175 0
152 173 0
154 174 0
152 172 0
154 174 0
150 171 0
153 174 0
153 174 0
152 172 0
66 92 107
48 77 114
48 76 108
47 75 102
46 74 105
47 75 107
45 72 110
46 74 107
44 71 111
42 68 106
44 70 98
42 68 104
44 70 98
42 67 103
39 63 97
42 67 108
38 62 94
39 63 96
38 62 92
37 60 101
36 59 89
35 57 85
34 56 87
35 57 86
35 56 85
32 52 80
31 51 82
32 52 86
30 49 82
32 52 83
58 91 154
55 88 133
59 94 156
58 92 151
59 94 157
59 94 151
60 95 156
59 94 152
61 96 159
61 97 161
60 96 152
60 96 155
60 96 156
60 96 155
61 97 163
61 98 163
60 97 159
62 98 167
61 97 164
61 98 165
61 97 161
61 98 167
61 98 165
61 98 162
61 98 164
61 98 168
61 97 161
61 97 163
61 97 167
60 97 160
61 98 170
62 98 167
61 98 171
61 98 170
61 97 162
61 97 164
62 98 169
62 98 168
61 97 164
60 97 168
61 97 163
60 96 166
61 97 170
61 98 169
61 98 171
61 97 163
61 97 169
61 97 163
61 97 168
61 96 166
60 96 164
62 98 170
61 97 167
61 96 165
61 97 164
61 96 166
61 96 166
61 97 168
61 97 169
62 98 170
60 94 157
60 96 171
60 95 164
60 96 169
59 95 163
60 95 163
60 96 166
59 94 161
60 95 165
60 95 165
59 92 153
61 95 168
59 94 159
57 90 155
57 90 154
58 91 153
60 94 164
59 93 161
59 93 159
58 91 156
56 88 147
57 90 154
57 90 155
57 89 152
56 87 148
58 92 159
57 88 144
56 87 145
56 87 147
55 84 135
53 84 143
56 87 146
53 83 140
55 86 144
56 87 147
69 75 103
104 88 44
95 79 38
86 71 33
102 86 38
90 69 26
95 77 32
85 68 23
100 81 36
90 72 30
90 73 29
97 80 36
99 80 30
87 67 16
105 84 33
98 80 32
96 74 24
89 69 24
95 77 31
96 75 26
109 91 41
106 86 31
98 80 34
98 76 22
98 78 31
93 71 22
100 81 29
104 84 24
101 80 24
90 69 23
100 81 34
102 82 24
94 76 30
106 85 34
100 77 28
99 78 22
106 84 32
108 89 33
111 89 32
103 84 26
105 83 28
103 84 28
100 82 33
105 82 29
115 93 30
102 82 25
108 86 31
111 88 34
106 86 37
106 88 20
109 87 30
105 85 27
102 79 26
103 82 31
103 82 24
107 84 23
106 84 30
108 86 36
104 81 20
105 84 31
112 88 29
111 90 28
110 88 28
110 89 31
108 87 33
108 87 34
108 86 26
105 86 33
102 78 25
105 82 26
113 91 34
113 93 34
112 91 34
111 88 30
111 91 35
110 92 35
104 80 26
101 81 29
105 85 30
107 85 28
105 86 29
112 93 37
105 84 25
104 82 27
105 85 30
109 88 33
98 75 17
95 75 25
106 83 23
105 82 24
108 90 41
109 90 34
98 78 23
106 85 28
114 96 42
114 93 39
100 80 28
106 84 33
103 84 29
108 89 31
103 84 39
99 76 23
103 82 27
101 79 24
112 93 34
116 97 40
97 78 28
105 86 36
112 92 40
100 82 33
97 73 23
102 83 27
102 79 35
106 85 30
105 83 34
115 92 37
114 94 42
103 86 39
110 91 41
107 87 35
103 86 41
118 101 46
109 89 41
98 80 37
104 87 43
130 129 41
165 185 11
174 197 0
174 197 0
172 196 0
172 195 0
172 196 0
168 191 0
172 195 0
169 192 0
170 193 0
173 197 0
174 197 0
173 196 0
171 194 0
171 193 0
172 196 0
171 194 0
171 194 0
172 195 0
172 195 0
173 196 0
173 195 0
172 194 0
172 196 0
172 196 0
172 195 0
173 196 0
173 196 0
171 194 0
174 197 0
173 197 0
173 197 0
172 195 0
173 196 0
173 196 0
170 192 0
172 195 0
173 196 0
174 196 0
172 195 0
173 196 0
172 196 0
171 194 0
173 196 0
172 195 0
172 196 0
173 196 0
172 196 0
171 194 0
172 195 0
174 197 0
169 193 0
173 196 0
172 195 0
171 194 0
172 195 0
174 196 0
171 195 0
172 195 0
172 195 0
174 197 0
170 194 0
172 195 0
170 194 0
171 194 0
173 196 0
173 195 0
169 194 0
172 195 0
171 195 0
171 195 0
173 195 0
170 193 0
172 194 0
173 195 0
172 195 0
170 193 0
170 192 0
172 194 0
171 194 0
171 194 0
171 194 0
170 193 0
169 192 0
170 194 0
170 193 0
155 176 0
151 172 0
153 174 0
153 174 0
152 173 0
154 174 0
153 173 0
153 174 0
154 174 0
152 172 0
154 174 0
152 172 0
153 174 0
153 173 0
153 174 0
153 174 0
152 173 0
152 173 0
154 175 0
153 174 0
155 175 0
153 173 0
153 174 0
153 174 0
153 174 0
155 175 0
154 175 0
152 172 0
153 173 0
154 174 0
154 174 0
154 174 0
153 173 0
152 173 0
154 175 0
151 172 0
153 174 0
153 174 0
152 173 0
152 173 0
153 173 0
153 174 0
154 174 0
153 174 0
153 174 0
154 174 0
152 174 0
153 173 0
151 172 0
153 174 0
150 171 0
153 174 0
152 173 0
152 173 0
154 174 0
152 173 0
153 173 0
154 175 0
154 174 0
151 173 0
152 173 0
154 175 0
155 175 0
94 115 97
46 74 103
47 74 113
47 75 108
46 73 109
47 75 110
44 70 99
45 72 107
44 70 103
45 72 99
43 70 103
44 70 101
44 70 108
40 64 95
42 68 102
41 67 107
39 63 94
39 62 93
37 60 86
39 63 93
35 57 88
38 62 91
35 57 89
35 56 79
34 56 77
35 57 91
32 53 76
30 49 76
28 47 73
44 71 113
56 89 144
58 93 148
58 93 153
60 95 154
60 95 156
59 94 152
60 96 155
60 95 154
61 97 167
60 96 159
60 96 158
60 95 151
60 96 154
61 97 167
61 97 162
60 96 157
61 98 165
61 98 166
61 97 165
62 98 168
61 97 161
61 98 164
61 97 165
62 98 166
61 98 162
62 98 167
61 97 167
61 97 165
61 97 165
62 98 168
61 98 163
62 98 167
61 97 165
61 97 162
61 98 167
61 97 165
61 98 171
60 96 164
61 97 166
61 97 165
61 97 165
60 96 162
61 97 167
61 97 167
61 97 167
61 97 161
61 97 166
61 98 171
61 97 166
61 98 170
61 97 161
61 97 166
61 97 164
61 97 169
61 96 164
61 97 169
61 97 170
60 96 167
61 96 167
61 97 166
61 97 170
60 94 159
59 93 158
59 94 158
60 96 166
61 97 171
61 96 169
59 94 163
59 94 163
59 93 153
59 94 162
58 92 154
59 93 161
59 93 161
59 93 161
57 90 158
57 90 156
58 91 158
59 93 162
56 88 149
58 90 151
57 90 155
57 90 156
57 90 152
56 87 145
54 85 143
54 84 141
55 85 145
55 85 138
56 90 157
54 83 135
55 85 142
55 85 143
54 83 141
74 83 108
105 89 43
85 69 32
88 72 33
96 79 33
89 72 27
102 85 38
95 76 31
96 79 31
101 85 36
105 86 37
95 75 31
92 70 25
100 82 36
99 80 29
90 71 26
93 74 28
99 79 30
98 79 33
95 72 20
106 84 26
98 75 23
109 87 29
102 81 28
100 79 31
101 76 26
95 76 23
96 76 24
100 77 25
109 88 35
86 65 22
95 74 22
98 75 24
107 88 32
96 77 28
107 86 30
106 86 21
103 83 29
104 83 34
114 95 36
107 86 27
103 79 27
100 82 27
103 82 25
97 78 28
113 91 33
100 79 22
100 79 28
100 78 24
112 92 36
100 81 19
101 80 29
104 83 26
107 83 22
103 82 24
100 79 24
98 73 24
107 88 36
106 86 32
103 80 28
112 93 31
112 92 31
108 87 24
101 79 31
109 88 34
101 79 19
101 76 29
103 81 28
106 85 25
102 82 35
115 94 41
105 82 27
107 85 25
108 86 30
105 83 22
105 86 29
111 89 32
101 80 27
105 81 18
104 83 32
107 86 29
108 86 28
104 80 20
107 87 30
100 78 25
106 85 32
111 92 39
110 88 37
112 89 26
109 85 28
112 93 38
106 88 27
108 86 30
113 93 33
111 92 36
107 86 32
108 88 29
105 83 26
111 90 33
104 80 25
109 89 33
106 86 27
107 84 29
115 94 39
103 83 30
105 88 33
110 88 30
102 82 33
108 87 32
105 83 27
101 80 27
104 83 27
106 84 32
105 86 31
101 81 32
108 85 29
107 85 31
112 94 43
100 84 34
104 85 32
110 90 37
107 85 33
105 88 44
115 95 45
102 82 37
102 83 36
110 94 47
118 108 49
157 175 20
169 193 0
171 195 0
173 196 0
171 194 0
171 194 0
173 197 0
172 195 0
171 195 0
172 194 0
174 197 0
171 195 0
167 190 0
171 194 0
171 194 0
172 195 0
171 195 0
172 195 0
171 194 0
169 193 0
171 194 0
171 194 0
174 197 0
172 195 0
173 197 0
169 193 0
172 194 0
171 195 0
170 193 0
173 197 0
173 196 0
171 193 0
171 195 0
173 196 0
173 196 0
173 196 0
175 198 0
172 195 0
174 196 0
173 196 0
173 196 0
173 196 0
171 194 0
171 194 0
172 195 0
173 196 0
172 195 0
172 195 0
173 196 0
172 196 0
172 196 0
173 195 0
170 193 0
171 195 0
171 195 0
169 193 0
172 194 0
171 194 0
172 196 0
171 194 0
172 196 0
173 195 0
172 194 0
172 194 0
171 195 0
172 195 0
173 196 0
173 196 0
171 194 0
170 193 0
171 194 0
170 194 0
170 193 0
170 193 0
170 193 0
171 194 0
172 194 0
171 194 0
171 194 0
170 192 0
170 193 0
170 193 0
170 193 0
171 193 0
169 192 0
158 179 0
155 174 0
154 175 0
154 174 0
152 173 0
154 174 0
154 175 0
155 175 0
150 172 0
155 175 0
152 173 0
151 172 0
154 175 0
154 174 0
151 172 0
154 175 0
152 173 0
153 174 0
154 174 0
153 173 0
153 173 0
153 174 0
151 171 0
153 173 0
153 173 0
154 174 0
153 174 0
154 175 0
154 174 0
153 173 0
151 172 0
152 173 0
151 173 0
155 175 0
153 174 0
155 175 0
152 173 0
153 174 0
152 172 0
153 173 0
152 172 0
153 173 0
153 174 0
151 173 0
153 174 0
153 174 0
151 172 0
153 174 0
152 172 0
154 174 0
152 173 0
153 173 0
153 174 0
154 175 0
151 172 0
153 174 0
153 173 0
152 172 0
152 172 0
154 175 0
153 174 0
154 174 0
155 175 0
108 128 78
47 75 97
48 76 118
46 74 106
47 75 114
46 74 105
46 73 102
47 74 116
45 71 109
44 71 103
43 69 107
43 69 101
42 67 103
40 65 103
41 66 102
40 64 94
41 66 105
41 65 96
41 66 101
37 59 91
36 59 88
36 59 99
36 58 93
35 57 90
34 55 90
32 52 73
31 50 78
33 54 75
35 57 81
50 80 122
56 90 151
56 90 143
59 93 145
59 94 150
60 96 155
61 97 166
60 95 157
59 95 153
60 96 158
60 97 164
60 96 156
61 96 156
60 96 156
60 97 165
62 98 163
61 98 163
61 97 164
62 98 166
62 98 169
61 98 167
61 97 157
62 98 168
61 97 162
62 98 166
60 97 160
62 98 166
61 98 168
61 98 160
62 98 167
61 98 168
61 98 167
61 98 169
60 96 166
61 97 165
61 97 161
61 98 170
61 98 168
61 97 163
61 97 170
62 98 167
61 98 170
61 97 165
61 97 169
62 98 173
61 97 169
60 97 170
62 98 172
60 96 160
60 96 161
62 98 173
61 97 170
61 96 164
59 95 162
61 96 162
61 96 159
60 96 163
60 96 168
61 96 162
61 97 165
59 95 164
59 93 156
59 94 156
59 94 161
60 94 160
60 94 163
59 95 164
59 94 161
60 94 161
59 93 160
59 93 158
60 94 163
58 92 153
58 91 155
60 94 159
57 91 150
57 90 152
57 91 155
57 90 152
57 89 148
57 90 152
56 88 148
57 89 150
56 88 152
55 86 145
57 87 145
56 87 145
56 87 145
55 86 144
51 80 135
55 83 132
53 80 128
54 83 134
55 85 144
63 84 129
86 72 39
99 81 34
86 72 30
92 74 34
94 75 31
96 77 29
100 84 40
83 66 27
96 79 32
98 80 36
102 84 36
88 68 19
96 75 30
97 80 32
102 79 21
89 72 24
94 76 29
101 81 27
93 77 27
87 70 27
99 79 26
90 69 22
101 78 28
99 78 20
97 78 28
98 79 23
107 85 27
106 81 26
99 77 19
94 75 30
101 81 26
102 81 25
96 74 26
112 93 31
98 80 29
102 83 19
95 74 11
105 84 28
109 88 33
98 74 18
111 93 28
98 76 24
97 77 29
107 86 27
108 89 27
109 87 33
107 83 24
100 79 28
102 84 27
108 88 29
104 83 23
107 87 21
105 84 30
99 76 20
107 87 27
98 76 21
102 83 32
106 86 34
112 91 28
104 82 21
112 90 31
105 86 31
109 88 34
107 84 28
113 89 33
106 87 31
107 86 34
111 89 27
117 94 32
110 88 30
109 86 29
100 79 23
105 84 27
98 76 24
106 80 16
105 82 28
106 85 23
103 81 26
106 86 30
117 97 40
103 84 26
103 82 24
104 80 24
107 85 28
112 90 38
105 85 31
109 92 33
119 96 35
113 92 30
108 83 26
103 84 27
109 87 30
104 86 32
110 88 32
113 93 32
103 84 30
103 83 31
102 83 35
107 88 28
107 88 32
111 89 31
102 82 33
104 84 33
109 89 35
100 76 16
108 89 31
109 87 26
111 93 40
102 83 38
100 82 29
104 83 31
106 87 34
114 94 40
102 83 34
102 85 39
99 77 23
113 93 41
105 86 36
114 98 43
112 95 47
106 87 42
115 96 45
101 80 34
105 88 39
94 76 35
101 83 39
96 78 35
92 73 28
109 94 43
147 161 28
170 194 0
172 195 0
171 194 0
169 193 0
175 198 0
171 194 0
172 195 0
168 190 0
171 194 0
171 193 0
172 195 0
173 196 0
173 195 0
172 195 0
172 196 0
170 193 0
173 195 0
171 194 0
171 194 0
171 195 0
172 195 0
172 196 0
174 196 0
173 196 0
173 196 0
175 198 0
171 195 0
172 195 0
171 195 0
172 195 0
174 197 0
172 196 0
172 195 0
170 193 0
174 196 0
172 196 0
172 195 0
171 195 0
172 195 0
172 195 0
172 195 0
172 195 0
172 195 0
172 195 0
173 196 0
172 195 0
170 193 0
173 196 0
169 193 0
172 196 0
172 195 0
172 195 0
171 194 0
170 193 0
174 196 0
172 195 0
172 195 0
173 196 0
171 195 0
172 195 0
171 194 0
172 195 0
171 194 0
172 195 0
173 196 0
173 196 0
173 195 0
170 193 0
171 194 0
173 195 0
172 194 0
172 196 0
170 193 0
171 194 0
171 194 0
170 194 0
171 194 0
171 194 0
170 192 0
170 193 0
169 193 0
168 192 0
169 191 0
162 183 0
153 174 0
153 174 0
155 175 0
153 174 0
152 173 0
151 172 0
152 172 0
151 172 0
150 171 0
151 173 0
153 174 0
154 174 0
154 174 0
153 173 0
153 173 0
154 174 0
153 174 0
154 174 0
154 173 0
154 175 0
152 173 0
154 174 0
152 172 0
154 174 0
153 174 0
150 171 0
152 173 0
154 174 0
155 175 0
153 174 0
152 173 0
152 172 0
154 174 0
153 173 0
153 174 0
153 173 0
152 173 0
152 173 0
154 174 0
151 172 0
153 173 0
152 173 0
152 173 0
154 174 0
152 173 0
153 173 0
153 174 0
152 173 0
152 174 0
151 172 0
152 173 0
154 174 0
153 174 0
152 173 0
152 173 0
154 174 0
152 173 0
153 173 0
152 173 0
154 175 0
154 175 0
154 175 0
105 125 74
47 76 103
48 77 108
46 74 103
47 75 112
44 71 108
47 75 110
45 71 112
43 70 97
43 69 97
42 67 95
43 69 102
41 66 93
42 69 99
43 69 104
41 66 97
37 60 96
39 63 98
39 62 97
36 58 85
36 58 87
36 58 84
36 58 90
33 54 74
34 55 82
30 50 79
31 51 77
32 53 83
28 47 69
54 86 132
57 91 146
58 92 148
59 94 154
59 94 154
58 93 147
60 95 152
60 95 155
60 96 156
61 97 156
60 96 158
60 96 151
61 97 160
61 97 163
61 97 164
61 98 168
61 97 165
61 97 153
61 97 159
61 97 155
60 97 164
62 98 170
60 96 159
61 97 164
61 98 169
61 97 167
61 98 167
61 98 171
61 97 166
61 97 160
62 98 166
61 98 165
61 97 165
61 96 160
61 98 163
61 98 168
61 97 166
61 97 166
62 98 170
61 97 167
61 98 169
62 98 172
61 97 165
61 97 163
61 97 167
61 97 174
60 95 162
61 97 169
61 97 164
61 97 167
61 97 168
61 97 166
61 97 168
59 94 156
61 97 167
61 97 167
60 94 159
60 95 161
59 95 163
60 96 166
61 97 166
60 96 170
61 96 168
58 91 151
59 94 159
59 94 156
60 94 164
59 94 161
59 93 157
59 93 158
59 93 158
59 94 160
58 93 157
57 90 154
58 90 154
57 90 153
58 90 149
58 92 161
56 88 147
58 92 160
56 88 148
57 89 144
57 88 144
56 89 149
57 88 149
55 85 138
54 84 138
55 85 140
54 84 137
55 84 138
53 83 138
53 84 140
54 85 144
55 81 131
89 79 65
93 76 32
97 80 33
92 76 27
88 72 31
91 76 30
91 72 31
97 80 39
89 74 31
93 76 31
90 71 31
97 76 22
86 66 22
88 67 22
91 74 31
97 81 36
97 74 26
87 68 22
94 74 24
93 75 29
98 77 23
103 82 29
103 79 26
97 78 24
100 79 29
86 67 15
94 73 23
102 79 24
108 88 33
102 83 28
100 81 18
104 82 25
100 82 25
104 82 22
102 80 21
111 90 29
101 83 27
101 82 29
105 86 26
94 73 18
94 72 20
105 84 25
106 86 31
103 80 26
105 85 22
104 82 21
108 86 30
104 84 26
108 88 29
108 82 17
105 84 28
100 80 25
105 86 31
104 84 28
99 79 22
107 89 31
102 79 20
101 78 24
109 88 29
104 83 30
98 78 23
105 82 24
103 82 22
103 80 21
109 88 28
112 90 25
105 82 26
107 87 27
106 83 27
108 87 31
106 86 30
104 82 26
120 101 38
102 82 32
101 81 21
107 83 28
109 89 32
101 78 22
107 85 24
107 85 33
110 89 23
110 88 26
103 81 30
109 89 31
106 86 29
96 76 22
107 89 33
112 93 27
101 81 26
109 89 33
104 85 34
113 91 33
100 81 24
101 81 24
101 81 32
110 89 35
99 80 31
99 75 21
107 86 26
116 95 33
111 92 40
105 83 29
97 76 29
108 88 35
102 81 32
105 84 30
102 82 29
113 92 35
96 74 21
111 91 42
93 73 30
110 86 32
104 83 37
94 74 30
104 83 33
103 81 30
104 85 36
99 80 34
104 84 35
105 83 29
112 94 41
105 88 43
114 94 40
119 100 47
97 77 34
111 93 45
99 79 33
109 91 42
99 80 38
103 85 42
112 93 45
140 149 26
171 194 0
170 192 0
171 194 0
173 195 0
170 193 0
172 193 0
169 193 0
171 195 0
170 192 0
172 195 0
172 195 0
173 195 0
173 196 0
171 194 0
174 197 0
172 194 0
172 196 0
173 196 0
172 194 0
170 193 0
173 196 0
172 195 0
173 197 0
173 197 0
173 195 0
174 197 0
171 194 0
171 194 0
174 197 0
173 195 0
174 197 0
172 195 0
172 195 0
174 195 0
172 196 0
173 196 0
173 196 0
172 196 0
172 196 0
170 193 0
172 195 0
172 195 0
172 196 0
173 196 0
173 196 0
173 196 0
171 194 0
173 196 0
171 195 0
173 196 0
172 195 0
172 195 0
171 195 0
172 195 0
171 195 0
172 195 0
171 193 0
171 194 0
172 195 0
174 196 0
172 195 0
173 196 0
172 195 0
171 194 0
173 196 0
171 194 0
172 195 0
172 194 0
171 194 0
171 194 0
169 192 0
170 194 0
169 192 0
171 194 0
172 194 0
171 193 0
169 192 0
171 194 0
170 193 0
170 194 0
168 191 0
170 193 0
163 186 0
153 174 0
153 174 0
152 172 0
153 173 0
153 174 0
151 172 0
154 174 0
154 174 0
155 175 0
152 173 0
154 175 0
153 174 0
151 173 0
152 173 0
151 172 0
153 174 0
153 174 0
154 174 0
153 174 0
151 171 0
151 172 0
155 175 0
154 174 0
153 173 0
152 173 0
153 174 0
153 173 0
151 172 0
152 173 0
152 173 0
155 175 0
151 172 0
153 173 0
153 174 0
153 174 0
152 173 0
153 174 0
154 175 0
152 173 0
152 173 0
153 174 0
152 173 0
153 173 0
153 174 0
154 173 0
153 174 0
152 173 0
150 171 0
151 173 0
151 171 0
151 172 0
152 172 0
152 173 0
153 173 0
152 173 0
151 172 0
151 172 0
155 175 0
151 172 0
151 172 0
152 172 0
152 172 0
118 138 73
47 75 99
48 76 108
45 72 109
46 74 100
46 73 102
46 73 110
44 70 98
45 71 104
42 68 96
43 69 103
45 71 106
41 66 101
43 68 106
42 68 98
40 63 87
40 64 88
39 62 92
38 61 93
38 61 92
37 59 82
38 62 87
34 55 83
35 56 94
34 55 83
32 51 73
29 48 69
32 52 71
35 57 92
55 87 140
59 94 148
58 93 146
59 94 153
60 95 151
59 94 148
60 95 150
60 96 160
61 97 163
61 97 162
60 96 159
61 97 156
61 96 155
61 97 162
60 96 154
61 97 160
62 98 167
61 97 167
62 98 168
61 97 163
61 97 160
61 98 163
61 97 163
61 98 165
60 97 160
61 97 162
61 98 165
60 96 155
61 97 164
61 98 168
61 97 163
61 97 165
61 97 162
61 97 169
61 97 164
61 98 166
60 96 161
61 97 164
61 97 165
62 99 171
61 97 162
60 96 159
61 97 168
61 98 170
61 97 164
60 96 163
60 96 165
61 97 170
61 97 171
61 97 168
60 96 166
61 97 167
60 96 167
60 96 165
61 96 163
61 97 170
60 96 164
60 96 167
60 96 166
61 97 165
60 95 160
60 94 162
61 96 164
60 95 159
58 92 156
60 95 164
59 94 160
59 94 161
58 92 160
59 93 158
59 93 155
58 91 152
57 89 148
59 93 158
58 91 157
57 91 157
58 91 153
57 90 147
57 89 152
56 87 146
57 89 148
56 89 150
56 87 141
57 89 149
55 85 140
55 86 144
57 89 143
55 84 133
54 84 140
54 84 140
53 80 121
53 80 126
54 83 132
75 84 110
79 64 26
85 65 19
97 80 38
79 61 25
88 69 25
84 68 27
71 57 23
100 84 39
92 76 33
97 78 30
96 78 28
93 75 30
90 69 22
96 75 26
91 72 26
92 71 28
105 87 33
102 81 25
96 76 23
100 77 30
90 74 31
98 80 30
84 66 21
102 84 28
98 77 21
103 81 27
88 67 13
101 82 30
94 71 13
105 85 30
100 81 32
103 85 31
94 71 24
102 80 28
97 77 25
93 76 25
104 82 19
108 86 30
105 85 26
96 76 20
95 74 25
103 84 26
98 76 21
109 89 32
104 82 31
99 77 24
96 72 16
106 85 29
97 73 16
99 81 27
109 87 32
106 86 29
101 82 28
96 75 22
107 86 26
102 81 28
100 79 23
103 82 22
107 86 29
100 79 26
110 89 32
105 83 25
111 89 28
98 80 22
109 88 27
101 79 24
107 87 28
99 81 29
111 88 25
102 81 24
111 89 28
108 87 29
113 93 35
91 73 20
97 76 24
103 83 31
103 81 23
109 83 27
109 90 24
106 85 23
109 86 26
114 90 25
102 81 31
107 87 31
106 86 25
104 83 28
106 83 22
106 87 29
102 82 27
107 87 25
109 89 33
114 92 31
109 85 31
92 72 22
107 87 33
109 87 25
107 90 34
109 87 33
104 78 17
109 88 30
112 90 38
113 94 40
113 92 35
98 76 24
106 85 30
106 85 29
107 85 33
106 84 27
105 83 27
109 88 36
111 92 38
106 84 29
104 81 32
105 84 29
98 81 27
108 88 35
96 77 32
108 89 40
95 73 23
103 83 34
95 75 30
99 77 32
94 75 30
107 89 36
108 90 44
99 80 36
105 86 34
109 89 41
109 88 39
101 82 39
101 85 42
113 97 50
140 145 39
171 194 0
172 195 0
173 196 0
171 194 0
172 194 0
174 196 0
167 191 0
173 196 0
172 195 0
167 191 0
171 194 0
170 194 0
171 194 0
172 194 0
173 197 0
173 196 0
171 194 0
171 195 0
172 194 0
170 193 0
172 195 0
174 197 0
172 194 0
171 194 0
172 194 0
173 197 0
172 196 0
172 195 0
170 194 0
174 196 0
174 196 0
174 197 0
171 194 0
173 196 0
172 196 0
173 196 0
171 194 0
172 195 0
173 196 0
172 196 0
174 197 0
172 196 0
172 196 0
172 195 0
173 197 0
173 196 0
172 195 0
172 195 0
174 196 0
172 195 0
172 196 0
173 195 0
172 195 0
173 196 0
172 195 0
173 195 0
170 193 0
174 196 0
171 193 0
171 194 0
174 196 0
173 196 0
170 194 0
171 195 0
171 194 0
172 195 0
171 194 0
170 193 0
172 194 0
171 194 0
170 193 0
172 195 0
171 194 0
171 194 0
172 194 0
171 194 0
169 193 0
172 194 0
170 192 0
170 193 0
169 193 0
168 190 0
153 173 0
152 173 0
153 173 0
151 171 0
153 174 0
154 174 0
152 173 0
154 174 0
152 172 0
153 173 0
153 174 0
153 174 0
153 173 0
155 175 0
154 175 0
150 171 0
155 175 0
151 172 0
153 174 0
154 175 0
151 172 0
154 175 0
152 172 0
153 174 0
154 174 0
153 173 0
153 174 0
153 174 0
151 172 0
152 173 0
152 174 0
149 170 0
153 173 0
151 172 0
153 173 0
153 174 0
154 174 0
152 173 0
153 174 0
153 173 0
153 173 0
153 174 0
153 173 0
153 173 0
153 174 0
153 173 0
151 172 0
151 171 0
153 174 0
154 174 0
152 172 0
153 173 0
152 173 0
153 173 0
152 173 0
153 174 0
153 174 0
152 173 0
154 174 0
152 173 0
152 172 0
153 173 0
123 143 59
47 75 108
46 74 102
45 73 96
43 70 101
45 72 103
44 71 102
46 74 109
43 70 93
42 68 89
42 68 95
41 66 94
43 70 102
44 70 97
40 65 90
37 61 93
39 62 96
37 60 91
36 59 88
37 60 88
38 62 85
35 58 86
36 58 94
34 56 81
32 53 81
31 52 75
34 56 81
27 45 64
44 70 105
56 90 143
56 90 137
58 93 147
58 93 143
59 94 148
59 94 149
60 95 147
59 94 154
61 96 154
60 96 156
61 96 159
60 97 158
61 97 162
61 96 159
62 99 169
62 98 170
62 98 168
59 96 156
61 97 164
61 97 160
61 97 166
62 98 165
61 97 161
61 98 168
61 98 165
61 98 163
61 97 160
61 97 166
60 96 156
61 97 163
61 97 163
61 97 166
62 98 167
62 98 171
61 97 167
61 97 167
60 96 165
61 97 168
61 97 167
61 97 169
61 98 170
61 97 169
61 96 158
61 98 170
61 97 168
61 97 163
60 96 163
61 96 165
60 96 165
60 96 165
60 96 163
61 97 164
60 96 162
59 94 155
60 96 161
60 96 165
60 95 155
60 95 166
60 95 162
60 95 163
60 96 166
58 91 152
59 94 158
59 94 154
61 96 160
61 96 163
59 94 162
59 93 159
59 93 154
58 92 156
59 93 158
58 91 149
58 92 160
57 90 148
57 90 149
58 91 154
57 90 150
57 90 152
55 85 138
55 85 138
56 89 149
57 89 146
56 88 147
55 86 142
57 88 147
53 83 134
56 87 149
54 84 139
54 82 130
52 80 132
52 81 132
52 81 132
60 83 126
79 68 46
91 75 31
95 81 39
76 59 24
82 63 20
89 72 27
91 74 31
84 69 24
89 70 22
88 71 26
92 72 25
89 69 24
84 68 21
93 77 30
88 68 17
97 75 26
86 62 16
93 76 25
102 83 27
89 69 21
108 87 34
105 89 39
105 86 34
102 82 30
100 80 23
98 77 27
102 81 26
94 76 22
94 72 12
106 85 29
88 72 26
93 69 23
105 83 27
107 84 28
100 80 29
105 87 33
103 83 26
103 83 22
102 80 23
98 78 24
91 71 15
98 77 26
103 83 25
97 74 20
99 82 29
102 78 17
108 87 28
98 75 20
101 80 25
103 83 24
104 85 31
110 87 27
106 84 25
100 78 23
113 93 36
104 83 26
107 82 22
108 87 20
102 84 28
105 82 22
111 91 28
109 89 32
107 87 31
107 84 23
100 77 23
105 84 23
104 81 21
107 85 24
109 85 23
109 89 27
108 87 25
107 88 29
105 84 26
110 87 26
107 84 19
114 94 34
97 76 29
103 82 25
107 86 35
114 95 31
109 86 23
114 92 33
107 85 31
102 82 28
103 82 29
103 83 24
105 83 26
111 90 32
98 78 18
105 82 26
109 87 32
111 90 30
104 80 23
103 80 29
113 90 29
106 83 28
97 77 26
109 90 36
106 84 26
110 87 32
106 87 34
109 92 37
102 83 33
100 78 21
108 87 28
106 85 31
110 92 40
94 75 28
103 82 30
104 82 32
108 87 35
97 76 29
103 83 30
98 79 30
93 72 25
99 78 29
102 81 29
102 84 35
95 76 22
101 82 30
96 76 27
99 79 32
90 71 25
93 74 30
99 79 30
96 77 32
97 75 30
98 79 31
113 92 41
105 87 43
103 84 34
102 87 41
101 82 32
98 79 34
128 133 23
170 193 0
171 193 0
170 193 0
170 193 0
173 196 0
168 190 0
175 197 0
173 197 0
173 196 0
172 196 0
172 196 0
172 194 0
172 196 0
171 194 0
173 196 0
171 193 0
173 197 0
170 193 0
171 195 0
170 192 0
170 194 0
174 197 0
172 194 0
172 195 0
172 196 0
173 195 0
172 195 0
172 195 0
171 194 0
169 192 0
171 195 0
173 195 0
173 196 0
173 197 0
172 195 0
175 197 0
173 196 0
170 193 0
170 194 0
172 195 0
172 196 0
172 196 0
173 196 0
171 195 0
173 195 0
172 196 0
172 195 0
172 195 0
172 195 0
172 195 0
171 194 0
171 194 0
171 194 0
172 195 0
170 194 0
172 195 0
171 195 0
171 194 0
171 195 0
169 193 0
171 193 0
172 195 0
170 194 0
173 196 0
171 194 0
171 194 0
173 196 0
173 196 0
170 193 0
171 194 0
170 193 0
171 194 0
171 194 0
169 192 0
170 194 0
169 191 0
171 193 0
170 192 0
169 191 0
171 193 0
171 193 0
154 174 0
154 174 0
154 175 0
152 172 0
153 173 0
153 174 0
152 173 0
153 173 0
153 174 0
153 174 0
151 171 0
152 173 0
153 173 0
153 173 0
151 172 0
152 172 0
154 174 0
153 174 0
152 173 0
152 172 0
152 173 0
154 174 0
156 176 0
152 173 0
152 171 0
152 173 0
151 172 0
155 175 0
151 172 0
151 171 0
152 172 0
151 171 0
152 173 0
152 172 0
152 173 0
152 173 0
153 174 0
153 174 0
152 171 0
151 172 0
152 174 0
153 173 0
152 173 0
152 173 0
154 174 0
153 173 0
153 173 0
153 174 0
153 174 0
156 176 0
151 171 0
151 171 0
151 172 0
150 171 0
153 173 0
153 173 0
152 173 0
151 172 0
151 171 0
153 173 0
151 172 0
153 173 0
131 152 60
47 75 104
47 74 107
44 70 99
43 69 103
44 70 100
45 72 99
44 71 92
43 70 95
46 73 105
42 67 103
42 68 93
39 64 91
41 66 103
40 65 87
38 61 83
41 66 97
38 61 91
41 65 99
37 59 89
33 54 81
37 61 89
35 57 87
33 54 74
34 56 66
32 52 81
32 52 74
29 47 71
52 83 129
57 91 144
58 93 153
59 93 149
59 94 152
58 93 145
61 96 154
59 95 155
60 96 158
61 97 161
61 96 154
61 97 156
59 95 149
60 96 156
61 97 162
61 96 158
62 98 165
61 97 161
60 96 157
61 97 157
61 97 156
61 97 160
61 97 163
61 97 158
61 97 162
61 98 166
60 96 153
61 97 165
61 97 167
62 98 165
61 97 164
61 98 162
62 98 166
62 98 170
61 97 161
61 98 168
61 97 161
61 97 163
61 97 161
61 97 164
62 98 169
62 98 169
61 97 165
61 97 160
61 97 163
61 98 166
61 97 164
61 98 169
62 98 169
61 96 161
60 96 166
60 95 158
59 94 153
61 97 169
60 96 166
61 97 165
60 94 159
60 95 162
59 95 165
60 94 160
59 94 160
59 94 152
60 95 157
61 97 168
59 94 160
60 95 163
60 95 167
59 92 156
58 93 157
58 91 153
59 93 158
59 92 154
58 92 158
58 91 154
58 91 155
57 91 156
57 89 146
57 90 150
57 88 144
56 86 139
58 90 146
56 87 146
58 90 153
57 89 149
56 86 143
55 85 138
56 86 144
53 82 132
54 84 140
54 83 135
53 81 124
53 82 135
54 81 127
61 70 93
85 73 39
80 66 29
84 70 27
87 71 25
87 70 30
97 78 30
66 48 5
86 68 30
96 76 32
89 70 20
89 70 24
86 63 21
98 78 28
88 69 19
84 66 22
98 75 21
101 81 25
96 79 27
95 77 23
95 73 19
92 71 17
98 79 29
101 80 23
90 70 17
103 83 24
101 81 28
96 75 27
93 74 24
94 76 26
100 80 27
95 76 23
92 70 19
92 73 20
94 74 21
94 75 17
97 77 20
102 78 19
102 83 30
103 83 25
103 80 21
104 84 28
112 92 39
108 91 28
96 77 22
105 85 27
106 82 18
99 80 28
107 88 32
106 85 25
105 86 23
104 81 26
103 81 25
113 90 28
103 82 20
97 78 22
108 88 26
110 89 28
108 86 25
103 83 23
105 84 26
107 87 33
101 78 17
100 80 20
104 85 21
107 89 26
103 83 20
99 73 12
102 80 22
109 86 20
109 88 25
104 80 17
100 82 23
96 77 24
105 84 23
107 91 33
107 85 29
111 88 29
104 81 24
110 87 28
106 82 15
102 85 28
108 84 25
108 87 30
103 81 22
109 87 37
98 77 22
102 80 26
104 83 23
107 85 29
108 85 26
107 85 34
101 80 24
105 84 30
101 81 32
104 86 30
102 81 25
98 76 25
111 90 30
104 84 28
113 92 35
103 84 30
102 80 23
95 77 26
104 84 33
107 88 32
107 88 33
96 76 21
103 84 32
109 88 34
110 89 27
89 69 23
103 80 30
98 79 26
99 80 23
101 79 29
103 84 34
111 91 36
91 70 15
96 76 27
99 80 32
97 80 36
103 81 31
98 81 35
104 83 30
101 83 36
115 98 42
104 82 30
103 85 37
101 82 33
105 86 38
102 83 35
97 79 34
99 77 30
104 90 48
102 86 43
130 132 33
172 193 0
173 196 0
168 191 0
171 194 0
166 191 0
173 196 0
172 196 0
172 194 0
171 194 0
171 193 0
174 197 0
173 197 0
172 195 0
174 196 0
173 196 0
174 196 0
171 193 0
174 197 0
171 194 0
173 197 0
171 194 0
172 195 0
172 195 0
170 194 0
173 196 0
170 193 0
172 195 0
172 195 0
171 194 0
172 195 0
172 196 0
173 196 0
172 196 0
172 195 0
174 197 0
173 196 0
173 195 0
169 193 0
171 195 0
172 196 0
172 195 0
171 194 0
172 195 0
172 195 0
172 196 0
173 197 0
173 196 0
173 196 0
172 195 0
173 195 0
170 194 0
170 194 0
172 195 0
172 195 0
172 195 0
170 193 0
173 196 0
171 195 0
170 193 0
167 190 0
174 196 0
171 195 0
171 194 0
172 195 0
172 195 0
171 195 0
172 195 0
171 193 0
171 195 0
171 194 0
171 194 0
170 193 0
172 195 0
170 193 0
171 194 0
171 193 0
171 194 0
170 192 0
169 192 0
170 193 0
153 173 0
151 172 0
153 174 0
152 172 0
153 174 0
153 174 0
152 173 0
154 174 0
153 174 0
152 173 0
152 172 0
152 173 0
151 172 0
152 173 0
152 173 0
153 173 0
151 171 0
154 174 0
153 174 0
154 174 0
150 171 0
152 173 0
154 174 0
153 173 0
151 172 0
152 173 0
151 172 0
153 173 0
152 172 0
151 172 0
153 174 0
153 174 0
152 172 0
149 170 0
152 173 0
152 173 0
153 173 0
152 173 0
153 174 0
152 173 0
151 174 0
153 174 0
152 173 0
152 172 0
148 168 0
153 173 0
151 172 0
151 172 0
152 173 0
152 172 0
152 172 0
152 173 0
153 173 0
153 174 0
150 170 0
150 169 0
152 173 0
153 174 0
154 174 0
151 172 0
153 174 0
153 173 0
143 163 40
47 74 101
47 74 106
46 74 106
43 70 95
43 70 100
46 73 104
41 67 87
42 67 89
43 68 81
40 65 98
44 70 97
42 67 100
41 66 85
37 61 75
40 65 93
38 61 86
39 64 84
38 61 95
38 61 88
33 53 68
35 58 77
31 52 82
34 56 71
35 56 82
33 53 76
32 52 80
31 51 70
53 84 130
58 92 145
57 91 149
57 92 139
59 94 154
60 95 151
59 95 155
59 95 148
60 95 148
60 96 157
60 96 152
61 97 151
61 97 161
61 97 158
61 97 162
61 97 164
61 97 155
61 97 163
61 97 161
61 97 158
62 98 162
61 97 159
60 97 158
62 98 171
61 98 163
61 97 156
61 97 162
61 97 164
62 98 165
60 97 160
61 97 160
61 97 163
60 96 156
61 97 162
61 97 168
61 98 166
62 98 168
61 98 165
61 97 161
61 97 168
60 97 164
60 96 165
61 97 160
61 97 166
61 98 169
61 97 163
61 97 162
61 97 163
60 96 167
60 95 159
60 96 164
61 96 163
60 96 162
61 97 164
59 94 154
60 96 166
60 96 166
60 96 171
60 96 162
59 95 158
61 96 165
59 94 156
61 96 168
59 94 161
58 92 156
58 93 158
58 92 154
59 94 156
57 91 149
59 93 156
59 94 160
57 89 148
58 92 155
58 91 153
58 91 152
57 90 151
58 92 156
58 90 152
58 90 147
58 89 148
59 92 158
56 88 145
56 87 144
55 85 135
53 82 139
55 86 146
52 81 130
55 86 144
53 81 131
52 80 125
54 85 139
53 81 131
54 80 124
84 70 44
78 62 23
95 79 33
74 61 30
98 81 36
90 71 25
83 71 28
91 71 19
97 79 34
89 69 20
79 63 24
98 78 25
94 76 28
91 72 23
91 71 25
104 83 26
100 81 32
96 73 20
93 73 25
98 78 21
93 78 31
89 70 23
96 76 27
87 71 22
92 75 29
97 75 22
91 70 19
100 82 29
102 83 28
97 75 21
93 68 11
105 87 31
97 80 28
105 84 28
97 77 26
94 77 28
108 88 23
98 79 25
109 87 27
102 79 23
103 80 21
107 89 32
105 85 29
106 82 20
99 78 25
97 77 33
104 83 26
103 80 18
98 81 29
108 87 24
107 84 23
105 80 20
104 82 24
106 88 33
103 82 13
103 79 18
102 82 25
103 82 21
111 89 24
97 78 20
107 88 31
97 75 20
106 88 32
102 82 27
101 76 11
106 85 23
101 80 18
106 85 20
101 77 21
112 87 25
100 77 20
108 87 33
103 81 22
104 79 21
104 83 25
113 93 36
97 77 20
100 78 27
112 91 29
104 82 24
111 92 35
103 78 19
102 78 16
100 82 25
101 84 28
106 84 22
108 86 31
105 85 31
103 82 25
107 89 30
112 90 33
103 79 22
101 81 22
108 85 29
97 71 17
108 87 29
106 85 32
101 81 26
105 82 22
105 85 29
107 85 29
107 84 28
105 84 32
100 78 27
98 76 14
102 81 23
111 92 35
97 78 28
104 82 27
89 69 21
99 79 30
99 79 28
99 83 37
112 91 40
104 84 30
103 86 34
99 79 23
109 91 40
91 74 27
92 74 25
106 83 26
94 74 25
108 90 38
96 79 28
96 77 29
98 81 35
105 87 38
92 72 22
98 81 34
99 78 28
103 87 37
103 88 43
94 76 30
101 83 37
93 74 32
108 95 52
95 79 36
143 150 34
172 194 0
170 194 0
174 196 0
171 195 0
167 190 0
174 197 0
173 195 0
172 195 0
173 196 0
170 193 0
173 195 0
173 196 0
171 194 0
169 192 0
171 194 0
171 195 0
169 193 0
172 195 0
173 196 0
169 192 0
173 196 0
172 196 0
173 195 0
169 192 0
173 196 0
169 193 0
173 196 0
173 195 0
174 197 0
172 195 0
173 196 0
173 196 0
169 193 0
171 195 0
171 195 0
172 196 0
172 196 0
172 196 0
171 195 0
171 195 0
173 195 0
173 196 0
172 195 0
171 194 0
172 195 0
173 196 0
172 195 0
173 196 0
172 195 0
173 196 0
171 194 0
171 194 0
169 192 0
170 194 0
171 194 0
170 193 0
173 195 0
172 195 0
171 195 0
171 194 0
172 194 0
171 194 0
171 194 0
169 192 0
171 194 0
171 194 0
171 194 0
171 194 0
170 193 0
171 193 0
170 193 0
170 193 0
170 193 0
172 195 0
170 193 0
171 194 0
171 193 0
168 192 0
169 192 0
156 176 0
153 173 0
151 171 0
152 173 0
154 175 0
151 172 0
151 171 0
151 172 0
152 172 0
150 170 0
153 173 0
155 174 0
154 175 0
153 174 0
153 173 0
153 173 0
151 171 0
153 174 0
153 174 0
152 172 0
150 171 0
152 172 0
152 173 0
153 173 0
151 171 0
153 173 0
152 172 0
152 172 0
153 173 0
152 172 0
153 173 0
152 172 0
153 173 0
153 174 0
153 174 0
151 172 0
152 172 0
151 172 0
150 171 0
151 172 0
153 173 0
150 172 0
152 173 0
153 173 0
153 174 0
153 173 0
151 172 0
152 172 0
153 173 0
154 174 0
150 171 0
152 172 0
153 174 0
153 173 0
151 172 0
153 174 0
152 173 0
153 173 0
153 173 0
152 173 0
153 174 0
153 174 0
144 164 26
46 73 105
44 71 90
45 72 96
45 72 95
44 71 99
45 72 94
43 69 92
45 71 95
41 65 95
41 66 92
41 66 97
41 66 91
40 64 84
40 64 84
38 62 81
39 62 94
37 60 85
38 61 85
33 54 71
35 57 78
35 58 80
33 53 70
34 55 81
33 53 74
29 48 67
31 51 73
31 52 61
55 87 129
58 92 143
58 93 141
59 94 151
60 95 151
59 94 149
60 96 149
61 97 162
60 95 151
60 95 155
61 96 155
61 98 161
60 96 160
61 97 164
61 97 160
60 96 155
61 98 159
61 97 157
62 98 164
61 97 156
61 97 156
61 97 158
61 97 161
61 97 164
61 97 164
61 97 163
61 97 160
61 98 166
61 97 159
61 97 163
62 98 159
61 98 174
62 98 165
61 98 167
62 98 167
61 97 164
61 97 164
61 98 163
61 97 167
61 97 166
60 97 164
61 97 165
60 96 158
61 97 164
61 97 162
60 96 160
60 95 158
60 96 159
61 97 164
60 96 166
60 96 162
61 97 168
61 96 166
59 94 159
60 96 168
61 96 163
61 96 164
60 94 157
59 94 156
60 95 161
59 93 150
60 95 161
59 94 162
61 97 162
59 94 159
59 94 155
59 93 156
59 93 159
58 91 154
57 89 151
59 93 160
57 90 144
57 89 144
59 93 163
58 90 150
58 91 153
56 88 146
55 87 148
58 90 142
57 90 151
56 88 145
54 86 142
54 84 137
55 86 144
55 82 125
55 86 143
55 84 133
54 83 134
53 82 130
52 80 124
54 83 136
50 78 124
66 73 96
83 69 31
73 60 28
91 77 32
88 72 29
82 65 23
82 67 23
84 67 24
91 76 34
79 62 19
88 70 25
88 69 25
95 76 26
81 62 23
93 74 22
84 68 24
99 81 33
95 76 18
102 83 32
93 74 18
98 78 32
89 73 24
94 74 22
98 76 19
97 76 25
89 69 13
106 85 29
87 70 22
94 70 14
99 79 22
96 78 29
99 81 24
100 80 32
101 77 14
105 82 18
93 72 20
101 80 25
104 84 19
110 86 26
105 85 28
102 80 22
102 81 27
99 80 25
110 87 25
103 83 24
111 91 35
100 81 23
93 72 14
105 83 23
102 83 27
104 83 24
101 80 22
102 80 23
101 81 21
97 76 22
106 85 20
103 82 21
100 78 24
104 87 22
100 76 13
103 82 22
103 83 20
113 90 33
100 79 28
110 88 26
102 81 23
106 86 27
101 80 25
108 83 25
104 81 24
109 86 29
104 81 20
107 86 23
107 84 26
99 76 19
112 90 33
103 83 19
110 87 30
103 84 23
107 85 28
100 78 28
97 74 16
103 78 25
104 85 29
100 79 32
109 86 27
102 83 28
104 85 33
106 88 32
106 84 30
104 82 29
102 78 20
113 93 34
105 84 24
112 86 30
107 84 23
97 76 28
104 84 28
105 84 17
106 86 29
103 82 22
100 79 26
106 87 32
104 81 17
103 81 24
103 81 29
103 81 22
103 84 27
107 88 31
102 82 33
97 76 26
95 75 26
100 80 30
101 78 24
95 76 20
104 85 32
103 82 29
106 87 39
101 79 29
101 82 35
103 84 30
91 73 28
92 71 19
105 84 38
100 80 33
105 83 33
104 85 33
101 79 21
98 76 29
87 71 30
85 65 24
98 78 33
101 80 37
106 87 35
101 84 35
92 76 33
100 82 39
105 88 40
93 75 33
148 162 23
172 195 0
170 193 0
170 193 0
171 194 0
171 195 0
171 194 0
173 196 0
171 193 0
171 195 0
169 192 0
170 193 0
173 196 0
172 196 0
170 194 0
173 196 0
171 193 0
172 196 0
174 198 0
172 195 0
172 195 0
173 196 0
172 195 0
172 196 0
173 196 0
173 196 0
173 195 0
171 194 0
169 191 0
171 192 0
174 196 0
171 194 0
174 196 0
174 197 0
173 196 0
172 195 0
173 196 0
173 196 0
173 196 0
170 192 0
170 194 0
171 195 0
172 194 0
170 194 0
172 195 0
173 196 0
171 194 0
171 195 0
171 195 0
172 195 0
171 194 0
171 195 0
172 195 0
170 192 0
172 195 0
170 194 0
171 194 0
172 195 0
171 194 0
171 193 0
172 195 0
171 194 0
169 192 0
171 195 0
171 193 0
171 194 0
170 192 0
170 193 0
170 194 0
173 195 0
168 192 0
171 194 0
169 193 0
170 192 0
172 194 0
170 194 0
171 193 0
171 192 0
168 191 0
159 180 0
152 173 0
151 171 0
153 173 0
152 172 0
151 171 0
151 171 0
153 174 0
153 173 0
153 173 0
152 173 0
154 174 0
152 172 0
152 172 0
150 171 0
152 172 0
152 172 0
152 173 0
153 173 0
155 175 0
152 172 0
154 174 0
151 172 0
150 171 0
152 172 0
152 173 0
154 174 0
154 174 0
152 172 0
152 173 0
152 173 0
152 172 0
152 173 0
152 173 0
150 171 0
153 174 0
152 172 0
152 173 0
152 173 0
151 171 0
150 171 0
153 173 0
152 172 0
154 174 0
152 172 0
151 172 0
152 172 0
151 172 0
152 172 0
149 170 0
150 170 0
153 173 0
151 171 0
153 173 0
152 172 0
153 173 0
151 172 0
152 173 0
148 168 0
152 172 0
152 172 0
152 172 0
150 170 0
45 73 93
44 70 97
41 67 88
46 73 98
42 68 88
44 71 102
43 69 95
44 69 99
41 65 81
40 64 89
40 65 80
43 68 92
42 67 91
39 63 94
39 63 87
38 62 82
38 62 84
38 61 81
36 58 77
36 58 78
35 57 81
38 61 87
37 60 85
35 56 85
34 55 81
32 51 73
40 64 91
55 88 133
57 91 132
58 93 145
61 97 163
58 92 140
58 93 147
59 94 146
59 95 140
60 95 147
60 96 153
60 96 149
61 97 156
59 95 143
61 97 158
61 97 156
59 95 149
62 98 163
61 97 162
61 97 164
61 97 159
61 97 159
61 98 165
61 97 161
61 98 159
61 97 160
62 98 164
60 97 162
60 96 157
61 97 161
62 98 162
61 97 163
62 98 167
61 97 162
61 97 162
61 97 164
61 97 165
60 96 156
61 97 168
61 97 164
60 96 158
62 98 171
61 96 162
60 96 160
61 97 168
60 96 157
60 96 162
61 98 165
61 97 165
61 97 163
61 96 159
61 96 161
61 96 158
61 97 167
60 96 163
60 95 159
60 96 162
60 96 159
59 94 159
59 94 160
59 94 158
59 94 161
59 94 157
61 97 166
60 95 160
61 95 162
58 93 152
59 93 155
60 95 164
60 94 157
58 93 158
57 90 150
59 92 149
59 93 157
59 92 155
57 91 157
58 90 147
58 91 159
57 88 144
58 91 154
56 88 143
57 89 147
57 89 152
56 87 140
54 84 139
56 87 140
54 84 133
50 78 118
53 81 125
54 81 124
52 80 126
52 82 135
52 79 124
69 64 62
79 67 32
93 78 38
88 70 21
88 67 24
87 75 33
88 71 27
93 73 25
93 76 31
97 80 34
93 75 25
100 81 27
90 69 18
85 69 15
90 70 19
95 75 29
78 59 19
93 73 30
89 71 23
93 74 26
94 76 23
96 75 28
97 77 29
103 86 33
96 76 22
94 74 27
103 81 19
99 78 15
94 72 21
93 73 18
96 73 13
111 89 29
98 80 22
100 79 24
98 78 22
99 76 14
93 72 17
95 78 23
94 72 13
102 79 18
101 81 25
100 80 30
102 79 24
102 83 20
97 75 28
97 76 23
100 81 22
104 85 27
98 80 25
100 77 20
99 80 20
102 79 17
110 90 32
100 77 11
103 79 19
104 83 29
103 80 22
105 85 23
104 83 23
104 82 21
105 82 27
103 81 20
108 86 21
105 85 34
107 92 28
106 85 24
98 78 23
96 76 20
108 86 28
101 82 20
107 84 30
98 79 17
110 90 37
105 82 26
103 81 19
104 83 26
105 84 22
106 84 20
104 84 27
103 82 24
94 72 15
104 82 29
104 81 18
105 84 18
101 79 19
107 85 21
109 89 30
100 78 25
99 76 19
110 90 25
107 87 31
100 78 23
99 78 21
109 87 21
105 87 28
108 86 26
103 81 20
106 83 20
108 87 27
108 90 30
100 79 25
108 84 31
103 84 30
103 82 27
105 84 31
103 84 24
98 79 24
114 95 37
102 81 26
104 82 29
106 86 32
102 82 32
97 77 27
103 84 26
103 80 28
107 88 37
102 81 22
98 79 27
103 80 27
100 81 32
105 85 34
103 84 23
102 80 25
103 82 33
90 71 22
92 73 28
99 81 32
108 90 38
85 66 18
103 84 33
103 85 35
97 76 25
107 89 40
90 71 29
93 76 30
89 73 33
89 72 31
88 74 34
99 83 33
94 79 34
155 173 19
172 195 0
172 195 0
170 193 0
172 194 0
172 195 0
173 196 0
173 196 0
173 195 0
171 194 0
172 195 0
169 192 0
172 194 0
171 194 0
172 195 0
173 197 0
173 196 0
172 196 0
171 195 0
173 197 0
172 195 0
174 196 0
172 195 0
174 196 0
173 196 0
172 195 0
173 195 0
171 193 0
170 194 0
173 196 0
172 195 0
172 195 0
172 195 0
174 197 0
174 197 0
170 194 0
172 195 0
171 194 0
171 194 0
173 196 0
173 196 0
173 196 0
171 195 0
172 195 0
171 195 0
173 196 0
170 194 0
171 194 0
171 195 0
172 195 0
172 195 0
171 194 0
172 196 0
171 194 0
171 195 0
171 194 0
171 194 0
171 193 0
170 194 0
171 194 0
169 193 0
170 193 0
171 194 0
171 194 0
172 195 0
170 193 0
172 194 0
170 194 0
169 192 0
170 193 0
172 194 0
171 194 0
171 194 0
168 191 0
170 193 0
169 191 0
170 193 0
170 192 0
166 188 0
153 174 0
154 174 0
151 171 0
150 170 0
152 172 0
152 173 0
154 174 0
152 173 0
154 174 0
152 173 0
152 173 0
152 172 0
150 171 0
152 172 0
153 173 0
151 172 0
151 170 0
153 173 0
151 172 0
151 172 0
154 174 0
152 172 0
151 172 0
153 173 0
153 172 0
153 174 0
152 173 0
151 171 0
153 173 0
151 172 0
153 173 0
151 171 0
153 174 0
154 174 0
153 174 0
152 172 0
152 173 0
152 171 0
153 173 0
151 172 0
154 174 0
151 172 0
153 173 0
152 172 0
152 172 0
149 170 0
152 173 0
152 172 0
152 172 0
151 172 0
151 171 0
153 174 0
151 172 0
152 172 0
152 172 0
154 173 0
150 171 0
152 173 0
153 174 0
151 171 0
152 173 0
152 173 0
57 82 99
45 72 94
46 73 104
44 70 91
45 72 92
44 71 92
46 73 93
45 71 97
42 67 94
43 69 100
40 65 86
42 68 85
40 65 86
40 64 89
39 63 84
38 61 81
42 66 88
37 61 74
38 61 83
36 59 83
37 59 86
34 56 78
31 51 68
27 44 61
32 52 75
32 52 64
43 68 97
57 91 141
59 94 147
58 92 144
58 93 141
58 93 141
59 95 149
60 95 156
60 95 150
60 95 147
61 97 155
61 97 158
60 96 149
61 97 154
60 96 148
60 96 159
61 97 158
61 97 156
61 97 157
62 98 160
61 97 162
61 97 160
61 97 157
60 96 153
61 97 161
61 96 156
61 97 162
60 96 156
60 96 156
60 96 160
60 96 156
61 97 160
61 97 156
61 97 161
61 97 156
61 98 165
60 96 155
61 97 163
60 96 162
61 96 162
61 97 166
61 97 161
61 97 164
60 97 164
62 99 167
61 97 164
61 97 166
61 96 159
61 97 166
61 97 163
60 95 157
60 96 160
60 96 159
60 96 160
60 95 162
61 96 162
59 94 154
59 94 154
60 95 159
60 96 160
59 94 155
59 93 156
61 96 160
57 92 156
59 93 155
59 93 155
59 93 156
59 92 156
59 93 153
59 93 150
57 90 145
59 92 154
59 92 155
58 92 156
59 93 155
56 88 147
59 93 153
55 86 138
57 88 138
56 88 146
55 85 135
55 85 137
53 83 135
55 85 138
56 87 138
54 84 138
56 86 138
55 86 139
53 81 127
54 81 128
53 82 135
51 79 125
53 71 98
78 67 27
82 67 30
81 65 23
76 63 29
77 60 25
79 64 15
87 69 22
91 73 28
87 69 19
92 77 33
92 74 22
87 70 17
89 65 12
95 74 23
92 70 23
82 65 17
94 78 29
91 74 26
95 76 26
91 72 18
89 68 23
98 78 26
97 78 32
93 73 23
97 77 21
100 78 13
106 86 25
97 76 21
99 79 24
99 79 23
101 83 26
105 82 16
96 75 26
102 80 15
97 77 23
99 79 22
102 83 27
86 69 28
101 77 24
88 66 9
103 81 29
109 88 24
109 89 27
98 77 22
108 89 30
98 76 17
99 79 20
100 83 30
98 75 16
104 82 27
108 90 36
100 83 22
101 77 19
97 78 15
105 83 22
107 87 30
102 80 23
97 77 17
109 88 21
108 86 24
108 85 24
105 83 29
104 82 20
108 84 19
98 79 23
111 89 31
98 77 21
105 82 28
104 80 23
101 76 19
105 85 25
104 82 13
108 85 24
101 80 22
99 79 17
109 89 31
103 85 22
107 85 28
104 85 19
97 76 20
106 85 30
104 85 27
106 85 21
100 76 17
100 79 16
108 84 22
107 88 35
106 89 35
104 84 30
102 83 27
113 92 30
99 73 22
96 73 14
99 76 22
101 82 23
103 81 27
94 73 23
104 81 19
99 79 22
99 79 23
107 89 28
98 80 23
111 89 33
99 77 24
105 86 31
107 87 33
96 75 26
99 79 24
102 82 29
101 80 28
107 84 27
105 83 31
100 81 28
100 80 27
105 84 28
90 68 15
114 94 39
115 94 41
106 87 33
95 76 32
93 71 29
94 72 25
97 81 26
97 78 30
94 78 30
103 83 32
90 72 22
96 78 28
101 83 31
98 75 25
89 68 14
95 74 26
105 88 41
104 84 38
84 68 29
98 77 30
92 73 29
103 86 40
101 84 38
94 76 33
106 94 36
165 186 11
173 195 0
170 193 0
172 195 0
171 194 0
172 195 0
172 195 0
171 194 0
171 193 0
171 194 0
173 196 0
173 197 0
171 194 0
173 195 0
170 192 0
172 195 0
170 193 0
171 195 0
171 193 0
174 197 0
171 193 0
174 197 0
170 191 0
171 195 0
170 193 0
172 196 0
171 194 0
175 198 0
172 195 0
173 196 0
173 196 0
170 194 0
173 196 0
172 195 0
171 194 0
172 195 0
172 196 0
173 196 0
173 196 0
173 195 0
171 195 0
172 195 0
171 194 0
174 196 0
173 195 0
172 194 0
171 195 0
171 194 0
171 194 0
172 195 0
171 195 0
171 193 0
172 194 0
170 193 0
171 194 0
172 195 0
169 192 0
172 195 0
171 194 0
170 193 0
170 192 0
172 195 0
170 193 0
172 194 0
171 193 0
171 194 0
172 195 0
172 195 0
170 193 0
172 194 0
168 192 0
171 194 0
171 194 0
170 192 0
170 193 0
168 191 0
169 192 0
167 189 0
155 175 0
150 170 0
152 173 0
151 172 0
153 173 0
152 172 0
152 173 0
152 172 0
152 172 0
151 172 0
154 174 0
152 173 0
152 172 0
153 173 0
153 173 0
154 174 0
151 172 0
152 172 0
151 172 0
153 172 0
150 170 0
152 173 0
152 173 0
153 174 0
152 172 0
152 172 0
151 172 0
152 172 0
150 171 0
150 171 0
151 170 0
154 174 0
153 173 0
151 172 0
152 173 0
153 173 0
153 173 0
152 172 0
151 172 0
150 171 0
151 172 0
152 172 0
153 173 0
152 173 0
152 172 0
151 172 0
152 172 0
152 172 0
151 171 0
152 173 0
152 172 0
151 173 0
152 172 0
152 173 0
151 172 0
152 173 0
153 174 0
152 172 0
149 170 0
152 173 0
153 173 0
154 174 0
82 103 82
45 72 97
47 75 98
45 72 97
43 69 82
42 67 86
45 71 100
42 67 88
44 70 96
42 67 91
43 69 91
38 62 65
43 68 96
39 63 81
36 59 72
39 63 83
36 60 78
38 61 74
39 62 92
38 61 82
36 59 75
37 60 78
32 53 63
31 51 67
35 57 75
30 49 55
48 77 104
59 93 142
58 92 138
60 95 154
58 93 151
59 95 148
60 96 155
59 94 147
61 96 148
61 96 155
61 96 146
60 96 152
60 96 153
61 96 152
61 97 156
60 96 158
61 97 160
61 96 152
60 96 155
60 96 152
60 96 155
61 97 157
61 97 159
61 98 163
62 98 165
61 97 166
62 98 162
62 98 162
61 97 155
61 97 156
61 98 165
61 97 161
61 97 166
60 96 158
61 97 162
62 98 164
61 97 165
62 98 168
61 97 164
61 97 161
61 98 165
62 98 168
61 97 162
61 97 158
60 96 159
61 97 166
60 95 161
60 96 156
61 97 159
61 96 157
61 97 166
61 96 161
60 95 158
61 97 165
60 95 162
61 96 158
60 95 157
60 94 158
60 95 160
60 96 166
60 94 158
59 94 152
60 96 165
60 94 154
60 95 164
60 94 158
59 93 155
59 93 160
60 93 152
58 93 155
59 92 149
59 93 156
59 92 151
58 91 152
56 88 143
58 91 150
57 89 140
58 91 155
57 89 147
56 87 140
56 87 143
55 86 142
54 84 137
56 87 145
54 84 135
54 83 130
54 84 132
54 84 139
56 85 135
53 80 117
53 80 123
54 83 135
62 72 94
72 60 24
91 77 30
93 78 36
94 76 34
78 61 21
92 75 30
83 66 26
93 72 28
86 69 22
87 69 26
87 68 19
80 63 18
96 78 30
88 68 24
78 61 24
94 75 24
94 75 21
97 79 26
89 70 20
102 82 31
103 85 26
97 77 25
92 69 22
99 82 22
95 75 25
92 71 20
100 78 23
101 77 21
91 69 22
92 77 27
94 73 21
105 82 22
94 68 18
89 74 17
97 76 20
102 79 29
104 84 18
99 78 17
104 82 24
99 76 10
98 79 29
107 85 26
98 78 22
105 85 25
102 80 19
101 79 18
101 80 24
99 76 23
107 87 26
108 88 21
100 79 16
99 79 21
106 86 24
103 80 26
102 78 25
100 80 17
111 88 32
105 84 17
99 78 22
110 88 21
102 80 10
100 78 23
108 87 25
113 92 30
115 93 31
109 87 23
96 75 20
105 82 24
97 76 18
108 85 19
98 77 23
101 79 26
111 91 28
104 82 15
102 83 23
102 80 27
101 79 23
93 71 19
98 72 18
111 91 34
110 90 33
101 80 24
114 92 29
107 85 32
109 89 27
109 85 21
112 90 34
102 83 30
99 80 23
99 78 21
99 79 16
109 87 27
106 83 23
101 79 23
103 79 15
103 82 22
108 89 34
96 73 17
99 77 25
98 76 19
99 80 24
106 86 31
111 90 26
103 81 28
103 78 27
102 82 26
101 77 20
101 79 24
106 83 26
98 73 20
92 69 16
93 72 18
105 86 31
103 84 37
104 84 29
101 78 27
96 77 26
104 82 27
94 75 27
97 81 33
107 84 33
96 78 29
97 77 29
105 88 38
98 79 29
106 84 29
93 72 19
96 77 31
94 72 26
98 81 33
91 72 26
111 94 42
93 75 33
94 75 32
95 77 22
89 74 30
102 83 36
85 70 28
104 87 41
105 89 39
107 95 50
126 130 34
172 194 0
172 195 0
173 196 0
171 193 0
170 194 0
173 196 0
167 190 0
173 196 0
169 194 0
170 193 0
169 192 0
171 193 0
171 194 0
171 194 0
171 194 0
172 196 0
170 193 0
172 196 0
174 197 0
174 197 0
169 192 0
174 196 0
172 195 0
172 195 0
173 196 0
173 196 0
174 197 0
174 196 0
173 196 0
172 195 0
173 196 0
172 195 0
173 196 0
174 196 0
171 195 0
172 196 0
172 195 0
171 194 0
171 195 0
171 194 0
172 196 0
170 193 0
170 194 0
171 195 0
173 195 0
171 195 0
174 196 0
173 196 0
172 195 0
172 195 0
173 195 0
172 196 0
171 194 0
169 192 0
173 196 0
171 193 0
172 194 0
171 195 0
169 193 0
168 191 0
171 194 0
173 196 0
172 194 0
167 189 0
170 193 0
171 194 0
170 193 0
173 195 0
171 193 0
168 192 0
172 195 0
169 192 0
171 193 0
169 192 0
167 190 0
167 190 0
168 191 0
153 173 0
151 171 0
153 175 0
151 172 0
151 172 0
153 174 0
154 174 0
152 172 0
152 172 0
153 173 0
151 172 0
151 171 0
154 174 0
152 172 0
153 174 0
152 173 0
151 171 0
152 172 0
151 172 0
151 172 0
152 172 0
151 171 0
152 172 0
153 173 0
152 172 0
155 175 0
154 174 0
149 169 0
152 172 0
150 171 0
153 173 0
151 172 0
151 171 0
153 174 0
153 173 0
151 171 0
154 174 0
153 173 0
154 175 0
152 172 0
152 173 0
152 172 0
153 173 0
152 172 0
150 171 0
151 172 0
151 172 0
153 173 0
150 170 0
151 171 0
151 172 0
153 173 0
149 170 0
150 171 0
152 172 0
149 170 0
150 171 0
152 173 0
150 171 0
152 172 0
152 173 0
153 174 0
86 108 82
45 72 85
44 71 94
44 71 91
44 70 94
45 72 100
42 67 82
42 68 82
43 68 84
43 70 93
41 66 88
42 68 91
41 65 82
37 60 72
40 64 85
37 60 83
37 61 73
37 60 82
35 56 73
34 55 63
34 55 77
36 58 75
33 54 66
34 55 74
35 56 62
30 50 63
50 79 117
57 91 142
58 93 142
60 94 139
58 92 143
60 95 155
59 93 137
59 94 155
61 96 153
61 97 157
60 96 151
60 96 154
61 96 153
60 96 156
60 96 153
60 95 145
60 96 157
59 95 151
62 98 165
61 96 153
61 97 157
62 98 162
61 98 164
62 98 168
61 98 164
62 98 166
61 96 154
61 97 163
60 96 156
60 96 156
61 97 163
62 98 166
61 97 163
61 97 162
61 98 165
62 98 165
61 98 165
61 97 156
61 96 160
61 97 162
60 96 160
62 98 166
61 96 160
61 97 166
61 97 163
61 96 158
60 96 161
60 96 159
61 97 168
60 96 158
61 97 167
60 95 154
61 96 161
60 95 155
60 96 160
60 95 160
60 96 159
59 93 149
60 95 160
59 94 157
61 97 166
60 94 159
60 94 154
60 93 153
60 94 157
58 92 146
59 93 156
58 91 145
59 93 153
57 90 145
57 89 144
57 90 142
58 90 149
59 92 155
58 91 151
56 86 138
57 89 145
57 89 146
58 91 144
56 86 137
55 85 134
56 87 138
56 88 145
55 86 136
56 86 138
55 85 139
53 82 129
54 84 133
53 83 133
53 79 121
51 79 128
49 75 117
74 77 80
72 55 19
78 64 21
81 65 22
77 62 24
80 62 21
81 65 17
81 66 27
84 66 20
89 67 16
76 61 14
88 70 19
85 68 19
87 70 26
75 55 11
86 70 26
84 66 18
89 68 15
95 77 27
94 73 19
100 81 27
99 83 25
97 76 20
90 72 17
90 69 18
92 75 23
102 81 21
98 75 21
98 78 19
94 73 23
98 79 19
98 78 22
98 75 21
90 72 22
100 80 21
104 83 21
102 84 33
99 75 18
98 74 23
102 79 24
96 78 28
90 68 7
101 81 24
96 75 10
98 79 27
99 76 17
101 80 21
99 81 15
103 80 20
103 82 18
97 75 23
101 77 16
105 83 22
106 84 15
104 83 28
106 85 20
85 69 14
101 77 15
111 90 24
102 81 26
96 74 18
95 74 17
104 80 21
107 85 16
102 82 21
110 86 22
104 82 20
105 85 32
97 72 12
98 79 32
109 89 23
108 87 19
102 80 22
108 90 27
104 82 16
102 78 14
99 77 12
108 87 24
107 84 18
101 80 22
102 80 20
107 84 26
99 75 15
103 82 26
107 88 31
100 80 16
99 79 23
104 82 22
106 84 25
99 79 28
112 92 30
104 82 23
99 78 17
109 90 28
108 87 27
102 79 26
99 78 20
106 85 25
99 77 20
103 82 22
98 77 23
105 83 27
99 78 30
95 74 23
92 70 25
105 84 24
101 80 22
104 83 23
117 96 36
99 77 24
92 73 25
102 81 26
102 84 30
107 87 33
102 80 21
102 81 25
100 80 27
104 82 31
112 90 30
96 76 26
97 77 27
106 89 30
95 79 27
101 82 35
92 74 30
93 78 28
94 73 22
97 77 23
99 81 32
96 76 28
95 80 33
99 79 27
93 75 28
95 75 28
101 84 36
82 66 20
82 68 31
95 77 34
97 78 33
91 73 29
102 86 39
104 88 43
92 75 32
146 155 29
169 192 0
171 194 0
169 192 0
172 194 0
169 191 0
171 193 0
173 196 0
169 192 0
171 193 0
171 194 0
171 193 0
171 193 0
173 196 0
173 196 0
170 193 0
173 195 0
173 196 0
173 196 0
169 192 0
172 195 0
172 195 0
171 195 0
170 193 0
169 190 0
173 196 0
174 197 0
172 195 0
174 196 0
172 195 0
171 195 0
174 197 0
172 196 0
169 193 0
173 196 0
171 194 0
172 196 0
170 194 0
172 194 0
171 195 0
171 194 0
171 195 0
171 195 0
173 196 0
171 194 0
170 193 0
174 196 0
174 196 0
172 195 0
171 194 0
171 195 0
172 195 0
172 195 0
173 196 0
172 194 0
170 193 0
170 193 0
170 193 0
172 195 0
172 195 0
171 194 0
171 195 0
172 195 0
169 192 0
171 194 0
170 193 0
171 194 0
170 192 0
173 195 0
171 193 0
171 193 0
171 194 0
171 193 0
169 191 0
171 193 0
169 192 0
170 192 0
154 175 0
152 172 0
151 172 0
152 173 0
150 171 0
152 173 0
152 172 0
151 172 0
153 173 0
151 171 0
152 173 0
150 170 0
152 172 0
152 173 0
150 171 0
151 171 0
151 172 0
151 172 0
152 172 0
153 173 0
152 172 0
150 171 0
152 172 0
152 172 0
152 173 0
153 173 0
153 173 0
153 174 0
152 172 0
151 172 0
150 171 0
150 171 0
150 171 0
152 172 0
151 171 0
153 174 0
152 172 0
152 173 0
153 173 0
151 171 0
152 172 0
153 173 0
151 172 0
152 173 0
153 173 0
153 173 0
151 173 0
153 173 0
153 174 0
154 174 0
152 172 0
152 172 0
152 173 0
149 170 0
149 170 0
153 173 0
151 172 0
150 171 0
153 173 0
152 172 0
153 174 0
153 173 0
95 115 64
48 75 94
50 76 92
46 72 87
44 70 89
43 70 93
45 72 86
43 69 89
43 69 97
41 66 84
42 67 82
39 63 81
41 66 81
41 66 93
39 62 73
37 60 82
39 63 77
36 58 77
39 62 79
36 58 76
33 54 70
38 61 83
32 53 64
32 52 64
33 53 67
31 51 64
53 84 131
55 89 139
59 93 147
59 93 137
60 95 153
60 95 144
59 94 150
60 95 149
61 96 153
60 96 149
60 96 152
61 97 153
60 96 151
61 96 149
61 97 152
62 97 158
61 97 155
61 97 160
61 97 159
62 97 161
61 97 159
60 96 155
61 97 162
60 96 152
61 97 161
61 97 158
60 96 163
61 96 152
60 96 154
62 98 160
61 98 168
61 97 158
61 97 159
62 98 163
61 97 160
61 97 159
61 98 168
61 97 163
61 97 164
61 98 160
62 98 165
61 97 164
62 98 164
61 97 160
61 96 159
60 96 165
60 96 160
60 95 157
60 96 156
59 95 157
60 96 155
59 94 147
60 94 149
60 96 155
60 95 159
61 96 163
59 93 157
59 94 155
59 94 157
59 94 151
58 93 152
60 94 156
59 93 149
59 92 153
58 92 151
60 95 156
59 93 154
58 92 151
58 92 152
59 92 151
58 91 148
57 89 147
58 92 153
57 88 134
57 88 139
57 88 141
56 87 137
58 91 149
59 92 152
57 88 141
56 86 138
57 88 142
53 83 134
54 82 124
55 84 127
53 82 126
52 79 120
52 81 123
53 80 121
52 81 126
50 76 111
51 80 129
64 59 62
82 66 25
78 62 22
83 65 16
84 68 27
70 54 18
76 63 19
73 56 16
92 78 30
76 56 7
84 65 25
87 65 23
89 72 24
91 73 23
100 81 27
86 68 24
92 76 24
91 74 27
99 80 26
96 73 18
98 77 22
99 78 18
91 74 27
88 69 20
97 76 24
98 78 20
93 77 15
93 74 23
100 75 22
101 81 20
83 66 12
104 86 26
95 72 11
95 75 24
97 74 20
102 77 19
107 84 23
94 73 16
92 72 18
104 87 28
106 82 27
103 82 23
87 69 14
102 82 24
96 75 23
102 80 19
96 74 12
104 81 22
98 77 14
106 87 22
103 83 17
105 84 19
101 80 19
94 76 12
102 82 27
110 90 20
101 78 19
109 87 26
100 77 19
101 79 25
104 83 20
102 78 19
107 86 25
109 86 22
98 75 12
102 79 17
103 81 22
96 74 19
102 83 20
100 82 17
107 86 31
105 81 20
101 76 18
97 77 15
99 75 20
102 81 26
108 88 25
102 84 20
103 82 29
107 84 24
103 85 25
102 81 27
104 83 23
113 92 25
104 84 19
108 86 26
108 88 26
107 84 27
105 83 26
110 88 30
105 82 23
96 73 27
105 83 20
108 89 25
103 83 14
107 87 26
107 87 26
101 80 23
96 77 27
91 73 22
106 86 26
105 83 21
94 75 24
109 91 33
98 77 22
103 80 17
100 79 25
99 79 24
103 84 27
106 86 30
110 88 28
103 80 24
101 81 29
93 73 22
97 76 21
95 73 22
93 71 22
101 83 26
105 86 35
96 78 26
96 75 25
104 85 35
97 76 28
99 82 30
100 78 21
89 71 25
82 63 14
101 79 30
104 85 33
99 84 30
94 74 25
102 82 32
95 77 30
101 81 31
97 79 30
104 86 34
90 72 31
94 78 39
98 80 31
97 81 37
81 66 30
96 79 34
89 74 29
98 87 37
165 184 21
171 195 0
168 191 0
170 194 0
171 194 0
170 193 0
166 190 0
171 195 0
170 192 0
172 195 0
171 194 0
172 194 0
173 196 0
170 194 0
172 195 0
173 196 0
170 193 0
171 192 0
172 195 0
171 194 0
168 191 0
171 195 0
173 195 0
171 194 0
170 194 0
171 194 0
173 196 0
172 195 0
173 196 0
173 196 0
170 194 0
174 196 0
172 195 0
173 195 0
171 195 0
173 195 0
171 195 0
172 195 0
169 193 0
170 194 0
172 195 0
174 196 0
171 194 0
171 195 0
171 194 0
171 194 0
173 196 0
170 194 0
170 193 0
170 193 0
170 193 0
173 196 0
172 195 0
172 194 0
170 194 0
172 193 0
171 195 0
170 193 0
170 193 0
171 194 0
171 193 0
170 192 0
170 194 0
171 194 0
168 190 0
171 194 0
171 193 0
173 195 0
168 192 0
172 194 0
167 190 0
171 193 0
169 192 0
169 191 0
170 193 0
170 193 0
158 179 0
152 172 0
152 172 0
149 170 0
152 172 0
153 173 0
152 173 0
150 169 0
151 171 0
151 171 0
151 171 0
152 173 0
150 170 0
151 170 0
151 170 0
150 171 0
151 172 0
151 171 0
152 173 0
152 172 0
152 172 0
152 172 0
150 170 0
150 170 0
150 170 0
152 172 0
152 172 0
149 169 0
152 173 0
151 171 0
153 173 0
152 172 0
150 171 0
152 172 0
152 172 0
150 171 0
153 173 0
152 172 0
151 171 0
150 171 0
151 172 0
154 174 0
153 173 0
152 172 0
151 172 0
151 171 0
154 174 0
151 171 0
151 172 0
151 172 0
149 170 0
152 172 0
149 170 0
152 173 0
152 173 0
151 172 0
151 171 0
152 173 0
153 173 0
151 172 0
151 171 0
152 172 0
109 129 72
45 70 81
52 79 94
43 69 91
45 72 92
42 67 84
43 68 90
41 66 84
40 65 85
43 68 91
39 63 76
39 63 72
41 66 83
39 62 83
39 62 71
37 59 78
37 60 71
37 60 65
37 59 71
37 59 72
35 57 72
36 58 79
33 54 66
35 57 65
31 51 61
33 54 67
53 85 124
58 92 134
58 92 141
59 94 143
59 93 144
60 95 149
59 94 144
60 95 146
59 95 151
61 96 155
60 96 147
60 96 144
62 98 163
60 96 147
61 97 154
61 96 150
61 97 154
61 97 165
61 96 149
61 97 154
62 97 152
61 97 160
61 97 156
61 97 164
60 96 153
62 98 158
61 97 155
60 96 155
60 96 155
60 96 155
62 97 157
61 97 154
61 96 156
61 97 156
60 96 156
61 97 159
61 97 160
60 95 154
61 97 158
61 97 166
60 96 163
61 97 164
60 95 158
60 95 152
62 98 162
61 97 162
61 97 161
60 95 151
61 96 162
60 96 158
61 97 161
59 94 147
59 94 158
60 96 154
61 96 162
60 95 156
59 93 147
60 95 159
60 95 157
58 92 152
59 94 157
59 93 149
59 93 154
60 93 151
60 95 159
58 91 150
59 93 149
57 89 146
57 91 146
58 92 150
56 88 143
58 90 147
58 91 149
57 90 143
57 89 146
55 86 137
56 88 142
58 89 135
56 86 143
56 87 142
55 86 140
54 84 135
51 80 129
55 85 136
54 83 129
52 80 125
52 80 125
54 84 137
55 83 127
52 80 119
50 76 112
51 77 112
85 70 38
85 70 28
65 52 15
72 54 14
89 70 22
76 61 21
88 70 27
80 62 15
87 66 7
85 68 22
80 61 22
85 66 21
79 62 19
86 65 16
96 78 31
83 65 12
87 67 22
94 75 13
84 65 20
94 73 20
97 79 22
94 74 16
91 73 21
91 73 25
93 76 11
95 76 23
96 79 21
100 78 21
95 71 16
97 75 23
93 72 25
94 74 16
96 74 20
100 79 19
97 77 17
97 77 11
108 85 20
98 79 23
98 75 28
95 74 19
104 82 25
105 84 22
101 83 13
103 79 16
88 68 14
106 85 10
101 81 12
106 85 21
104 84 27
94 72 13
105 81 25
109 87 24
102 83 26
100 83 20
102 78 10
95 73 18
103 82 19
108 84 22
110 90 26
96 77 14
100 78 22
101 79 11
98 79 15
103 81 21
107 84 22
105 85 24
96 74 18
97 76 12
105 83 24
103 82 28
106 84 24
102 81 23
109 88 26
97 76 13
102 82 19
103 80 24
96 78 21
105 83 25
116 95 25
103 82 17
109 85 27
104 83 26
102 82 23
102 80 14
102 79 23
101 81 14
100 81 23
92 71 14
100 80 28
99 78 20
111 88 26
107 88 27
100 80 20
104 86 29
106 84 21
113 91 32
116 96 36
103 83 29
104 79 15
105 84 22
105 81 26
106 87 33
104 85 26
112 93 35
98 77 22
100 77 23
102 81 25
103 82 25
102 80 20
106 83 19
110 90 31
101 84 27
98 80 30
102 83 27
99 80 27
98 77 25
91 67 16
100 76 23
94 74 24
112 92 31
96 78 28
98 77 30
106 85 34
101 80 24
105 84 33
97 76 22
92 72 23
94 78 33
98 80 25
90 72 33
100 78 26
99 82 29
97 79 36
92 69 22
89 71 23
102 82 33
93 75 31
93 74 31
88 68 27
91 76 33
82 67 30
97 79 35
88 71 31
94 79 39
124 121 35
171 194 0
170 192 0
171 194 0
170 193 0
169 192 0
169 192 0
171 195 0
171 195 0
171 194 0
171 194 0
168 191 0
170 192 0
166 189 0
171 195 0
171 193 0
173 195 0
170 192 0
174 197 0
172 193 0
172 194 0
173 196 0
170 193 0
171 194 0
173 196 0
175 196 0
173 196 0
171 194 0
174 197 0
175 197 0
173 196 0
172 195 0
172 196 0
172 196 0
171 195 0
171 195 0
172 195 0
172 195 0
172 195 0
172 195 0
172 195 0
171 194 0
172 195 0
172 194 0
172 195 0
169 193 0
171 194 0
171 194 0
171 195 0
170 193 0
172 195 0
170 194 0
172 195 0
171 194 0
169 192 0
167 191 0
169 193 0
171 193 0
172 194 0
171 193 0
170 192 0
169 192 0
170 192 0
170 192 0
168 191 0
168 190 0
170 192 0
170 193 0
168 191 0
170 193 0
170 193 0
170 193 0
170 193 0
169 191 0
169 192 0
167 190 0
162 183 0
151 171 0
154 174 0
152 172 0
152 172 0
151 170 0
150 171 0
152 172 0
152 173 0
152 173 0
154 174 0
151 172 0
152 172 0
150 171 0
151 172 0
153 173 0
153 173 0
151 172 0
152 172 0
149 170 0
153 172 0
150 170 0
148 168 0
151 172 0
151 172 0
152 172 0
152 173 0
152 172 0
152 172 0
151 172 0
149 170 0
152 173 0
152 172 0
152 172 0
152 172 0
153 173 0
151 172 0
151 172 0
152 172 0
153 173 0
152 172 0
152 173 0
152 172 0
153 173 0
152 173 0
153 173 0
149 170 0
153 174 0
152 173 0
152 171 0
153 173 0
152 173 0
152 172 0
152 172 0
151 171 0
154 174 0
149 170 0
153 173 0
150 171 0
151 172 0
152 173 0
153 173 0
107 127 68
53 77 86
43 69 77
46 71 81
43 68 80
45 71 87
44 69 89
42 67 83
42 68 86
40 63 78
40 63 81
40 65 77
42 68 87
38 61 81
39 63 79
40 64 94
37 60 72
37 59 74
37 60 56
36 58 74
36 59 68
36 57 60
32 51 57
34 55 72
33 54 62
28 47 63
55 88 135
58 92 141
58 93 134
58 92 150
58 93 136
58 93 136
60 96 151
60 96 154
61 97 154
61 97 152
60 95 154
60 96 156
60 96 155
60 96 147
60 97 156
61 96 152
60 95 144
61 97 163
62 98 162
62 98 162
61 97 162
60 96 150
61 97 151
60 96 151
61 97 163
62 98 160
61 98 162
62 98 166
61 97 152
61 97 155
60 96 153
61 97 156
60 97 163
60 96 153
60 96 157
61 97 160
60 96 158
60 96 153
61 96 156
61 97 159
61 97 162
61 96 159
59 94 149
61 97 158
60 95 153
61 96 153
60 96 160
61 97 162
61 97 163
61 96 163
62 97 164
60 95 161
60 95 159
59 94 152
61 96 158
60 95 158
60 94 151
60 95 156
60 95 157
59 95 159
59 94 156
59 93 148
60 95 154
58 91 149
59 94 155
58 91 146
59 92 148
59 92 150
58 92 152
59 94 154
57 91 148
57 90 149
56 88 136
58 91 146
56 87 138
57 90 138
57 90 147
57 88 135
56 87 137
56 85 132
56 85 131
55 84 123
55 84 132
54 84 132
54 83 132
53 79 116
55 83 128
55 83 128
54 84 141
53 81 125
54 82 123
52 76 111
72 56 24
65 50 14
78 61 23
81 66 24
74 56 18
85 66 14
84 63 23
86 67 19
81 61 16
93 72 21
91 70 18
89 70 24
89 67 14
88 72 18
87 70 28
93 74 24
91 73 16
99 77 22
96 76 29
93 72 24
93 74 25
96 75 23
86 63 10
102 80 29
90 70 18
95 74 23
100 77 19
96 77 20
102 81 22
96 75 17
95 74 19
103 84 25
95 75 12
98 76 20
94 77 24
101 82 30
100 77 13
98 76 24
100 79 24
100 80 19
100 80 21
96 75 17
104 83 22
90 69 15
87 64 16
106 84 22
99 78 16
102 81 24
98 75 21
96 77 15
99 78 21
105 81 15
107 85 28
114 93 29
104 85 27
102 79 13
95 75 17
103 84 22
102 83 15
99 78 15
105 84 17
107 84 24
110 87 26
98 76 19
108 86 15
108 85 24
111 89 12
106 83 23
103 83 27
99 77 20
103 82 26
102 82 24
103 84 17
106 86 21
104 82 21
105 80 19
101 81 14
103 83 23
106 81 18
105 81 18
107 85 24
104 82 18
101 76 19
107 85 26
106 83 22
103 82 18
100 78 26
104 81 17
103 87 26
101 80 21
102 80 19
91 68 12
106 83 18
96 76 22
104 83 28
101 80 25
107 88 31
105 84 26
109 86 19
99 79 22
102 82 25
99 75 16
103 80 19
103 78 25
106 83 21
101 81 27
104 85 22
101 76 24
110 89 29
96 77 22
104 83 23
100 84 27
94 74 24
95 75 23
100 81 24
97 77 18
99 77 19
97 76 23
102 81 27
87 68 20
104 82 24
101 81 31
103 82 23
102 80 27
96 77 27
90 73 31
100 83 34
97 75 22
97 75 26
96 77 26
91 75 33
96 71 22
99 80 34
98 81 35
108 91 42
89 70 29
99 84 41
89 69 25
97 81 34
103 87 40
95 78 31
94 78 34
89 70 30
92 74 30
89 71 31
155 171 23
169 191 0
171 194 0
172 196 0
172 195 0
171 195 0
173 196 0
171 194 0
170 193 0
171 194 0
172 195 0
173 196 0
173 195 0
172 195 0
171 194 0
174 195 0
172 195 0
173 195 0
171 195 0
173 196 0
170 193 0
170 194 0
172 195 0
174 197 0
172 195 0
171 194 0
173 196 0
172 195 0
173 196 0
172 195 0
172 195 0
171 194 0
172 195 0
172 195 0
169 194 0
173 196 0
171 195 0
171 194 0
171 195 0
172 195 0
171 194 0
171 194 0
173 196 0
171 195 0
172 195 0
171 194 0
170 194 0
170 194 0
171 194 0
173 195 0
172 194 0
171 193 0
169 192 0
170 194 0
169 192 0
170 193 0
173 195 0
170 194 0
169 192 0
174 196 0
170 193 0
171 194 0
169 193 0
170 194 0
171 194 0
169 191 0
170 193 0
172 195 0
168 191 0
171 194 0
172 194 0
170 193 0
171 194 0
169 192 0
166 189 0
164 186 0
150 170 0
151 171 0
150 170 0
153 173 0
148 169 0
149 169 0
152 172 0
149 169 0
152 171 0
151 172 0
150 170 0
148 168 0
150 171 0
153 173 0
151 171 0
152 172 0
151 171 0
148 168 0
150 171 0
152 171 0
151 171 0
152 173 0
153 173 0
153 174 0
152 171 0
152 171 0
149 170 0
149 170 0
149 168 0
150 170 0
150 171 0
152 173 0
149 169 0
149 170 0
152 172 0
152 172 0
150 171 0
150 171 0
152 172 0
150 171 0
152 172 0
151 172 0
151 172 0
153 172 0
152 172 0
151 172 0
150 171 0
150 171 0
151 171 0
151 172 0
151 171 0
152 173 0
153 173 0
151 171 0
152 172 0
150 171 0
151 171 0
152 173 0
153 173 0
152 173 0
153 173 0
120 141 59
47 74 80
49 72 78
46 71 86
55 79 87
46 71 85
47 70 74
45 69 85
42 67 82
39 64 77
42 67 79
47 71 89
39 64 75
36 58 75
41 63 83
37 60 81
37 61 77
36 58 65
36 58 74
36 57 74
36 58 71
32 52 59
33 54 68
33 54 59
33 53 65
29 49 52
54 87 127
57 91 133
57 91 128
57 91 137
59 94 139
59 94 144
59 93 137
59 94 149
60 95 153
59 93 142
60 96 151
60 96 148
61 97 154
61 97 155
60 96 147
61 97 156
60 96 152
61 97 158
61 97 151
61 97 159
60 96 155
60 97 154
61 97 160
61 97 153
61 97 163
61 97 157
60 96 149
61 98 165
60 95 150
61 97 152
60 96 151
61 97 157
60 96 153
60 97 165
62 97 165
60 96 154
61 96 158
61 98 169
61 96 155
61 97 162
61 96 163
61 97 158
60 96 157
61 98 165
61 97 160
61 96 156
61 98 167
61 96 161
59 94 152
61 96 158
60 95 155
59 93 145
59 94 152
60 95 160
61 96 155
60 95 157
59 94 148
60 94 152
60 95 152
60 94 156
60 95 155
59 94 150
59 94 157
60 94 159
60 94 158
58 91 154
59 93 154
58 91 145
58 90 143
58 91 145
59 92 151
56 87 137
59 90 146
58 90 144
57 88 138
56 87 144
58 90 147
57 88 140
57 89 147
57 89 147
55 85 134
55 84 124
55 86 137
54 83 133
54 82 119
54 84 129
54 82 121
54 82 124
52 80 120
49 77 121
50 77 116
49 71 102
78 64 26
79 66 30
82 68 27
84 68 24
79 60 8
82 61 22
90 72 30
75 62 17
81 62 8
88 69 19
89 70 23
92 75 21
78 59 16
88 67 20
91 73 22
91 74 16
86 66 15
86 69 19
87 68 14
85 65 11
94 75 20
92 72 23
100 80 23
96 77 16
101 82 16
96 76 15
92 70 21
93 74 18
101 82 27
100 83 17
100 80 18
105 83 24
92 74 23
97 73 8
100 73 21
100 80 15
99 79 22
99 77 16
90 69 11
105 84 20
108 84 23
103 81 19
101 81 16
101 79 19
96 73 18
97 75 16
106 88 19
98 75 14
108 83 20
105 83 23
100 79 15
102 80 16
104 80 21
103 80 17
100 81 25
105 83 20
104 80 22
105 82 19
97 74 17
113 91 25
113 90 26
101 83 23
98 78 23
113 91 31
99 78 13
102 78 16
102 83 25
101 80 11
103 81 13
104 83 21
102 79 20
102 78 12
98 77 19
105 87 22
101 80 26
114 92 28
100 81 25
106 87 27
103 81 16
102 82 21
105 82 20
103 83 23
104 82 23
107 85 24
113 92 23
106 84 22
107 84 19
115 95 27
108 88 28
100 77 21
96 74 19
99 77 21
101 77 19
104 82 16
101 80 25
108 90 30
106 84 25
104 82 22
97 76 17
104 82 20
110 91 30
100 75 10
104 82 21
102 84 23
102 83 27
98 77 25
106 83 30
104 79 19
108 88 33
100 81 23
95 75 19
100 82 24
102 80 23
107 84 23
106 87 29
107 86 32
90 69 20
110 88 35
107 88 36
93 75 26
102 86 27
99 79 30
96 75 21
103 83 30
96 78 30
90 71 22
98 79 24
102 84 36
94 76 29
89 71 28
99 84 33
88 70 23
93 73 25
89 68 21
98 78 22
80 63 26
99 80 35
94 74 30
85 69 29
92 75 34
82 67 25
92 75 33
85 65 25
93 74 33
75 61 24
125 123 35
171 194 0
174 196 0
172 194 0
170 193 0
173 196 0
171 193 0
171 194 0
173 195 0
170 194 0
172 195 0
172 195 0
172 195 0
171 195 0
170 194 0
168 192 0
171 193 0
173 195 0
174 196 0
172 195 0
173 196 0
173 196 0
169 192 0
173 196 0
172 195 0
171 195 0
173 196 0
170 194 0
172 195 0
172 195 0
171 195 0
171 195 0
171 195 0
172 195 0
173 196 0
174 197 0
170 195 0
172 195 0
172 195 0
171 194 0
171 194 0
173 195 0
172 195 0
170 193 0
171 194 0
173 196 0
171 195 0
171 194 0
169 192 0
172 195 0
170 192 0
173 196 0
170 194 0
169 192 0
167 190 0
172 195 0
172 196 0
172 194 0
172 195 0
170 193 0
169 192 0
169 192 0
170 192 0
170 192 0
168 191 0
170 192 0
172 194 0
168 191 0
168 192 0
170 192 0
169 192 0
167 191 0
171 193 0
169 192 0
168 191 0
163 185 0
151 171 0
149 169 0
151 171 0
150 170 0
150 170 0
147 167 0
147 167 0
151 171 0
149 169 0
151 171 0
146 167 0
151 171 0
151 171 0
151 172 0
152 173 0
154 173 0
149 169 0
151 171 0
151 171 0
151 171 0
151 171 0
151 171 0
151 172 0
153 173 0
152 173 0
152 171 0
153 173 0
151 171 0
150 171 0
150 171 0
150 170 0
151 171 0
151 171 0
150 170 0
153 173 0
152 173 0
152 172 0
151 172 0
152 173 0
152 172 0
152 172 0
150 170 0
151 172 0
152 172 0
150 171 0
152 173 0
151 172 0
151 172 0
151 172 0
150 171 0
152 171 0
152 172 0
151 171 0
151 172 0
150 169 0
153 173 0
151 171 0
150 171 0
150 171 0
151 172 0
154 174 0
137 157 37
57 81 88
50 75 92
49 74 83
42 68 84
44 69 71
47 72 87
46 69 76
44 68 83
44 66 74
39 62 78
41 66 82
39 62 74
43 66 66
43 66 86
39 63 85
38 61 72
44 65 74
38 61 75
34 55 59
35 57 64
42 62 67
38 58 63
34 53 58
36 53 52
31 51 63
55 88 122
56 89 124
58 92 134
60 95 145
58 93 140
60 96 145
59 95 140
59 94 145
60 96 154
59 94 140
60 95 145
60 96 152
61 96 151
60 95 145
61 96 152
60 96 150
61 97 159
60 96 149
60 96 155
60 96 148
60 95 147
61 97 158
60 95 150
61 97 159
60 96 153
61 96 154
61 97 159
61 97 158
60 96 155
62 98 164
61 97 155
61 97 160
60 96 157
60 96 153
60 96 152
60 96 152
60 96 159
60 96 157
61 97 160
61 97 157
61 97 164
59 94 149
61 96 158
59 94 149
60 96 155
58 92 143
61 97 160
61 96 163
60 95 151
60 95 152
60 95 159
60 95 153
60 95 155
60 96 162
60 95 153
59 93 149
59 93 148
59 93 145
59 93 151
60 93 150
60 96 166
61 96 159
60 94 159
58 92 154
59 93 147
60 93 152
59 93 153
58 91 145
58 90 141
57 89 139
58 91 140
58 91 145
58 91 147
56 87 135
56 88 146
55 86 136
57 88 137
54 83 124
56 87 138
55 86 135
51 79 119
55 85 137
54 83 125
56 86 136
56 84 130
52 81 125
51 77 116
51 78 115
51 77 113
50 76 119
51 78 118
54 77 120
76 63 20
78 61 24
75 59 11
83 68 20
81 62 17
88 68 22
80 63 5
76 57 17
88 70 22
86 70 25
85 68 20
87 68 22
93 77 22
91 72 24
88 67 19
86 67 17
94 75 20
94 76 22
76 55 6
83 62 9
93 71 15
99 81 25
94 74 23
97 80 15
99 81 19
85 63 6
101 77 21
98 77 19
100 80 25
95 77 14
94 75 14
98 78 20
90 69 16
104 82 24
94 76 19
98 77 19
97 76 21
95 76 21
92 71 14
104 83 18
101 81 25
102 80 17
99 76 14
99 80 13
97 76 13
104 84 25
91 72 9
97 76 21
90 69 9
102 80 23
108 87 25
105 86 18
101 78 16
103 80 20
105 82 21
97 76 23
101 81 21
111 90 21
103 82 21
108 87 21
102 84 19
100 82 20
100 80 23
106 82 19
96 74 16
97 76 19
102 83 18
104 81 20
101 79 17
106 84 19
109 91 32
97 74 16
113 91 29
102 80 17
105 81 15
111 92 27
99 78 16
101 79 15
100 80 17
105 87 26
100 75 15
99 78 19
107 83 23
100 78 21
115 95 33
101 81 24
107 85 20
104 82 18
99 77 27
107 88 29
100 78 19
101 77 20
102 79 16
105 85 30
104 80 22
102 83 22
104 85 16
104 84 23
102 82 21
102 82 25
110 88 26
101 80 11
104 83 24
99 79 22
95 74 19
104 83 23
110 89 30
99 79 27
101 78 22
103 84 25
95 72 16
103 82 24
96 75 32
100 83 26
87 66 19
105 81 25
102 85 28
94 74 25
94 72 23
105 86 32
89 70 25
91 71 22
93 74 25
88 70 27
97 78 24
87 69 14
100 79 28
89 69 25
96 80 25
96 77 29
98 77 31
98 80 31
87 68 20
92 74 28
96 73 25
94 78 37
78 60 22
95 78 31
87 66 25
92 69 18
93 72 27
87 72 29
80 63 24
103 87 43
88 72 31
93 76 36
149 166 12
171 194 0
173 196 0
172 194 0
174 197 0
171 194 0
171 194 0
173 196 0
171 193 0
169 192 0
171 195 0
172 194 0
171 195 0
171 194 0
174 196 0
170 193 0
172 196 0
174 197 0
170 193 0
171 195 0
171 194 0
171 194 0
174 198 0
171 195 0
171 195 0
172 196 0
170 194 0
173 195 0
169 193 0
172 195 0
172 195 0
172 195 0
173 196 0
174 196 0
171 194 0
171 194 0
172 196 0
172 196 0
173 196 0
173 195 0
170 193 0
171 195 0
173 196 0
171 195 0
174 197 0
172 195 0
170 192 0
172 195 0
170 193 0
171 194 0
170 193 0
171 194 0
172 194 0
173 195 0
168 191 0
172 194 0
170 193 0
168 191 0
169 193 0
168 190 0
171 194 0
168 191 0
171 195 0
171 194 0
168 190 0
169 191 0
168 192 0
169 192 0
171 193 0
166 189 0
170 192 0
169 192 0
169 192 0
168 190 0
164 187 0
149 170 0
150 171 0
150 171 0
150 171 0
151 172 0
147 167 0
148 168 0
149 169 0
150 170 0
150 170 0
150 170 0
149 169 0
151 171 0
147 168 0
151 171 0
152 173 0
150 171 0
149 169 0
151 171 0
150 170 0
152 171 0
149 169 0
149 170 0
151 171 0
151 171 0
150 170 0
151 171 0
150 170 0
151 171 0
150 170 0
151 172 0
149 169 0
152 172 0
150 171 0
150 170 0
151 171 0
150 170 0
151 171 0
152 173 0
152 172 0
151 172 0
151 172 0
150 170 0
152 173 0
151 172 0
151 172 0
151 171 0
151 172 0
149 168 0
148 169 0
150 170 0
151 171 0
152 172 0
151 172 0
152 172 0
152 173 0
151 171 0
151 172 0
149 170 0
151 171 0
153 173 0
139 159 23
59 81 78
48 72 82
43 66 80
50 71 72
51 75 78
45 68 75
47 71 93
53 75 76
40 65 76
51 71 69
44 66 69
38 62 78
37 60 71
41 62 76
43 67 72
37 59 73
38 61 67
37 60 75
41 59 54
38 56 49
37 57 66
38 55 45
31 51 61
31 50 48
36 52 53
57 91 136
59 93 146
57 92 130
60 94 145
59 94 148
58 93 140
60 95 140
60 95 139
61 97 156
60 95 145
60 96 151
61 96 146
60 96 153
61 97 151
60 95 147
61 97 155
60 96 147
61 97 154
62 98 162
61 97 150
61 97 152
61 96 150
61 97 157
61 96 159
61 96 147
61 97 151
61 97 158
60 96 154
62 98 156
61 96 155
61 97 158
61 97 161
62 98 164
60 96 158
60 96 151
60 96 154
61 96 158
60 96 158
61 96 154
61 97 159
61 97 157
61 97 161
61 97 159
60 95 151
60 95 149
61 97 161
60 96 159
60 96 159
60 95 152
60 96 157
61 97 166
60 96 159
60 95 156
59 94 157
61 96 156
60 94 154
59 94 153
60 95 151
60 95 151
59 93 146
59 95 156
60 94 151
59 93 147
59 93 154
58 91 147
59 93 150
58 90 141
59 91 147
58 91 145
58 92 154
58 90 145
58 90 142
58 90 139
58 90 143
56 86 129
57 88 138
57 89 142
54 85 138
55 86 133
55 87 138
55 84 124
54 84 131
54 84 132
52 80 121
52 81 128
53 81 118
52 79 119
51 79 125
51 77 114
51 77 111
50 76 114
52 76 109
69 55 24
65 54 20
80 66 25
75 58 21
79 61 22
74 57 15
78 62 21
76 60 18
88 67 15
93 72 22
75 55 11
77 60 15
92 72 24
78 60 20
97 76 22
89 72 25
78 60 14
95 75 24
89 67 15
97 78 14
87 69 15
92 72 17
94 72 23
80 61 11
101 79 26
86 66 19
93 73 16
96 78 14
99 78 23
107 85 21
100 78 19
99 78 22
93 72 18
101 80 24
97 75 14
95 76 10
99 79 12
101 81 22
96 77 19
106 80 20
102 81 15
103 80 17
103 82 14
94 70 15
102 83 23
103 85 15
107 85 22
93 74 14
101 82 9
97 76 19
104 83 17
102 83 17
113 93 28
106 87 26
101 80 19
101 78 10
104 84 15
98 78 15
102 81 18
102 80 13
112 90 21
107 84 18
102 81 16
111 87 22
102 83 6
102 86 20
102 83 17
108 87 26
100 79 20
106 83 20
104 84 25
104 80 12
94 74 9
101 80 18
96 74 8
102 81 22
104 86 25
104 84 20
106 82 21
104 83 26
106 83 13
95 73 9
103 80 23
103 80 19
104 83 22
106 86 23
104 79 11
110 89 26
98 81 23
103 81 15
103 82 22
104 82 21
106 85 25
103 80 26
102 79 19
110 88 23
106 84 25
100 79 11
89 68 15
93 72 10
101 80 21
101 81 21
106 83 28
95 73 19
98 78 24
98 77 17
99 78 17
101 83 21
94 71 16
97 73 16
102 78 23
103 83 21
98 79 27
99 80 24
96 75 25
101 80 28
93 74 24
93 76 27
99 76 25
95 73 20
104 80 28
104 83 29
101 80 29
84 65 13
85 64 16
89 69 26
94 75 23
89 72 23
102 81 22
92 73 24
94 76 27
93 73 22
97 77 28
100 78 28
95 75 24
92 72 22
84 65 18
93 74 32
92 76 31
88 70 31
93 76 35
87 67 19
88 70 29
96 81 41
95 78 33
86 71 32
123 127 37
172 196 0
170 192 0
172 195 0
170 192 0
169 191 0
168 191 0
173 196 0
171 194 0
172 195 0
173 196 0
173 196 0
169 191 0
172 194 0
170 194 0
171 193 0
170 194 0
172 196 0
171 194 0
170 193 0
168 191 0
172 196 0
173 196 0
171 194 0
170 194 0
172 195 0
174 197 0
173 196 0
171 194 0
171 195 0
172 195 0
172 195 0
172 195 0
171 195 0
173 196 0
170 194 0
172 195 0
172 195 0
169 192 0
171 194 0
171 193 0
171 193 0
170 194 0
170 193 0
173 196 0
172 196 0
171 194 0
173 195 0
171 194 0
173 196 0
171 193 0
169 193 0
170 194 0
172 195 0
170 193 0
169 192 0
170 194 0
171 193 0
170 192 0
167 189 0
171 194 0
168 191 0
171 194 0
169 192 0
169 192 0
169 192 0
170 193 0
170 193 0
165 187 0
169 191 0
168 191 0
167 189 0
168 191 0
164 187 0
166 189 0
161 182 45
146 165 22
150 170 0
144 165 0
148 168 0
150 170 0
151 171 0
149 168 0
149 169 0
149 169 0
151 171 0
151 171 0
150 171 0
150 170 0
148 169 0
151 172 0
148 168 0
151 171 0
149 169 0
152 171 0
150 171 0
148 168 0
152 172 0
150 169 0
150 170 0
151 171 0
151 171 0
149 170 0
151 171 0
151 171 0
151 172 0
151 171 0
150 170 0
151 170 0
150 170 0
150 170 0
151 171 0
152 172 0
151 171 0
153 172 0
152 172 0
152 172 0
152 171 0
152 172 0
151 172 0
151 171 0
150 171 0
152 172 0
152 172 0
151 171 0
151 172 0
153 173 0
152 173 0
149 169 0
150 171 0
151 172 0
152 173 0
149 169 0
151 172 0
152 172 0
150 170 0
144 165 18
55 76 61
60 81 75
48 71 64
55 77 70
42 66 77
53 75 78
54 74 68
48 71 74
49 72 76
51 73 70
49 72 84
46 67 67
41 63 70
46 66 60
42 63 60
40 60 57
37 59 69
37 57 59
39 59 64
34 55 65
34 55 69
32 51 52
36 55 48
34 53 58
33 54 54
56 90 123
58 92 136
59 93 136
59 94 138
60 95 148
60 95 136
61 97 149
58 93 137
59 94 137
60 95 143
61 97 154
61 97 156
60 95 142
60 95 144
60 96 150
60 96 147
60 96 152
60 96 149
62 98 157
61 97 154
61 97 160
61 97 154
61 97 162
60 96 153
62 98 162
62 98 161
60 95 152
60 96 149
60 96 156
61 96 153
60 96 151
60 96 150
60 96 153
61 96 155
61 97 159
61 96 158
61 97 161
60 96 158
61 96 153
60 95 154
60 96 158
61 97 163
61 96 157
61 97 162
60 95 151
60 96 156
60 96 155
61 97 159
59 94 146
60 95 155
60 95 151
60 96 159
59 95 156
60 95 159
59 94 150
60 95 154
59 93 148
60 95 151
59 94 155
58 92 149
59 93 149
59 93 151
60 95 154
60 94 156
58 91 140
57 90 146
58 91 147
58 91 148
58 91 143
58 91 150
54 86 132
58 90 143
56 88 142
56 87 132
54 83 131
57 90 142
56 86 136
57 88 135
57 88 138
55 85 132
52 80 117
54 85 135
55 84 130
54 83 130
53 79 115
54 82 122
51 79 120
50 76 116
49 74 110
53 80 121
49 74 108
56 76 106
57 45 19
78 62 20
73 56 13
77 57 15
81 67 22
82 60 14
87 69 23
89 68 21
78 59 11
89 70 12
87 66 17
84 61 7
91 71 21
92 73 28
83 67 10
87 66 13
89 69 19
100 82 26
92 72 14
91 70 19
94 75 23
99 79 23
91 71 20
104 84 25
87 66 13
92 71 10
96 78 17
97 76 22
94 71 17
88 67 7
94 72 12
99 75 21
104 84 12
93 70 14
90 71 14
101 79 18
89 69 20
105 84 12
99 81 16
93 72 16
94 73 15
96 72 11
95 75 22
100 78 19
97 80 8
100 81 20
99 78 20
113 92 29
109 88 25
103 82 16
107 85 17
97 75 11
100 80 12
92 73 15
106 87 21
99 76 15
102 83 24
102 77 14
102 80 16
103 81 16
109 88 25
103 83 19
104 80 18
104 86 24
94 73 15
99 75 16
99 79 16
106 83 21
98 76 21
96 75 16
96 78 20
102 78 12
104 82 16
102 81 15
112 92 24
97 76 18
105 83 20
99 79 17
104 85 28
99 76 10
104 82 23
104 81 14
103 83 26
107 85 23
104 82 16
104 80 12
107 84 21
107 85 24
113 91 22
103 84 21
108 87 28
101 76 17
100 81 17
112 93 25
100 77 21
105 85 19
100 78 22
99 76 23
104 82 27
97 75 10
101 80 25
98 77 23
94 76 18
105 85 22
98 77 26
111 89 28
99 77 22
100 81 21
105 86 27
100 78 21
97 77 21
105 84 22
105 86 31
94 73 23
106 85 25
98 75 20
95 77 23
94 75 20
97 76 25
95 77 17
90 68 24
97 74 19
93 73 21
99 81 26
102 83 26
97 77 27
99 78 29
96 75 23
100 81 28
92 73 21
87 68 13
86 64 16
98 78 23
101 85 37
90 72 26
98 82 31
83 65 26
96 75 26
98 80 31
90 74 32
91 74 34
95 76 35
82 65 25
94 78 34
89 74 33
93 78 39
89 78 35
166 187 19
169 192 0
170 193 0
171 193 0
170 192 0
173 195 0
173 195 0
168 192 0
170 193 0
172 194 0
170 193 0
170 193 0
172 194 0
173 197 0
170 193 0
170 192 0
172 195 0
172 195 0
172 195 0
171 193 0
171 194 0
170 192 0
172 195 0
172 195 0
174 196 0
171 195 0
173 196 0
170 194 0
173 196 0
172 195 0
172 195 0
173 196 0
171 195 0
172 195 0
170 194 0
172 195 0
172 196 0
171 194 0
174 196 0
169 192 0
171 194 0
169 192 0
172 195 0
171 195 0
172 195 0
172 196 0
171 194 0
172 195 0
168 192 0
172 195 0
171 194 0
172 195 0
173 195 0
172 194 0
171 193 0
169 193 0
169 192 0
171 194 0
171 194 0
172 194 0
168 191 0
170 193 0
170 193 0
171 194 0
169 193 0
169 190 0
171 194 0
169 192 0
172 194 0
171 193 0
168 190 0
168 191 0
167 189 0
168 190 0
166 188 0
164 184 45
152 170 56
146 165 0
150 170 0
146 165 0
147 167 0
148 168 0
150 170 0
147 167 0
149 169 0
148 168 0
146 166 0
150 170 0
150 170 0
149 170 0
148 168 0
148 167 0
152 172 0
149 169 0
148 169 0
151 170 0
151 170 0
149 170 0
151 171 0
152 172 0
151 171 0
151 171 0
152 172 0
151 170 0
152 172 0
151 171 0
150 171 0
149 169 0
150 170 0
151 172 0
150 170 0
151 172 0
149 170 0
151 171 0
153 173 0
150 170 0
151 170 0
151 171 0
152 171 0
152 173 0
152 172 0
151 171 0
152 172 0
150 171 0
150 170 0
152 173 0
151 171 0
150 170 0
152 172 0
151 172 0
151 171 0
150 170 0
151 171 0
152 172 0
151 170 0
148 169 0
64 84 76
52 75 76
51 73 66
62 82 70
57 77 80
47 69 66
51 71 65
52 73 68
58 78 72
47 69 73
44 65 68
46 68 74
52 72 73
39 61 63
43 64 69
38 58 58
36 57 62
38 58 64
33 54 53
33 50 52
48 65 55
50 66 39
42 57 49
45 61 57
45 61 47
56 89 135
59 92 132
60 95 142
59 94 137
59 93 132
60 95 145
60 96 147
61 96 154
61 96 153
59 95 141
60 96 145
60 96 148
60 95 141
61 97 155
60 95 143
61 97 153
62 98 159
62 98 155
61 97 158
61 96 148
60 95 144
60 96 151
60 96 150
60 96 152
60 96 148
61 97 159
61 97 158
61 96 150
61 97 157
60 96 156
60 96 153
61 96 153
61 96 156
61 96 153
61 97 158
61 98 160
60 96 155
61 97 160
60 95 152
60 95 146
61 97 158
61 96 160
60 96 157
59 94 147
61 96 156
60 95 150
60 95 155
61 96 157
60 95 158
61 96 165
61 96 157
60 95 156
60 95 157
61 96 163
59 93 153
60 94 152
59 93 149
60 96 166
60 95 158
60 94 148
60 94 150
57 90 146
58 91 146
57 91 148
59 92 148
58 91 148
59 91 145
59 92 152
57 89 139
57 89 139
59 91 146
57 89 140
58 91 141
56 88 137
56 88 138
55 87 144
56 85 129
54 82 119
54 83 123
54 82 125
54 84 130
54 84 132
57 87 131
53 80 121
51 79 125
53 83 131
53 80 124
49 76 116
51 79 120
51 77 118
51 77 123
51 70 95
76 62 23
80 63 25
70 52 11
74 57 15
72 59 18
75 61 22
84 69 16
82 64 9
86 67 18
86 66 9
83 68 18
84 63 17
92 71 17
89 69 9
91 73 22
90 70 15
84 66 7
88 70 18
89 69 15
87 66 16
88 70 23
94 71 5
98 77 13
89 71 10
99 79 16
92 71 10
90 70 25
101 80 18
94 75 19
85 68 11
94 76 15
94 76 20
102 83 25
96 76 14
96 75 16
101 81 21
100 80 10
100 84 24
96 74 21
98 79 23
97 75 16
99 76 14
107 85 27
104 82 19
101 83 15
97 78 21
96 76 9
98 79 19
102 83 17
95 73 14
102 80 17
98 75 17
110 90 23
102 79 16
106 85 16
99 79 18
102 81 13
106 84 21
105 82 11
96 77 21
104 82 15
107 87 25
98 76 17
112 94 20
104 81 20
110 89 18
102 80 15
109 85 14
104 81 17
105 85 18
101 84 25
104 80 18
103 86 13
104 83 20
107 86 19
102 82 11
104 85 28
95 77 16
110 89 20
104 81 15
106 86 16
100 79 21
99 76 17
96 73 9
115 95 26
102 83 20
105 81 19
109 88 28
108 86 21
105 84 12
100 80 22
99 79 21
96 74 17
100 80 8
99 77 17
100 79 28
99 80 21
96 74 15
99 77 21
109 87 21
101 80 18
99 77 18
103 81 24
96 76 22
97 79 17
99 79 21
100 77 23
95 76 23
103 85 30
100 76 24
107 87 22
103 83 27
103 83 25
98 77 19
102 81 20
103 81 25
94 73 22
100 78 27
98 82 34
107 85 23
89 68 19
97 80 28
89 68 21
87 71 21
96 71 20
100 80 30
91 72 27
91 72 27
92 73 24
95 78 26
95 77 33
94 74 24
90 74 24
86 68 22
94 78 28
95 76 29
95 77 25
89 69 25
85 64 21
90 70 23
91 72 29
86 69 20
83 67 30
72 59 29
89 73 31
81 65 28
94 77 31
136 145 23
170 192 0
173 194 0
170 193 0
173 195 0
170 193 0
171 193 0
172 194 0
172 195 0
170 194 0
171 194 0
171 192 0
175 197 0
174 197 0
170 194 0
171 194 0
171 194 0
171 193 0
173 195 0
171 194 0
169 192 0
172 195 0
172 195 0
172 196 0
172 195 0
173 196 0
172 196 0
171 195 0
172 196 0
171 195 0
172 195 0
171 195 0
171 194 0
171 195 0
172 196 0
172 196 0
173 195 0
171 194 0
171 194 0
171 194 0
173 195 0
172 195 0
172 195 0
173 196 0
173 195 0
171 195 0
170 192 0
171 193 0
173 196 0
172 195 0
171 193 0
169 193 0
168 191 0
167 191 0
170 193 0
170 193 0
169 193 0
172 194 0
172 195 0
171 193 0
172 195 0
172 195 0
171 193 0
171 193 0
167 190 0
168 191 0
167 191 0
164 187 0
169 192 0
168 191 0
169 192 0
171 193 0
166 189 0
168 190 0
165 188 0
164 186 0
163 185 0
155 175 45
146 166 0
148 169 0
149 169 0
146 165 0
149 168 0
149 169 0
147 167 0
147 167 0
148 168 0
149 169 0
149 168 0
151 171 0
149 169 0
148 168 0
150 171 0
150 170 0
151 171 0
152 171 0
151 171 0
150 170 0
151 171 0
150 170 0
148 168 0
150 170 0
149 169 0
149 170 0
150 170 0
150 170 0
150 170 0
151 171 0
151 171 0
149 170 0
153 173 0
150 170 0
149 169 0
149 170 0
151 172 0
147 168 0
150 171 0
149 170 0
152 173 0
150 170 0
151 171 0
151 171 0
150 171 0
150 170 0
150 170 0
152 171 0
151 172 0
152 172 0
151 170 0
152 172 0
151 171 0
150 171 0
152 172 0
151 172 0
150 171 0
152 172 0
80 100 76
55 77 76
56 77 71
49 71 74
42 63 58
54 78 85
50 72 72
53 73 67
56 76 75
47 67 60
44 66 77
38 60 61
44 64 71
45 65 64
47 66 60
44 64 54
46 63 57
46 63 47
44 65 50
37 55 52
30 49 45
44 63 64
33 51 53
45 62 36
41 57 51
55 87 126
58 92 141
57 91 130
59 94 140
58 93 137
59 94 146
59 94 144
60 95 143
59 94 138
61 96 145
60 96 150
60 95 144
61 96 143
61 97 155
60 95 148
61 97 152
59 94 142
61 96 151
61 96 153
60 96 152
60 96 152
62 98 163
61 96 151
60 96 153
62 98 158
60 95 143
61 97 155
60 96 148
61 96 156
60 96 148
60 95 141
61 96 156
61 97 158
60 96 153
61 96 155
61 96 155
61 97 157
61 97 162
60 96 158
61 96 154
61 96 151
61 96 158
61 96 154
61 96 152
60 96 156
61 97 164
61 97 160
60 95 155
61 95 154
60 95 153
59 94 155
61 96 158
59 93 146
61 95 158
59 94 149
60 96 158
60 95 154
59 94 155
59 94 148
59 93 150
58 91 140
59 93 148
58 92 142
58 91 144
59 92 154
60 94 149
59 92 142
58 91 145
59 90 140
58 89 139
56 88 130
58 89 138
55 85 122
58 91 146
57 87 132
57 89 138
53 82 125
54 84 128
54 84 127
58 89 140
55 84 128
55 84 123
55 85 134
54 81 118
56 84 119
53 80 121
51 79 123
52 78 114
52 79 121
51 79 118
50 77 109
49 69 94
72 64 32
85 67 17
84 66 25
66 48 7
72 58 19
72 58 17
74 57 15
79 63 25
81 64 20
94 76 16
83 67 23
84 66 15
83 62 9
96 79 25
90 74 14
90 71 16
90 69 13
88 68 17
90 72 16
103 80 26
90 72 19
95 74 22
93 73 22
91 72 15
97 78 20
99 77 15
101 79 20
93 74 23
92 70 16
94 75 20
93 72 14
101 82 20
102 81 21
102 82 15
97 79 10
96 79 9
102 81 21
91 75 16
101 81 14
101 80 9
98 80 15
92 73 15
97 76 14
97 79 19
102 79 18
101 79 12
100 79 14
98 78 20
101 82 24
99 75 20
101 81 16
95 73 12
105 84 22
99 79 13
100 81 14
110 91 27
107 84 13
111 87 20
97 76 16
99 80 13
95 77 10
104 84 15
101 79 9
105 83 17
104 83 19
100 79 16
109 87 19
100 80 12
109 89 21
99 78 16
100 79 12
103 84 19
101 77 20
104 87 17
105 82 24
105 81 23
107 87 21
105 81 16
97 77 18
110 90 25
100 81 21
112 89 29
113 94 22
100 80 18
106 85 19
100 81 20
102 80 16
103 79 19
115 90 21
111 91 21
108 85 18
108 83 14
99 78 19
107 86 19
108 87 19
101 81 12
99 78 12
102 82 19
100 79 18
100 80 18
101 81 28
101 79 15
92 73 19
105 83 19
102 82 20
106 85 16
102 81 18
98 79 17
106 79 13
99 77 23
98 78 22
87 68 14
101 81 23
101 79 17
100 76 23
99 78 21
100 78 27
101 81 28
94 72 18
95 75 24
90 70 14
89 72 21
98 79 23
94 76 25
88 65 16
99 76 17
91 68 26
98 81 30
90 73 22
91 70 22
79 60 16
87 69 24
93 74 22
91 70 22
88 71 19
86 68 26
84 64 15
86 71 17
87 68 19
91 75 31
91 71 20
95 75 28
88 71 25
86 70 27
98 81 34
98 79 35
80 63 29
96 95 29
170 193 0
173 195 0
173 195 0
172 195 0
171 194 0
171 193 0
170 192 0
167 190 0
174 197 0
172 195 0
172 194 0
173 196 0
171 194 0
169 192 0
172 195 0
170 193 0
171 194 0
171 193 0
172 195 0
173 196 0
170 192 0
169 192 0
172 195 0
173 196 0
174 196 0
171 194 0
171 195 0
169 193 0
172 195 0
170 194 0
173 196 0
171 195 0
172 195 0
171 195 0
170 193 0
169 192 0
171 194 0
172 196 0
171 194 0
172 195 0
170 193 0
169 193 0
170 193 0
172 194 0
170 193 0
168 190 0
171 195 0
170 192 0
170 193 0
170 193 0
171 195 0
170 193 0
171 194 0
170 193 0
171 194 0
168 192 0
171 194 0
171 194 0
168 191 0
169 192 0
169 192 0
168 192 0
168 192 0
171 194 0
171 194 0
168 192 0
169 192 0
169 192 0
168 192 0
168 191 0
167 190 0
169 191 0
165 187 0
166 188 0
164 186 0
162 185 0
161 183 0
160 180 51
148 167 51
148 167 0
147 167 0
147 167 0
146 167 0
150 169 0
147 167 0
148 168 0
149 169 0
150 171 0
151 171 0
149 168 0
149 170 0
150 169 0
149 169 0
149 169 0
151 171 0
149 168 0
149 169 0
153 172 0
151 171 0
152 172 0
150 170 0
149 170 0
148 168 0
150 171 0
150 169 0
153 173 0
150 170 0
149 170 0
151 171 0
150 170 0
150 170 0
151 171 0
150 169 0
150 171 0
150 170 0
151 171 0
149 169 0
150 170 0
151 171 0
151 172 0
151 171 0
152 172 0
151 172 0
152 172 0
151 172 0
150 171 0
151 172 0
149 170 0
151 171 0
150 171 0
150 170 0
150 170 0
153 174 0
150 171 0
151 170 0
87 105 61
53 74 71
59 79 65
48 70 84
51 72 64
53 74 71
57 79 69
57 75 55
55 72 60
57 75 53
47 65 64
52 72 62
48 69 61
40 61 58
41 61 60
35 53 57
53 71 56
52 69 57
37 57 50
44 62 56
40 58 51
47 65 47
42 58 41
45 59 38
45 62 48
54 87 129
57 91 132
58 93 137
59 95 150
60 94 134
59 94 141
59 94 143
60 96 143
61 96 148
60 96 148
60 96 150
59 94 141
59 95 143
60 95 145
60 96 149
60 95 145
61 97 153
61 97 151
61 97 155
60 96 149
60 95 141
60 96 156
61 97 159
60 95 155
60 95 147
61 97 151
60 96 150
61 97 154
60 96 150
61 96 151
61 96 154
61 96 151
60 95 144
60 96 141
60 95 150
60 96 152
60 97 164
60 96 155
61 97 160
61 97 159
60 95 144
59 93 144
60 96 152
61 96 157
61 96 157
59 94 152
61 96 158
61 97 161
61 96 155
59 93 149
60 95 155
61 96 156
60 94 152
59 93 148
60 95 156
60 94 148
60 95 156
57 91 142
59 93 145
57 90 141
60 94 152
58 91 143
58 90 137
59 93 150
59 92 144
57 89 146
58 91 147
58 91 140
58 91 150
58 91 139
58 91 146
58 89 144
58 90 136
56 88 134
59 92 149
56 86 134
55 86 135
55 86 133
54 84 124
55 84 122
54 83 122
54 83 130
54 82 123
52 79 122
50 77 115
53 81 126
51 78 116
50 75 108
48 73 105
53 81 122
50 76 112
55 73 98
85 77 42
68 55 15
76 61 18
92 71 27
86 65 14
70 54 14
81 63 22
76 58 8
85 65 17
89 69 17
87 68 15
78 61 14
86 68 19
87 66 20
88 69 12
96 75 23
90 70 13
89 69 17
98 76 22
88 67 15
82 66 15
90 71 22
96 79 29
100 79 16
99 78 25
86 68 13
95 75 8
99 78 21
88 73 21
88 67 9
99 77 11
100 79 17
92 72 20
101 77 15
104 83 11
96 75 6
102 81 17
101 80 12
97 75 11
104 82 22
98 80 18
105 85 22
103 83 19
105 80 20
108 87 15
99 77 13
103 82 18
97 78 18
94 74 8
102 80 21
101 82 16
100 75 15
104 82 13
102 83 20
104 81 15
102 78 11
100 82 10
112 91 22
104 81 24
103 81 19
101 81 13
98 77 12
110 87 21
102 85 22
105 81 11
99 80 20
102 82 14
101 78 11
109 86 16
108 86 18
96 73 17
108 85 18
99 79 22
96 76 16
98 76 21
104 83 17
102 80 18
106 84 15
88 67 7
101 83 16
101 79 11
95 71 12
103 83 28
96 75 14
111 90 25
103 83 16
100 77 16
101 82 9
101 81 16
113 91 22
100 76 14
102 83 21
106 85 24
97 78 15
97 76 10
100 77 9
101 82 16
100 80 13
99 79 15
103 77 16
96 74 17
103 82 23
99 80 24
97 76 11
95 74 17
105 86 21
98 79 15
102 82 19
97 79 23
103 84 23
100 78 16
101 79 24
94 72 17
106 88 26
95 71 16
95 73 22
101 82 19
99 79 23
84 63 13
90 70 24
101 78 19
96 76 21
97 76 14
87 66 9
100 79 20
87 70 15
91 70 15
95 75 24
93 73 20
99 81 28
89 68 22
83 66 25
86 68 14
78 59 9
90 70 20
91 74 28
91 74 30
86 66 13
84 68 22
79 65 25
97 81 33
83 66 23
75 60 22
97 79 31
89 71 31
84 69 28
75 64 33
84 70 31
169 191 16
169 191 0
172 195 0
174 196 0
170 193 0
172 193 0
169 192 0
170 194 0
169 192 0
169 192 0
170 193 0
171 193 0
173 195 0
173 195 0
173 195 0
171 194 0
167 191 0
170 193 0
174 196 0
169 193 0
172 195 0
173 196 0
171 195 0
174 196 0
169 193 0
171 194 0
172 195 0
173 195 0
172 195 0
170 194 0
171 194 0
172 195 0
170 193 0
172 195 0
172 195 0
171 195 0
170 194 0
173 195 0
172 194 0
170 193 0
171 194 0
170 193 0
171 194 0
169 192 0
172 195 0
170 193 0
170 193 0
170 194 0
171 195 0
171 194 0
172 195 0
171 194 0
169 192 0
171 194 0
173 196 0
170 193 0
169 192 0
169 192 0
170 193 0
169 192 0
170 193 0
168 191 0
169 192 0
169 192 0
169 192 0
169 191 0
171 193 0
169 192 0
170 193 0
172 195 0
169 191 0
167 190 0
167 189 0
166 188 0
164 186 0
164 186 0
163 184 0
161 183 0
164 185 45
150 169 45
150 169 0
149 168 0
147 167 0
148 168 0
148 168 0
147 167 0
150 170 0
146 166 0
149 169 0
149 169 0
149 168 0
147 167 0
148 168 0
149 169 0
148 167 0
152 172 0
149 169 0
148 168 0
149 169 0
149 169 0
147 168 0
150 170 0
151 170 0
150 170 0
150 171 0
147 168 0
151 171 0
150 170 0
150 170 0
149 169 0
150 171 0
150 171 0
150 170 0
150 171 0
150 170 0
150 171 0
151 171 0
151 172 0
147 167 0
152 172 0
151 171 0
152 172 0
150 170 0
150 170 0
150 170 0
151 172 0
150 170 0
150 170 0
151 172 0
153 174 0
150 170 0
149 170 0
147 168 0
152 172 0
152 172 0
104 122 50
46 68 71
65 85 70
62 82 63
48 70 67
55 73 62
52 73 68
45 66 57
47 69 65
64 81 56
52 70 52
57 75 62
41 62 54
42 61 68
45 65 56
32 52 56
40 58 51
43 60 54
38 56 52
51 65 38
45 62 51
44 60 45
44 62 43
45 60 31
51 67 47
54 85 114
57 91 126
59 93 134
60 95 145
58 93 136
60 95 135
60 95 139
59 94 142
61 97 149
60 96 146
60 95 143
60 96 151
60 96 145
62 97 154
61 96 153
61 97 151
60 95 144
61 97 151
61 97 153
60 96 148
60 96 147
60 96 154
61 97 149
62 97 156
60 96 150
60 94 137
60 96 154
60 96 148
61 97 152
61 96 154
61 97 160
60 96 149
60 95 147
61 97 158
61 97 160
61 97 155
60 95 149
60 95 147
60 96 160
60 95 149
60 95 155
59 94 145
61 96 152
60 95 151
61 96 152
59 93 145
59 94 147
60 94 147
61 97 160
59 94 146
59 94 147
60 95 154
59 93 143
59 93 152
59 93 145
59 94 148
59 94 149
59 92 140
59 92 146
56 88 125
60 94 155
60 95 152
57 90 140
59 91 143
60 94 151
58 90 133
58 90 136
59 92 144
58 90 140
57 89 139
55 85 128
57 90 145
56 87 136
56 87 128
54 84 130
56 85 128
54 84 124
55 84 122
55 85 131
53 81 119
54 84 133
54 82 127
54 81 121
53 79 114
53 82 127
52 79 115
50 76 101
50 76 107
50 75 109
51 77 113
49 75 113
61 77 94
74 70 38
78 59 19
74 62 25
84 66 19
82 68 28
84 64 15
71 55 5
87 70 15
90 72 14
87 68 16
88 68 14
89 68 24
90 65 14
86 67 12
99 82 26
85 65 7
91 73 20
93 74 15
85 67 15
81 61 13
94 78 19
93 72 14
83 63 14
91 71 9
90 69 16
88 68 16
81 64 13
94 75 11
94 74 17
94 75 12
87 68 13
97 78 19
104 83 22
94 72 12
108 88 19
96 78 17
91 68 10
105 84 20
98 77 12
95 75 16
99 78 19
97 76 12
98 78 17
104 80 13
98 78 16
102 82 18
88 68 9
109 89 21
98 77 16
98 77 14
95 72 9
97 78 10
103 81 16
99 77 20
98 78 17
103 85 23
102 81 16
92 73 11
100 81 20
106 88 22
107 87 18
109 89 26
111 91 25
98 76 20
101 80 18
101 79 17
106 83 14
97 74 17
99 79 20
104 84 16
102 78 8
104 87 14
105 83 20
100 77 9
100 78 19
104 85 17
94 72 15
101 82 18
103 83 10
107 86 16
111 92 27
104 83 14
101 80 17
106 82 13
104 80 13
96 73 20
103 81 20
102 83 11
95 74 13
101 82 14
109 84 16
101 79 23
105 85 21
104 84 21
99 76 10
95 74 18
97 76 22
104 83 18
102 82 16
101 81 16
102 83 20
103 81 14
98 75 14
98 76 11
98 77 14
100 78 26
105 81 23
104 83 26
96 77 26
100 77 17
105 86 20
100 77 15
97 81 19
95 73 16
96 75 23
108 85 21
101 80 17
96 74 21
94 75 23
103 85 18
90 71 23
92 71 20
94 75 22
100 77 25
96 76 21
94 74 23
97 76 20
85 64 17
84 66 20
90 72 22
95 73 16
93 74 27
90 72 22
85 67 22
92 68 16
83 63 15
90 72 27
88 71 26
80 64 24
95 79 38
83 65 26
75 57 19
95 77 28
78 62 23
68 51 6
85 71 29
87 72 32
93 76 35
155 170 17
169 191 0
169 192 0
171 192 0
171 195 0
170 193 0
173 197 0
168 189 0
171 193 0
172 195 0
172 195 0
170 194 0
172 195 0
170 192 0
174 196 0
171 193 0
170 193 0
172 196 0
168 192 0
171 193 0
172 194 0
173 196 0
171 194 0
171 194 0
171 195 0
173 195 0
171 194 0
172 196 0
171 195 0
173 196 0
172 195 0
171 194 0
172 195 0
171 194 0
171 194 0
171 194 0
171 195 0
171 194 0
170 194 0
172 195 0
168 191 0
170 192 0
172 195 0
171 194 0
170 193 0
171 194 0
170 193 0
170 193 0
171 194 0
168 191 0
169 192 0
171 195 0
171 193 0
170 193 0
167 190 0
172 195 0
168 191 0
170 192 0
171 194 0
166 189 0
170 193 0
169 192 0
170 193 0
169 192 0
167 190 0
170 192 0
169 191 0
169 191 0
168 192 0
166 188 0
168 191 0
168 190 0
169 191 0
167 189 0
165 188 0
166 188 0
164 185 0
165 187 0
162 184 0
165 187 0
160 181 32
147 165 32
144 164 0
147 167 0
148 168 0
146 166 0
149 168 0
147 166 0
149 170 0
145 164 0
149 169 0
150 170 0
149 168 0
150 170 0
147 167 0
150 170 0
148 168 0
150 169 0
149 169 0
149 169 0
151 172 0
149 169 0
151 171 0
151 171 0
150 170 0
149 169 0
149 170 0
150 171 0
149 169 0
151 171 0
152 172 0
150 169 0
149 169 0
150 171 0
151 171 0
151 171 0
149 169 0
149 169 0
151 171 0
150 170 0
150 170 0
148 169 0
150 170 0
150 171 0
151 171 0
151 172 0
151 171 0
149 169 0
149 169 0
150 170 0
151 171 0
152 172 0
150 170 0
148 168 0
150 170 0
114 133 42
59 78 63
54 74 64
59 79 62
58 77 68
51 71 53
55 75 60
50 70 58
62 81 70
51 71 68
51 69 63
44 65 62
49 67 47
58 76 61
45 62 36
46 63 39
46 64 50
52 69 44
45 65 58
33 51 30
43 58 25
37 54 34
50 64 45
49 65 56
50 64 36
54 86 122
56 89 124
58 92 133
59 94 136
60 95 142
59 95 143
59 94 136
61 96 149
60 95 142
60 95 149
60 95 132
60 95 147
60 95 145
59 94 134
61 96 144
61 96 147
60 96 141
60 96 151
61 97 151
60 96 151
61 96 151
62 97 157
61 97 160
61 97 155
60 95 144
59 94 141
60 96 149
60 95 141
60 95 148
60 96 157
61 97 161
61 96 151
61 97 153
60 95 147
61 97 162
61 97 157
61 96 150
61 97 159
61 97 154
60 96 155
60 96 153
62 97 159
61 96 159
60 95 151
60 95 146
60 95 147
60 95 152
61 96 156
61 95 154
61 95 148
60 94 150
60 95 156
60 95 152
60 94 154
60 94 149
60 95 152
60 95 159
58 91 138
60 94 155
59 93 144
58 90 138
59 92 140
58 92 137
59 93 148
58 90 135
59 93 146
58 91 139
57 89 139
57 89 138
59 92 143
57 89 137
58 90 134
56 87 135
57 89 137
56 87 138
57 87 133
56 86 126
55 84 126
54 83 125
54 84 125
52 81 125
51 79 121
51 79 118
52 79 123
54 83 125
52 78 109
53 81 114
53 79 114
51 75 105
48 73 109
51 77 113
54 73 98
70 71 42
75 59 15
74 60 15
79 63 12
69 51 7
82 66 18
78 58 6
84 64 20
84 65 13
90 71 19
88 71 23
90 69 14
93 73 21
86 66 12
90 72 10
87 67 12
84 64 14
89 73 20
94 74 16
89 67 18
91 72 14
87 65 13
93 71 14
90 73 13
97 74 18
99 81 17
89 69 17
90 68 18
93 72 19
104 85 22
94 74 15
89 67 8
103 79 14
94 76 16
102 79 20
91 71 17
98 76 9
97 73 8
97 76 14
93 73 6
104 80 15
99 78 19
94 76 14
105 84 18
92 69 16
97 76 12
109 90 16
94 72 19
93 71 17
102 81 13
102 81 17
96 76 20
100 77 16
101 78 15
100 79 16
101 83 21
98 77 13
105 81 19
105 85 25
104 83 13
103 83 16
106 84 12
106 84 19
93 71 14
106 86 16
101 80 15
106 84 15
107 81 17
102 83 18
108 85 18
107 85 20
101 80 20
104 84 21
105 84 15
100 79 13
101 78 10
106 83 15
103 84 22
98 74 8
112 91 29
99 80 21
103 84 17
102 82 25
96 74 10
94 72 14
104 82 17
104 84 24
102 80 19
113 89 18
101 77 17
101 79 15
99 77 18
94 78 26
114 90 23
110 88 22
104 81 20
95 75 13
109 88 22
98 74 17
93 73 10
107 87 22
98 74 11
101 83 19
103 82 19
96 78 17
102 79 19
92 69 11
94 76 9
101 81 12
96 79 20
93 71 10
104 82 12
100 81 21
98 80 21
107 86 19
98 77 20
93 72 18
93 70 17
104 86 18
94 71 15
92 68 14
85 66 13
88 68 11
94 75 13
93 74 18
88 70 19
89 69 18
98 80 23
97 78 28
93 75 11
84 61 14
88 71 18
79 57 12
93 73 20
92 73 26
95 79 25
86 70 26
87 69 19
85 68 25
81 65 21
82 63 14
83 62 21
86 69 21
79 66 32
83 69 26
78 61 26
85 71 34
87 71 29
138 149 13
171 194 0
171 193 0
171 193 0
171 194 0
171 194 0
170 193 0
171 195 0
168 193 0
171 194 0
169 193 0
171 193 0
171 194 0
173 196 0
172 195 0
172 196 0
171 195 0
173 196 0
174 197 0
171 194 0
171 194 0
172 194 0
171 195 0
173 195 0
173 196 0
171 195 0
172 195 0
170 192 0
171 193 0
169 192 0
173 196 0
172 195 0
173 195 0
171 195 0
171 193 0
174 196 0
172 195 0
172 194 0
170 194 0
171 195 0
169 193 0
174 195 0
171 194 0
170 193 0
171 194 0
170 193 0
170 192 0
170 193 0
170 193 0
169 192 0
168 191 0
170 193 0
170 193 0
170 193 0
171 193 0
170 192 0
167 191 0
171 194 0
171 195 0
172 195 0
170 192 0
169 192 0
169 193 0
168 191 0
171 193 0
169 192 0
170 192 0
168 191 0
168 190 0
168 190 0
162 185 0
168 190 0
166 187 0
168 190 0
165 188 0
166 187 0
166 187 0
166 188 0
165 187 0
162 183 0
164 186 0
163 184 39
148 168 22
144 163 0
146 164 0
147 167 0
149 169 0
143 163 0
150 170 0
149 168 0
147 167 0
148 168 0
149 169 0
150 171 0
146 166 0
149 169 0
147 168 0
148 169 0
149 169 0
148 168 0
152 172 0
151 170 0
150 170 0
151 171 0
147 168 0
150 170 0
148 169 0
149 169 0
153 173 0
151 171 0
148 168 0
150 170 0
151 171 0
150 171 0
150 170 0
149 169 0
153 173 0
150 169 0
150 170 0
149 169 0
152 171 0
151 172 0
149 169 0
150 171 0
152 172 0
149 169 0
150 171 0
151 172 0
149 168 0
152 172 0
151 171 0
151 171 0
150 171 0
150 171 0
150 170 0
115 133 38
59 75 49
62 83 73
52 72 68
49 68 59
67 85 60
57 74 45
59 77 57
48 68 52
56 74 54
59 78 59
52 69 53
61 79 59
49 67 52
48 67 53
46 65 56
53 67 49
47 63 40
56 72 47
37 54 38
55 68 34
52 67 42
58 73 39
53 67 36
46 61 20
48 75 90
58 93 133
59 93 141
60 94 136
60 95 135
60 94 141
60 95 139
61 96 146
59 95 139
60 95 145
59 94 135
60 95 147
61 96 150
60 95 144
60 95 145
60 95 144
60 95 143
60 96 148
60 95 144
60 95 141
61 96 153
60 95 150
61 97 154
61 97 147
60 95 150
61 96 145
60 96 154
60 96 151
61 96 150
61 97 153
61 97 160
61 97 154
60 96 155
61 96 156
62 98 165
61 97 158
61 97 155
61 96 153
60 95 147
60 95 149
60 96 152
60 95 151
60 95 156
61 96 152
60 95 148
62 96 156
59 94 144
59 94 149
62 96 159
60 95 158
59 93 150
59 94 144
59 93 143
60 94 149
59 93 147
59 93 146
59 94 150
59 93 149
59 93 143
60 93 148
60 93 147
59 92 138
58 92 147
59 93 144
59 92 147
59 91 143
57 89 140
57 90 145
58 90 141
56 86 125
54 85 137
56 86 128
56 87 135
58 91 142
56 86 129
54 83 127
56 87 135
56 86 130
56 85 126
54 82 121
55 83 124
55 82 121
54 83 125
54 82 120
50 76 109
51 77 109
51 76 109
51 77 113
49 75 112
52 77 105
47 70 104
56 72 86
78 81 44
74 66 27
68 55 16
71 53 11
86 71 25
73 57 13
80 62 16
74 57 14
88 70 24
72 52 7
81 65 15
80 63 17
82 63 11
85 64 8
92 72 13
87 69 19
93 71 14
83 64 14
85 65 15
91 74 22
88 68 13
93 71 14
87 67 13
101 79 12
85 62 7
96 75 17
93 70 21
88 69 17
97 75 16
95 78 18
91 72 8
98 76 10
104 84 14
95 75 12
101 81 9
100 77 18
88 68 11
102 82 15
91 72 13
94 76 14
97 74 11
91 70 16
97 77 16
107 86 21
94 73 6
90 70 6
98 74 13
101 80 11
95 77 14
97 78 11
94 76 16
108 89 20
105 83 11
105 87 15
104 82 13
101 79 12
104 84 22
98 78 9
102 80 23
101 79 16
99 78 18
103 84 17
101 79 15
98 77 14
104 85 12
93 70 9
102 83 15
103 81 16
100 82 13
109 89 17
100 78 10
103 77 12
97 77 15
106 86 20
106 83 19
96 75 12
106 84 18
101 79 14
96 76 14
98 79 9
105 83 20
101 82 18
100 79 18
104 87 15
109 86 19
102 79 15
96 75 12
109 89 14
103 81 12
100 80 17
107 85 18
103 79 20
98 74 12
106 85 18
103 80 18
103 81 23
101 79 20
101 80 16
108 86 21
96 76 9
103 81 12
92 73 17
98 78 15
100 78 20
103 82 23
103 82 20
91 72 17
100 80 14
95 75 22
97 78 16
94 74 17
96 73 12
96 75 18
102 78 16
101 82 22
96 75 14
98 78 25
95 75 19
103 81 25
91 71 15
100 79 15
98 77 26
102 82 24
95 77 19
99 76 18
88 71 18
91 71 17
91 71 14
87 69 14
97 79 21
87 69 23
95 75 28
86 71 24
89 69 17
81 64 17
75 60 9
87 65 17
95 76 29
89 70 18
83 63 20
85 67 23
89 72 29
86 69 28
83 66 25
93 78 32
75 61 25
91 75 34
85 67 23
123 131 31
169 193 0
170 193 0
171 194 0
171 194 0
168 192 0
170 192 0
173 196 0
171 195 0
171 194 0
171 193 0
171 193 0
173 195 0
174 197 0
172 195 0
173 196 0
168 190 0
172 195 0
172 194 0
172 195 0
171 194 0
169 192 0
170 194 0
172 195 0
172 195 0
172 195 0
171 194 0
171 195 0
172 195 0
173 196 0
171 195 0
171 194 0
173 196 0
170 194 0
171 194 0
170 194 0
172 195 0
173 195 0
173 195 0
172 195 0
173 196 0
170 193 0
170 192 0
170 193 0
169 193 0
171 194 0
171 193 0
171 194 0
170 194 0
172 195 0
171 194 0
172 194 0
171 195 0
171 193 0
171 194 0
168 192 0
173 195 0
169 192 0
171 194 0
170 193 0
169 191 0
169 191 0
171 195 0
170 192 0
169 191 0
168 191 0
167 190 0
170 192 0
168 190 0
167 189 0
168 191 0
166 189 0
166 188 0
168 190 0
165 187 0
165 187 0
165 188 0
163 184 0
165 187 0
163 185 0
166 187 0
167 189 0
164 186 0
153 171 51
147 166 22
148 168 0
147 167 0
146 166 0
149 169 0
150 169 0
147 167 0
149 168 0
145 166 0
145 165 0
148 167 0
148 167 0
147 167 0
147 167 0
149 169 0
149 169 0
148 169 0
150 171 0
147 168 0
148 168 0
150 170 0
152 172 0
150 171 0
149 169 0
149 169 0
150 170 0
149 169 0
149 169 0
150 170 0
150 171 0
149 169 0
150 171 0
147 168 0
149 170 0
151 171 0
149 169 0
151 171 0
151 171 0
152 172 0
149 170 0
150 170 0
150 170 0
150 171 0
150 170 0
149 169 0
149 169 0
151 171 0
150 170 0
150 170 0
149 169 0
150 170 0
123 142 45
60 79 52
65 83 61
64 84 64
54 74 44
53 72 52
60 76 54
51 69 51
51 70 67
60 79 63
66 81 48
51 69 48
58 73 36
55 71 46
56 72 45
54 69 44
59 73 32
56 70 35
54 69 37
34 53 42
57 71 36
55 67 31
42 57 39
41 56 30
44 58 27
51 78 96
58 92 127
59 93 123
59 93 135
59 94 137
59 93 141
60 94 141
60 95 143
60 95 142
59 94 130
61 96 149
61 96 144
61 96 142
61 96 145
60 96 152
60 95 142
60 95 147
60 96 141
61 97 148
61 97 153
59 95 144
61 96 150
61 96 153
60 95 144
61 97 151
60 96 153
59 94 140
61 97 151
61 96 150
61 97 156
60 95 144
61 96 144
61 96 152
61 96 150
60 95 155
61 96 159
61 97 156
60 96 148
62 97 158
59 94 148
61 95 153
61 96 148
60 94 140
60 94 148
61 96 151
60 94 147
60 94 145
60 95 155
60 93 143
60 94 143
60 94 151
60 94 145
60 94 152
60 95 149
59 93 137
59 93 148
60 95 153
59 92 152
59 93 150
59 92 141
59 92 141
59 92 149
59 92 147
58 90 146
56 87 136
59 91 141
59 91 134
57 89 135
57 88 128
57 90 141
58 90 146
57 89 139
57 88 135
56 86 134
57 88 135
55 84 124
55 84 122
54 82 117
55 84 125
54 81 122
52 80 116
53 81 116
54 82 124
52 80 121
49 75 106
48 72 100
50 77 114
50 77 116
50 74 99
47 71 100
51 77 108
53 69 78
96 96 52
80 75 35
67 54 12
80 64 16
77 62 10
67 51 7
83 65 13
82 63 18
78 60 12
83 65 12
89 70 17
87 64 8
76 59 8
81 65 8
94 76 23
93 72 9
82 60 11
88 70 18
95 76 14
96 75 15
88 69 19
95 74 21
94 72 12
90 75 18
97 77 20
90 68 16
94 72 8
91 69 11
89 69 8
101 80 16
97 74 14
91 69 13
100 81 17
99 78 13
90 71 9
104 84 19
101 81 16
101 78 16
99 78 14
104 86 22
94 73 16
100 80 17
108 88 14
95 73 11
103 80 12
99 76 8
99 79 18
97 76 11
96 78 21
96 73 18
95 74 14
93 75 13
98 76 12
101 82 16
107 83 8
101 79 17
108 88 17
104 82 20
88 68 0
106 84 20
104 82 20
107 87 18
108 87 17
110 89 15
102 77 16
104 85 12
99 79 22
114 94 18
100 81 15
105 82 11
97 74 10
100 79 18
106 84 18
104 85 16
104 83 11
107 87 19
104 84 16
102 81 17
101 82 14
107 86 17
106 83 21
100 81 11
99 79 11
105 83 20
110 89 19
108 90 21
106 85 13
105 84 16
105 85 14
97 79 12
97 70 9
104 78 18
102 83 23
102 78 17
100 80 18
100 81 16
101 79 13
107 86 21
99 76 18
101 81 28
96 77 11
101 82 19
102 80 17
103 79 19
102 78 22
103 79 15
98 81 20
92 71 11
101 80 21
104 83 22
93 72 14
90 68 11
99 78 19
100 77 26
98 80 23
96 73 12
100 81 23
91 70 16
101 83 34
105 83 24
86 66 16
93 72 13
96 78 20
100 80 18
98 78 22
96 77 27
100 76 18
88 69 15
90 73 18
93 72 20
80 61 16
98 78 19
87 70 16
89 72 24
85 67 22
87 68 17
87 69 24
81 60 18
88 70 21
95 77 24
88 67 24
76 61 24
87 67 23
81 63 26
81 64 27
93 74 31
83 65 26
84 71 31
115 114 36
172 195 0
174 196 0
171 193 0
168 191 0
173 195 0
172 195 0
169 192 0
171 193 0
174 196 0
173 196 0
171 194 0
169 192 0
171 194 0
173 195 0
172 195 0
173 196 0
171 194 0
171 194 0
173 197 0
173 196 0
170 194 0
173 195 0
171 194 0
172 195 0
173 196 0
172 195 0
172 195 0
170 194 0
172 195 0
171 194 0
170 193 0
171 195 0
171 194 0
173 196 0
171 194 0
171 194 0
171 194 0
171 194 0
172 196 0
170 194 0
172 195 0
170 193 0
171 193 0
172 195 0
168 191 0
172 195 0
171 194 0
173 196 0
169 191 0
171 194 0
172 194 0
172 195 0
170 192 0
172 194 0
171 194 0
171 194 0
169 192 0
169 193 0
168 192 0
169 191 0
171 194 0
169 192 0
170 193 0
168 190 0
171 194 0
171 194 0
169 191 0
168 191 0
167 190 0
167 189 0
167 190 0
167 190 0
165 187 0
167 189 0
168 190 0
165 188 0
164 185 0
161 183 0
165 187 0
164 185 0
164 186 0
164 185 0
166 188 0
159 180 0
149 169 32
148 167 0
146 166 0
149 168 0
146 166 0
146 166 0
145 165 0
149 169 0
147 168 0
149 168 0
147 167 0
149 169 0
149 169 0
149 169 0
149 169 0
149 170 0
148 168 0
150 169 0
146 165 0
148 168 0
150 170 0
152 172 0
151 171 0
150 170 0
148 169 0
147 168 0
148 169 0
148 168 0
150 169 0
151 170 0
150 170 0
150 170 0
151 171 0
149 169 0
150 171 0
148 169 0
148 168 0
149 169 0
153 172 0
148 169 0
149 169 0
148 169 0
149 170 0
150 171 0
148 169 0
148 169 0
150 169 0
150 170 0
151 172 0
148 168 0
133 152 31
75 93 46
57 76 59
67 84 40
68 86 50
65 81 37
66 83 61
56 73 42
59 75 43
71 86 48
57 73 50
50 67 47
45 61 34
51 65 38
59 75 42
59 73 35
46 62 43
43 59 35
49 65 34
54 70 49
53 68 28
49 63 40
54 67 21
47 59 28
63 76 23
54 73 74
56 90 125
56 89 123
59 94 139
59 94 138
59 94 130
60 94 141
59 94 134
60 95 136
59 94 137
59 94 135
60 95 144
60 96 146
59 95 143
61 97 153
60 95 141
61 96 144
61 97 152
61 96 154
61 97 150
60 96 141
60 96 147
60 96 150
60 95 142
61 97 154
61 96 146
60 95 150
61 96 142
60 96 149
60 95 149
60 95 144
61 96 151
60 95 149
61 97 156
60 95 145
60 96 153
61 96 155
60 96 151
62 98 161
61 97 153
61 96 148
60 96 150
61 98 163
59 95 154
60 95 143
61 96 156
58 93 139
60 95 147
60 95 148
60 94 151
59 93 145
61 97 156
60 94 147
60 95 152
59 93 138
59 92 145
59 92 146
59 93 149
59 92 140
59 92 138
59 93 150
58 91 141
60 94 147
57 90 138
58 91 139
58 91 144
57 91 139
57 88 132
57 88 126
58 92 146
57 89 140
58 89 133
57 88 134
56 87 136
54 82 121
57 88 135
56 87 127
55 84 119
55 85 134
54 82 125
53 81 118
55 84 128
53 81 122
53 80 113
53 81 120
50 76 108
52 79 114
50 74 103
49 73 95
48 72 96
49 73 101
66 75 73
88 89 45
93 93 40
73 60 21
69 55 18
69 54 17
86 71 18
82 61 15
75 55 6
77 62 15
94 74 22
90 72 20
83 64 11
87 66 15
82 64 15
83 68 13
76 60 14
81 61 15
90 69 14
90 70 15
94 76 17
88 70 12
90 69 10
91 74 21
90 71 17
95 74 16
93 72 17
99 78 16
105 84 21
101 80 14
96 76 21
99 80 18
97 80 23
95 73 12
87 66 15
106 84 24
94 73 12
97 77 17
93 73 22
93 73 9
98 74 10
104 87 17
96 76 16
100 77 12
98 78 16
92 74 16
100 78 12
103 83 17
105 86 13
106 84 18
106 84 15
103 84 18
104 84 17
93 74 11
105 86 14
104 81 15
104 83 18
97 73 6
99 77 9
97 77 14
102 80 14
101 80 10
103 83 15
100 80 15
104 80 11
100 75 10
99 78 15
107 85 10
98 73 13
107 88 18
109 90 17
101 82 20
104 82 16
101 78 9
102 80 15
101 82 19
100 75 16
94 76 9
109 90 11
104 83 23
105 84 20
108 88 22
104 87 14
98 75 13
102 81 18
107 88 20
94 72 8
108 89 17
99 79 15
100 80 16
109 87 17
103 80 21
103 84 18
94 76 14
102 85 18
97 77 21
95 73 17
100 79 15
103 81 10
101 80 25
94 73 14
101 82 17
99 76 11
105 83 21
90 68 9
102 82 19
96 75 13
106 85 22
100 79 16
101 81 22
96 79 18
95 77 11
100 79 19
94 75 17
88 67 14
96 75 16
100 81 24
92 73 16
98 79 19
86 70 18
99 79 22
93 69 14
93 72 19
99 81 29
92 72 16
93 75 19
99 76 25
88 68 16
95 76 21
93 71 23
85 63 15
96 78 24
89 69 25
84 63 19
89 71 25
89 72 24
81 68 22
70 53 13
81 63 9
94 74 21
80 61 25
79 62 21
86 68 25
87 69 28
89 73 25
84 70 30
81 64 27
87 73 32
74 61 29
98 98 23
169 191 0
171 194 0
168 190 0
171 194 0
172 194 0
171 194 0
170 192 0
170 194 0
170 192 0
171 193 0
168 192 0
172 196 0
173 194 0
169 191 0
172 194 0
171 193 0
172 195 0
171 194 0
169 193 0
172 194 0
173 195 0
171 195 0
170 194 0
172 196 0
171 193 0
170 194 0
172 195 0
173 196 0
171 195 0
172 195 0
171 193 0
171 195 0
171 193 0
171 194 0
172 195 0
171 193 0
170 193 0
171 194 0
173 196 0
172 194 0
173 195 0
170 193 0
170 193 0
170 193 0
170 194 0
172 194 0
171 195 0
172 195 0
171 193 0
170 194 0
170 193 0
172 195 0
172 195 0
169 193 0
171 194 0
171 194 0
170 192 0
172 195 0
169 192 0
172 194 0
169 192 0
170 193 0
169 192 0
171 193 0
167 190 0
166 189 0
168 191 0
167 191 0
168 191 0
167 190 0
167 189 0
166 188 0
166 188 0
165 187 0
168 190 0
169 191 0
168 189 0
163 184 0
162 184 0
165 188 0
165 187 0
163 186 0
161 183 0
163 184 0
164 184 39
152 171 51
149 167 22
147 166 0
145 164 0
145 165 0
148 167 0
146 165 0
148 168 0
150 169 0
145 164 0
148 168 0
146 165 0
146 166 0
145 165 0
149 169 0
147 167 0
148 168 0
149 169 0
150 170 0
149 169 0
148 169 0
151 171 0
150 170 0
150 170 0
149 170 0
151 171 0
151 171 0
151 171 0
151 171 0
152 172 0
147 168 0
150 170 0
152 172 0
149 169 0
151 171 0
150 170 0
150 171 0
150 171 0
148 168 0
150 171 0
151 171 0
151 170 0
147 168 0
152 172 0
151 172 0
147 168 0
150 170 0
150 170 0
149 169 0
139 159 0
68 85 52
82 97 46
53 72 57
68 85 51
69 86 53
65 82 50
52 71 47
69 86 37
64 81 45
47 65 55
60 76 39
61 76 42
65 81 48
56 71 44
52 67 43
70 85 42
50 64 40
50 64 34
50 63 24
38 54 33
53 66 22
53 67 33
63 76 21
51 63 14
67 85 64
57 90 134
59 93 144
58 92 131
59 94 135
58 92 123
59 94 131
59 94 147
60 95 144
60 96 149
59 95 146
60 95 137
60 95 141
59 94 142
60 95 136
59 95 134
61 97 152
60 96 149
59 94 133
60 95 140
60 96 148
61 96 142
60 95 144
59 94 131
60 95 145
60 95 141
60 96 154
60 96 144
60 96 152
60 96 150
60 95 152
61 95 146
61 97 152
60 96 152
61 96 150
61 96 156
60 95 145
60 96 153
61 97 156
59 94 145
61 95 149
60 95 149
60 96 149
60 94 140
59 94 142
60 95 151
60 94 147
60 95 145
60 94 146
59 94 145
59 93 135
59 94 145
60 95 150
59 93 150
58 92 142
59 93 139
60 94 153
59 92 142
60 94 153
59 92 146
59 93 149
59 93 147
59 92 145
58 91 138
57 88 129
58 90 144
57 89 139
57 87 129
55 85 123
58 90 142
56 86 131
56 85 128
56 87 129
56 86 127
55 84 116
54 84 126
55 85 131
56 85 124
52 81 118
52 81 126
53 81 118
51 79 107
52 79 114
53 80 119
50 76 104
50 76 103
53 80 112
48 71 98
47 71 96
46 69 92
48 71 95
57 71 78
86 87 49
90 91 50
80 75 31
77 58 15
76 58 18
85 68 23
77 60 15
89 71 20
93 76 21
77 58 13
87 69 21
90 72 13
90 70 13
87 67 14
80 62 6
84 66 15
92 71 17
96 75 14
96 77 15
95 78 13
91 74 16
93 71 13
90 69 12
92 73 14
95 75 24
100 82 10
97 79 14
90 69 15
94 77 12
88 68 10
99 80 19
101 81 8
95 74 12
96 77 22
101 78 11
98 77 12
101 84 9
101 80 14
91 69 15
89 70 10
101 79 7
99 77 10
103 83 19
104 87 21
108 87 16
95 73 11
100 79 17
92 74 8
101 82 9
102 82 11
103 82 12
105 86 21
105 82 16
109 89 12
102 83 21
108 88 27
96 78 14
98 77 9
112 89 16
101 81 8
103 83 16
102 77 13
104 84 11
106 87 13
102 81 16
101 81 11
101 79 15
101 80 13
103 83 25
102 83 17
105 84 19
103 80 13
107 85 17
97 76 12
104 81 15
100 77 17
99 85 20
103 82 16
107 87 13
102 82 13
102 80 15
110 89 21
108 88 18
101 78 14
102 79 11
104 81 22
101 80 21
103 83 18
103 84 10
108 87 22
106 86 18
113 92 22
99 75 11
96 74 16
105 83 11
99 75 13
95 75 14
96 78 17
102 84 11
100 79 11
103 82 20
101 81 18
103 81 24
92 74 11
96 73 13
95 73 14
96 75 18
100 77 21
102 83 19
99 76 8
97 77 17
91 69 13
97 72 16
91 74 12
99 77 19
95 77 14
106 87 28
93 73 12
94 75 17
89 69 22
98 78 18
95 76 16
88 73 12
92 75 20
90 70 19
98 75 18
84 64 18
100 79 27
98 78 20
92 73 22
87 67 15
89 73 21
83 64 15
97 74 24
87 69 16
96 76 28
82 66 24
86 68 20
82 65 24
79 66 15
84 65 22
78 59 18
70 51 11
87 69 26
81 65 23
73 56 18
75 55 14
83 67 24
94 91 31
172 196 0
171 194 0
170 193 0
171 194 0
167 189 0
166 187 0
171 194 0
168 192 0
170 193 0
172 195 0
173 196 0
168 190 0
172 195 0
171 194 0
173 195 0
172 194 0
172 193 0
170 193 0
173 196 0
172 195 0
174 197 0
172 196 0
171 195 0
170 195 0
173 196 0
171 194 0
171 193 0
170 192 0
174 197 0
170 194 0
171 195 0
169 192 0
169 193 0
172 195 0
172 194 0
173 196 0
172 195 0
169 193 0
172 194 0
172 195 0
170 194 0
170 194 0
172 195 0
168 192 0
171 194 0
170 193 0
170 193 0
169 192 0
168 191 0
171 194 0
170 193 0
169 192 0
171 194 0
170 193 0
169 192 0
171 194 0
172 195 0
169 192 0
169 193 0
170 193 0
169 192 0
168 192 0
168 191 0
168 190 0
170 192 0
169 192 0
168 190 0
168 190 0
170 193 0
168 190 0
167 190 0
166 189 0
168 190 0
166 187 0
169 191 0
166 189 0
164 185 0
166 188 0
165 187 0
165 187 0
162 184 0
165 186 0
162 184 0
164 185 0
165 187 0
165 186 0
165 184 60
145 165 0
148 168 0
148 168 0
149 168 0
148 167 0
144 165 0
146 165 0
150 169 0
146 166 0
146 167 0
149 169 0
149 169 0
150 169 0
150 170 0
148 168 0
148 169 0
148 169 0
149 169 0
149 169 0
149 169 0
148 168 0
149 169 0
148 169 0
150 170 0
150 170 0
149 170 0
148 169 0
150 170 0
147 168 0
148 168 0
150 170 0
149 169 0
150 170 0
145 166 0
147 167 0
149 169 0
152 173 0
148 168 0
150 169 0
150 170 0
150 170 0
150 171 0
149 170 0
148 168 0
149 170 0
151 171 0
150 170 0
146 166 31
65 84 49
70 86 49
69 84 46
57 73 27
66 83 42
65 81 47
56 73 54
70 86 36
72 87 34
59 73 35
64 78 42
60 74 27
59 74 36
62 77 34
62 75 33
55 69 30
60 75 37
47 62 34
55 67 26
61 74 31
51 63 33
65 79 33
54 67 21
63 75 25
62 78 47
56 89 118
57 91 121
60 95 138
60 94 135
59 94 133
60 95 145
60 95 137
60 95 136
61 96 148
59 93 132
60 95 141
60 95 152
59 95 149
58 93 133
60 96 150
60 95 143
61 96 148
60 95 143
60 96 146
60 95 142
60 95 140
60 95 150
61 96 146
61 97 152
61 96 147
60 96 143
60 95 144
60 96 148
59 95 142
60 95 140
61 97 152
61 96 149
60 95 147
60 95 141
61 96 153
60 95 149
61 96 153
60 94 141
60 95 148
59 94 146
60 95 148
61 96 151
61 95 155
60 95 147
59 94 150
59 93 145
59 94 146
59 94 145
59 93 143
59 94 150
59 93 137
60 95 153
59 93 144
59 92 140
61 96 153
60 94 154
58 91 139
59 92 147
59 92 140
59 92 136
58 90 130
58 90 138
58 90 139
58 91 138
57 89 138
58 90 141
59 91 139
56 87 134
57 89 138
57 89 139
57 87 129
54 83 119
55 83 131
54 83 121
55 84 126
55 84 119
55 86 129
54 83 118
55 84 127
52 80 119
51 78 109
52 79 116
52 77 98
51 78 117
50 77 109
49 74 109
49 73 105
48 72 102
46 70 98
47 71 103
59 70 66
84 86 45
95 94 46
85 85 39
76 61 23
69 53 13
71 53 6
77 62 21
91 73 17
76 63 17
92 72 14
80 61 9
88 71 15
79 58 8
83 63 14
86 66 15
81 66 9
86 67 10
90 72 20
82 63 9
91 71 20
92 74 16
88 68 8
88 67 14
94 70 9
89 69 7
94 75 10
97 76 10
88 70 10
95 75 20
93 71 10
92 74 9
88 68 8
100 79 14
93 75 8
102 83 11
96 75 11
99 79 20
100 81 13
98 77 9
97 78 18
99 77 14
105 84 22
100 75 12
101 83 15
98 79 15
98 78 14
96 75 9
101 85 16
105 83 15
103 83 10
105 83 14
106 85 14
107 84 15
101 80 14
98 78 15
95 76 12
114 94 18
102 83 13
107 86 12
109 88 19
98 78 17
106 85 19
98 78 13
103 87 15
104 80 18
97 74 9
106 86 19
98 81 20
104 83 9
103 83 13
105 80 14
99 79 9
97 80 9
97 75 10
101 79 15
108 89 14
104 84 10
107 86 23
99 78 10
107 85 19
97 77 15
109 89 18
108 87 23
94 75 9
111 87 19
100 79 19
109 89 12
99 78 9
102 81 12
103 82 12
106 85 26
103 82 20
100 77 13
105 87 18
103 82 16
108 88 19
105 89 21
108 87 18
105 82 17
106 84 19
97 76 15
96 78 18
98 77 21
97 75 20
98 77 11
97 74 22
99 81 14
96 75 22
103 84 17
93 71 12
94 73 18
93 71 9
93 72 14
96 77 18
87 66 12
92 75 24
88 72 15
94 75 13
95 75 11
98 75 17
91 69 22
98 78 21
94 73 15
94 74 17
99 79 17
85 65 15
84 64 7
97 77 19
89 71 16
85 69 22
100 81 26
90 70 13
81 60 16
88 67 16
92 73 18
87 70 24
88 71 16
83 66 16
88 70 17
88 68 23
87 71 25
79 66 25
80 62 15
85 70 29
82 65 22
78 63 25
69 55 20
84 68 27
110 110 33
171 192 0
171 195 0
171 194 0
173 196 0
172 195 0
169 191 0
168 190 0
169 192 0
168 192 0
172 193 0
170 192 0
172 195 0
172 196 0
171 193 0
169 192 0
171 192 0
169 192 0
173 197 0
173 196 0
173 196 0
170 193 0
171 195 0
171 195 0
172 196 0
172 195 0
171 195 0
171 194 0
172 195 0
171 195 0
171 195 0
170 194 0
174 196 0
172 195 0
171 195 0
172 195 0
171 194 0
171 194 0
173 195 0
170 193 0
171 193 0
172 195 0
171 194 0
172 195 0
172 195 0
171 193 0
169 192 0
171 194 0
170 193 0
171 194 0
169 192 0
171 194 0
170 193 0
171 194 0
168 191 0
170 192 0
171 194 0
170 193 0
170 193 0
170 193 0
170 193 0
170 193 0
168 191 0
169 192 0
168 191 0
168 189 0
170 193 0
169 191 0
168 191 0
167 190 0
171 193 0
168 190 0
167 190 0
169 191 0
166 188 0
168 190 0
168 190 0
169 191 0
166 188 0
162 185 0
166 187 0
162 184 0
166 189 0
164 186 0
164 187 0
162 185 0
166 188 0
158 179 0
162 182 39
154 172 60
146 167 0
146 165 0
144 164 0
147 167 0
148 168 0
147 167 0
144 164 0
147 167 0
144 165 0
147 167 0
145 166 0
147 167 0
149 169 0
148 167 0
149 169 0
147 167 0
150 170 0
150 170 0
147 168 0
150 171 0
150 170 0
149 170 0
149 169 0
148 169 0
150 170 0
149 169 0
150 170 0
148 169 0
150 170 0
151 171 0
149 169 0
149 169 0
150 170 0
149 170 0
152 171 0
150 170 0
150 170 0
151 171 0
151 171 0
151 170 0
151 172 0
152 172 0
149 169 0
150 171 0
148 168 0
147 167 0
69 83 43
79 94 38
71 86 32
65 82 42
73 87 45
63 79 54
77 92 39
54 71 37
57 73 42
74 88 38
57 71 24
66 81 34
69 82 37
70 82 28
60 74 36
63 77 14
57 72 31
64 77 21
53 65 26
67 79 32
58 72 20
51 64 27
56 68 32
56 67 15
63 75 24
56 89 118
56 90 121
58 92 132
57 91 126
59 94 137
58 93 133
58 93 131
59 94 131
61 96 142
60 96 141
61 96 139
60 95 139
60 95 145
60 96 141
59 94 143
60 95 140
61 96 149
60 96 153
61 96 155
60 95 144
60 95 141
60 96 151
59 95 142
60 95 152
61 95 147
60 96 149
60 96 146
60 96 151
61 97 150
61 95 143
61 97 158
60 95 142
60 95 149
61 96 147
61 96 154
60 96 151
59 94 145
60 95 151
61 97 159
60 95 151
60 94 148
60 95 148
61 96 152
61 96 150
60 95 154
60 94 140
60 95 148
60 94 148
60 95 150
58 92 140
60 94 143
60 94 146
59 93 140
58 92 140
60 94 145
59 94 151
59 93 148
59 93 143
59 92 144
60 93 144
57 90 140
59 92 141
59 92 141
60 94 155
58 91 139
56 86 129
59 91 137
58 90 142
57 88 131
57 88 136
57 88 138
55 85 126
56 86 126
55 85 130
56 85 121
54 83 123
54 83 127
54 82 120
53 82 119
52 80 123
52 79 105
51 77 103
52 79 108
54 82 128
52 78 107
51 76 100
49 74 100
48 72 99
49 74 101
46 69 94
68 76 66
80 81 45
89 90 43
94 96 43
88 85 27
71 53 8
83 65 12
80 61 19
81 61 11
80 62 15
84 65 18
76 59 13
90 71 14
87 64 10
84 64 6
88 70 10
91 67 14
94 76 11
87 66 12
101 80 11
95 74 11
92 71 13
91 68 12
92 74 23
94 73 17
92 71 8
92 70 15
104 85 20
103 80 11
96 75 11
94 72 9
95 78 12
97 73 17
96 79 19
97 77 15
98 77 14
99 77 8
94 74 9
96 78 15
102 80 9
95 72 13
97 76 8
101 81 13
94 74 9
106 86 14
96 75 10
96 77 14
105 85 9
99 81 11
101 83 18
94 72 12
99 79 21
105 84 12
98 77 8
104 86 26
106 87 17
100 80 14
104 85 11
106 83 11
103 81 17
98 83 14
106 87 15
102 82 9
98 77 11
95 79 13
104 85 14
101 82 12
98 79 10
103 83 12
105 82 9
91 70 8
92 71 9
106 86 15
102 82 12
105 88 20
104 81 15
108 88 21
97 80 8
110 92 16
106 82 11
109 89 19
102 77 12
102 81 11
101 82 12
96 76 10
103 82 17
101 81 12
104 82 23
111 89 22
103 83 13
102 83 15
95 76 16
102 84 22
103 85 20
104 85 21
94 74 12
100 79 13
105 84 9
103 84 18
100 80 20
94 75 14
99 79 15
102 77 16
102 82 15
100 76 8
90 67 13
100 81 12
93 70 13
92 70 16
104 85 12
97 80 24
103 81 22
96 80 18
92 71 9
100 81 23
99 76 13
98 78 22
95 73 12
94 73 12
90 69 16
92 71 15
93 74 15
96 72 15
103 84 19
96 75 25
97 79 17
83 63 9
88 68 22
89 72 16
89 68 17
89 69 18
90 70 22
85 66 9
82 67 20
88 67 23
93 72 19
91 70 24
91 72 24
82 63 17
86 66 13
90 73 24
85 67 25
91 75 27
80 62 19
79 61 22
85 68 24
76 60 21
82 69 27
80 61 21
104 106 20
166 188 0
171 195 0
173 196 0
170 194 0
172 195 0
170 193 0
173 195 0
172 192 0
170 192 0
173 196 0
171 194 0
172 193 0
171 193 0
173 195 0
169 192 0
172 196 0
173 195 0
173 196 0
174 195 0
172 194 0
172 195 0
172 195 0
172 195 0
172 196 0
172 195 0
170 194 0
170 194 0
171 194 0
171 194 0
172 196 0
172 195 0
170 194 0
171 195 0
172 195 0
172 194 0
171 194 0
172 195 0
168 192 0
171 194 0
174 196 0
172 195 0
174 196 0
173 195 0
169 193 0
170 193 0
171 193 0
172 195 0
172 195 0
171 194 0
171 194 0
172 195 0
168 191 0
167 191 0
169 193 0
173 195 0
170 194 0
169 193 0
169 192 0
171 193 0
168 191 0
169 192 0
170 193 0
170 193 0
169 192 0
169 191 0
168 191 0
169 191 0
168 191 0
170 192 0
167 190 0
168 190 0
168 190 0
167 190 0
168 190 0
165 188 0
162 184 0
165 187 0
165 189 0
164 187 0
165 187 0
167 189 0
165 188 0
165 188 0
164 186 0
162 183 0
163 184 0
164 186 0
166 188 0
162 185 0
161 180 51
147 167 22
146 166 0
147 167 0
146 166 0
147 167 0
147 166 0
148 168 0
146 167 0
145 164 0
146 166 0
147 166 0
146 166 0
148 169 0
149 169 0
149 168 0
151 170 0
146 166 0
148 168 0
149 169 0
149 169 0
150 170 0
148 167 0
150 170 0
148 168 0
151 171 0
149 169 0
148 168 0
152 171 0
148 168 0
149 169 0
150 171 0
149 169 0
149 168 0
149 170 0
148 168 0
151 171 0
146 167 0
147 167 0
149 169 0
150 170 0
148 168 0
149 169 0
149 170 0
150 171 0
149 170 0
93 109 22
73 87 37
73 88 33
75 91 40
79 95 37
62 77 38
70 84 32
71 86 36
60 74 42
63 79 46
69 83 33
64 79 41
62 76 29
68 81 20
61 74 28
67 81 35
64 78 0
53 67 21
62 76 16
46 59 20
68 80 0
59 71 20
73 85 14
58 70 0
64 75 14
53 82 99
58 92 123
58 92 128
58 92 126
58 91 114
58 93 131
59 94 136
60 95 135
60 95 141
58 93 135
60 95 142
60 96 142
61 96 148
61 96 145
59 95 137
59 95 141
59 94 145
60 95 141
61 97 145
60 95 148
61 96 145
60 96 151
58 93 141
60 96 147
61 96 148
59 94 135
59 94 140
60 95 139
59 94 137
60 95 146
60 96 147
60 95 151
60 95 143
60 95 145
61 96 153
60 96 147
60 95 146
60 94 145
61 96 154
60 95 149
60 95 150
60 95 155
59 94 140
60 94 142
59 92 136
58 93 142
60 94 144
59 93 136
59 93 137
59 94 145
59 93 140
59 93 145
60 95 154
58 91 138
58 90 132
59 91 139
60 94 150
58 92 139
59 91 141
58 90 137
60 93 152
58 92 139
58 90 138
57 88 128
56 87 127
58 90 132
57 88 131
58 90 143
57 87 128
57 87 130
57 88 132
56 86 128
59 89 129
55 85 124
54 84 125
56 87 130
53 82 124
54 83 117
53 81 116
52 78 111
54 83 122
53 80 116
48 74 107
51 76 103
51 78 107
49 74 103
50 76 108
49 76 111
48 73 105
47 70 95
63 74 71
83 86 50
91 92 44
108 108 43
93 93 35
80 62 5
78 60 12
70 53 6
79 60 9
85 65 12
85 64 17
89 67 17
74 57 6
86 68 19
85 64 9
82 61 8
94 75 12
91 69 19
92 75 9
81 64 7
87 67 10
93 71 16
90 69 13
98 77 12
90 73 5
91 72 8
93 77 12
94 76 8
96 75 14
90 72 19
86 65 8
84 68 5
96 76 8
105 83 12
100 78 13
100 79 12
98 81 7
95 76 13
97 73 11
98 76 16
94 75 19
100 77 11
98 80 17
99 77 14
102 79 17
101 80 14
97 78 12
104 82 11
110 89 18
108 86 13
97 80 13
108 86 17
98 78 13
101 82 12
101 80 22
100 82 16
109 88 14
90 71 9
101 82 15
103 80 7
105 83 10
99 75 6
109 88 15
100 80 12
104 84 17
105 87 23
108 87 11
96 73 10
102 80 13
101 81 13
102 82 12
97 78 16
104 85 17
111 91 13
108 89 10
106 86 17
97 79 6
105 85 9
101 79 16
109 88 16
106 86 17
104 87 11
102 83 26
101 81 11
102 81 16
112 91 18
108 85 14
101 82 14
100 76 20
103 83 17
106 86 15
98 78 14
101 79 15
97 78 20
102 83 20
97 73 11
96 74 12
103 82 11
96 74 5
95 76 13
93 73 11
89 69 17
102 80 9
105 86 18
102 82 15
103 82 18
106 86 16
102 82 18
88 71 18
100 80 18
94 77 19
97 76 20
93 73 16
94 72 10
95 76 8
96 77 19
95 75 19
99 77 12
96 78 15
99 77 19
98 79 20
87 70 9
96 73 18
91 74 18
91 73 11
100 82 20
94 75 21
89 66 17
90 68 16
81 63 17
89 68 20
96 74 21
98 79 17
91 73 22
92 73 16
84 62 16
89 71 19
95 74 24
90 71 19
87 71 23
84 68 24
80 60 19
80 60 17
84 68 16
68 51 18
69 54 18
72 56 17
93 76 32
75 59 19
114 121 23
172 194 0
169 192 0
170 192 0
170 191 0
172 193 0
170 193 0
174 196 0
170 193 0
170 193 0
170 192 0
167 191 0
169 191 0
170 192 0
172 194 0
168 191 0
171 194 0
172 194 0
170 194 0
169 192 0
172 196 0
170 194 0
170 193 0
171 194 0
173 196 0
170 194 0
172 195 0
171 194 0
170 193 0
172 195 0
172 195 0
172 194 0
172 195 0
169 193 0
172 195 0
172 194 0
172 195 0
168 192 0
173 195 0
170 194 0
172 194 0
171 194 0
168 192 0
171 194 0
169 192 0
172 194 0
170 193 0
171 194 0
170 194 0
171 194 0
172 195 0
171 194 0
172 195 0
169 192 0
169 193 0
170 193 0
169 192 0
170 192 0
167 190 0
171 194 0
166 189 0
169 192 0
170 193 0
166 190 0
168 191 0
170 193 0
167 190 0
166 189 0
168 192 0
169 190 0
169 192 0
167 190 0
169 191 0
166 188 0
168 190 0
167 189 0
165 186 0
165 188 0
165 188 0
166 189 0
166 188 0
168 191 0
167 188 0
167 190 0
160 180 0
164 186 0
166 189 0
163 185 0
163 185 0
168 189 0
161 183 0
158 179 32
152 170 56
148 167 0
148 167 0
147 166 0
147 166 0
148 167 0
149 169 0
147 167 0
144 164 0
145 165 0
149 169 0
147 167 0
147 167 0
152 171 0
148 168 0
149 169 0
146 166 0
150 170 0
148 168 0
148 168 0
149 170 0
151 171 0
149 169 0
150 170 0
149 169 0
150 170 0
148 169 0
150 170 0
152 172 0
150 170 0
148 169 0
150 170 0
149 169 0
148 168 0
150 170 0
148 168 0
148 169 0
149 170 0
151 171 0
149 170 0
149 170 0
149 170 0
148 168 0
150 171 0
103 119 31
79 94 32
62 77 27
68 84 22
83 98 38
64 80 45
78 93 25
65 80 40
55 70 27
67 81 38
66 80 17
65 79 33
70 84 26
67 81 29
76 90 0
71 85 29
61 73 22
78 92 22
68 79 0
71 84 25
76 88 26
60 70 0
66 77 14
56 67 16
66 79 20
62 84 95
58 92 126
56 90 121
60 94 134
59 93 126
60 95 136
57 90 118
59 93 125
58 92 125
60 95 137
60 95 137
60 95 137
58 93 124
59 95 142
61 96 145
60 95 143
61 96 144
61 96 147
60 95 137
59 94 135
60 96 145
60 96 144
60 95 147
60 96 145
61 97 154
60 95 140
60 96 149
60 96 150
61 96 148
62 98 159
60 94 133
60 96 150
60 95 146
59 93 133
60 95 149
60 96 145
60 96 149
60 95 149
60 95 145
60 96 152
60 95 147
60 94 144
60 94 144
60 95 150
60 94 141
59 93 139
58 91 136
60 95 148
59 94 140
59 93 134
59 93 148
59 93 139
59 93 141
59 93 147
59 92 146
60 94 144
59 93 144
59 92 141
58 89 133
58 90 141
57 89 136
59 92 145
57 88 127
57 88 131
59 91 143
58 90 140
54 85 124
56 87 132
57 89 137
57 88 137
56 86 121
56 86 135
57 88 131
56 86 127
54 83 121
56 86 130
56 85 129
55 84 119
54 84 122
53 81 115
53 80 117
51 78 111
53 81 118
53 79 106
52 77 102
48 72 104
49 72 97
48 71 91
47 71 97
46 68 94
62 72 69
94 95 45
103 102 48
100 99 34
113 113 46
101 95 32
75 56 9
88 67 17
74 56 12
81 68 7
85 70 17
83 65 6
84 69 15
79 64 13
88 69 14
89 70 18
82 66 22
86 70 15
90 68 11
89 69 9
97 82 29
83 66 11
89 69 16
86 69 10
100 77 16
98 82 14
98 77 15
95 75 10
87 68 9
93 72 5
97 78 10
96 77 14
97 76 8
90 71 5
91 73 7
96 77 9
97 75 9
103 79 12
102 81 12
97 78 15
95 73 8
108 89 13
101 81 15
97 78 9
109 88 14
101 84 14
95 76 7
105 84 13
103 85 9
101 79 21
105 84 6
101 81 17
104 82 16
109 88 14
98 74 11
102 86 15
104 82 8
99 81 10
99 78 10
104 81 13
95 77 11
110 88 12
98 80 19
98 76 12
96 76 10
99 78 15
101 83 14
113 90 17
107 85 17
111 88 18
108 89 9
94 76 6
103 86 20
107 85 16
108 87 22
100 78 19
98 78 12
101 77 11
107 85 12
99 77 14
100 79 9
99 77 11
99 80 8
98 77 12
96 76 17
90 69 8
94 75 15
103 81 19
105 86 14
107 86 17
108 86 19
101 81 17
106 86 17
104 84 11
99 79 12
94 75 11
98 77 15
103 83 8
100 79 11
103 87 21
98 77 9
106 85 19
100 79 12
94 73 5
96 74 10
105 85 18
101 77 12
93 69 14
96 78 21
99 77 16
103 82 22
98 77 15
102 81 15
99 79 13
92 74 17
94 70 7
97 75 17
104 86 24
94 75 18
100 79 11
91 71 15
91 69 16
92 72 11
97 74 19
87 69 2
94 72 20
98 78 18
87 67 16
92 72 17
88 71 22
88 67 18
97 78 23
88 68 13
79 61 16
91 72 21
89 70 19
88 68 19
78 62 26
95 77 33
84 66 20
77 59 19
81 61 11
74 58 19
82 64 17
80 59 10
81 61 21
83 64 18
72 56 8
79 63 27
125 136 20
172 195 0
169 190 0
170 193 0
168 191 0
168 191 0
171 194 0
167 189 0
172 195 0
170 193 0
172 195 0
172 193 0
171 194 0
171 193 0
171 193 0
170 192 0
170 194 0
170 192 0
170 193 0
172 195 0
173 196 0
173 195 0
172 195 0
171 195 0
171 195 0
171 195 0
171 195 0
173 195 0
171 193 0
173 195 0
170 194 0
171 194 0
172 194 0
172 196 0
173 196 0
170 193 0
169 192 0
170 194 0
170 193 0
172 195 0
170 194 0
172 194 0
171 194 0
171 194 0
172 195 0
171 194 0
172 195 0
170 193 0
169 193 0
171 193 0
170 194 0
173 196 0
170 193 0
171 194 0
170 194 0
169 192 0
170 193 0
171 194 0
170 192 0
169 192 0
171 193 0
169 192 0
169 191 0
169 192 0
168 192 0
168 191 0
168 191 0
167 190 0
168 191 0
165 186 0
167 190 0
165 187 0
166 189 0
163 186 0
168 190 0
166 189 0
167 189 0
169 190 0
161 183 0
166 189 0
167 190 0
167 189 0
168 190 0
164 186 0
165 188 0
166 188 0
164 185 0
161 183 0
166 187 0
162 184 0
167 189 0
165 187 0
162 184 0
150 169 32
150 168 32
145 164 0
147 167 0
143 162 0
146 166 0
145 164 0
149 168 0
147 165 0
148 168 0
149 169 0
147 167 0
148 167 0
146 166 0
150 170 0
149 168 0
148 168 0
150 170 0
148 168 0
148 168 0
148 168 0
150 170 0
150 170 0
150 169 0
149 169 0
151 170 0
147 168 0
147 167 0
148 169 0
151 171 0
149 170 0
149 168 0
150 170 0
147 167 0
149 170 0
150 170 0
150 170 0
148 168 0
149 169 0
149 169 0
149 170 0
147 167 0
150 170 0
104 121 27
71 86 21
70 86 22
65 80 39
66 79 16
69 84 28
71 85 34
58 73 31
68 81 34
67 82 32
63 76 26
72 84 37
61 76 21
75 89 30
59 73 28
64 76 24
67 80 21
54 67 27
55 68 15
64 77 20
68 80 0
75 87 0
68 80 14
59 70 16
69 81 0
64 84 67
57 89 131
58 92 132
60 95 144
58 93 129
58 93 129
60 95 145
59 94 128
59 94 134
59 94 128
60 95 143
61 96 143
60 95 137
58 93 133
59 94 133
59 95 136
61 96 141
61 96 141
60 96 145
60 95 140
62 97 151
59 94 132
60 95 140
60 95 142
59 95 134
61 96 149
62 97 155
60 95 141
60 95 143
59 94 142
60 94 142
60 95 134
60 95 152
60 95 141
61 96 150
60 95 143
60 95 147
60 95 147
59 94 146
59 94 133
59 94 138
59 93 139
60 95 144
61 97 153
59 94 141
60 95 146
58 92 140
59 94 148
60 95 152
59 93 140
59 94 148
59 93 141
58 92 147
60 94 144
59 92 141
60 95 149
57 89 129
59 93 143
58 92 138
58 90 129
58 90 135
59 91 142
58 92 144
58 91 138
56 89 134
57 89 132
57 87 124
57 87 125
57 88 126
55 84 123
56 86 125
55 86 135
55 85 121
54 84 121
53 82 113
54 83 121
54 83 116
53 80 115
54 81 114
53 79 115
54 82 116
52 78 109
51 78 109
51 77 108
51 79 107
49 73 104
49 75 103
49 74 106
48 71 90
44 66 88
50 58 51
90 90 49
97 98 42
105 105 45
121 119 46
111 110 44
92 81 20
65 51 6
88 70 10
92 73 12
89 70 17
83 65 12
81 61 7
79 62 9
88 69 8
86 68 14
92 71 15
93 75 10
92 73 11
84 65 8
98 79 8
98 77 10
96 77 15
95 78 18
89 68 14
92 73 12
91 73 11
97 76 11
88 69 5
86 67 4
87 68 15
87 68 11
96 77 15
95 78 8
92 70 12
92 74 6
94 72 9
99 75 10
104 82 14
103 84 13
93 71 10
107 85 18
99 80 16
101 81 19
98 79 10
101 81 10
106 88 13
98 78 7
102 83 16
93 74 11
110 91 15
104 82 19
96 75 9
100 79 14
103 84 20
105 86 13
103 83 17
102 81 11
103 82 8
105 88 11
95 74 11
109 87 10
101 82 11
99 83 9
99 80 8
97 76 10
104 81 11
106 86 17
99 80 11
104 82 9
98 78 19
100 79 9
108 83 13
98 81 17
101 80 15
101 84 28
106 87 17
101 81 17
102 83 10
98 79 15
104 85 11
105 87 19
104 83 9
104 82 15
104 82 17
107 85 19
103 85 15
102 81 11
107 88 17
101 78 9
102 85 12
85 62 6
100 80 23
98 79 13
100 81 16
105 85 9
101 79 9
91 72 9
95 74 16
97 78 13
96 76 16
106 84 22
98 79 10
105 80 9
100 78 17
99 77 14
100 79 16
98 77 16
95 76 11
98 76 19
100 82 16
99 80 17
103 81 17
92 70 12
94 74 10
97 74 17
99 75 16
91 70 12
94 75 7
94 74 15
81 65 6
97 75 19
97 76 16
85 64 16
93 75 16
104 85 25
93 70 18
88 69 16
89 69 10
87 68 15
81 64 6
91 73 23
80 64 13
80 62 8
77 60 11
84 63 10
96 74 21
90 69 16
82 62 15
82 66 24
76 57 15
80 64 25
74 60 19
76 56 10
71 57 21
76 59 23
71 56 20
69 55 23
83 66 24
146 163 11
171 193 0
169 193 0
170 194 0
168 191 0
169 192 0
171 195 0
167 189 0
170 194 0
171 194 0
173 196 0
171 195 0
173 196 0
169 192 0
169 192 0
173 196 0
171 192 0
172 195 0
170 193 0
172 194 0
172 195 0
171 194 0
172 195 0
173 195 0
171 194 0
172 195 0
171 194 0
172 194 0
170 194 0
173 196 0
171 194 0
173 196 0
171 194 0
171 194 0
170 195 0
169 193 0
174 196 0
170 194 0
170 193 0
172 194 0
171 193 0
172 195 0
170 192 0
169 192 0
173 196 0
172 194 0
170 193 0
173 196 0
168 192 0
170 194 0
169 192 0
170 193 0
170 193 0
169 192 0
172 195 0
169 192 0
169 192 0
171 194 0
170 192 0
168 190 0
168 190 0
170 192 0
168 191 0
168 190 0
169 192 0
169 191 0
166 189 0
168 191 0
168 190 0
169 191 0
168 191 0
170 193 0
167 190 0
163 184 0
167 190 0
169 191 0
165 187 0
168 190 0
168 190 0
166 189 0
164 187 0
166 188 0
166 188 0
164 187 0
163 186 0
167 190 0
164 186 0
166 188 0
163 184 0
164 186 0
164 185 0
163 185 0
163 185 0
160 181 0
162 180 60
147 166 22
149 168 0
145 164 0
147 167 0
146 165 0
148 167 0
148 167 0
147 167 0
147 166 0
148 169 0
150 169 0
151 171 0
148 168 0
148 167 0
147 166 0
148 169 0
149 169 0
150 169 0
149 169 0
150 170 0
147 168 0
149 169 0
148 168 0
151 171 0
147 166 0
150 170 0
150 170 0
150 171 0
151 171 0
150 170 0
150 170 0
150 170 0
147 168 0
145 166 0
149 170 0
146 166 0
150 170 0
148 168 0
148 169 0
149 170 0
149 169 0
121 139 22
82 97 24
70 84 30
71 85 32
87 100 0
79 94 22
76 90 0
77 92 20
77 92 16
50 63 26
80 94 31
66 79 21
78 90 26
81 94 0
76 88 16
68 80 16
69 82 22
62 74 14
64 76 20
77 90 10
71 83 0
79 92 14
73 84 0
59 71 0
75 85 0
79 92 18
58 92 127
58 93 128
59 94 127
59 93 125
58 92 124
59 93 124
59 94 136
58 93 125
59 94 140
61 96 143
59 94 142
59 94 134
60 95 137
59 94 135
59 94 128
60 96 145
60 96 149
61 96 144
60 96 144
61 96 148
59 95 135
59 94 140
60 96 147
60 95 142
60 95 135
60 96 149
60 95 138
60 96 147
60 95 139
60 95 151
60 95 141
61 96 151
60 95 151
61 96 146
60 94 143
59 94 138
61 96 147
60 95 148
60 95 149
60 95 137
59 93 144
60 94 141
60 94 144
59 93 143
58 92 135
60 94 145
60 94 142
59 94 150
59 93 133
57 91 129
60 94 143
59 92 139
57 90 140
59 93 146
59 93 145
59 92 144
58 92 148
57 89 137
57 89 127
59 92 143
58 91 135
58 90 130
58 91 141
57 89 132
58 91 143
56 86 117
58 90 140
56 86 127
57 88 128
56 86 128
57 89 131
57 87 127
55 85 127
56 86 122
53 81 112
54 82 119
54 82 117
54 83 113
51 77 104
52 80 115
52 79 104
51 78 111
49 73 103
52 78 108
51 78 113
49 72 98
47 69 93
48 72 98
47 71 99
65 74 61
88 90 49
90 93 48
102 101 48
106 105 47
112 112 39
117 115 47
92 77 16
75 58 11
74 58 10
85 70 11
86 67 12
82 63 16
81 64 11
79 60 6
85 65 3
87 64 14
89 73 9
84 64 9
89 68 8
97 75 19
96 76 11
91 70 12
97 77 8
83 64 15
92 73 13
82 65 15
102 81 11
87 69 7
94 73 12
92 70 13
92 72 16
95 72 10
91 71 11
102 79 13
103 82 15
105 86 7
101 79 12
99 78 8
100 80 12
99 76 9
94 75 13
95 77 7
96 79 13
103 81 16
98 78 10
103 83 16
108 87 17
93 76 8
98 73 14
106 84 10
107 87 9
104 85 11
102 80 7
105 84 16
105 83 13
108 84 15
104 87 15
110 89 12
108 89 18
95 74 5
105 86 14
111 90 11
96 74 10
104 87 6
99 77 8
101 81 9
105 86 8
101 81 11
103 82 11
100 79 13
104 84 12
103 81 12
113 93 16
98 78 10
103 84 15
103 83 13
103 81 10
102 82 18
102 81 18
118 98 14
101 81 20
106 85 24
100 80 10
108 83 11
113 92 22
111 88 15
98 81 10
110 88 20
105 85 16
109 88 9
95 73 7
98 76 13
98 77 9
103 81 13
97 76 13
96 74 10
101 82 23
105 80 15
105 87 14
90 70 9
99 80 20
104 84 17
96 73 6
107 87 16
98 76 15
98 76 5
100 79 12
82 61 9
94 74 12
94 75 8
89 70 12
99 74 13
90 72 9
97 73 11
91 71 11
86 68 14
101 78 20
96 75 20
92 73 14
88 68 10
93 75 19
95 74 14
78 59 7
89 68 17
80 63 8
87 70 18
98 78 21
93 73 19
87 68 20
91 72 24
80 65 15
79 62 17
91 72 23
83 62 16
87 68 15
87 68 17
87 68 19
91 69 14
85 66 15
88 71 25
84 68 20
84 63 15
91 73 23
74 57 17
71 57 22
69 58 26
73 56 17
66 53 19
156 175 11
172 194 0
170 193 0
169 192 0
169 191 0
172 194 0
173 196 0
170 193 0
168 192 0
172 194 0
172 196 0
171 194 0
170 194 0
170 192 0
170 193 0
171 194 0
170 193 0
172 195 0
172 196 0
170 193 0
172 196 0
172 195 0
173 195 0
172 195 0
171 195 0
172 195 0
171 195 0
170 193 0
172 196 0
169 193 0
171 195 0
175 197 0
170 193 0
171 194 0
170 193 0
172 195 0
171 194 0
167 190 0
171 194 0
173 196 0
171 194 0
169 192 0
171 194 0
171 195 0
170 194 0
169 192 0
170 193 0
172 195 0
171 194 0
170 193 0
172 195 0
172 194 0
169 192 0
169 192 0
171 194 0
171 193 0
170 192 0
168 191 0
169 193 0
169 192 0
169 193 0
170 192 0
168 191 0
170 193 0
168 191 0
169 192 0
168 191 0
167 191 0
168 192 0
169 191 0
168 190 0
169 192 0
166 189 0
168 190 0
168 190 0
166 189 0
167 190 0
164 186 0
167 189 0
167 190 0
165 187 0
167 189 0
168 190 0
168 190 0
166 188 0
165 187 0
166 188 0
162 186 0
166 187 0
166 188 0
165 187 0
166 187 0
163 185 0
167 189 0
165 187 0
161 183 22
151 170 45
146 166 0
144 163 0
144 163 0
146 165 0
143 162 0
147 167 0
148 168 0
148 168 0
148 167 0
148 167 0
149 169 0
149 169 0
149 169 0
149 169 0
148 168 0
148 168 0
146 167 0
148 168 0
149 169 0
149 169 0
151 171 0
148 168 0
149 168 0
149 168 0
149 170 0
146 167 0
150 170 0
148 169 0
148 168 0
151 170 0
149 169 0
149 170 0
149 169 0
149 170 0
149 169 0
149 169 0
147 168 0
149 170 0
150 171 0
121 139 21
74 89 29
82 97 34
79 95 32
82 98 26
73 88 0
76 90 26
76 89 16
83 97 14
85 100 0
66 80 27
68 81 20
66 79 14
80 94 0
68 80 21
67 80 20
65 79 20
72 85 16
72 84 14
62 75 0
71 83 0
77 89 14
74 85 0
72 84 0
79 91 0
70 81 0
61 89 101
57 91 118
57 90 119
59 93 125
58 92 113
59 93 125
59 94 129
59 93 127
59 94 141
59 94 130
60 95 141
59 93 131
60 95 141
59 94 136
59 94 139
60 95 140
61 96 147
59 94 142
60 95 136
61 96 151
60 96 141
58 93 133
60 96 147
61 96 148
60 95 140
60 95 138
60 96 147
60 96 146
60 95 140
61 96 149
61 96 145
61 96 147
60 96 144
61 96 149
59 93 132
61 95 147
60 95 147
60 96 148
60 95 146
60 95 141
59 94 141
60 95 150
60 95 150
59 94 151
59 92 138
59 92 131
60 95 145
60 93 139
59 94 142
59 93 138
59 93 141
59 92 134
59 93 138
60 94 146
57 89 126
59 93 146
58 91 138
59 92 139
60 93 142
57 89 133
58 90 140
58 90 145
58 90 138
59 92 139
55 84 121
57 89 131
57 89 135
56 87 122
57 88 124
55 86 122
55 85 125
54 83 118
54 83 120
55 83 111
55 85 123
54 82 118
53 81 110
53 81 115
54 81 116
53 80 118
52 78 100
53 80 112
53 80 109
47 72 105
49 73 103
47 70 84
46 69 90
49 74 106
46 70 92
61 69 54
91 92 44
96 97 41
99 100 44
99 99 44
109 108 42
123 120 46
117 109 34
85 68 14
84 64 17
85 70 6
80 63 12
84 68 18
83 66 16
90 71 11
85 68 9
88 67 8
86 70 14
85 70 10
95 75 10
89 69 15
97 78 11
96 77 14
100 83 15
99 80 19
97 77 17
89 69 8
92 73 11
99 81 11
93 75 8
98 80 18
105 83 19
97 80 15
94 77 8
99 81 15
101 81 15
103 81 14
94 74 10
103 84 19
98 79 3
91 73 9
96 76 9
104 83 12
101 78 13
106 87 15
102 80 13
101 82 9
99 78 11
105 84 14
102 83 21
103 80 18
91 72 9
94 74 8
103 83 7
102 81 7
97 76 8
108 89 15
101 80 10
104 83 13
106 89 17
101 81 11
113 92 13
114 96 10
96 76 9
101 84 9
102 81 15
97 78 15
107 86 15
111 92 18
110 91 10
106 85 10
102 83 20
101 82 12
104 84 14
105 85 10
106 85 13
98 79 12
110 90 10
104 85 16
108 86 12
97 76 8
94 72 8
97 73 7
105 85 10
105 82 17
98 78 16
101 83 12
94 73 7
106 86 17
102 81 12
100 80 10
98 78 8
100 82 10
96 74 14
96 75 10
110 88 18
99 79 10
105 82 16
105 87 21
102 81 18
100 80 15
104 84 15
104 82 15
99 82 11
96 78 21
105 84 17
104 83 12
96 75 19
103 84 17
100 82 17
101 81 11
99 77 17
102 80 12
105 82 18
102 82 9
91 72 15
98 76 14
93 70 15
94 76 11
87 69 17
104 86 20
88 67 12
99 79 19
88 67 16
89 73 15
100 79 21
90 70 9
85 66 14
95 75 17
93 73 20
95 75 19
81 63 15
83 64 10
86 68 12
96 77 12
93 74 16
89 70 16
76 58 14
77 60 15
88 69 20
77 61 18
80 61 14
74 59 20
78 61 23
73 56 13
83 68 28
89 71 30
69 53 17
101 96 32
170 193 0
171 193 0
173 195 0
169 192 0
168 191 0
169 193 0
172 194 0
171 193 0
172 195 0
170 192 0
170 194 0
170 192 0
170 193 0
171 193 0
167 189 0
170 192 0
174 196 0
171 194 0
171 194 0
172 195 0
171 194 0
171 193 0
171 195 0
172 195 0
170 194 0
173 196 0
172 195 0
171 194 0
172 195 0
172 195 0
171 194 0
172 196 0
169 193 0
172 195 0
173 195 0
172 195 0
172 195 0
172 195 0
170 193 0
171 194 0
172 194 0
171 194 0
170 193 0
171 193 0
170 194 0
172 195 0
170 194 0
169 192 0
169 192 0
171 194 0
171 195 0
168 192 0
170 194 0
168 191 0
170 193 0
172 195 0
171 193 0
170 192 0
169 192 0
168 190 0
171 193 0
168 191 0
168 191 0
168 191 0
167 190 0
169 192 0
169 192 0
168 191 0
167 189 0
173 195 0
168 191 0
169 191 0
169 192 0
168 190 0
168 190 0
167 189 0
167 190 0
166 189 0
165 188 0
165 187 0
166 188 0
165 187 0
167 189 0
167 189 0
167 188 0
165 188 0
164 187 0
165 187 0
166 188 0
164 185 0
162 184 0
166 189 0
165 187 0
162 184 0
164 186 0
165 186 0
163 186 22
155 175 45
150 169 32
148 167 0
144 164 0
148 168 0
149 169 0
146 165 0
149 168 0
148 167 0
147 167 0
148 168 0
147 167 0
148 168 0
149 168 0
148 168 0
149 169 0
147 167 0
149 169 0
150 170 0
150 170 0
148 168 0
150 170 0
149 169 0
149 168 0
148 168 0
147 167 0
148 168 0
151 171 0
148 168 0
149 169 0
151 170 0
146 167 0
146 167 0
150 169 0
151 170 0
150 169 0
148 168 0
152 171 0
148 168 0
125 142 0
89 103 21
75 91 31
73 88 16
84 99 27
74 88 16
82 95 19
83 97 20
76 91 20
83 97 0
77 91 14
80 93 22
74 87 0
75 88 14
75 87 0
76 89 16
78 90 0
74 87 14
72 85 14
85 98 0
81 93 0
84 96 0
76 89 0
78 90 0
76 89 0
73 84 0
65 88 89
57 91 118
59 93 129
60 94 141
58 92 115
60 94 138
59 93 136
58 93 120
60 95 141
59 94 131
58 93 131
60 94 134
61 97 151
59 94 129
59 93 135
60 95 139
59 93 130
60 95 136
60 95 140
58 93 133
61 96 143
59 94 135
59 94 136
60 95 140
60 96 147
60 95 138
60 95 144
60 95 146
60 95 139
61 96 145
60 94 138
60 95 141
61 96 147
59 94 139
60 95 144
60 95 145
60 95 147
62 97 154
60 95 142
61 96 152
59 94 140
59 94 141
60 95 145
60 95 149
59 94 146
60 93 139
60 94 150
60 96 148
60 95 154
60 95 147
59 94 145
58 91 133
58 91 136
59 93 143
58 91 134
58 91 130
59 92 141
58 90 128
59 92 131
58 90 136
57 89 137
58 91 131
57 88 123
59 91 141
57 88 127
56 86 127
56 87 138
56 86 120
56 87 125
56 86 132
55 84 115
55 85 124
56 86 121
55 83 117
56 86 122
54 83 121
54 82 115
54 81 117
51 77 107
52 80 116
51 77 98
54 82 118
50 76 101
49 74 96
48 72 97
49 74 106
48 73 103
45 67 88
44 66 82
46 57 50
79 81 45
95 95 39
103 103 51
106 105 43
118 116 39
114 113 41
106 104 36
100 90 32
85 65 6
86 67 13
84 66 13
78 58 8
88 66 17
89 72 7
85 65 15
84 67 10
94 75 11
99 78 15
88 68 9
91 74 9
86 69 14
94 73 14
99 81 11
93 72 8
87 67 3
97 75 11
93 72 12
91 72 14
94 74 8
97 80 9
99 80 13
94 74 15
92 73 8
96 76 10
94 74 9
103 82 16
99 82 19
111 92 12
96 77 18
104 84 11
101 80 16
103 81 9
98 80 8
108 88 12
90 70 6
94 74 11
95 77 15
96 75 8
98 79 18
107 85 15
105 84 8
103 84 10
97 76 7
109 90 14
104 82 12
97 79 9
101 81 15
98 75 8
104 84 15
102 82 11
94 73 7
101 79 10
102 80 13
96 75 11
107 88 9
114 95 11
107 88 10
107 87 13
100 81 11
108 89 16
107 90 16
97 75 10
101 80 10
104 83 11
91 71 11
107 88 14
101 81 14
103 82 8
107 88 15
110 87 13
101 79 10
103 83 12
110 90 10
102 84 11
100 82 9
103 85 9
98 79 14
100 81 10
102 80 18
97 78 12
102 82 16
111 90 23
102 81 13
99 79 9
105 89 20
102 82 11
105 87 18
99 79 13
104 81 11
105 85 10
99 82 8
102 83 23
98 76 16
98 78 6
104 84 17
107 85 23
103 81 22
100 81 16
98 80 14
89 68 10
102 78 17
97 77 15
101 83 21
99 80 15
90 69 18
98 76 19
99 80 15
96 78 19
92 69 10
92 74 13
95 77 15
87 69 15
93 74 17
92 73 17
82 63 10
86 70 15
91 68 15
89 73 15
90 71 15
85 65 9
88 68 15
84 66 14
86 67 20
100 79 24
83 65 14
88 66 19
72 53 10
73 56 6
83 63 14
81 66 20
92 74 26
73 55 14
77 60 19
67 47 9
79 65 28
73 55 14
76 60 21
106 110 17
169 191 0
169 189 0
169 193 0
170 192 0
169 193 0
170 193 0
172 195 0
169 192 0
171 193 0
169 192 0
171 194 0
168 190 0
174 196 0
173 196 0
171 195 0
172 195 0
168 190 0
173 195 0
171 194 0
171 194 0
171 194 0
172 195 0
171 194 0
172 194 0
172 196 0
173 196 0
169 193 0
173 195 0
172 195 0
171 194 0
171 195 0
171 194 0
171 193 0
171 194 0
169 191 0
170 193 0
171 194 0
171 194 0
169 192 0
170 194 0
171 194 0
171 194 0
172 194 0
170 193 0
171 194 0
170 193 0
170 194 0
170 193 0
169 192 0
172 194 0
170 193 0
169 192 0
170 193 0
170 193 0
171 194 0
169 192 0
169 192 0
171 193 0
170 193 0
171 193 0
169 192 0
171 193 0
170 192 0
171 194 0
171 193 0
168 191 0
169 191 0
169 190 0
172 194 0
170 193 0
168 191 0
168 191 0
167 189 0
168 191 0
169 191 0
168 190 0
165 187 0
168 190 0
166 190 0
165 187 0
166 189 0
165 188 0
167 189 0
165 188 0
168 191 0
165 187 0
164 186 0
167 189 0
168 190 0
165 187 0
164 185 0
166 188 0
166 188 0
167 188 0
162 184 0
165 187 0
164 187 0
163 185 0
164 184 56
156 174 56
144 165 0
145 165 0
150 170 0
148 168 0
146 166 0
145 165 0
148 168 0
150 170 0
150 169 0
147 167 0
146 166 0
148 168 0
146 167 0
148 168 0
147 167 0
148 168 0
147 167 0
148 168 0
146 166 0
147 168 0
150 171 0
148 167 0
149 169 0
149 169 0
148 168 0
151 171 0
148 168 0
149 169 0
150 170 0
150 171 0
151 171 0
148 168 0
150 170 0
147 168 0
151 170 0
149 170 0
129 148 16
80 95 16
83 97 16
81 96 21
83 97 16
79 92 16
70 84 0
81 95 16
80 94 14
77 91 16
77 91 0
60 72 16
66 79 0
79 93 0
67 81 0
65 76 0
88 101 14
68 82 0
69 82 0
59 71 0
92 106 0
86 100 0
73 85 16
77 88 0
71 84 0
72 86 0
71 86 50
58 91 126
58 92 123
60 95 139
59 92 125
58 93 125
59 94 138
59 94 128
59 94 130
59 93 130
60 94 131
60 95 136
59 94 135
60 94 134
59 94 131
60 95 136
60 95 141
61 97 150
60 96 142
61 96 147
60 95 141
59 94 140
60 95 141
60 96 140
60 95 142
59 94 140
61 97 144
60 96 137
60 95 134
60 95 142
59 93 134
61 95 145
58 93 137
59 94 139
59 94 141
59 93 145
60 95 146
60 96 149
59 94 145
58 93 132
60 95 143
59 93 138
59 93 139
59 94 138
58 92 141
60 94 146
60 94 142
59 92 135
60 95 148
59 93 140
58 91 133
60 94 151
60 93 144
58 91 137
58 91 132
59 93 141
58 91 135
58 91 132
58 89 132
58 91 139
59 90 128
58 91 133
58 91 132
57 89 131
58 89 132
57 88 125
57 88 128
57 88 130
55 86 127
55 83 115
55 85 126
56 86 129
54 84 127
55 82 112
54 84 124
53 81 115
55 84 115
52 80 113
51 79 105
52 79 115
52 79 115
51 79 110
48 72 100
50 76 102
48 73 107
46 71 95
47 70 94
47 70 86
48 73 103
58 64 46
83 85 49
89 91 38
98 98 42
96 96 40
118 117 46
118 117 40
123 121 38
127 124 37
92 78 21
88 68 11
84 65 7
80 62 12
84 64 11
87 67 13
98 76 17
82 64 9
89 71 8
89 72 9
98 81 8
89 68 10
92 76 15
99 82 13
98 83 13
91 74 18
92 73 11
86 66 5
96 75 10
95 75 9
99 81 8
87 67 6
90 71 8
98 78 13
96 73 15
95 75 11
103 83 12
103 80 14
109 90 15
99 76 20
97 78 15
102 83 9
103 86 18
106 87 13
104 83 15
105 84 11
104 88 11
102 81 10
104 84 16
104 84 18
103 82 7
102 82 12
96 80 9
99 80 6
107 90 10
105 83 8
106 83 9
101 80 11
104 82 9
102 80 16
106 82 12
102 85 10
98 80 8
104 85 16
102 83 16
109 89 10
105 84 11
107 89 9
101 80 12
105 83 9
107 85 11
104 88 9
103 84 14
104 84 10
105 84 13
100 77 12
101 84 16
106 86 16
104 83 14
104 85 11
102 82 10
101 80 19
109 85 11
107 89 8
100 81 11
99 79 13
106 86 11
107 86 16
102 82 12
94 74 14
99 80 15
95 79 9
100 79 7
108 87 10
99 81 8
105 85 16
108 89 14
102 83 14
106 88 15
97 77 8
102 82 9
100 80 15
96 70 10
92 72 7
94 70 15
103 85 19
87 69 3
100 80 16
103 82 20
105 85 14
91 72 9
98 76 16
94 73 14
96 76 12
102 80 17
94 76 12
105 85 13
87 66 10
95 76 18
102 81 17
93 74 15
99 78 20
91 73 11
90 65 10
99 80 17
89 67 12
92 74 20
96 76 17
84 64 12
96 74 18
82 61 5
85 67 16
91 71 20
90 70 13
94 75 18
86 67 17
79 60 14
76 62 15
77 56 7
78 61 8
86 70 20
93 73 21
68 53 10
78 63 23
71 54 14
87 67 15
74 57 13
70 55 14
75 62 22
140 152 16
172 195 0
169 192 0
169 191 0
169 192 0
170 193 0
169 191 0
171 194 0
173 195 0
170 192 0
170 193 0
169 192 0
169 190 0
171 194 0
172 194 0
172 194 0
172 193 0
170 191 0
171 194 0
169 191 0
169 192 0
173 196 0
173 196 0
174 196 0
170 193 0
170 194 0
172 195 0
170 193 0
168 192 0
175 197 0
174 196 0
171 194 0
172 195 0
173 195 0
173 196 0
172 195 0
172 194 0
169 192 0
172 195 0
170 193 0
169 193 0
170 193 0
171 194 0
169 192 0
171 195 0
171 194 0
170 194 0
169 193 0
168 192 0
170 193 0
170 193 0
171 194 0
171 193 0
171 193 0
171 193 0
169 192 0
168 191 0
170 193 0
171 193 0
168 191 0
171 193 0
170 192 0
171 194 0
168 191 0
169 191 0
166 189 0
168 191 0
169 191 0
168 190 0
169 192 0
169 191 0
169 191 0
167 190 0
166 190 0
166 189 0
164 187 0
166 189 0
165 187 0
169 192 0
168 190 0
166 189 0
164 187 0
165 187 0
167 189 0
165 188 0
168 190 0
167 189 0
164 186 0
167 190 0
166 188 0
167 189 0
163 185 0
167 188 0
167 188 0
169 191 0
162 183 0
165 187 0
165 187 0
165 188 0
166 188 0
160 181 0
158 177 64
148 167 0
150 169 0
149 168 0
146 165 0
146 166 0
146 165 0
149 169 0
146 166 0
148 168 0
144 164 0
147 168 0
148 168 0
149 168 0
147 167 0
149 170 0
150 170 0
147 167 0
151 170 0
150 170 0
148 169 0
149 169 0
151 171 0
148 168 0
150 169 0
150 170 0
149 169 0
148 168 0
148 168 0
148 168 0
148 168 0
150 170 0
150 169 0
146 166 0
145 165 0
149 169 0
135 154 0
92 106 16
86 100 0
78 93 16
81 96 0
82 98 0
77 90 0
89 103 0
90 105 0
84 97 0
86 101 0
68 82 0
77 91 0
74 88 0
72 86 0
89 103 0
70 83 0
66 77 0
71 83 0
82 94 0
73 86 0
81 94 0
76 90 0
80 93 0
84 96 0
76 89 0
74 86 0
62 91 106
58 92 120
58 93 126
58 93 123
58 92 126
59 93 129
59 93 124
59 94 129
59 94 128
58 93 124
58 93 120
59 94 130
61 96 145
59 94 139
59 94 131
60 95 136
59 93 128
59 93 136
59 94 137
60 95 136
60 94 140
59 93 135
60 95 142
59 94 136
60 94 138
59 94 140
59 95 143
60 95 137
61 97 154
59 93 129
60 95 142
60 94 137
60 96 145
59 93 133
61 96 149
61 96 150
59 93 139
60 94 145
60 94 146
60 95 139
60 94 148
59 93 138
58 91 130
60 94 144
60 95 145
59 94 136
60 93 140
60 93 134
60 94 148
60 95 145
59 93 136
58 92 143
60 94 150
58 90 128
58 92 137
58 91 136
57 89 134
58 91 137
58 89 132
57 89 132
58 91 132
58 90 131
57 88 129
58 89 139
57 87 132
58 90 131
55 85 116
56 87 131
56 87 132
55 85 124
55 83 111
55 85 121
55 84 114
54 82 121
54 82 112
53 81 119
52 79 111
52 80 112
52 79 113
51 78 108
51 78 105
50 75 105
49 74 94
51 77 105
49 74 99
50 75 95
46 68 86
43 64 76
56 64 43
72 75 43
106 105 46
108 107 37
106 105 48
111 109 45
119 116 36
113 112 40
121 119 43
115 112 37
93 80 19
81 65 14
83 64 8
87 69 10
89 69 7
94 75 18
86 70 8
91 75 8
89 68 7
93 76 12
94 72 3
91 76 9
95 73 11
90 72 9
94 75 9
91 74 10
92 73 7
104 82 8
90 75 10
90 73 8
96 76 7
95 73 8
86 67 7
95 74 11
101 79 11
97 76 11
97 78 10
95 80 5
91 72 6
100 79 14
96 74 9
106 87 11
99 80 14
99 79 8
102 83 14
100 80 15
101 83 11
98 76 6
100 78 16
95 74 14
104 84 13
105 85 16
111 92 14
103 82 12
103 82 11
107 87 9
99 78 13
103 83 12
105 85 15
104 86 15
106 86 10
103 83 14
106 84 11
99 79 11
100 80 8
107 88 11
109 91 20
105 82 13
94 74 8
109 90 7
107 87 9
109 87 15
98 78 6
110 88 10
102 83 10
108 87 12
104 81 13
100 79 14
107 85 14
94 77 6
100 80 16
110 89 14
102 83 17
104 85 12
105 83 13
101 78 9
111 87 12
101 82 8
107 86 15
96 74 8
101 81 6
102 81 17
96 77 7
101 82 11
96 78 17
109 89 18
107 84 11
100 82 10
97 76 13
104 85 11
101 81 15
104 86 18
99 81 20
92 74 15
100 80 18
94 73 15
98 78 13
95 77 19
102 80 13
98 80 14
101 83 17
93 74 12
99 78 16
96 77 11
89 70 10
95 78 13
96 74 12
90 70 7
92 71 13
85 64 8
94 70 8
95 77 15
87 65 9
98 79 20
96 75 11
95 72 12
86 69 17
92 74 15
86 65 18
91 71 14
96 77 25
86 67 15
93 74 17
89 70 15
80 61 13
84 68 12
84 63 14
82 67 20
83 65 15
75 56 9
84 69 23
73 53 3
88 70 18
80 66 20
87 73 25
75 58 20
83 67 23
86 76 30
150 165 11
172 194 0
169 192 0
167 190 0
174 195 0
173 196 0
172 194 0
166 188 0
173 195 0
165 187 0
168 190 0
169 191 0
172 195 0
172 195 0
171 194 0
171 193 0
168 190 0
171 192 0
171 194 0
172 196 0
171 193 0
172 194 0
171 192 0
172 195 0
171 194 0
171 195 0
172 195 0
172 194 0
172 195 0
173 196 0
172 195 0
169 193 0
172 194 0
172 195 0
172 195 0
170 193 0
170 193 0
173 195 0
171 194 0
171 194 0
171 194 0
172 195 0
171 194 0
170 192 0
170 193 0
171 194 0
172 194 0
169 192 0
170 193 0
171 194 0
171 193 0
171 194 0
170 193 0
169 192 0
169 191 0
170 193 0
169 192 0
168 191 0
169 193 0
169 191 0
169 192 0
168 191 0
169 192 0
171 193 0
170 193 0
169 191 0
167 190 0
168 190 0
166 190 0
168 191 0
170 192 0
168 191 0
168 191 0
167 190 0
167 189 0
167 190 0
168 190 0
163 186 0
168 190 0
166 188 0
165 188 0
166 188 0
165 187 0
164 187 0
168 189 0
165 188 0
165 188 0
167 189 0
166 189 0
167 188 0
167 188 0
166 188 0
167 189 0
165 188 0
165 186 0
165 187 0
162 184 0
165 187 0
164 186 0
164 187 0
165 187 0
165 187 0
160 180 51
150 169 51
146 165 0
148 167 0
149 168 0
147 167 0
146 166 0
145 165 0
148 168 0
149 169 0
148 167 0
149 169 0
149 169 0
147 167 0
148 167 0
146 165 0
146 167 0
146 166 0
147 167 0
150 170 0
151 170 0
150 169 0
147 167 0
150 170 0
150 170 0
147 167 0
146 167 0
147 167 0
148 167 0
152 171 0
148 169 0
148 168 0
146 167 0
146 167 0
149 169 0
143 162 0
89 104 16
86 99 0
91 106 0
81 96 16
90 105 16
97 112 16
87 101 0
89 104 0
82 95 0
87 101 16
72 85 0
82 95 0
81 94 0
75 87 0
77 89 0
72 85 0
82 96 0
84 97 0
69 83 0
78 91 0
85 97 0
68 79 0
84 97 0
80 93 0
83 97 0
77 89 0
61 83 85
59 93 131
59 92 128
58 92 122
57 92 127
59 94 134
58 92 126
59 93 124
58 93 128
59 93 135
59 94 125
61 96 136
60 95 135
59 94 131
60 94 136
58 93 137
60 94 139
59 94 126
59 93 133
60 95 147
59 94 140
60 95 140
60 95 142
58 93 132
59 94 142
60 96 145
60 95 145
60 96 143
60 94 141
58 93 141
61 95 145
58 92 130
60 94 137
60 95 139
61 97 153
60 94 135
60 93 137
60 95 147
59 93 138
58 92 134
59 93 131
60 94 148
60 95 142
57 92 132
60 93 137
59 94 143
60 94 143
58 92 139
59 94 142
59 93 137
59 93 139
59 93 137
58 91 134
59 91 137
57 89 133
59 91 138
57 90 127
58 91 143
58 92 141
58 90 128
58 90 144
56 85 108
57 89 136
58 90 134
55 86 113
56 86 126
57 88 120
57 87 129
54 84 113
54 82 104
54 83 119
57 86 128
55 83 115
55 85 123
53 82 115
52 80 108
52 80 115
52 79 107
53 81 114
50 76 107
52 79 113
52 78 105
49 75 92
48 72 99
47 70 87
44 65 80
46 69 83
46 68 85
72 76 41
80 80 38
92 93 42
88 90 42
104 104 41
112 111 45
114 114 45
129 126 44
123 122 46
122 121 38
117 114 31
98 84 25
87 66 8
89 72 14
89 72 10
87 69 15
90 72 8
88 68 7
93 72 16
94 75 12
97 79 12
85 65 9
94 77 14
99 81 9
87 64 9
93 75 11
98 78 14
99 80 20
91 73 7
96 78 8
96 77 8
98 77 16
101 84 20
101 80 9
99 82 9
95 76 8
101 87 15
99 79 4
91 70 8
107 87 8
94 75 9
92 73 7
101 79 11
97 78 18
106 87 9
98 80 12
101 81 8
102 83 15
107 84 14
99 78 7
100 81 10
104 84 11
102 83 8
109 89 12
101 79 12
100 83 6
102 80 10
106 86 8
103 85 16
98 75 7
106 85 10
111 90 17
104 81 8
92 72 8
103 86 11
111 91 17
104 84 12
102 83 9
104 83 12
104 82 10
109 91 12
101 82 6
104 84 10
107 88 16
108 87 17
103 83 8
100 80 9
102 82 14
109 88 16
110 89 19
101 80 16
103 83 16
102 80 10
109 90 15
98 77 10
107 86 16
101 80 7
111 90 13
109 87 15
104 85 8
94 74 8
102 82 12
105 83 11
111 90 16
106 85 11
104 84 10
111 85 14
97 74 11
101 82 18
107 84 13
104 88 12
107 89 13
98 79 8
94 74 5
102 85 15
96 75 10
92 74 10
93 77 6
99 78 20
80 61 6
101 79 17
97 78 15
95 78 11
99 76 16
96 76 9
96 78 8
94 74 11
90 74 12
103 81 18
94 73 14
96 74 17
99 76 13
96 79 16
90 67 11
91 72 23
90 73 19
98 78 20
81 62 7
86 67 8
94 75 20
84 69 18
90 70 18
86 69 14
86 69 21
83 63 11
91 71 14
74 58 8
82 62 15
89 68 20
77 56 9
75 61 14
80 63 19
84 67 23
77 60 19
72 55 11
69 53 16
65 53 21
115 108 35
166 187 11
169 193 0
169 193 0
167 189 0
170 193 0
172 194 0
173 195 0
168 192 0
173 195 0
170 192 0
171 192 0
166 189 0
170 193 0
169 192 0
174 195 0
176 197 0
168 191 0
172 194 0
174 196 0
172 195 0
171 194 0
167 190 0
173 197 0
171 194 0
172 195 0
171 194 0
173 196 0
173 195 0
171 194 0
172 195 0
170 194 0
171 194 0
171 194 0
170 194 0
171 194 0
171 195 0
170 193 0
170 194 0
172 194 0
170 194 0
171 195 0
172 195 0
169 192 0
170 193 0
170 192 0
172 195 0
172 195 0
174 196 0
167 190 0
170 194 0
170 191 0
172 195 0
169 192 0
171 194 0
170 192 0
168 191 0
169 192 0
168 190 0
166 189 0
168 192 0
168 192 0
167 190 0
167 191 0
168 190 0
170 192 0
168 191 0
169 191 0
169 192 0
168 191 0
171 193 0
169 192 0
168 192 0
167 190 0
167 189 0
171 193 0
169 191 0
169 191 0
167 189 0
166 189 0
165 188 0
169 192 0
167 189 0
166 189 0
169 191 0
167 189 0
168 190 0
168 190 0
166 188 0
168 191 0
167 189 0
167 189 0
164 185 0
166 187 0
164 187 0
166 188 0
168 189 0
163 185 0
167 188 0
167 189 0
164 187 0
163 185 0
167 189 0
164 185 0
162 182 22
152 172 51
146 165 0
145 164 0
145 164 0
146 166 0
146 166 0
145 165 0
145 164 0
150 171 0
149 168 0
148 168 0
148 169 0
147 167 0
147 167 0
147 166 0
145 165 0
151 171 0
146 166 0
149 169 0
148 168 0
146 167 0
150 170 0
147 167 0
146 167 0
146 165 0
150 170 0
148 169 0
149 169 0
148 167 0
147 167 0
146 166 0
149 170 0
146 166 0
146 166 0
96 111 22
96 112 0
71 86 16
95 111 16
85 99 14
85 100 0
99 113 0
75 88 0
80 95 0
93 108 0
86 99 0
83 96 0
81 95 0
70 83 0
84 97 0
78 93 0
87 101 0
78 91 0
84 97 0
93 107 0
89 103 0
70 83 0
85 97 0
90 103 0
83 96 0
88 100 0
77 94 53
57 90 118
55 88 104
57 91 122
57 91 126
57 91 121
59 94 138
58 93 119
58 92 121
59 93 131
58 92 122
60 94 139
60 95 133
62 97 151
59 93 138
60 95 135
59 94 125
60 96 141
59 94 135
59 94 128
59 94 136
59 94 134
59 94 134
60 95 134
59 94 139
58 93 126
58 92 129
60 95 141
60 95 141
60 95 144
60 95 139
60 94 132
60 95 143
59 94 142
59 94 141
58 92 131
60 95 148
60 94 134
59 94 134
60 94 141
60 94 143
58 92 134
59 93 136
59 93 135
60 95 140
59 93 141
59 93 138
60 94 143
59 94 137
57 89 119
59 93 138
57 89 127
59 92 137
58 91 126
59 91 131
58 90 126
59 92 143
58 91 134
59 92 142
58 90 124
57 88 120
57 87 122
56 87 129
57 89 131
54 83 116
58 89 134
55 85 128
57 87 123
57 88 127
55 84 121
56 86 124
55 85 120
54 82 113
53 82 111
55 84 119
55 83 113
52 78 106
51 78 101
52 78 103
49 75 100
52 80 110
48 74 105
51 77 104
49 73 94
46 69 83
49 74 98
45 69 99
43 64 77
60 64 34
81 84 42
86 87 41
99 100 36
100 98 45
119 117 50
121 118 43
118 116 41
119 118 32
124 121 44
115 115 33
136 133 41
99 83 19
90 69 18
87 69 17
95 74 10
89 70 13
95 77 15
88 72 8
85 67 11
83 65 7
93 74 8
95 77 10
94 77 8
90 72 6
96 75 9
97 75 7
97 79 12
101 81 10
93 73 7
96 76 12
91 71 10
91 72 9
97 80 7
100 80 10
96 76 9
98 79 10
101 84 14
101 81 15
106 88 15
99 80 15
102 81 7
104 85 10
96 75 10
108 89 8
100 78 10
106 84 13
102 84 15
108 88 17
105 83 18
103 83 12
108 87 12
94 74 9
95 75 7
97 76 11
103 83 3
99 79 4
110 90 16
111 91 13
101 81 12
107 88 18
102 82 9
113 93 17
99 79 10
104 87 13
103 83 8
100 82 9
113 92 13
107 88 11
111 88 11
101 84 10
97 79 12
101 81 10
101 83 17
99 74 9
106 87 10
97 77 6
101 79 9
106 88 3
101 78 15
94 71 10
104 83 11
107 87 13
99 83 17
105 85 12
104 85 22
100 83 11
99 78 12
102 78 14
109 87 21
106 85 12
95 78 6
106 88 8
112 92 12
103 84 9
98 77 12
102 84 11
95 75 12
94 72 7
104 87 12
101 80 11
105 84 10
99 77 6
97 77 14
105 85 18
97 77 10
110 90 9
98 79 15
88 71 11
107 88 21
93 72 6
90 70 15
94 77 10
96 76 15
94 77 14
100 79 11
97 80 14
97 78 7
93 75 10
95 76 11
88 70 11
94 75 17
89 69 11
97 78 20
95 70 15
91 72 8
96 74 13
83 62 10
86 66 10
82 64 10
87 66 16
91 72 18
75 56 15
93 73 14
83 65 18
90 74 21
87 68 17
76 59 17
81 62 18
79 61 10
81 64 9
75 57 17
78 61 10
78 68 25
80 61 19
72 59 14
85 75 22
121 121 28
172 194 0
170 193 0
168 189 0
171 194 0
170 194 0
172 193 0
167 190 0
172 195 0
171 194 0
171 194 0
171 193 0
172 194 0
171 194 0
170 193 0
169 191 0
171 193 0
170 192 0
168 189 0
169 192 0
171 193 0
169 191 0
170 194 0
171 193 0
171 194 0
171 194 0
170 194 0
169 192 0
174 196 0
170 193 0
172 195 0
170 193 0
174 197 0
171 195 0
172 195 0
170 194 0
171 194 0
171 194 0
173 196 0
171 194 0
170 193 0
171 194 0
172 194 0
170 193 0
171 194 0
173 195 0
170 193 0
170 193 0
170 193 0
169 191 0
170 192 0
169 192 0
171 193 0
168 190 0
170 193 0
170 192 0
171 193 0
171 194 0
171 193 0
169 192 0
171 194 0
168 191 0
170 193 0
168 191 0
167 190 0
168 190 0
171 194 0
168 192 0
167 190 0
169 191 0
169 192 0
169 191 0
169 192 0
169 192 0
167 190 0
168 190 0
167 190 0
167 190 0
168 189 0
164 187 0
169 191 0
168 190 0
168 191 0
167 190 0
170 191 0
165 188 0
169 191 0
166 189 0
163 185 0
167 190 0
164 186 0
167 190 0
167 189 0
164 186 0
165 188 0
166 188 0
162 184 0
165 187 0
164 186 0
164 187 0
162 183 0
167 189 0
160 182 0
163 185 0
164 186 0
165 187 0
157 175 56
148 167 32
143 162 0
146 166 0
143 162 0
148 168 0
146 166 0
147 166 0
148 167 0
145 165 0
147 167 0
148 168 0
149 168 0
149 169 0
148 168 0
147 167 0
151 171 0
147 167 0
148 169 0
149 169 0
147 167 0
149 169 0
147 167 0
150 169 0
150 170 0
146 166 0
149 169 0
146 166 0
147 168 0
149 168 0
149 169 0
147 168 0
149 169 0
98 115 0
86 101 16
84 100 0
90 105 0
88 103 16
84 98 0
98 112 0
95 110 0
85 99 0
77 90 0
87 102 0
83 97 0
78 91 0
83 96 0
78 92 0
80 94 0
83 97 0
81 93 0
87 101 0
92 107 0
78 91 0
89 101 0
85 98 0
77 90 0
88 101 0
90 104 0
73 86 0
68 95 105
58 93 130
58 92 121
55 88 113
58 92 114
59 93 130
60 94 137
58 91 126
59 94 128
59 94 133
59 93 128
59 93 124
59 95 135
59 93 129
62 97 151
60 95 140
60 95 140
61 96 141
59 94 133
60 95 144
60 95 137
60 96 147
60 95 139
60 94 136
61 96 147
60 95 135
59 94 138
59 94 126
61 96 145
59 94 139
59 94 136
60 94 139
58 92 127
60 94 150
59 92 128
59 94 137
60 95 137
59 94 140
61 95 147
58 92 130
58 93 127
59 92 130
59 93 135
59 93 135
58 92 140
60 95 147
60 93 138
57 90 124
60 91 133
58 91 134
58 91 133
58 90 130
59 92 138
57 88 121
59 92 134
58 89 128
58 90 128
59 92 135
57 89 129
57 88 125
56 86 119
57 88 136
57 87 123
55 86 123
56 87 117
57 89 125
56 86 119
56 86 123
54 83 116
55 84 119
54 81 119
55 84 117
52 79 107
53 80 101
52 79 107
48 73 101
50 76 97
51 78 110
51 78 107
51 77 108
53 80 110
51 77 106
48 72 97
49 73 100
45 69 86
48 71 86
43 66 91
69 73 40
89 90 38
98 98 43
109 108 37
110 110 38
101 101 43
114 114 44
117 115 39
117 115 38
128 126 37
134 131 44
126 124 30
129 125 42
102 89 23
84 67 6
91 71 15
88 68 6
80 62 7
80 64 10
89 70 7
95 79 12
98 79 13
95 75 7
89 70 10
89 71 6
91 71 11
89 70 11
97 78 10
98 83 10
100 80 10
97 79 12
100 80 12
97 76 11
98 79 14
103 85 8
98 79 6
108 89 10
98 77 9
97 78 9
102 81 10
100 80 5
104 83 7
102 82 18
96 75 11
106 86 9
96 78 10
104 84 8
109 91 10
105 87 9
92 72 7
101 81 11
105 85 13
100 80 10
102 82 8
109 92 7
102 82 11
104 86 13
100 79 6
97 79 9
99 77 12
98 79 14
96 76 15
102 81 10
103 84 9
104 84 16
107 86 12
104 85 12
104 82 13
113 93 9
103 84 11
112 95 22
101 83 8
109 88 15
106 88 14
105 82 12
109 92 13
103 84 19
110 90 19
108 91 13
107 87 14
107 86 17
102 82 12
116 98 20
107 86 11
106 85 11
105 86 10
102 83 7
105 85 13
102 82 13
98 78 12
107 85 21
105 83 14
104 85 18
103 84 13
98 79 15
103 84 17
103 84 15
98 78 16
94 74 12
99 81 14
96 81 9
103 84 11
96 76 15
99 79 6
99 79 17
96 78 10
91 71 4
99 76 14
105 85 16
104 84 13
100 80 16
97 79 19
95 74 6
99 81 14
92 71 13
91 73 12
87 68 8
97 78 23
84 63 7
95 77 12
97 77 22
92 70 12
91 72 12
87 66 14
89 71 12
87 69 14
91 71 17
90 72 14
88 68 9
84 64 15
88 69 13
92 69 12
87 67 13
77 57 10
86 65 18
79 57 12
74 59 12
87 67 19
84 73 30
77 58 13
81 62 11
66 49 11
82 64 18
75 55 8
76 59 15
74 60 18
122 119 25
142 146 25
171 195 0
168 191 0
171 194 0
168 190 0
174 196 0
172 195 0
169 190 0
170 192 0
170 193 0
170 192 0
170 193 0
168 191 0
171 191 0
169 191 0
169 192 0
171 193 0
169 190 0
170 192 0
169 191 0
171 194 0
167 189 0
173 195 0
170 193 0
172 195 0
171 194 0
172 194 0
172 195 0
170 194 0
173 196 0
171 194 0
170 194 0
171 194 0
173 195 0
170 193 0
171 194 0
171 194 0
172 194 0
171 195 0
172 195 0
171 194 0
171 194 0
170 194 0
172 194 0
170 193 0
170 193 0
171 194 0
172 194 0
169 192 0
171 193 0
171 194 0
170 192 0
168 191 0
172 194 0
170 193 0
169 192 0
168 191 0
169 192 0
168 191 0
171 193 0
169 190 0
171 193 0
170 192 0
170 192 0
170 192 0
165 188 0
169 192 0
168 190 0
169 192 0
168 191 0
168 190 0
170 193 0
169 191 0
168 190 0
166 189 0
166 189 0
170 192 0
169 191 0
166 188 0
165 188 0
167 188 0
169 192 0
165 188 0
167 189 0
167 189 0
170 193 0
166 188 0
165 188 0
166 187 0
165 188 0
166 189 0
167 189 0
166 188 0
166 188 0
166 189 0
163 185 0
163 186 0
165 188 0
165 187 0
167 190 0
162 185 0
167 189 0
164 186 0
165 186 0
167 188 0
165 188 0
163 185 0
157 178 0
149 168 45
145 165 0
149 169 0
145 165 0
148 167 0
148 168 0
148 167 0
147 167 0
146 166 0
146 166 0
150 169 0
148 167 0
147 167 0
150 170 0
149 169 0
147 166 0
149 169 0
146 166 0
147 167 0
150 170 0
148 168 0
151 172 0
149 169 0
147 167 0
151 170 0
146 165 0
148 168 0
147 166 0
146 167 0
147 167 0
148 168 0
106 122 0
87 101 0
95 111 0
94 110 0
101 116 0
88 102 0
90 106 0
84 99 0
95 110 0
87 102 0
98 113 0
81 95 0
89 103 0
82 95 0
91 106 0
87 101 0
83 97 0
90 104 0
87 100 0
77 90 0
87 101 0
89 102 0
89 101 0
73 86 0
91 104 0
85 98 0
82 96 0
56 74 54
57 90 111
58 92 122
56 89 100
57 91 119
58 92 122
59 94 131
60 94 134
59 93 125
61 96 143
59 93 131
59 94 126
60 95 134
60 94 136
60 95 144
59 94 134
58 93 126
59 93 129
58 92 129
60 94 141
60 95 143
59 94 126
59 93 133
59 95 141
60 94 134
60 95 141
60 95 146
60 95 142
61 96 147
60 95 139
60 95 143
61 96 145
59 94 140
59 94 138
60 95 148
59 92 132
59 93 134
59 94 137
59 93 136
60 95 147
59 93 129
59 93 134
59 94 137
59 92 133
60 95 147
60 94 134
58 91 139
58 91 132
59 92 137
59 92 135
59 92 138
57 90 133
57 88 120
59 91 126
57 89 128
58 90 123
57 89 118
57 89 133
57 89 128
57 88 131
57 87 122
59 90 133
57 89 126
56 86 121
54 83 111
58 89 122
56 87 123
57 89 127
58 88 127
57 86 118
53 82 110
54 83 110
55 83 113
53 81 112
54 82 107
53 79 105
50 76 97
54 83 111
49 73 94
53 79 110
49 74 91
48 73 107
49 75 106
49 74 101
45 68 93
44 65 78
44 65 77
61 67 41
85 87 39
83 85 44
99 100 40
103 102 41
115 114 38
118 117 41
114 112 35
121 120 42
124 122 42
131 128 41
133 130 35
130 127 39
134 130 34
94 81 18
87 67 9
86 65 11
91 68 10
89 66 9
89 73 7
90 71 6
98 78 11
90 71 11
93 72 13
105 83 10
95 74 10
93 75 16
99 79 15
104 84 8
98 79 8
94 75 10
95 77 11
96 79 10
102 82 10
98 79 8
100 80 7
97 79 7
102 83 11
96 76 9
101 81 9
101 85 9
106 89 9
105 85 6
97 79 9
96 76 14
101 82 4
101 81 9
103 84 12
102 84 7
112 92 16
102 83 11
100 81 10
96 75 6
101 80 13
104 83 15
104 85 9
100 81 9
110 90 10
104 85 12
101 81 9
107 86 7
102 84 12
106 88 11
110 92 12
105 83 12
107 87 8
105 84 10
101 79 9
99 81 9
100 79 4
102 85 6
105 84 13
110 94 8
101 80 12
99 77 12
94 75 3
109 92 11
104 85 11
104 87 8
97 76 10
104 84 10
105 89 19
100 78 8
108 89 13
98 76 9
100 82 14
104 85 12
98 80 14
100 81 10
104 84 9
112 89 12
106 80 10
98 81 7
108 86 10
101 81 9
99 78 11
100 82 8
99 78 14
97 76 10
99 81 14
95 75 8
99 79 11
98 78 18
103 83 13
98 81 6
96 77 14
98 79 15
97 78 15
105 83 11
102 85 7
97 77 15
104 83 16
99 80 11
99 80 14
101 82 10
97 76 21
86 68 16
93 72 12
97 81 19
98 78 12
91 70 16
92 73 15
88 67 8
87 73 9
90 72 9
94 75 13
90 69 8
95 75 15
87 65 10
93 74 15
85 69 19
95 74 9
83 62 8
81 63 12
86 67 11
78 61 19
74 55 14
80 62 19
72 56 8
81 63 13
82 62 18
76 54 9
82 64 10
72 54 13
63 48 3
82 73 20
122 118 30
148 161 25
168 190 0
170 192 0
170 192 0
169 191 0
171 194 0
172 195 0
170 192 0
171 194 0
170 191 0
172 194 0
167 190 0
170 192 0
168 190 0
168 191 0
172 193 0
171 194 0
170 193 0
171 193 0
171 193 0
171 193 0
170 192 0
170 194 0
172 194 0
172 195 0
169 193 0
170 194 0
170 193 0
172 195 0
172 195 0
172 195 0
172 195 0
172 195 0
171 194 0
170 194 0
171 193 0
171 195 0
172 195 0
169 193 0
170 193 0
170 193 0
170 194 0
172 195 0
170 194 0
172 195 0
172 194 0
171 193 0
171 193 0
171 193 0
169 192 0
170 193 0
168 191 0
171 194 0
168 192 0
168 192 0
172 194 0
171 194 0
169 192 0
169 192 0
170 193 0
170 192 0
170 192 0
168 191 0
171 193 0
169 191 0
168 191 0
168 191 0
168 191 0
167 190 0
167 190 0
166 189 0
170 192 0
168 191 0
170 192 0
167 189 0
166 189 0
169 191 0
168 190 0
167 190 0
168 190 0
166 189 0
167 189 0
167 190 0
168 191 0
164 187 0
164 188 0
165 187 0
167 189 0
166 187 0
165 188 0
167 189 0
164 187 0
166 188 0
165 187 0
166 189 0
165 187 0
165 187 0
165 187 0
165 187 0
165 187 0
165 187 0
164 186 0
165 187 0
165 187 0
164 186 0
163 185 0
162 184 0
162 184 0
162 183 32
158 177 45
145 165 0
145 165 0
146 165 0
147 165 0
149 169 0
144 163 0
150 170 0
147 167 0
147 167 0
145 164 0
149 169 0
149 169 0
148 168 0
150 170 0
147 167 0
149 169 0
146 167 0
147 167 0
148 168 0
150 170 0
146 166 0
149 169 0
147 167 0
150 170 0
149 170 0
149 168 0
150 169 0
148 169 0
147 167 0
108 124 0
97 112 0
102 117 0
99 115 0
100 116 0
87 101 0
94 109 0
98 114 0
89 105 0
96 111 0
84 98 0
88 102 0
92 106 0
87 101 0
93 107 0
79 93 0
78 92 0
86 100 0
92 105 0
91 105 0
91 106 0
94 108 0
90 104 0
81 95 0
100 113 0
86 99 0
84 97 0
97 110 0
60 91 111
56 89 116
58 92 118
58 92 121
57 91 118
58 93 124
59 93 124
60 94 131
59 93 129
57 92 118
59 93 122
58 93 122
59 94 137
59 94 129
59 93 128
59 94 139
59 94 131
59 93 121
60 94 140
60 95 139
61 96 143
59 94 130
59 94 129
60 94 133
58 92 126
60 95 138
58 92 120
59 93 125
60 95 141
59 92 131
60 94 136
61 95 141
59 94 137
59 94 136
60 95 140
58 92 132
60 95 142
60 94 137
58 91 133
58 92 135
61 95 139
59 93 136
59 94 139
59 92 124
60 94 134
58 91 128
59 93 138
58 90 124
57 90 117
57 90 132
59 91 135
59 91 125
57 90 136
58 91 131
57 90 130
57 89 133
58 90 131
58 91 130
57 88 126
59 92 138
59 90 132
55 85 123
56 85 113
57 89 131
56 86 117
55 84 111
55 84 115
54 83 105
56 86 123
55 84 115
56 86 127
53 81 108
52 79 104
54 83 117
52 79 110
53 81 113
51 78 107
50 76 104
50 76 94
48 72 89
49 73 90
48 72 92
47 71 88
48 72 95
44 66 88
46 68 82
64 70 35
88 90 44
90 92 43
104 104 40
108 106 43
114 113 42
111 110 37
122 120 43
122 119 38
123 121 43
132 129 40
132 130 41
138 136 42
131 129 34
137 132 36
104 88 16
95 74 16
90 69 9
88 71 5
89 71 7
89 71 14
89 69 12
98 76 12
99 83 13
95 77 15
94 74 2
92 71 7
94 73 15
104 82 9
94 75 7
93 74 9
99 80 10
94 77 6
87 65 6
100 78 7
93 74 11
107 91 17
99 76 8
95 75 10
94 75 9
104 86 12
100 78 14
104 83 9
94 74 9
103 85 11
89 69 2
106 88 8
102 85 10
100 83 11
103 88 11
109 90 7
111 91 15
102 81 9
109 87 9
101 81 13
104 86 11
112 90 6
99 77 12
93 74 12
108 86 10
100 81 7
111 88 11
107 85 7
108 92 14
105 83 9
104 82 3
102 84 9
104 83 12
107 87 7
111 93 11
99 80 11
102 83 14
110 93 15
109 89 20
99 77 9
103 82 10
99 80 6
104 83 9
101 80 10
106 87 10
106 84 8
100 78 9
101 83 8
108 87 13
104 83 12
98 74 8
103 82 9
105 85 16
94 74 9
98 78 9
95 78 7
106 84 9
107 85 12
104 80 9
103 82 14
105 86 14
102 82 8
95 78 9
99 78 11
91 72 1
103 83 10
100 83 9
97 79 18
100 85 17
102 86 10
106 86 16
100 82 12
93 73 8
94 73 11
96 78 12
94 75 9
87 72 10
90 71 14
91 72 8
95 76 19
91 71 11
93 75 18
95 73 11
87 65 9
95 73 10
94 74 15
90 69 10
94 73 10
92 74 10
87 70 14
95 73 12
84 61 10
94 76 15
89 74 14
80 61 13
98 78 15
87 68 13
86 69 12
84 65 21
86 63 7
90 73 17
79 60 8
82 65 8
87 66 13
89 71 14
82 66 9
77 62 21
80 67 11
75 62 18
85 70 14
136 133 28
135 130 42
152 168 0
173 195 0
168 189 0
170 193 0
168 191 0
169 190 0
172 195 0
171 192 0
169 191 0
171 194 0
170 193 0
170 192 0
171 193 0
167 189 0
169 191 0
169 193 0
172 193 0
172 195 0
172 196 0
171 194 0
172 194 0
172 195 0
170 193 0
168 192 0
172 195 0
174 196 0
171 194 0
170 193 0
173 195 0
171 194 0
173 195 0
171 194 0
172 195 0
170 193 0
171 195 0
168 190 0
172 195 0
170 194 0
172 194 0
171 194 0
172 195 0
170 194 0
169 192 0
170 193 0
170 192 0
169 192 0
169 193 0
171 194 0
170 194 0
170 194 0
170 193 0
168 190 0
169 193 0
169 191 0
169 192 0
170 193 0
171 193 0
168 192 0
168 191 0
166 190 0
168 190 0
170 193 0
166 190 0
168 191 0
169 191 0
169 192 0
169 192 0
170 192 0
171 193 0
169 192 0
169 192 0
169 191 0
168 191 0
166 189 0
168 190 0
166 189 0
168 190 0
168 191 0
168 191 0
167 190 0
169 191 0
169 191 0
171 193 0
168 190 0
168 190 0
163 186 0
165 188 0
168 190 0
167 189 0
164 186 0
165 187 0
162 185 0
167 190 0
167 189 0
167 189 0
166 188 0
167 188 0
165 187 0
165 187 0
165 187 0
165 188 0
166 188 0
166 188 0
165 187 0
166 187 0
165 187 0
161 183 0
163 185 0
162 184 0
159 181 0
159 180 39
151 170 45
146 165 0
148 167 0
144 164 0
149 168 0
146 165 0
149 168 0
146 165 0
147 167 0
145 164 0
145 165 0
148 168 0
150 169 0
147 167 0
149 169 0
146 167 0
147 168 0
149 169 0
151 170 0
148 167 0
148 168 0
146 167 0
145 166 0
150 170 0
146 167 0
149 168 0
146 166 0
148 167 0
116 133 0
94 110 0
98 115 0
97 113 0
100 115 0
102 116 0
84 99 0
88 103 0
81 95 0
94 108 0
91 104 0
98 113 0
97 111 0
83 97 0
96 111 0
98 113 0
84 99 0
91 105 0
83 97 0
93 106 0
90 104 0
96 109 0
91 105 0
85 99 0
87 101 0
80 93 0
93 108 0
94 107 0
79 101 84
58 91 120
56 90 114
58 92 110
59 93 125
59 94 133
60 94 131
60 94 125
58 93 121
59 94 126
60 95 140
60 95 135
59 93 128
59 94 137
57 90 128
59 93 134
59 93 124
58 93 134
59 94 139
59 94 131
60 95 135
59 93 136
59 94 132
60 95 142
60 95 149
58 92 131
58 92 131
60 95 141
57 91 124
58 91 122
60 94 136
59 93 135
59 93 137
60 94 147
58 91 121
59 93 138
59 93 132
59 92 133
58 91 135
60 93 137
58 92 131
59 92 133
58 93 129
59 93 136
57 90 126
60 95 147
57 89 126
58 91 132
58 91 131
59 93 135
59 92 130
59 92 136
57 89 123
57 88 115
58 90 133
58 91 137
57 89 119
59 91 134
57 88 118
58 89 132
57 89 129
56 87 123
58 90 121
56 88 124
55 85 117
57 86 123
54 84 118
54 82 103
54 84 107
56 85 119
54 81 98
55 83 116
51 77 99
53 80 108
53 80 107
52 77 88
53 80 113
51 77 98
48 73 91
50 76 104
49 75 103
48 71 87
45 67 84
50 74 95
46 67 91
45 66 77
64 68 41
80 81 30
104 104 46
109 109 38
103 101 49
122 119 49
121 120 43
116 116 32
123 121 33
132 129 48
125 123 32
128 125 37
136 133 34
138 135 41
134 130 39
136 132 39
122 112 31
93 71 14
85 67 8
90 75 5
83 64 7
93 75 8
90 70 4
96 79 12
93 73 11
92 75 8
98 76 6
94 77 5
96 79 6
101 82 14
99 80 11
95 76 6
102 81 11
96 77 8
97 80 6
98 77 9
103 83 9
97 80 7
94 74 10
104 85 8
103 85 7
103 82 12
103 85 11
102 81 5
107 85 11
96 76 7
103 85 16
105 85 9
95 75 5
108 89 9
102 83 11
104 86 10
101 82 9
102 78 12
105 87 7
107 86 10
99 79 10
102 83 8
99 82 9
107 88 16
97 79 7
101 82 7
107 88 8
101 81 10
104 86 7
110 90 13
105 88 13
107 86 6
105 83 12
98 82 9
104 84 11
111 93 9
108 88 10
111 92 13
114 94 8
106 84 10
104 83 6
109 88 9
108 87 10
114 93 16
111 91 10
102 84 10
107 84 14
109 91 15
107 89 17
104 83 14
108 87 10
98 75 8
103 81 10
101 83 6
110 90 15
105 85 11
92 72 4
110 89 13
107 88 5
101 82 14
100 80 6
105 88 15
96 78 5
96 78 9
100 79 8
97 77 9
92 76 13
105 85 15
97 78 14
100 77 11
99 78 9
100 78 11
96 79 9
99 77 18
91 71 9
96 74 12
103 82 13
92 72 8
94 74 9
98 77 18
90 71 12
99 79 10
84 65 13
91 71 10
98 78 16
88 67 15
92 75 14
94 72 11
97 80 20
84 63 6
88 68 9
82 63 8
88 67 19
82 62 15
97 76 20
85 67 17
91 73 17
81 63 15
85 66 18
78 62 6
78 61 7
74 58 6
84 64 14
73 54 8
70 54 13
68 50 10
75 57 8
66 55 8
129 123 32
131 128 34
112 110 16
165 187 0
169 192 0
168 191 0
168 191 0
169 191 0
173 195 0
169 192 0
170 191 0
174 195 0
172 194 0
169 191 0
172 195 0
172 195 0
168 192 0
169 192 0
167 188 0
170 193 0
171 193 0
173 195 0
172 195 0
171 192 0
169 192 0
170 192 0
171 193 0
171 195 0
169 193 0
169 192 0
171 195 0
173 195 0
172 195 0
170 193 0
172 195 0
171 195 0
170 194 0
170 193 0
172 196 0
172 195 0
172 194 0
171 194 0
170 194 0
171 193 0
170 194 0
168 192 0
170 193 0
171 193 0
170 193 0
171 194 0
168 191 0
172 195 0
171 194 0
170 194 0
172 194 0
170 193 0
170 193 0
170 192 0
169 192 0
169 192 0
169 192 0
170 193 0
168 191 0
168 191 0
167 190 0
170 193 0
171 193 0
170 193 0
168 192 0
168 191 0
168 191 0
169 191 0
169 191 0
167 189 0
166 189 0
167 189 0
165 188 0
166 189 0
167 190 0
167 190 0
168 192 0
168 190 0
167 190 0
167 189 0
168 190 0
166 188 0
167 190 0
163 187 0
167 190 0
168 190 0
170 192 0
167 190 0
164 186 0
166 189 0
166 188 0
166 188 0
164 186 0
166 188 0
167 189 0
164 187 0
166 188 0
162 185 0
163 186 0
166 188 0
166 187 0
165 186 0
166 187 0
167 189 0
168 190 0
166 188 0
165 187 0
164 186 0
160 181 0
164 185 0
160 181 22
156 175 51
149 169 0
146 166 0
147 166 0
149 169 0
145 164 0
147 167 0
146 166 0
147 167 0
146 166 0
146 165 0
148 168 0
149 169 0
148 168 0
147 167 0
148 167 0
148 167 0
146 166 0
147 168 0
148 169 0
147 167 0
148 168 0
149 169 0
147 167 0
149 169 0
147 167 0
149 170 0
120 137 0
100 115 0
94 110 0
97 112 0
99 115 0
95 110 0
85 101 0
102 117 0
114 130 0
100 116 0
95 110 0
83 99 0
96 111 0
98 114 0
94 109 0
82 97 0
93 109 0
100 116 0
88 102 0
74 87 0
87 102 0
97 112 0
85 98 0
91 104 0
91 104 0
93 106 0
94 109 0
92 106 0
83 96 0
56 87 103
58 92 121
58 91 118
58 92 113
58 92 120
59 93 125
58 92 125
58 92 129
59 94 130
59 93 128
60 95 141
59 94 131
58 92 125
59 94 131
58 92 126
59 94 126
59 93 126
59 94 133
59 94 132
59 93 134
60 95 142
60 95 141
60 95 137
58 92 125
59 94 133
60 95 135
60 94 137
59 94 135
60 95 142
61 96 146
59 93 138
61 95 140
60 94 138
59 93 138
59 93 135
58 92 131
59 92 129
59 93 139
59 93 135
59 93 133
58 91 134
59 92 131
58 92 136
59 93 140
59 92 141
58 90 122
58 92 134
57 90 131
58 90 133
59 92 137
57 90 134
59 92 139
58 89 126
57 89 128
58 90 134
58 90 128
58 90 125
57 88 120
58 90 126
57 88 118
57 89 131
57 87 122
57 88 125
55 85 122
55 85 119
56 87 125
55 85 124
55 84 121
52 79 103
51 77 104
53 81 104
53 80 111
52 80 112
49 76 100
51 77 104
53 79 101
51 76 97
51 77 98
49 74 94
48 72 88
45 68 82
44 66 84
49 73 96
49 73 100
43 65 78
60 64 34
91 93 39
100 100 42
108 107 40
99 99 39
112 112 44
121 119 46
118 116 47
124 123 45
124 122 39
129 127 38
127 125 27
129 126 36
130 126 37
132 129 37
132 128 25
134 130 45
127 121 33
94 73 8
94 73 6
95 79 7
92 74 9
89 70 6
101 83 12
97 77 12
91 74 10
98 80 8
88 71 9
97 79 13
95 78 13
94 74 8
99 80 7
96 80 7
94 74 9
94 73 7
100 81 16
96 74 8
99 82 8
97 76 11
102 79 10
95 79 10
102 86 8
110 91 19
99 81 6
100 80 10
108 90 7
101 83 9
106 85 18
108 90 15
102 82 4
102 84 7
107 85 12
97 78 6
100 77 9
105 88 10
108 88 9
102 84 6
103 84 8
103 87 9
99 80 11
109 90 12
100 82 6
112 93 12
107 89 11
104 85 9
105 84 15
98 80 12
104 84 17
102 81 11
102 83 8
101 84 9
109 91 8
96 76 14
113 95 11
112 90 9
106 91 14
107 85 6
110 90 8
104 83 11
105 86 10
103 83 15
108 87 11
104 85 15
101 81 8
101 77 3
110 90 6
101 82 16
101 84 8
103 85 7
108 87 9
109 93 10
103 84 8
103 85 16
102 83 11
103 88 12
105 85 9
101 83 10
108 91 9
105 86 5
96 78 15
98 80 9
98 78 7
96 75 10
99 78 9
97 77 8
99 79 7
94 75 7
94 74 9
97 76 16
96 77 17
101 81 10
93 72 7
90 74 9
98 74 7
99 78 8
84 64 9
88 68 10
91 73 10
92 71 5
88 71 9
102 82 18
91 72 14
95 73 17
83 61 10
92 70 12
86 66 10
89 72 13
92 73 17
91 70 9
94 76 14
86 65 19
88 66 13
84 65 9
88 66 11
87 69 9
85 66 19
83 64 15
87 67 12
78 61 10
74 55 14
80 63 19
73 55 10
81 63 19
114 108 28
124 120 30
124 121 25
122 120 22
173 196 0
169 192 0
168 190 0
169 192 0
169 190 0
168 190 0
170 192 0
167 188 0
168 191 0
172 194 0
167 190 0
169 192 0
167 189 0
173 196 0
169 191 0
169 192 0
168 192 0
170 192 0
170 194 0
168 191 0
170 193 0
171 194 0
172 195 0
170 194 0
170 194 0
171 195 0
171 194 0
172 195 0
172 195 0
172 195 0
173 196 0
169 192 0
170 194 0
172 195 0
171 194 0
172 196 0
171 195 0
169 192 0
169 192 0
170 193 0
170 193 0
170 192 0
170 193 0
168 192 0
170 193 0
170 194 0
172 194 0
170 192 0
168 192 0
168 191 0
172 194 0
171 194 0
167 191 0
170 193 0
168 191 0
171 193 0
171 194 0
170 193 0
168 191 0
168 191 0
169 192 0
169 192 0
171 194 0
169 192 0
168 191 0
169 191 0
168 191 0
170 192 0
168 190 0
168 190 0
165 188 0
168 192 0
168 191 0
168 191 0
169 191 0
169 192 0
169 192 0
170 193 0
165 187 0
168 191 0
169 191 0
169 191 0
169 191 0
164 187 0
170 192 0
169 191 0
167 190 0
165 187 0
168 190 0
169 191 0
167 189 0
167 190 0
165 187 0
165 187 0
162 185 0
166 188 0
169 190 0
164 185 0
165 188 0
164 185 0
166 188 0
166 188 0
163 184 0
164 186 0
167 189 0
165 187 0
166 188 0
163 185 0
164 186 0
164 185 0
168 190 0
158 180 0
161 183 22
163 183 60
152 170 51
146 166 0
147 167 0
147 167 0
146 166 0
149 169 0
145 165 0
147 167 0
147 166 0
149 169 0
149 169 0
148 169 0
147 168 0
147 167 0
146 165 0
145 165 0
146 166 0
147 166 0
150 170 0
148 168 0
148 168 0
144 164 0
149 169 0
146 166 0
146 165 0
129 148 0
109 126 0
103 119 0
99 116 0
97 114 0
100 115 0
99 114 0
92 107 0
103 119 0
104 120 0
99 115 0
96 111 0
96 111 0
90 105 0
95 111 0
95 110 0
90 105 0
80 93 0
92 108 0
86 102 0
93 108 0
79 93 0
91 104 0
91 105 0
88 102 0
92 107 0
88 102 0
86 99 0
90 104 0
67 90 90
57 90 115
59 93 118
59 92 118
57 90 103
58 92 117
58 92 121
59 93 120
58 92 122
58 92 118
58 92 118
58 92 126
58 92 125
59 93 128
59 94 135
60 94 135
60 95 136
59 94 135
59 93 129
59 93 135
59 94 139
59 93 132
58 93 134
58 91 124
59 94 129
59 93 135
59 93 126
59 93 130
59 94 132
59 93 128
60 94 138
59 93 136
59 94 131
59 92 131
59 93 130
59 92 123
59 94 138
60 93 136
59 93 136
58 91 131
57 91 136
59 93 136
59 92 138
59 92 133
59 92 136
59 93 132
60 94 138
59 92 132
58 91 134
56 89 120
61 94 145
58 92 135
59 91 135
57 89 133
57 89 129
58 90 127
58 89 129
55 84 111
57 89 129
56 87 128
57 89 128
57 89 124
56 86 119
54 83 104
55 85 115
53 82 118
57 87 130
54 84 120
54 83 118
52 80 106
54 82 108
50 76 96
52 79 102
50 74 99
51 76 95
53 79 102
49 73 91
51 77 96
49 74 98
45 68 80
47 71 83
49 73 98
47 71 92
45 66 67
43 62 80
79 79 27
75 80 38
83 87 44
93 94 40
108 107 39
115 113 42
118 116 42
133 130 43
121 118 41
126 123 40
132 130 39
129 126 36
137 134 48
128 126 40
136 134 29
138 134 36
143 141 28
144 139 40
140 135 35
113 100 6
94 79 6
89 70 11
98 81 20
105 87 13
92 74 5
91 74 9
94 73 6
94 73 12
98 81 10
97 80 10
102 85 8
103 83 8
91 75 13
87 70 8
91 70 6
101 81 10
104 84 10
97 78 8
102 79 9
102 79 8
104 85 9
99 83 8
101 82 9
103 83 8
104 81 10
109 91 10
98 79 4
100 82 12
103 84 11
110 90 16
98 79 13
95 77 6
112 93 12
101 82 7
107 88 9
105 87 6
102 80 7
100 82 8
105 87 6
111 93 11
109 92 9
107 87 10
104 85 9
97 79 7
104 87 14
106 87 9
106 87 13
102 81 12
100 82 8
110 88 15
107 89 17
102 82 11
102 82 10
102 81 12
103 83 10
102 83 9
110 91 15
109 90 6
102 80 7
105 83 10
112 94 12
108 90 11
106 88 8
101 84 11
109 88 6
104 85 9
101 78 4
95 76 3
110 87 7
100 85 14
93 75 6
103 83 14
101 81 11
98 82 8
99 79 15
98 78 12
104 83 15
108 87 11
99 78 14
102 82 12
108 86 7
103 82 10
104 85 16
101 80 17
102 82 16
97 77 15
105 84 12
102 85 15
98 77 12
95 78 8
99 80 10
95 75 9
92 74 15
100 81 14
101 80 12
96 80 15
96 77 10
94 76 11
96 79 11
90 72 14
81 64 5
93 76 4
95 76 11
101 84 22
92 70 6
89 72 13
86 69 15
87 64 13
91 72 8
92 71 9
88 69 16
86 68 7
75 58 9
77 60 9
88 70 14
81 65 13
88 69 20
76 60 15
75 57 14
82 63 12
80 63 11
71 52 12
109 99 12
133 129 34
127 124 32
114 110 16
134 141 22
168 191 0
171 193 0
170 192 0
168 189 0
172 195 0
167 190 0
170 192 0
169 191 0
168 190 0
169 191 0
170 192 0
165 188 0
167 189 0
168 191 0
169 192 0
168 192 0
168 192 0
170 192 0
172 195 0
166 189 0
171 193 0
168 192 0
168 191 0
171 193 0
170 193 0
171 195 0
171 194 0
171 195 0
172 195 0
171 194 0
171 194 0
170 193 0
171 193 0
172 195 0
172 195 0
168 191 0
171 194 0
170 194 0
170 193 0
170 193 0
168 191 0
169 191 0
171 193 0
171 193 0
172 195 0
170 193 0
169 192 0
170 193 0
170 193 0
171 194 0
170 193 0
172 194 0
172 194 0
168 191 0
168 191 0
171 193 0
168 192 0
169 192 0
169 192 0
167 190 0
169 192 0
169 192 0
170 193 0
169 192 0
169 192 0
167 189 0
169 191 0
168 192 0
168 190 0
170 192 0
167 190 0
167 191 0
166 189 0
169 191 0
168 190 0
167 190 0
165 188 0
168 190 0
168 191 0
169 191 0
167 190 0
166 187 0
167 190 0
166 189 0
164 186 0
167 189 0
166 190 0
169 191 0
165 188 0
168 190 0
169 191 0
168 190 0
167 190 0
167 189 0
169 190 0
165 186 0
168 190 0
166 188 0
164 187 0
166 188 0
168 191 0
165 187 0
164 186 0
166 188 0
165 186 0
163 185 0
163 185 0
162 184 0
165 187 0
166 187 0
167 189 0
166 188 0
162 185 0
163 185 0
163 184 39
152 171 32
143 163 0
144 163 0
148 167 0
146 167 0
147 167 0
148 167 0
147 167 0
147 167 0
148 168 0
142 162 0
147 168 0
149 169 0
147 166 0
148 168 0
148 168 0
147 167 0
146 167 0
148 168 0
148 168 0
151 170 0
149 169 0
148 169 0
146 167 0
135 154 0
105 121 0
103 120 0
98 113 0
102 117 0
97 113 0
91 107 0
105 122 0
101 118 0
96 111 0
95 109 0
97 113 0
94 109 0
86 101 0
105 121 0
87 101 0
98 114 0
95 109 0
90 105 0
88 103 0
98 113 0
89 103 0
97 112 0
93 108 0
87 100 0
88 102 0
91 105 0
89 103 0
90 104 0
76 91 18
59 90 124
57 91 113
56 89 108
59 92 126
57 92 121
58 92 124
59 93 124
59 94 129
59 94 135
58 92 125
60 95 137
58 92 122
58 92 121
59 94 136
58 93 134
58 93 125
59 94 136
59 94 133
60 94 128
59 94 140
59 94 134
57 91 120
59 94 137
59 94 130
59 92 121
61 96 143
59 94 133
59 93 134
60 94 142
58 92 128
58 92 129
59 94 140
59 94 138
60 94 139
58 93 130
58 92 137
58 91 126
59 93 138
59 93 131
58 91 119
58 92 125
60 95 138
59 92 135
59 92 129
59 92 130
59 92 136
58 90 124
59 91 121
57 90 126
58 92 134
59 92 130
58 90 118
56 87 120
58 91 133
56 86 114
56 87 123
57 87 116
57 89 125
58 90 121
56 86 126
57 88 118
55 85 110
54 84 117
55 84 115
55 83 113
53 81 109
54 82 102
53 82 107
54 83 112
52 78 104
52 79 102
53 81 112
52 79 104
50 77 105
53 79 102
49 74 93
48 73 92
45 69 94
46 70 90
48 73 96
49 73 93
51 76 101
43 65 80
48 62 57
66 70 34
91 91 34
95 95 33
93 93 43
115 113 38
111 110 37
113 111 36
116 116 40
119 117 30
126 124 45
133 130 35
136 132 36
141 137 44
137 133 42
134 131 33
142 138 37
139 136 34
145 139 44
148 143 47
146 141 41
124 115 25
101 84 15
103 86 8
101 83 11
94 76 8
98 77 9
92 73 7
95 78 11
95 75 7
97 80 11
99 78 7
91 74 5
91 71 6
95 75 8
99 80 7
99 79 11
105 83 10
96 75 8
99 81 8
101 80 15
100 79 10
103 83 12
101 81 13
103 87 9
103 84 17
92 73 8
108 86 9
101 81 5
102 83 12
111 91 7
99 77 9
101 86 11
110 87 9
105 88 9
105 86 5
108 89 16
105 86 8
104 84 8
112 91 12
105 86 4
106 86 6
105 86 15
111 92 7
102 84 12
105 85 7
108 89 11
100 81 10
104 82 10
105 88 12
95 78 5
111 92 10
91 71 6
107 88 7
102 84 10
106 86 6
111 92 8
99 82 5
106 87 16
101 83 3
99 79 9
111 93 11
109 91 10
103 84 7
104 84 14
103 80 11
109 87 13
102 81 8
99 77 6
100 77 10
105 86 6
103 87 8
102 84 12
107 86 10
99 79 11
97 79 7
99 82 9
105 85 13
96 77 7
105 84 7
98 79 18
105 86 7
99 78 8
93 75 6
102 86 6
93 75 7
98 78 5
89 69 9
103 83 6
97 77 17
98 80 11
96 78 9
105 84 15
98 81 8
94 77 6
94 72 16
105 82 11
100 78 10
98 79 13
87 67 11
99 79 11
91 70 7
94 74 11
89 71 13
90 71 15
88 71 12
86 70 13
88 67 10
87 66 9
94 75 23
80 60 13
81 64 13
91 74 14
75 58 9
91 71 7
87 68 14
80 62 6
79 60 9
68 51 10
71 52 10
89 72 14
73 56 17
108 99 24
125 121 30
126 123 28
133 127 34
124 120 30
145 156 22
170 191 0
169 192 0
170 192 0
168 192 0
171 193 0
172 192 0
171 193 0
166 188 0
165 187 0
167 189 0
173 196 0
165 188 0
170 192 0
168 191 0
169 190 0
173 195 0
167 188 0
172 195 0
172 194 0
169 193 0
170 192 0
169 191 0
169 191 0
170 193 0
172 195 0
172 195 0
171 194 0
173 196 0
172 195 0
171 194 0
173 196 0
169 193 0
169 193 0
173 195 0
171 195 0
171 194 0
171 193 0
169 191 0
171 193 0
171 195 0
169 192 0
170 194 0
170 193 0
172 195 0
171 194 0
170 194 0
169 193 0
169 191 0
169 192 0
168 191 0
170 194 0
168 191 0
170 192 0
170 191 0
170 193 0
168 191 0
171 194 0
168 191 0
168 191 0
169 192 0
169 192 0
168 192 0
168 191 0
168 191 0
169 192 0
167 191 0
164 187 0
168 191 0
170 193 0
166 189 0
167 191 0
168 191 0
170 192 0
167 190 0
170 193 0
166 189 0
169 192 0
167 189 0
168 191 0
166 188 0
170 193 0
167 190 0
166 188 0
167 190 0
170 193 0
165 188 0
164 187 0
166 189 0
165 188 0
164 187 0
166 190 0
170 192 0
168 191 0
166 189 0
168 191 0
165 188 0
168 190 0
165 188 0
166 189 0
167 188 0
165 187 0
166 188 0
167 190 0
165 187 0
165 187 0
166 188 0
166 187 0
165 187 0
168 189 0
165 187 0
162 185 0
165 188 0
168 189 0
167 189 0
164 187 0
162 184 0
154 173 45
145 164 0
145 164 0
144 164 0
143 164 0
148 168 0
144 164 0
148 168 0
149 168 0
144 164 0
147 167 0
147 167 0
146 166 0
147 167 0
149 168 0
145 166 0
147 166 0
147 168 0
146 165 0
150 170 0
145 165 0
149 168 0
147 166 0
136 155 0
111 127 0
95 111 0
101 117 0
105 121 0
96 111 0
108 125 0
94 111 0
101 117 0
95 110 0
91 107 0
98 114 0
91 107 0
106 123 0
104 120 0
106 121 0
105 122 0
96 111 0
89 104 0
91 106 0
101 116 0
98 113 0
98 113 0
85 99 0
95 109 0
101 116 0
82 98 0
87 101 0
96 110 0
80 93 0
74 95 67
55 88 107
58 91 121
57 91 115
57 91 113
58 92 113
58 93 124
59 93 126
59 93 128
58 92 122
58 91 118
58 92 121
58 93 121
59 93 131
60 94 137
58 93 121
60 94 134
59 93 134
59 94 136
58 91 125
59 93 129
59 93 132
59 94 128
58 92 131
60 95 135
59 93 127
58 93 135
59 93 136
58 93 129
58 92 128
59 93 127
60 94 130
58 92 114
59 93 138
58 92 135
59 93 130
56 89 130
59 92 128
58 91 134
59 93 141
59 93 131
58 91 129
58 91 128
58 92 127
59 92 134
58 90 126
57 88 119
60 94 141
59 92 134
58 90 134
58 91 126
57 89 128
58 91 126
58 88 124
57 90 125
57 88 124
58 90 132
55 86 110
56 87 117
56 86 118
56 87 124
56 85 119
54 83 106
55 85 117
55 84 111
54 83 114
54 83 107
54 83 118
54 81 111
53 80 101
52 78 102
55 84 112
52 79 98
52 79 111
50 75 100
48 73 100
50 75 86
51 76 95
50 76 104
49 74 97
45 69 78
45 66 74
44 65 74
43 59 64
73 73 36
82 85 29
82 84 39
96 96 36
104 103 44
116 114 42
117 115 38
113 112 36
109 108 31
130 126 37
133 129 44
129 126 41
136 133 42
135 131 43
140 136 39
131 129 28
139 135 33
140 136 42
149 145 37
144 141 42
152 149 36
145 140 40
102 88 9
86 69 8
92 73 7
90 69 6
103 85 9
100 78 8
91 73 6
97 76 9
95 77 10
105 85 11
100 80 12
100 82 14
104 85 12
100 82 6
106 87 9
107 89 14
106 89 9
89 69 6
105 85 7
98 77 7
99 83 6
99 77 8
100 83 5
109 89 12
108 87 10
98 79 8
102 83 10
103 83 8
98 77 6
103 85 9
99 80 6
107 90 9
109 88 14
105 89 5
100 81 5
109 91 10
105 84 11
111 93 9
104 86 6
110 92 10
105 87 9
98 79 13
101 79 3
103 80 8
99 86 7
111 91 14
103 87 9
99 79 8
111 93 12
112 93 10
109 90 11
103 83 7
100 81 8
108 91 11
107 88 11
107 88 9
112 93 9
105 84 8
100 80 8
104 83 7
110 91 11
101 81 14
103 83 9
100 82 20
104 85 14
97 77 14
105 84 9
107 89 13
103 80 7
104 87 11
104 85 10
110 91 12
98 76 12
102 84 15
95 79 9
97 75 13
108 91 8
96 76 10
101 84 8
90 70 7
99 77 10
100 79 13
100 80 11
103 83 13
110 89 11
96 79 5
95 75 4
94 74 8
97 77 13
97 77 13
94 79 14
95 76 6
98 77 16
89 71 12
95 78 11
93 74 15
98 79 10
91 70 11
99 78 10
86 66 10
95 76 15
91 74 10
95 76 15
93 73 12
77 58 7
96 76 11
90 70 14
80 65 10
91 74 14
90 72 17
94 74 10
86 67 10
90 73 8
72 57 5
84 66 12
83 62 13
74 58 11
76 58 7
107 99 23
139 133 42
136 132 32
125 122 22
126 121 30
128 124 37
153 169 11
170 192 0
169 191 0
170 193 0
171 193 0
168 192 0
169 190 0
172 194 0
167 190 0
171 193 0
172 195 0
170 193 0
172 194 0
169 192 0
172 195 0
171 192 0
171 194 0
170 192 0
171 193 0
172 194 0
172 195 0
170 191 0
173 195 0
170 191 0
171 194 0
173 195 0
171 194 0
173 196 0
171 194 0
171 195 0
172 195 0
171 194 0
170 194 0
171 194 0
169 193 0
170 193 0
169 193 0
170 192 0
170 193 0
169 193 0
169 193 0
171 193 0
170 193 0
170 194 0
171 194 0
169 191 0
170 193 0
172 195 0
171 194 0
170 193 0
172 194 0
170 193 0
168 191 0
170 193 0
169 193 0
168 192 0
171 194 0
169 192 0
165 189 0
169 192 0
167 191 0
171 194 0
169 192 0
168 192 0
169 192 0
167 191 0
169 191 0
166 188 0
166 189 0
168 191 0
169 191 0
169 191 0
167 190 0
168 191 0
166 188 0
169 191 0
167 190 0
165 188 0
169 191 0
170 193 0
168 190 0
167 189 0
168 191 0
165 188 0
168 191 0
167 189 0
167 189 0
168 191 0
166 189 0
164 188 0
166 189 0
167 191 0
169 192 0
168 190 0
168 191 0
165 187 0
167 189 0
168 190 0
165 187 0
169 191 0
164 187 0
166 188 0
165 187 0
163 186 0
166 189 0
165 187 0
165 188 0
164 187 0
166 188 0
165 188 0
165 187 0
164 185 0
166 188 0
163 185 0
165 187 0
162 183 0
166 188 0
165 187 0
157 179 22
149 169 45
145 165 0
147 166 0
148 168 0
146 166 0
146 166 0
148 167 0
149 169 0
143 163 0
149 169 0
148 168 0
149 169 0
146 166 0
148 169 0
147 167 0
148 167 0
144 164 0
147 168 0
147 167 0
144 164 0
147 166 0
140 159 0
101 119 0
95 111 0
100 115 0
109 126 0
96 112 0
100 117 0
103 120 0
109 125 0
99 115 0
93 108 0
102 119 0
103 120 0
104 120 0
100 117 0
99 114 0
103 118 0
94 110 0
91 107 0
90 105 0
96 111 0
100 115 0
101 116 0
91 105 0
95 110 0
92 106 0
93 107 0
101 115 0
94 108 0
96 110 0
87 100 29
65 95 106
56 89 100
57 91 117
57 91 107
57 89 113
58 92 124
58 91 115
58 93 124
58 92 120
57 90 118
59 94 125
59 94 137
58 91 121
58 93 121
59 93 124
56 90 118
59 94 133
60 95 133
58 92 125
59 93 125
59 93 133
59 94 129
59 93 135
59 93 133
59 93 117
58 92 124
58 92 129
60 94 130
59 94 129
59 94 139
59 93 135
58 92 136
59 93 130
59 93 137
59 93 132
58 93 132
59 93 126
58 92 129
59 93 139
58 92 132
57 89 127
59 92 136
58 92 133
58 90 123
58 91 128
58 91 135
57 89 129
57 91 122
57 89 126
58 91 129
58 89 127
57 89 126
56 87 122
56 88 126
56 87 117
55 85 113
57 89 133
56 86 117
56 88 117
56 86 118
54 84 119
55 86 113
55 84 112
55 85 115
56 86 116
55 85 122
55 84 110
54 82 110
51 78 109
54 82 114
53 80 105
50 75 100
51 77 108
51 79 110
49 74 99
49 73 94
50 75 98
50 76 95
48 71 90
45 67 89
44 67 81
42 62 79
47 62 60
70 72 29
79 81 38
89 91 40
96 97 34
109 107 42
114 113 37
119 116 45
118 116 43
127 125 33
129 127 39
128 125 37
134 131 33
138 135 37
137 133 41
128 124 30
135 132 38
138 135 39
141 138 30
139 136 37
144 140 36
145 140 36
138 134 25
144 141 25
127 117 34
96 83 6
93 74 4
93 74 13
99 81 9
96 74 10
103 85 11
90 71 3
95 77 8
101 82 9
96 76 11
98 80 6
97 78 6
96 79 6
97 79 9
101 83 13
100 81 9
89 72 5
101 83 10
101 82 11
100 80 7
104 85 11
101 82 5
94 76 4
99 78 13
101 82 9
101 81 8
98 77 8
99 79 10
104 86 15
100 83 7
100 79 15
96 74 7
110 91 18
103 83 8
99 81 13
110 90 10
99 80 7
102 83 9
105 87 9
97 77 7
111 92 8
113 95 10
109 91 10
109 86 15
107 88 12
103 84 8
100 82 8
112 93 10
111 90 15
101 80 5
95 77 4
100 81 6
108 90 9
106 88 12
107 85 10
103 84 8
102 82 10
110 91 3
109 90 9
104 84 8
101 82 14
102 83 10
101 83 8
94 76 10
106 87 11
105 90 10
102 85 13
107 86 14
110 90 15
99 81 12
100 78 10
102 82 12
102 82 12
104 87 9
105 84 12
102 82 6
105 86 10
97 77 12
98 78 8
99 78 9
102 81 8
103 81 12
100 80 10
93 76 12
100 81 7
99 80 7
94 79 18
97 76 11
98 74 6
94 75 6
100 80 12
100 82 11
92 74 8
106 85 15
97 77 6
91 74 7
90 72 16
88 70 11
95 77 18
91 70 13
90 69 6
85 66 8
96 75 17
88 68 15
84 66 11
87 66 15
96 78 11
78 57 9
79 61 6
76 61 9
90 70 12
86 68 18
81 63 9
71 52 11
76 59 9
114 107 32
133 129 34
130 127 30
133 129 25
127 123 30
121 118 19
118 115 22
165 185 0
168 189 0
169 191 0
171 193 0
168 190 0
164 187 0
168 190 0
169 191 0
168 190 0
172 192 0
172 193 0
170 193 0
168 189 0
169 190 0
166 189 0
172 194 0
171 193 0
169 192 0
170 193 0
171 193 0
171 192 0
167 190 0
171 193 0
172 193 0
168 190 0
173 195 0
174 197 0
171 194 0
171 195 0
169 193 0
172 196 0
171 192 0
173 196 0
172 195 0
171 195 0
172 195 0
169 192 0
172 194 0
171 195 0
170 193 0
171 194 0
171 193 0
170 193 0
167 191 0
168 192 0
170 193 0
171 194 0
172 195 0
170 193 0
171 194 0
169 192 0
170 194 0
172 194 0
169 193 0
169 193 0
171 194 0
169 192 0
171 194 0
169 192 0
170 192 0
170 192 0
170 192 0
169 192 0
168 190 0
168 190 0
169 192 0
170 193 0
170 192 0
169 192 0
169 191 0
169 192 0
168 190 0
170 193 0
170 191 0
170 193 0
171 193 0
168 190 0
170 192 0
167 189 0
169 192 0
168 191 0
169 191 0
167 189 0
166 189 0
169 192 0
167 190 0
168 190 0
167 190 0
170 192 0
167 189 0
169 192 0
165 187 0
167 190 0
164 187 0
166 188 0
166 188 0
168 190 0
168 191 0
167 188 0
166 189 0
164 187 0
164 186 0
166 189 0
166 187 0
165 188 0
168 190 0
166 188 0
163 184 0
166 188 0
167 189 0
167 189 0
165 186 0
169 191 0
166 187 0
163 185 0
165 188 0
163 186 0
164 185 0
163 185 0
156 178 0
151 170 45
146 167 0
148 168 0
144 163 0
146 166 0
146 166 0
144 164 0
146 166 0
147 167 0
148 168 0
146 166 0
146 165 0
147 167 0
148 166 0
146 167 0
146 165 0
147 167 0
150 170 0
147 167 0
148 168 0
146 166 0
92 107 0
107 123 0
97 113 0
103 120 0
106 121 0
104 119 0
111 127 0
99 115 0
99 116 0
110 126 0
98 114 0
104 121 0
107 123 0
104 121 0
75 89 0
97 112 0
88 103 0
98 114 0
98 114 0
94 109 0
101 117 0
92 107 0
90 104 0
95 111 0
88 103 0
102 116 0
86 100 0
103 118 0
103 114 64
101 115 51
83 103 60
54 86 102
56 89 101
58 91 110
57 90 114
59 93 126
58 92 114
56 89 110
58 92 125
58 92 124
58 91 121
59 93 125
58 93 125
57 90 129
59 93 121
58 93 124
58 91 120
58 92 121
59 93 136
57 91 113
59 93 131
59 93 134
58 92 122
59 93 136
59 93 132
58 92 123
59 94 137
57 91 117
60 94 131
59 93 132
59 93 127
57 90 124
58 92 127
58 92 130
59 93 131
59 93 136
59 93 129
58 92 128
59 91 126
59 93 135
58 92 124
58 91 132
58 91 127
59 93 130
59 93 129
58 90 126
58 90 132
57 89 124
56 87 121
58 90 127
59 92 135
57 89 131
58 90 118
55 87 124
56 86 118
57 89 121
58 91 122
57 87 117
56 88 117
56 87 120
55 85 115
56 86 114
54 83 109
54 82 105
56 85 121
53 82 108
51 78 95
53 80 93
54 84 115
51 77 100
52 81 106
50 77 86
52 78 93
50 76 98
51 77 100
48 73 88
47 71 90
49 73 85
51 76 92
45 68 92
48 71 87
45 69 84
55 70 72
64 67 33
84 87 37
95 96 40
103 103 38
102 103 41
118 116 48
114 112 41
123 121 37
116 114 47
127 125 39
129 126 38
124 123 36
137 133 41
134 130 38
126 123 29
138 135 38
143 138 43
146 143 39
142 139 32
147 142 47
144 141 30
147 143 36
143 139 36
149 144 37
142 137 41
106 95 18
99 83 8
92 72 8
103 85 7
96 79 10
90 73 4
97 78 7
97 76 9
103 84 6
104 87 12
96 76 7
90 74 3
89 72 7
101 79 6
103 85 9
105 86 7
104 87 8
94 76 8
103 82 12
97 76 9
95 76 12
105 89 7
103 83 11
102 85 7
102 84 7
98 77 8
106 89 9
103 85 9
106 89 10
108 90 8
96 77 9
104 84 7
106 88 11
96 76 8
102 83 8
96 84 3
95 76 7
107 86 8
105 88 7
113 91 9
101 82 9
106 90 14
101 83 9
107 88 13
107 87 9
107 86 13
113 94 10
103 83 8
103 84 7
102 83 8
104 84 8
104 84 9
108 89 8
104 83 8
108 89 12
102 85 4
102 82 10
103 82 10
101 81 9
104 89 6
104 85 9
100 81 10
109 90 15
99 76 6
98 82 8
97 79 7
107 90 8
111 91 10
101 81 9
107 87 5
99 79 7
104 84 14
112 92 12
102 84 14
102 83 9
94 77 5
100 82 10
97 74 9
101 81 12
104 85 7
102 84 16
92 73 12
99 81 18
98 76 8
103 83 3
102 81 11
101 81 7
84 68 5
98 82 14
99 78 11
90 72 12
94 76 7
107 86 15
95 76 9
83 61 7
93 75 6
91 72 11
91 72 8
89 70 16
93 76 9
82 63 6
93 73 13
87 68 10
93 76 10
89 71 16
91 74 12
78 62 7
79 61 13
92 74 21
84 67 14
80 60 6
85 62 5
81 69 11
120 113 33
142 140 32
138 134 39
134 131 22
133 130 25
130 126 28
121 119 25
124 123 30
171 192 0
166 188 0
162 185 0
171 193 0
171 192 0
170 193 0
167 190 0
168 190 0
168 190 0
168 190 0
166 189 0
171 194 0
171 194 0
166 187 0
170 193 0
170 191 0
170 193 0
170 192 0
169 192 0
172 193 0
173 195 0
172 195 0
169 192 0
169 192 0
169 193 0
174 196 0
172 195 0
170 194 0
171 194 0
171 194 0
170 194 0
169 193 0
170 194 0
171 193 0
168 192 0
169 191 0
172 195 0
169 192 0
172 195 0
170 193 0
171 194 0
170 194 0
170 194 0
170 194 0
169 191 0
170 193 0
171 193 0
171 194 0
170 193 0
170 193 0
170 193 0
168 192 0
171 194 0
171 194 0
171 193 0
167 190 0
170 193 0
169 192 0
170 192 0
170 193 0
169 192 0
170 192 0
171 193 0
169 192 0
167 191 0
170 192 0
169 192 0
168 190 0
168 191 0
169 192 0
169 191 0
168 190 0
167 189 0
170 193 0
172 194 0
169 192 0
165 188 0
168 190 0
168 191 0
167 190 0
165 189 0
165 187 0
168 190 0
166 189 0
168 192 0
168 191 0
168 191 0
167 190 0
166 189 0
167 190 0
167 189 0
168 191 0
166 189 0
169 192 0
169 191 0
166 188 0
165 188 0
167 190 0
167 190 0
168 191 0
167 189 0
165 187 0
167 190 0
164 185 0
167 190 0
162 184 0
166 188 0
163 186 0
165 188 0
167 189 0
165 187 0
167 189 0
164 186 0
165 187 0
164 185 0
165 187 0
162 183 0
166 188 0
165 187 0
164 186 0
161 182 0
158 177 60
148 168 0
149 168 0
148 167 0
148 168 0
147 167 0
143 163 0
146 166 0
146 166 0
146 166 0
147 167 0
149 169 0
149 169 0
144 164 0
150 170 0
148 168 0
148 168 0
144 164 0
149 169 0
146 166 0
108 126 0
120 137 0
105 122 0
109 126 0
106 122 0
107 124 0
98 116 0
102 117 0
107 124 0
99 114 0
99 115 0
104 121 0
98 113 0
98 115 0
94 109 0
97 113 0
104 120 0
97 112 0
101 117 0
106 122 0
91 107 0
94 109 0
97 111 0
92 106 0
91 107 0
100 115 0
102 114 56
104 118 56
105 121 0
100 115 0
110 127 0
63 90 90
56 89 114
57 90 110
58 92 115
60 95 130
56 89 108
55 88 103
59 92 120
59 93 128
57 90 125
58 92 131
58 92 118
57 90 121
60 94 134
57 91 113
57 90 118
58 92 121
57 90 107
59 94 130
59 93 137
58 92 121
57 91 128
59 93 133
58 92 122
59 93 132
58 92 134
59 92 121
59 93 132
59 93 128
59 93 135
59 93 132
59 93 122
58 92 127
59 93 126
59 92 137
58 90 123
58 91 127
58 92 118
57 90 130
58 91 131
57 89 111
58 90 128
57 89 123
58 91 123
58 91 121
58 92 124
58 90 129
59 91 135
58 90 129
57 89 123
58 90 131
56 86 117
57 88 118
57 88 121
56 87 114
56 86 119
55 85 108
56 87 112
55 85 111
56 86 109
53 81 103
54 82 105
55 84 119
54 82 108
55 85 119
54 84 119
53 81 103
53 80 102
53 80 103
51 77 99
52 80 106
52 78 91
50 76 93
49 74 93
49 75 97
45 67 74
46 69 88
46 68 78
45 67 81
46 68 83
46 68 69
42 62 75
73 78 39
83 85 39
94 93 37
97 97 35
112 111 37
117 117 43
113 111 39
116 115 40
125 122 35
128 125 31
129 126 41
134 131 46
137 133 37
131 129 42
139 135 43
134 131 30
144 140 33
143 139 37
147 143 34
149 145 38
145 142 41
134 132 26
145 140 32
148 144 36
149 145 35
150 146 32
140 134 26
105 91 17
97 78 8
102 87 5
95 77 9
106 88 11
104 82 11
102 83 7
101 84 10
100 80 10
100 82 7
106 89 5
97 77 7
100 80 10
98 82 6
101 83 6
101 80 7
105 86 10
100 85 14
102 83 8
104 86 10
107 90 10
107 90 5
103 85 14
102 80 7
102 83 5
104 89 6
98 75 7
94 74 5
108 91 10
109 90 9
104 85 9
104 87 15
104 87 7
100 81 4
105 87 5
95 79 8
101 83 5
109 88 9
110 90 2
101 83 11
101 83 10
111 95 7
109 88 6
101 81 4
106 87 5
104 87 14
107 86 8
106 90 10
101 83 10
104 83 8
100 81 7
102 83 9
104 85 8
106 87 7
110 91 4
103 82 5
106 87 8
104 85 9
104 86 6
108 90 11
110 91 8
101 82 11
104 86 3
100 83 10
98 80 9
102 82 10
108 89 7
105 84 13
103 82 5
106 86 9
105 86 11
102 84 9
99 78 8
103 84 12
99 81 8
101 82 10
103 80 14
96 77 5
101 80 16
94 72 6
102 83 12
92 73 7
92 74 8
88 73 12
93 76 10
96 76 12
93 72 7
97 76 10
98 78 7
93 75 4
94 77 14
93 75 9
97 77 9
90 73 8
90 73 14
91 71 11
90 73 8
93 74 12
85 64 7
84 65 11
86 69 9
90 72 14
82 62 4
83 65 8
86 70 9
90 68 11
84 66 10
76 57 6
79 60 13
93 80 17
135 130 33
136 132 37
135 130 32
133 129 25
138 134 37
130 126 34
118 116 22
117 113 30
142 151 11
169 191 0
168 190 0
170 193 0
170 191 0
171 193 0
169 191 0
170 192 0
170 191 0
171 193 0
168 189 0
170 192 0
168 191 0
170 192 0
171 193 0
170 192 0
170 191 0
167 191 0
172 192 0
169 191 0
169 191 0
169 193 0
170 194 0
171 192 0
167 189 0
173 196 0
170 193 0
172 195 0
172 195 0
172 195 0
172 196 0
170 193 0
173 195 0
171 194 0
171 194 0
170 193 0
170 193 0
172 194 0
171 194 0
171 194 0
169 192 0
172 194 0
170 194 0
170 192 0
170 192 0
172 194 0
169 191 0
171 193 0
171 195 0
171 195 0
169 192 0
172 195 0
170 194 0
169 192 0
170 192 0
168 190 0
169 192 0
168 190 0
169 193 0
169 193 0
170 193 0
167 191 0
168 191 0
170 192 0
168 192 0
168 190 0
168 191 0
170 193 0
169 192 0
169 192 0
169 192 0
170 192 0
168 191 0
166 190 0
165 189 0
168 191 0
166 189 0
168 191 0
170 193 0
167 190 0
169 192 0
167 191 0
166 189 0
168 191 0
166 189 0
168 191 0
167 189 0
169 191 0
168 191 0
165 187 0
166 188 0
166 188 0
166 189 0
168 190 0
165 188 0
166 189 0
165 187 0
167 189 0
167 190 0
168 190 0
166 188 0
165 188 0
165 187 0
165 187 0
164 186 0
167 189 0
166 188 0
164 187 0
165 187 0
166 188 0
163 185 0
166 188 0
165 187 0
166 188 0
168 190 0
162 184 0
164 187 0
165 188 0
162 184 0
163 185 0
163 184 0
163 185 0
161 183 0
164 185 32
151 171 32
145 164 0
146 166 0
146 166 0
146 166 0
146 166 0
148 168 0
148 168 0
145 165 0
149 168 0
148 167 0
145 164 0
146 165 0
145 166 0
145 165 0
149 169 0
146 165 0
146 166 0
107 124 0
112 129 0
112 129 0
99 115 0
103 121 0
108 126 0
102 118 0
102 118 0
105 123 0
103 119 0
97 113 0
105 120 0
104 121 0
110 127 0
104 120 0
102 118 0
96 112 0
99 114 0
103 119 0
101 115 0
104 119 0
79 92 0
94 108 0
100 115 0
99 112 45
101 114 45
108 123 32
102 118 0
104 120 0
105 123 0
92 107 0
105 123 31
56 87 103
57 90 113
57 91 108
58 92 122
58 93 124
57 90 113
57 91 117
57 91 110
59 93 122
59 93 126
59 93 118
57 91 105
58 92 121
59 93 117
59 93 126
58 93 128
59 93 136
58 92 120
59 94 128
59 93 121
57 89 114
59 92 120
58 92 120
58 91 124
57 91 125
59 93 120
59 92 123
58 92 118
58 91 120
59 93 125
58 91 125
59 93 130
57 90 116
58 91 126
58 92 129
58 92 126
58 91 120
56 88 105
58 90 126
58 90 121
59 92 127
58 91 131
58 90 131
56 88 111
58 91 125
57 90 121
56 88 114
57 88 118
58 89 122
57 89 121
54 84 116
57 88 118
56 87 121
55 85 111
56 87 121
57 87 119
55 85 107
57 88 125
53 81 104
53 82 102
55 84 112
56 85 117
54 82 111
51 79 101
52 79 99
52 78 101
52 80 94
52 80 106
54 81 106
51 77 96
49 75 90
48 73 82
52 78 103
50 74 103
51 76 100
50 75 99
44 65 62
45 65 77
43 65 80
45 66 77
43 58 64
72 76 35
76 78 34
95 95 36
108 109 39
101 100 32
109 106 27
126 123 44
128 126 42
130 127 42
121 119 33
130 128 32
123 123 38
134 131 40
132 130 35
140 136 41
138 134 32
141 137 35
143 139 34
141 139 31
144 140 47
140 136 33
141 138 35
145 141 32
151 146 44
149 145 28
147 143 38
147 142 25
147 143 34
132 124 29
99 82 14
103 84 8
103 86 10
104 87 10
95 76 5
101 81 8
103 84 9
95 77 7
98 84 10
97 81 7
99 80 9
102 84 8
103 84 6
94 76 6
106 84 8
106 88 6
104 88 8
103 86 13
105 85 7
101 83 6
103 84 7
106 89 11
101 81 6
104 83 10
106 87 8
108 91 11
104 83 8
102 81 8
106 89 7
105 89 10
103 82 8
105 87 6
109 90 8
104 87 9
102 85 8
112 96 11
106 87 8
111 94 7
109 90 9
101 84 5
108 90 3
105 88 13
109 88 8
101 82 6
110 91 8
108 88 5
100 84 8
109 94 12
105 87 10
100 80 8
101 81 6
108 90 9
108 87 13
101 84 11
102 83 8
99 80 6
104 85 10
107 89 11
100 79 8
98 78 9
103 84 3
103 83 11
100 79 4
99 78 9
103 86 6
103 84 7
97 81 7
107 87 8
107 86 9
99 80 9
105 88 11
100 80 8
105 84 10
102 85 14
101 81 12
107 88 10
102 81 11
108 92 10
104 84 15
104 86 15
104 83 18
105 87 8
101 79 6
98 78 10
99 78 12
94 75 8
87 69 11
92 70 9
99 79 8
87 68 6
93 74 7
90 72 9
85 69 7
92 74 8
87 71 7
94 75 9
94 75 6
86 68 6
86 68 7
85 63 7
90 71 6
80 62 8
82 63 15
81 62 10
88 68 12
76 57 8
102 93 17
133 130 30
137 132 37
131 127 37
141 136 34
136 132 37
137 131 39
129 125 30
125 120 30
119 115 25
145 154 19
170 192 0
166 187 0
171 193 0
171 191 0
171 193 0
171 194 0
169 190 0
170 192 0
171 193 0
169 192 0
170 193 0
169 190 0
168 191 0
169 191 0
168 192 0
168 190 0
170 193 0
170 192 0
168 189 0
172 194 0
170 194 0
167 189 0
168 190 0
168 188 0
171 194 0
171 195 0
172 195 0
171 193 0
171 194 0
173 196 0
171 194 0
171 195 0
171 194 0
171 194 0
172 195 0
170 193 0
170 194 0
172 195 0
171 194 0
169 193 0
170 193 0
170 193 0
169 193 0
169 192 0
171 194 0
167 189 0
169 191 0
171 194 0
169 192 0
171 193 0
167 190 0
169 192 0
168 191 0
169 192 0
170 192 0
171 194 0
168 190 0
168 192 0
167 190 0
170 192 0
168 191 0
170 193 0
169 192 0
166 189 0
171 193 0
169 193 0
168 189 0
173 195 0
170 193 0
169 192 0
168 191 0
168 191 0
169 191 0
169 192 0
171 193 0
171 192 0
165 188 0
166 190 0
167 190 0
170 193 0
166 189 0
168 190 0
168 190 0
167 190 0
168 192 0
165 189 0
168 191 0
168 191 0
168 190 0
167 189 0
164 187 0
169 191 0
166 188 0
169 192 0
170 193 0
168 191 0
164 186 0
169 191 0
164 186 0
166 189 0
167 188 0
167 189 0
164 187 0
166 188 0
165 188 0
167 189 0
167 189 0
167 189 0
166 188 0
165 188 0
167 189 0
163 185 0
163 184 0
167 189 0
165 188 0
163 184 0
164 186 0
164 186 0
167 189 0
164 185 0
162 184 0
164 186 0
163 185 0
164 185 22
159 178 60
148 168 32
146 166 0
146 166 0
145 164 0
147 166 0
147 167 0
148 167 0
148 168 0
145 164 0
146 167 0
144 165 0
147 166 0
146 167 0
145 165 0
143 163 0
145 165 0
116 134 0
122 141 0
108 125 0
109 126 0
107 123 0
111 128 0
115 132 0
112 128 0
112 129 0
107 122 0
106 123 0
102 118 0
93 111 0
105 121 0
101 117 0
113 130 0
100 117 0
103 119 0
97 112 0
94 110 0
102 117 0
100 114 0
105 119 22
111 124 64
112 128 22
109 127 0
99 116 0
90 106 0
102 118 0
107 124 0
97 113 0
106 122 0
85 106 67
55 87 100
57 91 114
57 89 111
58 91 114
56 89 103
57 91 122
57 91 115
57 90 113
58 92 121
60 94 137
58 92 126
58 92 121
56 89 108
57 91 113
57 90 121
58 92 121
58 92 122
59 93 129
57 91 121
59 93 124
59 93 129
59 92 131
58 92 123
59 94 128
57 90 116
59 93 129
59 94 137
59 93 132
59 92 125
58 92 129
58 91 124
58 92 121
59 94 136
55 87 112
57 89 128
56 88 110
59 91 128
59 93 127
57 89 115
57 90 118
58 90 124
57 90 130
57 89 122
57 89 121
57 90 124
58 90 127
58 90 133
58 90 132
55 85 108
58 90 127
57 89 127
55 85 113
56 86 116
55 85 118
55 84 105
56 86 120
57 87 116
55 84 105
55 84 115
55 84 116
56 85 115
53 81 103
53 82 102
52 79 93
53 82 107
51 77 104
53 81 106
51 77 97
50 76 90
52 78 102
50 76 93
51 77 98
48 72 85
47 70 81
47 72 79
47 70 80
47 71 91
46 68 79
44 65 75
55 68 61
67 71 37
89 90 44
98 97 36
102 103 41
100 101 43
104 103 38
121 120 35
120 118 37
121 118 38
119 117 26
123 121 35
131 128 33
130 127 37
134 131 37
132 129 41
136 132 30
138 136 35
141 137 43
142 138 28
136 133 33
142 137 27
145 141 30
144 139 36
146 142 39
142 138 37
154 148 42
147 145 34
145 142 30
152 148 41
148 145 30
124 115 23
107 93 17
101 81 3
94 80 6
105 86 11
100 81 6
103 84 14
94 76 13
95 79 5
99 81 3
104 85 8
101 83 8
98 82 4
101 81 7
107 91 8
101 85 14
100 81 7
101 84 8
104 87 8
107 91 6
105 87 7
106 87 6
107 87 8
111 92 5
107 87 11
101 82 11
107 88 11
99 82 6
103 84 5
108 89 8
106 89 8
97 79 6
100 83 5
107 88 3
109 91 7
96 79 5
101 82 3
105 86 7
103 83 6
103 85 7
103 86 3
99 81 2
105 86 11
107 86 12
102 85 7
105 89 10
105 91 7
102 83 8
101 83 12
109 91 7
108 89 7
107 88 11
102 81 6
105 89 11
112 96 11
104 85 14
105 84 10
99 80 2
102 84 8
104 87 3
110 92 7
104 84 13
99 81 7
102 85 14
102 82 9
105 83 13
111 91 9
111 91 9
102 83 10
103 85 12
102 84 8
94 73 13
99 80 10
98 83 9
106 89 4
111 94 12
96 79 8
98 81 10
108 87 10
98 76 14
100 81 11
103 84 9
98 78 8
90 74 8
89 69 4
90 74 15
97 78 9
95 75 10
90 72 13
98 79 11
91 73 14
99 79 7
85 66 6
95 79 10
86 69 8
91 70 14
96 77 13
96 80 16
80 61 10
89 72 9
91 70 9
84 65 9
84 68 15
92 78 13
130 121 27
144 139 32
141 136 37
140 135 39
131 125 34
130 127 22
138 133 44
127 124 36
124 121 28
126 123 22
111 108 16
157 174 16
168 190 0
169 191 0
170 193 0
168 191 0
167 187 0
170 192 0
169 190 0
167 190 0
166 188 0
170 192 0
169 191 0
167 189 0
161 182 0
167 188 0
168 191 0
172 194 0
169 190 0
170 193 0
171 194 0
170 194 0
167 189 0
168 190 0
171 193 0
167 189 0
167 189 0
169 193 0
174 196 0
171 194 0
171 194 0
170 194 0
171 194 0
171 193 0
171 194 0
169 192 0
174 196 0
169 192 0
170 193 0
172 194 0
171 194 0
169 193 0
171 195 0
171 194 0
169 193 0
171 194 0
171 194 0
171 194 0
169 192 0
168 192 0
168 191 0
171 194 0
171 193 0
169 191 0
169 191 0
169 193 0
170 193 0
168 190 0
168 191 0
173 195 0
170 193 0
168 191 0
168 190 0
169 192 0
170 194 0
168 191 0
168 190 0
168 191 0
170 193 0
168 190 0
167 189 0
168 192 0
166 189 0
170 192 0
169 191 0
167 189 0
167 190 0
168 191 0
167 191 0
168 191 0
169 192 0
170 192 0
168 191 0
170 193 0
167 190 0
168 190 0
165 188 0
168 191 0
168 190 0
168 190 0
164 187 0
164 187 0
169 191 0
166 189 0
167 189 0
165 187 0
163 185 0
165 188 0
168 190 0
165 187 0
164 186 0
165 188 0
167 189 0
165 188 0
165 188 0
166 188 0
164 186 0
164 187 0
167 189 0
165 187 0
165 188 0
163 185 0
166 188 0
159 182 0
162 183 0
165 188 0
165 187 0
166 188 0
165 188 0
164 186 0
162 183 0
166 189 0
163 185 0
164 186 0
162 184 0
165 187 0
165 187 0
158 178 45
151 169 51
149 168 0
147 166 0
142 161 0
147 167 0
146 165 0
148 167 0
147 166 0
146 165 0
146 165 0
148 167 0
147 166 0
145 164 0
147 168 0
147 166 0
119 137 0
104 120 0
115 131 0
104 120 0
111 129 0
103 120 0
102 119 0
114 132 0
96 113 0
101 118 0
107 124 0
99 114 0
100 116 0
98 115 0
97 114 0
107 122 0
100 116 0
107 123 0
90 105 0
95 109 0
101 116 0
106 119 56
114 130 39
105 122 0
113 131 0
107 125 0
108 125 0
93 108 0
104 121 0
111 128 0
116 133 0
104 120 0
108 125 0
72 97 82
57 91 113
56 88 102
57 90 111
57 90 117
57 90 114
57 90 105
57 91 117
59 93 124
57 91 121
58 92 120
59 94 129
60 93 133
59 93 129
58 91 121
59 93 126
58 90 122
57 91 117
58 92 117
57 90 117
58 92 122
58 92 131
57 90 116
60 94 143
58 91 112
59 92 131
59 93 120
57 90 117
58 92 129
58 93 130
59 93 132
59 93 125
59 93 129
58 91 124
56 87 108
58 91 130
57 90 120
56 88 105
57 90 122
55 87 108
58 92 127
56 88 111
57 90 129
58 90 129
58 91 122
57 89 126
58 90 120
56 87 110
56 88 120
55 85 106
57 89 128
57 89 117
57 88 119
57 88 120
55 85 113
56 87 111
57 87 118
54 83 105
55 85 108
56 85 101
52 78 93
52 81 103
53 81 104
52 81 100
53 80 107
50 76 97
50 76 97
50 77 90
51 77 90
49 73 90
50 75 94
51 77 89
48 72 90
49 73 102
50 76 96
46 68 78
44 65 69
45 66 75
45 67 77
49 63 62
74 77 40
87 89 36
97 98 36
98 97 31
99 99 39
118 116 42
113 111 32
122 120 30
122 120 44
118 117 43
130 127 33
128 126 24
135 131 36
123 119 39
133 130 30
145 140 37
147 142 33
136 133 34
142 139 40
150 146 38
147 143 40
149 145 38
146 143 28
149 144 32
142 139 25
149 145 37
148 144 28
147 144 34
148 145 37
150 145 41
152 149 32
151 147 30
130 121 21
106 94 1
99 86 6
95 76 12
109 89 8
102 84 5
105 84 9
108 91 10
104 85 9
105 84 7
98 80 6
101 85 7
100 86 4
106 87 9
101 84 9
99 81 7
102 81 9
100 82 2
99 79 8
101 81 7
98 79 6
103 84 9
109 90 6
100 81 11
108 92 12
107 86 11
103 83 7
95 77 6
104 83 13
105 86 6
106 86 17
109 89 9
107 88 7
101 85 6
101 83 9
102 86 6
103 87 5
111 94 6
99 80 2
111 94 8
103 83 8
104 82 6
102 85 9
105 87 8
109 91 9
112 89 9
104 83 4
106 87 7
107 88 3
110 93 9
101 80 5
104 87 7
111 90 8
109 88 10
104 87 12
99 78 10
104 84 8
104 87 9
104 87 8
103 85 13
106 84 7
106 87 15
96 80 8
107 91 12
102 85 11
107 85 11
100 82 11
99 82 3
100 85 6
109 91 15
103 83 15
103 82 8
99 81 9
94 73 12
103 82 9
99 79 15
102 86 14
103 85 4
108 87 11
94 76 10
96 76 8
102 85 17
98 79 6
103 80 12
94 74 6
90 71 4
93 72 8
93 73 5
89 69 9
98 82 18
89 72 7
92 73 7
81 64 5
92 74 6
94 73 11
87 71 8
91 71 8
99 80 15
82 62 8
78 61 11
110 100 18
144 140 28
132 129 28
142 139 30
138 134 37
136 132 30
130 126 34
130 126 32
132 129 25
133 129 22
123 118 28
121 117 22
125 122 32
164 185 0
169 191 0
168 188 0
168 190 0
171 192 0
166 189 0
166 188 0
170 191 0
170 191 0
171 194 0
168 189 0
167 189 0
168 189 0
168 192 0
169 192 0
172 194 0
167 191 0
171 191 0
169 190 0
170 193 0
171 192 0
170 193 0
170 191 0
169 191 0
169 192 0
171 194 0
174 196 0
172 194 0
171 194 0
173 196 0
173 196 0
171 193 0
170 193 0
171 194 0
170 193 0
171 194 0
169 192 0
168 191 0
167 191 0
171 194 0
171 194 0
171 194 0
170 194 0
171 194 0
169 192 0
173 196 0
173 196 0
169 192 0
169 192 0
172 194 0
170 193 0
169 192 0
168 191 0
166 188 0
172 195 0
169 192 0
169 192 0
169 192 0
171 194 0
170 193 0
169 192 0
171 194 0
172 194 0
169 191 0
168 191 0
167 191 0
169 191 0
169 193 0
168 191 0
169 192 0
168 192 0
168 190 0
170 192 0
168 191 0
169 192 0
168 191 0
168 191 0
169 192 0
168 191 0
168 191 0
169 191 0
170 192 0
168 191 0
170 191 0
165 188 0
167 190 0
169 192 0
165 187 0
168 190 0
165 188 0
169 191 0
168 190 0
168 190 0
165 189 0
163 186 0
167 189 0
169 191 0
168 190 0
167 189 0
170 191 0
164 187 0
167 189 0
165 188 0
168 191 0
166 188 0
166 188 0
163 185 0
165 187 0
166 188 0
164 187 0
167 189 0
166 189 0
166 187 0
168 190 0
162 185 0
165 187 0
167 188 0
166 187 0
163 185 0
165 187 0
167 189 0
163 184 0
163 185 0
165 187 0
166 188 0
165 186 0
165 187 0
168 189 39
156 174 60
147 167 0
150 170 0
147 167 0
148 167 0
145 165 0
147 167 0
146 166 0
147 167 0
145 165 0
146 165 0
146 166 0
143 163 0
145 165 0
127 146 0
110 128 0
109 126 0
111 128 0
118 135 0
98 114 0
109 126 0
104 120 0
98 115 0
100 115 0
105 121 0
106 122 0
109 127 0
115 131 0
106 122 0
104 120 0
101 117 0
99 114 0
98 115 0
101 115 51
103 117 45
107 124 0
111 129 0
107 124 0
111 128 0
108 124 0
113 130 0
113 130 0
110 129 0
94 111 0
106 123 0
99 115 0
105 121 0
95 112 25
62 91 90
57 90 107
55 87 114
57 91 110
57 90 110
56 89 108
57 91 113
57 91 111
58 91 121
57 90 113
60 94 132
57 91 118
58 92 124
57 90 110
57 91 118
58 92 117
57 90 118
59 93 126
57 90 123
57 89 117
58 92 120
58 91 124
58 91 121
58 91 125
59 93 135
57 90 116
59 93 128
58 91 137
58 92 124
59 93 129
58 92 126
59 93 124
58 91 123
59 92 127
58 92 132
58 91 129
58 91 125
57 91 110
59 92 134
58 90 123
57 90 127
58 90 130
57 90 118
57 88 116
55 86 114
58 90 123
57 87 117
57 88 115
54 83 104
57 88 116
55 85 103
58 90 128
57 89 124
56 87 116
54 84 110
56 85 108
56 87 123
54 84 115
52 79 96
55 85 115
54 83 102
54 83 105
53 81 98
53 82 107
53 82 98
51 79 102
54 83 102
51 78 98
52 78 97
48 73 90
49 74 93
48 72 80
48 71 82
48 72 78
46 67 80
43 64 67
43 64 71
42 63 74
52 67 66
80 81 32
81 83 35
92 92 39
96 96 33
106 106 31
113 112 31
116 113 41
122 120 41
118 116 34
127 125 35
130 127 36
127 124 30
128 125 36
138 135 26
133 130 38
131 128 40
144 140 40
141 138 31
142 138 31
143 139 36
147 143 39
144 140 34
149 143 32
147 142 37
143 139 37
149 145 36
141 137 30
151 147 37
147 144 30
144 141 37
148 143 42
149 146 34
146 142 30
144 140 32
139 132 19
117 107 20
101 84 5
101 84 8
102 83 8
97 79 8
96 80 9
107 91 9
103 83 8
112 93 12
96 77 7
104 89 6
104 86 7
113 99 8
107 87 10
105 88 3
99 79 10
102 90 9
106 88 5
102 83 8
98 81 8
106 86 7
105 84 6
108 88 8
107 88 9
110 90 9
107 88 7
102 85 6
111 92 8
100 82 6
103 84 6
98 80 9
102 83 8
109 88 8
108 90 5
108 90 10
101 83 8
104 85 7
110 92 8
106 87 11
105 87 11
105 88 4
104 82 10
105 88 9
106 88 14
100 80 5
103 86 8
107 84 9
105 87 12
101 81 11
108 90 8
106 87 8
103 84 6
104 86 13
104 82 10
101 79 9
104 84 9
106 88 8
109 91 8
105 86 10
100 81 9
107 88 8
103 85 9
101 83 10
99 82 7
92 74 5
104 86 10
107 84 9
98 77 6
102 84 9
100 83 15
94 79 11
94 75 6
100 83 11
98 81 8
91 69 6
89 70 9
93 76 6
88 68 11
98 75 8
92 76 14
96 76 8
97 79 9
93 71 8
94 76 4
92 73 13
94 77 10
93 72 13
89 72 9
93 72 5
94 76 8
94 73 12
81 63 8
91 71 7
78 62 9
98 81 9
111 100 12
134 130 23
149 144 45
144 138 39
142 137 32
143 139 30
140 135 39
135 130 34
148 143 41
142 137 37
131 128 22
130 126 30
128 125 22
121 118 19
118 119 11
167 189 0
169 192 0
170 191 0
168 191 0
172 193 0
167 188 0
168 191 0
164 187 0
168 190 0
167 188 0
170 192 0
171 194 0
171 194 0
171 192 0
170 191 0
168 190 0
170 192 0
172 196 0
171 194 0
172 194 0
169 189 0
171 193 0
169 192 0
171 193 0
171 191 0
167 189 0
173 196 0
171 193 0
171 193 0
173 196 0
171 195 0
171 193 0
169 192 0
172 195 0
172 195 0
171 194 0
169 191 0
168 192 0
169 192 0
170 193 0
171 193 0
173 195 0
171 195 0
171 194 0
169 192 0
171 193 0
168 192 0
169 192 0
167 191 0
170 193 0
172 194 0
168 191 0
170 194 0
168 191 0
170 192 0
170 193 0
169 192 0
168 191 0
170 193 0
167 191 0
170 193 0
165 189 0
171 194 0
171 194 0
170 193 0
167 191 0
169 191 0
168 192 0
167 190 0
169 191 0
168 190 0
169 191 0
168 190 0
169 192 0
166 189 0
168 190 0
168 191 0
169 191 0
169 191 0
167 190 0
168 191 0
171 193 0
166 187 0
168 191 0
168 190 0
165 188 0
167 189 0
169 191 0
167 190 0
168 191 0
168 191 0
167 189 0
167 190 0
168 191 0
166 189 0
166 189 0
165 188 0
166 189 0
165 188 0
163 186 0
168 191 0
169 192 0
168 190 0
166 189 0
163 186 0
170 192 0
166 188 0
165 186 0
166 188 0
165 188 0
164 186 0
163 186 0
164 187 0
164 186 0
163 185 0
167 189 0
163 186 0
163 185 0
166 188 0
167 189 0
162 185 0
165 188 0
166 189 0
161 184 0
164 186 0
164 186 0
163 185 0
165 187 0
165 189 0
157 176 56
151 171 32
144 164 0
146 166 0
144 164 0
149 169 0
147 166 0
148 168 0
147 167 0
146 166 0
143 163 0
145 165 0
145 165 0
129 148 0
117 134 0
123 141 0
113 130 0
114 132 0
112 129 0
110 127 0
106 123 0
111 129 0
106 122 0
107 124 0
113 130 0
106 123 0
103 119 0
103 120 0
88 104 0
100 115 0
109 124 39
110 123 64
121 140 22
108 126 0
106 122 0
115 133 0
115 132 0
112 129 0
107 123 0
105 121 0
109 127 0
120 138 0
107 124 0
100 117 0
95 111 0
113 130 0
94 110 0
95 114 47
55 88 102
52 83 88
55 88 108
56 89 108
56 89 110
58 91 122
58 91 110
57 90 110
59 93 114
58 92 113
59 93 129
58 91 120
59 92 124
58 91 121
58 91 113
59 93 123
58 91 114
56 90 112
59 93 131
58 91 124
59 93 134
58 91 124
57 91 124
57 91 118
58 91 120
59 92 120
58 91 125
58 91 127
58 91 120
57 90 126
57 91 117
58 90 117
59 92 129
57 91 117
58 90 124
57 89 118
56 88 109
57 90 121
57 90 121
58 90 127
59 91 118
55 88 114
56 87 113
57 88 112
57 89 122
57 88 113
57 89 119
57 88 112
56 87 112
58 91 124
56 86 111
55 85 111
53 83 100
56 87 123
54 83 104
53 82 99
52 80 99
55 84 113
51 79 96
52 79 95
53 80 108
51 77 102
53 82 103
52 79 109
53 81 115
49 75 87
53 81 104
52 79 98
51 76 96
49 73 97
46 70 72
46 69 89
46 69 81
49 73 88
43 64 65
41 60 67
44 67 79
40 57 56
79 81 31
93 94 37
89 88 36
110 109 32
96 95 33
115 113 42
112 111 34
123 120 41
118 114 38
126 123 35
132 129 35
137 133 36
134 131 39
130 129 30
128 126 30
136 133 31
138 135 37
141 136 39
143 140 38
144 139 38
146 143 30
139 137 33
144 140 36
151 146 30
151 147 32
145 142 22
152 148 41
142 138 32
153 149 37
148 143 37
149 143 39
148 144 30
153 148 28
153 148 39
155 149 42
150 146 37
135 130 30
117 106 11
102 87 6
100 80 7
107 90 7
99 80 8
97 78 4
96 80 3
104 85 10
110 90 6
108 90 10
98 80 6
109 91 11
103 86 3
112 92 7
109 90 10
105 85 9
100 81 8
98 81 8
100 83 8
109 88 8
105 85 5
103 87 7
103 87 2
101 85 5
105 87 11
102 84 8
103 84 7
110 91 11
100 82 6
102 85 6
108 87 9
106 86 8
106 87 11
112 96 9
109 91 9
104 86 9
103 82 5
105 84 9
108 89 6
107 89 7
109 89 10
108 89 2
111 97 8
103 82 10
108 91 15
104 86 8
106 86 9
101 83 6
108 88 8
108 93 8
107 90 8
106 89 5
104 86 10
103 84 6
99 81 4
98 79 10
98 79 4
102 83 10
112 93 7
104 89 7
108 91 7
105 88 14
102 83 7
114 97 14
107 89 11
97 78 11
107 87 13
112 95 10
97 80 8
98 81 9
100 81 4
92 75 10
99 78 8
83 64 10
100 78 7
99 82 16
89 73 8
97 77 12
93 73 7
90 75 6
97 76 8
102 88 8
96 76 9
80 64 10
90 72 8
90 71 13
90 71 9
91 69 8
87 65 8
93 76 7
88 69 9
104 91 4
136 130 26
138 133 34
147 143 41
148 143 34
142 138 25
138 133 30
137 133 36
142 138 32
141 138 36
130 126 30
138 134 30
133 128 28
132 128 30
125 122 19
119 115 28
136 144 28
167 188 0
171 193 0
171 193 0
167 188 0
166 187 0
173 194 0
171 194 0
171 193 0
170 192 0
167 188 0
168 189 0
167 188 0
167 189 0
171 194 0
170 191 0
168 189 0
168 190 0
168 190 0
170 193 0
171 193 0
165 187 0
170 192 0
171 193 0
170 192 0
171 192 0
170 192 0
172 196 0
172 194 0
173 196 0
172 195 0
171 194 0
170 194 0
170 193 0
172 194 0
171 193 0
171 194 0
171 194 0
171 194 0
169 193 0
172 195 0
170 193 0
170 193 0
169 193 0
172 194 0
170 193 0
171 194 0
171 194 0
168 192 0
170 194 0
169 193 0
171 193 0
172 195 0
170 194 0
171 194 0
170 193 0
171 194 0
169 192 0
169 192 0
172 194 0
170 193 0
168 190 0
171 193 0
166 189 0
165 188 0
169 191 0
170 192 0
172 194 0
167 191 0
169 191 0
169 192 0
169 192 0
168 191 0
169 191 0
166 188 0
170 193 0
168 191 0
169 191 0
166 190 0
166 189 0
166 189 0
169 192 0
166 189 0
166 189 0
167 189 0
165 188 0
166 188 0
164 188 0
168 191 0
166 188 0
169 191 0
168 191 0
168 190 0
167 190 0
164 186 0
167 190 0
167 189 0
169 192 0
167 190 0
169 191 0
166 189 0
165 188 0
168 191 0
166 187 0
166 189 0
168 191 0
168 191 0
168 191 0
167 189 0
166 188 0
164 186 0
166 189 0
165 187 0
166 189 0
166 189 0
163 185 0
164 187 0
165 187 0
165 188 0
161 184 0
163 185 0
164 187 0
163 185 0
164 186 0
165 187 0
164 185 0
164 187 0
166 189 0
165 186 0
162 184 0
163 186 0
158 179 22
153 173 0
144 163 0
148 168 0
145 164 0
146 167 0
143 163 0
147 166 0
146 166 0
144 164 0
149 169 0
144 164 0
133 152 0
109 126 0
105 122 0
108 126 0
113 131 0
110 128 0
112 128 0
109 126 0
95 112 0
110 128 0
113 130 0
108 125 0
107 125 0
111 128 0
99 115 0
102 117 22
113 128 45
121 139 45
116 133 0
115 132 0
116 133 0
116 134 0
118 137 0
117 135 0
108 125 0
113 130 0
106 124 0
112 128 0
113 130 0
108 126 0
102 118 0
108 127 0
114 130 0
115 131 0
114 130 0
85 107 66
54 86 99
57 90 113
57 91 122
57 90 105
56 89 113
57 91 118
56 89 102
58 92 117
57 90 110
60 94 133
58 92 121
59 93 126
57 91 117
57 91 113
56 89 115
58 92 120
58 92 124
59 93 121
58 92 117
59 92 125
58 91 126
58 91 117
58 91 126
59 92 142
58 91 124
58 91 130
57 89 106
58 92 126
57 89 109
58 91 120
57 90 123
59 93 131
57 89 112
58 90 125
58 90 123
58 90 126
57 89 116
57 89 118
56 88 113
57 90 124
58 90 129
57 89 116
57 88 116
57 89 117
56 87 117
55 86 109
57 88 109
56 87 115
57 88 113
54 84 117
55 85 114
57 88 117
55 86 111
54 84 102
55 86 110
53 82 102
53 81 94
53 82 110
50 77 88
56 85 113
52 80 95
55 84 114
53 81 110
52 80 102
54 82 106
48 73 82
50 75 96
51 77 89
49 75 86
50 76 103
48 71 79
46 70 81
48 73 88
43 65 68
43 64 76
42 64 69
44 57 41
68 72 31
90 90 36
90 91 36
108 107 43
102 102 38
109 109 42
120 117 38
120 119 32
126 122 33
127 125 35
135 132 35
129 127 27
131 129 24
138 135 37
133 129 33
144 140 42
139 136 29
144 140 31
145 141 40
142 138 37
146 143 37
146 143 36
144 140 34
146 142 32
148 143 39
142 139 25
142 138 30
148 145 28
148 144 37
146 142 22
151 147 34
152 148 41
150 146 44
147 141 37
151 147 32
150 147 28
151 145 39
153 148 41
147 143 34
131 123 30
110 95 14
108 88 12
100 83 2
101 82 8
106 88 8
110 92 8
98 80 7
106 89 9
101 83 8
109 92 5
103 85 9
107 91 7
99 83 7
100 80 7
108 90 12
102 88 11
108 89 8
106 87 6
103 82 7
104 86 8
105 81 7
107 90 8
102 83 6
102 83 6
99 82 5
106 84 10
105 86 10
107 89 7
105 89 5
103 82 6
114 94 7
103 83 7
109 92 8
105 88 6
108 90 10
96 81 7
101 84 7
100 83 5
107 92 10
105 90 9
98 80 9
102 82 12
106 85 6
104 84 8
105 85 11
106 88 9
98 78 9
104 85 3
103 87 11
99 83 8
107 90 12
98 80 7
105 84 7
104 86 9
108 92 8
105 86 7
104 89 7
96 79 14
112 91 11
93 74 6
106 89 7
102 81 12
103 87 8
94 76 16
102 82 6
94 73 5
101 82 10
106 87 6
100 83 9
98 78 11
98 79 10
95 77 13
98 78 7
92 74 11
97 77 9
93 78 13
92 70 4
98 79 8
90 71 9
94 76 13
97 77 8
93 77 9
85 66 10
92 73 10
91 73 12
93 76 8
110 96 26
131 125 25
142 138 36
143 138 37
143 137 42
144 140 32
142 138 25
141 136 36
146 142 37
137 132 32
141 137 36
123 119 28
145 140 44
128 124 30
130 126 25
125 123 28
126 123 19
125 121 36
147 159 25
170 191 0
170 192 0
169 191 0
168 189 0
167 188 0
166 187 0
172 193 0
167 188 0
172 195 0
169 190 0
171 192 0
164 186 0
172 194 0
171 194 0
172 195 0
169 192 0
172 193 0
171 192 0
168 189 0
170 192 0
171 194 0
170 194 0
168 191 0
170 191 0
168 191 0
170 193 0
170 194 0
173 196 0
169 192 0
171 194 0
172 194 0
171 194 0
173 196 0
170 193 0
170 194 0
172 195 0
170 193 0
170 194 0
172 195 0
172 195 0
170 194 0
171 194 0
171 193 0
169 192 0
169 193 0
169 193 0
169 191 0
170 194 0
171 194 0
174 196 0
169 191 0
170 193 0
166 189 0
168 191 0
169 191 0
166 189 0
167 190 0
170 192 0
168 191 0
168 190 0
169 193 0
167 190 0
168 190 0
171 194 0
168 191 0
169 191 0
168 191 0
169 191 0
169 192 0
168 191 0
169 191 0
168 191 0
167 190 0
169 192 0
168 191 0
167 189 0
168 191 0
169 192 0
165 187 0
168 191 0
167 190 0
168 190 0
165 187 0
165 189 0
165 188 0
168 190 0
169 192 0
165 188 0
166 189 0
169 191 0
167 190 0
167 189 0
166 188 0
163 185 0
167 191 0
168 191 0
167 189 0
165 188 0
165 187 0
168 190 0
167 189 0
164 187 0
164 187 0
165 188 0
167 189 0
166 188 0
164 187 0
165 187 0
166 189 0
164 187 0
162 185 0
168 190 0
163 184 0
164 186 0
163 184 0
164 186 0
164 186 0
166 188 0
163 186 0
163 185 0
162 184 0
166 188 0
158 181 0
165 187 0
162 185 0
166 188 0
162 184 0
167 189 0
162 184 0
163 184 0
160 182 0
163 183 0
157 176 45
148 167 32
148 168 0
148 167 0
147 166 0
146 166 0
143 163 0
142 161 0
145 165 0
148 168 0
137 156 0
115 134 0
112 129 0
114 132 0
114 132 0
108 125 0
116 133 0
114 132 0
112 129 0
108 125 0
105 121 0
111 128 0
112 130 0
105 122 0
116 131 64
115 130 56
112 130 0
119 138 0
114 132 0
119 137 0
111 128 0
119 137 0
114 132 0
116 134 0
118 135 0
113 131 0
105 122 0
116 134 0
130 148 0
108 125 0
112 130 0
107 124 0
113 130 0
101 117 0
108 126 0
103 120 0
71 97 80
56 89 103
55 88 102
55 87 100
58 91 111
58 92 118
56 90 111
55 88 102
57 90 120
55 87 103
57 90 108
56 89 111
56 90 114
59 93 124
59 93 128
58 92 124
57 90 118
57 91 111
58 91 113
57 90 113
57 90 113
58 91 120
59 92 126
59 92 128
56 89 118
57 90 111
57 89 121
58 91 133
58 91 126
58 90 121
58 92 120
58 90 117
58 92 113
57 89 122
57 89 116
57 88 118
56 88 118
56 88 111
56 88 112
56 88 115
57 88 109
58 90 117
56 87 113
55 86 115
57 88 112
56 87 110
56 87 120
55 86 116
56 87 113
58 91 130
54 85 116
55 85 117
54 83 98
56 85 108
55 84 99
56 86 104
53 82 103
55 84 113
54 82 101
53 81 107
51 78 99
51 77 101
50 76 86
50 75 92
50 75 83
51 77 109
49 76 86
48 73 82
47 71 89
51 77 95
47 71 75
47 70 83
41 62 67
46 68 79
42 62 70
45 66 75
50 60 54
79 80 32
89 89 26
88 91 34
100 100 40
106 104 33
108 108 35
116 116 38
125 123 37
120 118 30
125 124 37
135 131 40
127 124 31
129 126 44
125 125 19
133 130 30
135 132 28
147 143 40
146 143 41
144 140 28
145 141 26
145 142 33
141 137 34
149 145 37
145 141 28
147 142 30
145 141 37
145 141 28
144 140 25
148 144 32
147 142 36
141 138 28
153 148 42
147 143 30
148 144 34
148 145 25
153 148 37
152 148 32
153 148 30
154 148 34
148 144 30
154 150 36
148 144 30
137 128 34
109 99 7
98 85 7
99 84 4
108 91 12
98 80 7
102 85 7
100 83 7
107 90 6
110 88 9
106 92 7
103 86 6
101 85 7
113 93 9
106 86 5
107 90 7
104 86 6
107 89 5
106 87 10
96 79 7
103 87 9
108 91 8
111 91 10
110 92 11
103 85 6
112 92 8
106 85 12
109 90 10
108 92 13
103 84 7
103 87 8
111 94 9
106 89 8
107 91 11
104 86 6
106 91 7
102 83 7
106 86 5
100 82 6
101 80 5
105 89 5
105 86 8
107 86 7
106 88 8
101 84 7
105 89 8
110 91 13
111 95 9
108 91 10
101 84 6
102 85 8
105 85 11
102 80 8
93 76 6
106 87 7
103 83 11
101 85 2
104 87 7
109 92 8
103 82 8
106 86 8
94 76 8
107 90 10
104 82 7
96 76 8
91 70 10
99 84 14
107 92 10
99 81 10
94 76 8
89 70 8
93 76 6
89 71 14
85 68 8
100 86 13
97 78 9
94 77 8
95 78 9
98 80 9
88 70 13
93 75 12
94 74 14
120 110 26
144 138 30
139 136 19
146 141 41
140 137 28
141 137 36
148 145 32
139 135 36
139 135 32
141 137 39
137 134 36
140 136 22
143 139 39
132 128 30
130 126 25
139 135 28
136 132 34
126 123 19
128 124 19
123 119 30
156 174 16
168 188 0
168 190 0
161 182 0
165 186 0
170 192 0
167 189 0
168 189 0
169 189 0
172 193 0
172 194 0
169 191 0
170 191 0
173 194 0
171 193 0
166 187 0
167 188 0
167 188 0
172 194 0
171 194 0
171 193 0
170 192 0
174 196 0
171 194 0
173 195 0
171 192 0
172 194 0
172 195 0
168 191 0
172 196 0
170 194 0
173 196 0
173 195 0
173 196 0
171 194 0
170 194 0
171 195 0
170 193 0
171 194 0
170 193 0
169 193 0
171 193 0
168 191 0
171 194 0
170 193 0
173 195 0
170 192 0
170 193 0
166 189 0
173 196 0
168 191 0
172 195 0
168 191 0
169 192 0
170 194 0
167 191 0
168 192 0
169 192 0
169 193 0
171 194 0
169 193 0
170 193 0
168 191 0
167 190 0
171 193 0
168 190 0
168 191 0
167 190 0
164 188 0
169 192 0
171 193 0
165 189 0
168 191 0
170 192 0
170 192 0
168 191 0
168 191 0
167 189 0
171 193 0
168 191 0
170 192 0
170 192 0
167 188 0
168 191 0
165 188 0
167 190 0
167 190 0
167 190 0
167 189 0
166 188 0
165 187 0
167 190 0
166 189 0
165 188 0
167 189 0
168 191 0
168 191 0
165 187 0
165 187 0
168 190 0
164 187 0
166 189 0
167 190 0
167 188 0
168 190 0
167 189 0
165 188 0
163 185 0
166 189 0
167 189 0
167 189 0
167 189 0
164 187 0
166 189 0
162 184 0
165 187 0
164 187 0
163 185 0
163 184 0
163 186 0
162 185 0
163 185 0
162 184 0
164 186 0
160 182 0
161 183 0
164 185 0
161 184 0
162 184 0
164 186 0
164 186 0
164 186 0
163 186 0
160 182 0
158 178 45
152 170 56
147 167 0
145 165 0
143 163 0
145 164 0
145 164 0
146 166 0
147 167 0
141 161 0
118 136 0
114 131 0
109 126 0
116 133 0
124 141 0
107 123 0
103 120 0
120 137 0
114 131 0
114 131 0
112 129 0
104 120 32
119 133 64
123 142 0
109 127 0
120 139 0
121 140 0
110 129 0
119 139 0
115 132 0
114 132 0
120 139 0
109 127 0
120 137 0
112 129 0
119 137 0
112 130 0
111 130 0
87 103 0
118 137 0
118 136 0
121 140 0
101 118 0
106 123 0
101 118 0
100 117 0
64 92 102
53 85 95
54 87 110
55 88 108
55 87 108
55 87 105
55 87 108
56 89 111
57 91 117
56 90 111
57 91 114
57 91 111
57 90 113
57 90 114
58 91 114
56 88 105
58 90 119
58 91 128
58 91 124
57 90 118
56 89 110
58 91 118
57 89 112
58 91 118
58 91 115
59 92 123
56 88 110
58 91 129
56 89 125
58 91 121
57 91 123
57 90 117
58 92 123
57 90 117
57 90 118
58 91 123
56 87 107
57 89 117
55 86 94
56 87 106
57 90 126
58 90 123
54 85 107
57 89 115
54 83 84
56 88 113
54 84 110
57 87 106
52 81 87
55 86 112
54 85 108
55 85 103
54 83 107
54 82 104
53 81 95
53 82 108
55 84 115
55 85 114
54 81 104
52 80 83
51 78 95
50 76 90
53 81 101
52 78 91
53 81 104
50 77 94
48 72 81
46 69 81
49 73 89
49 73 92
46 69 73
46 69 73
44 66 59
44 66 77
42 61 55
42 54 53
75 77 33
83 84 22
97 98 27
99 99 34
112 112 36
106 106 30
111 109 34
125 121 47
121 119 41
128 125 43
125 122 40
130 126 39
129 127 40
128 125 26
135 131 39
134 131 32
134 132 24
137 135 18
135 132 28
146 142 36
145 141 32
139 136 25
145 141 30
145 141 34
145 142 19
145 142 36
153 148 36
147 143 25
148 144 37
144 139 32
148 144 32
150 146 36
151 147 34
153 148 37
152 148 37
150 146 39
151 146 41
153 150 37
152 148 32
150 146 39
153 149 22
158 153 45
153 149 19
153 148 36
144 138 28
124 113 23
115 101 7
102 82 9
105 86 6
98 83 11
106 91 7
102 86 6
103 85 8
94 78 6
105 85 7
114 95 7
108 93 3
102 82 5
104 87 10
111 91 11
106 86 5
103 85 6
105 85 8
106 82 8
103 86 9
104 85 3
116 98 9
116 97 12
97 84 8
100 83 6
107 86 3
107 86 7
107 89 6
104 85 6
104 89 1
104 87 7
106 91 6
108 90 7
107 90 4
103 84 5
109 93 6
102 83 8
110 91 6
103 88 6
110 92 9
102 86 9
108 88 11
100 79 7
106 88 7
105 89 15
100 83 7
108 91 11
104 87 7
106 88 6
108 90 10
97 79 8
102 84 14
99 79 6
101 83 16
102 83 7
98 80 5
100 80 13
99 76 4
103 85 8
104 83 10
93 75 8
98 79 12
96 77 6
96 81 5
102 84 7
95 76 4
95 76 9
97 79 8
97 77 14
89 72 8
103 85 6
91 75 5
97 77 6
97 76 10
93 74 4
99 81 7
102 88 17
133 125 32
145 140 32
146 141 41
150 146 36
144 139 32
148 144 28
142 137 37
146 142 41
141 136 34
143 138 36
144 139 32
143 139 42
143 138 39
139 135 34
137 134 25
125 122 28
131 128 28
128 125 30
126 122 28
133 128 37
124 121 25
115 111 30
167 186 16
167 188 0
170 193 0
168 189 0
170 192 0
168 191 0
168 189 0
169 191 0
170 192 0
171 193 0
168 190 0
171 194 0
169 191 0
169 190 0
169 190 0
171 193 0
169 191 0
171 193 0
171 193 0
171 192 0
168 191 0
171 193 0
167 190 0
171 190 0
170 193 0
171 193 0
168 191 0
171 194 0
169 193 0
171 193 0
171 195 0
173 196 0
170 194 0
169 192 0
171 194 0
172 195 0
171 194 0
171 193 0
170 193 0
169 192 0
171 195 0
170 193 0
170 193 0
172 194 0
171 195 0
169 192 0
171 193 0
171 195 0
171 194 0
171 194 0
169 192 0
172 194 0
169 192 0
169 191 0
169 191 0
170 194 0
171 194 0
169 192 0
170 192 0
168 192 0
167 191 0
168 192 0
169 192 0
167 190 0
171 193 0
169 191 0
169 191 0
170 193 0
169 192 0
172 194 0
169 191 0
167 190 0
166 189 0
168 190 0
168 191 0
169 192 0
168 191 0
169 192 0
167 190 0
169 191 0
165 188 0
167 190 0
167 190 0
165 189 0
169 190 0
169 191 0
162 185 0
167 188 0
166 189 0
169 191 0
165 188 0
167 190 0
168 190 0
167 190 0
167 190 0
166 188 0
165 188 0
167 190 0
170 192 0
164 187 0
166 189 0
166 189 0
165 187 0
165 186 0
166 188 0
166 188 0
163 185 0
164 186 0
165 187 0
163 186 0
162 184 0
164 186 0
165 187 0
165 187 0
163 185 0
165 187 0
166 188 0
162 184 0
163 185 0
163 186 0
165 187 0
157 179 0
163 184 0
164 186 0
164 186 0
164 187 0
160 183 0
163 185 0
166 188 0
161 181 0
161 183 0
161 183 0
163 183 0
161 183 0
163 184 0
162 184 32
151 170 39
142 160 0
145 165 0
146 167 0
146 166 0
147 166 0
147 167 0
142 161 0
119 137 0
112 129 0
113 131 0
112 129 0
115 133 0
104 120 0
117 134 0
102 119 0
99 115 0
115 131 22
127 143 60
114 132 22
111 128 0
125 142 0
113 132 0
123 142 0
119 136 0
115 134 0
120 138 0
117 136 0
124 143 0
123 142 0
110 129 0
106 123 0
113 130 0
112 130 0
115 133 0
124 141 0
106 124 0
115 132 0
118 135 0
110 127 0
103 120 0
98 113 0
97 113 0
98 114 0
102 119 25
71 98 86
55 87 105
56 89 114
55 87 102
57 90 107
56 90 111
56 89 100
57 91 115
55 88 108
57 90 113
56 89 105
58 92 114
57 90 95
58 92 118
57 91 115
59 92 118
59 92 118
56 88 104
58 91 116
58 91 117
56 89 106
56 88 112
58 92 131
58 92 121
57 90 122
56 88 109
57 90 117
57 90 108
57 89 113
56 89 105
58 91 125
58 91 130
58 90 122
58 91 121
56 87 117
55 87 104
56 87 110
56 89 112
58 90 113
56 88 113
55 86 112
57 88 112
57 89 117
56 87 109
54 83 108
58 89 118
54 85 105
55 84 98
55 86 119
55 83 106
55 85 114
53 81 98
56 86 107
55 86 112
50 77 92
50 77 95
52 79 92
53 82 108
50 78 87
50 77 101
50 75 91
52 80 99
49 75 86
50 75 90
52 79 100
47 71 83
47 72 84
46 70 77
46 69 73
47 71 77
47 73 93
42 63 67
41 61 62
43 65 75
60 69 47
76 78 34
84 84 25
86 89 40
107 107 40
107 106 38
114 112 34
112 110 33
117 115 34
117 115 34
117 116 37
126 122 24
127 125 22
132 130 34
140 137 30
133 130 34
139 135 33
151 147 42
138 135 33
145 142 34
142 138 34
137 132 27
142 138 34
143 139 30
142 137 32
145 142 28
144 140 34
151 146 47
147 143 30
146 143 22
150 145 39
149 145 34
149 144 28
151 148 34
149 145 32
147 144 25
149 145 22
154 150 36
157 152 37
148 145 22
150 146 32
146 142 25
153 148 37
154 150 34
152 149 28
153 150 28
153 150 30
147 143 22
143 138 28
134 125 23
128 114 18
108 90 12
106 89 7
102 84 6
112 93 14
101 81 6
100 81 6
105 87 10
109 88 8
102 85 7
106 88 10
103 85 8
107 86 7
108 89 10
100 83 4
103 81 9
106 88 5
109 94 8
112 93 9
104 88 6
108 89 7
107 88 8
109 90 11
101 83 8
105 89 11
114 96 8
104 88 7
107 87 9
102 83 8
106 88 14
100 84 10
106 87 5
111 90 8
105 87 6
101 82 6
110 95 9
111 92 9
106 88 6
102 86 7
100 84 9
105 85 5
103 84 5
104 88 11
104 85 8
102 84 6
103 85 6
100 82 5
102 84 9
97 78 8
103 84 7
104 88 10
102 84 13
100 81 3
94 77 3
106 87 5
106 89 8
100 82 8
104 89 6
94 78 3
103 83 11
95 74 5
96 73 13
100 83 9
96 74 11
103 85 9
98 81 9
98 81 9
91 72 9
90 71 6
94 81 18
124 114 26
142 137 28
148 144 32
149 143 42
152 147 42
149 144 41
146 141 36
141 137 34
142 138 28
144 140 25
135 132 28
145 141 32
146 141 37
145 140 34
141 136 34
133 130 32
140 136 28
134 130 30
136 132 28
129 126 25
132 128 36
136 132 42
133 130 32
129 125 34
130 129 36
167 188 0
164 184 0
166 187 0
162 184 0
173 191 0
170 193 0
168 191 0
170 191 0
173 194 0
169 192 0
169 190 0
166 189 0
171 194 0
165 186 0
169 191 0
172 194 0
167 188 0
167 188 0
170 191 0
169 192 0
168 192 0
169 190 0
172 194 0
170 191 0
172 195 0
171 194 0
171 193 0
172 195 0
170 194 0
170 193 0
172 194 0
169 192 0
172 195 0
171 193 0
170 194 0
172 194 0
171 194 0
172 194 0
172 195 0
172 194 0
170 194 0
171 193 0
170 192 0
171 195 0
171 193 0
169 192 0
170 193 0
171 194 0
170 194 0
170 193 0
170 194 0
170 193 0
169 192 0
171 195 0
169 192 0
172 194 0
170 192 0
170 193 0
168 191 0
166 189 0
167 190 0
168 191 0
169 192 0
168 191 0
170 192 0
169 192 0
170 192 0
169 191 0
169 192 0
169 192 0
171 193 0
170 193 0
168 191 0
169 192 0
167 191 0
167 191 0
168 191 0
169 191 0
169 191 0
168 191 0
170 192 0
168 191 0
170 193 0
168 192 0
167 191 0
167 189 0
166 188 0
170 192 0
169 191 0
165 188 0
165 188 0
165 188 0
166 188 0
168 191 0
166 188 0
167 190 0
166 188 0
169 191 0
164 187 0
167 189 0
167 189 0
166 188 0
166 188 0
166 188 0
165 188 0
166 189 0
168 191 0
165 187 0
165 188 0
164 185 0
164 187 0
166 189 0
165 187 0
167 188 0
166 188 0
166 188 0
165 187 0
160 182 0
164 186 0
165 187 0
166 188 0
167 189 0
167 189 0
164 186 0
159 181 0
163 184 0
164 185 0
164 187 0
160 182 0
164 187 0
164 186 0
164 186 0
163 185 0
160 182 0
166 188 0
163 186 0
162 184 0
161 181 45
149 168 32
147 166 0
146 166 0
147 167 0
146 165 0
146 166 0
125 143 0
119 138 0
115 132 0
111 128 0
114 132 0
125 143 0
110 127 0
116 134 32
115 132 32
121 137 39
130 149 0
116 133 0
127 146 0
115 134 0
119 139 0
118 135 0
126 144 0
112 131 0
110 128 0
120 139 0
127 147 0
102 120 0
122 140 0
108 126 0
112 130 0
112 129 0
105 123 0
115 133 0
113 131 0
105 123 0
111 128 0
111 129 0
110 126 0
108 125 0
105 122 0
107 124 0
107 124 0
93 111 36
69 98 95
53 84 95
55 86 99
57 90 105
54 86 90
56 88 105
55 88 110
56 90 114
58 92 118
57 90 108
58 91 117
57 89 108
56 89 114
58 92 117
57 91 114
57 91 121
56 89 114
56 89 109
57 89 116
58 92 130
57 91 115
58 91 123
58 91 120
54 86 106
57 91 120
56 88 118
56 88 121
58 92 117
58 90 120
56 88 104
56 87 113
57 89 109
57 89 108
56 89 117
57 90 127
55 86 106
56 87 105
57 88 117
56 87 113
56 86 108
56 88 121
57 89 118
56 87 111
57 88 123
56 86 112
54 83 102
54 85 110
55 84 106
55 85 115
55 85 110
53 83 110
54 85 108
51 78 89
52 81 102
51 77 91
55 85 109
52 80 109
50 76 84
53 79 94
53 81 90
51 78 94
49 76 90
49 75 96
48 71 81
51 78 101
47 72 87
48 72 74
47 70 81
48 72 83
43 65 77
45 68 82
43 64 68
42 62 64
49 61 54
73 76 28
91 91 28
95 96 32
95 95 31
109 108 42
116 114 42
115 115 32
107 109 37
129 127 32
129 126 38
136 132 32
131 129 30
140 136 37
130 127 37
141 137 40
128 124 25
143 139 40
135 132 35
141 137 22
141 137 36
145 143 29
149 144 37
147 142 32
148 143 34
151 147 39
147 143 37
147 144 28
151 145 42
148 145 16
149 145 34
151 146 32
151 146 28
150 146 37
149 145 32
150 146 32
148 144 37
148 144 37
155 151 34
153 149 34
156 152 36
151 146 32
150 146 34
151 147 32
158 153 42
154 150 37
155 151 37
154 150 41
153 149 42
153 149 37
154 149 39
150 145 32
142 135 16
127 115 13
113 97 18
104 84 2
105 88 8
105 88 10
115 99 10
108 88 6
104 86 9
111 93 9
110 89 9
107 89 9
108 91 9
108 89 6
103 88 8
96 79 5
109 92 15
107 87 2
99 80 6
102 84 6
108 91 6
104 86 6
103 85 4
109 92 7
103 85 8
104 88 10
109 91 7
107 87 8
107 92 6
106 88 6
110 92 8
109 91 6
106 89 7
102 86 7
112 91 8
105 87 6
105 87 9
107 85 5
105 90 13
107 86 8
104 89 9
96 78 7
102 83 5
102 82 10
99 80 9
107 90 9
102 84 2
98 80 3
101 85 8
100 84 7
100 79 13
101 82 7
104 86 8
100 84 8
102 82 7
96 78 9
103 82 5
96 79 13
96 79 5
103 86 11
101 82 8
99 79 8
95 80 6
95 73 9
119 106 31
126 118 20
142 136 32
149 145 28
156 151 32
147 143 34
149 146 37
148 144 36
146 143 34
153 149 32
146 143 36
143 139 36
145 140 36
144 141 22
140 137 32
142 138 28
142 138 37
144 140 32
143 139 22
139 134 32
131 127 30
127 123 16
139 135 39
133 130 28
133 129 34
121 118 28
122 118 25
115 112 22
144 152 32
169 191 0
169 191 0
168 189 0
167 189 0
168 190 0
167 189 0
165 186 0
167 189 0
168 190 0
167 188 0
167 189 0
168 188 0
166 188 0
171 192 0
168 190 0
166 188 0
169 191 0
171 193 0
171 193 0
170 193 0
171 192 0
170 190 0
171 192 0
168 192 0
170 191 0
172 194 0
170 193 0
172 195 0
168 192 0
170 193 0
171 195 0
170 194 0
169 192 0
171 194 0
172 195 0
171 193 0
168 192 0
168 192 0
172 194 0
173 195 0
170 193 0
171 194 0
168 192 0
169 192 0
171 194 0
170 193 0
166 189 0
169 193 0
171 193 0
170 194 0
169 192 0
168 190 0
170 193 0
173 195 0
168 190 0
172 195 0
170 193 0
169 192 0
170 193 0
168 191 0
172 193 0
172 194 0
170 193 0
171 193 0
168 192 0
168 191 0
171 194 0
168 190 0
168 192 0
167 190 0
170 193 0
165 188 0
168 190 0
168 189 0
167 190 0
169 191 0
167 189 0
166 189 0
167 190 0
169 192 0
171 193 0
166 189 0
168 191 0
168 191 0
170 192 0
168 191 0
164 187 0
169 191 0
167 190 0
166 190 0
166 189 0
168 191 0
166 188 0
164 187 0
165 188 0
168 191 0
165 187 0
165 188 0
166 189 0
165 188 0
166 188 0
168 191 0
165 187 0
168 190 0
166 188 0
166 189 0
167 190 0
164 186 0
166 189 0
167 189 0
166 189 0
167 189 0
165 187 0
169 192 0
164 187 0
166 189 0
165 188 0
167 188 0
160 183 0
161 183 0
162 185 0
166 189 0
164 186 0
165 187 0
157 180 0
162 184 0
161 184 0
165 188 0
165 187 0
165 187 0
167 189 0
165 186 0
164 186 0
164 185 0
161 183 0
166 188 0
162 185 0
167 189 0
157 179 22
151 169 39
147 166 0
145 165 0
144 164 0
141 161 0
114 132 0
120 138 0
105 123 0
114 132 0
111 130 0
108 125 0
126 142 51
128 144 60
119 137 0
125 145 0
136 157 0
127 147 0
133 152 0
129 150 0
113 131 0
124 143 0
126 145 0
106 124 0
116 134 0
114 133 0
108 126 0
117 135 0
121 139 0
119 138 0
115 132 0
127 147 0
116 135 0
127 145 0
98 117 0
123 141 0
102 119 0
108 126 0
109 125 0
103 120 0
104 121 0
95 111 0
97 113 0
108 124 0
91 108 18
64 92 100
56 89 110
54 86 99
56 88 99
56 88 102
56 88 110
57 90 111
56 89 103
58 91 120
55 88 97
55 87 105
57 90 117
56 89 108
56 89 117
57 90 110
58 92 117
57 91 110
58 91 115
57 90 123
57 90 116
56 89 106
56 89 112
57 89 118
59 93 128
56 87 109
56 89 120
55 86 111
56 88 117
57 90 115
56 89 119
56 88 105
57 89 117
57 89 117
57 89 123
57 89 118
53 84 96
55 87 105
56 88 121
56 87 110
55 85 98
55 85 109
54 84 102
56 87 111
57 88 116
55 85 105
53 82 105
54 85 113
55 85 100
56 86 114
54 83 98
52 80 93
52 81 94
54 83 98
54 82 100
52 79 86
53 81 104
50 76 85
51 78 97
51 78 92
50 76 88
51 76 78
48 73 88
47 71 78
51 77 88
47 71 71
46 68 76
44 67 69
42 64 63
45 67 72
46 67 66
41 61 67
41 61 65
54 60 31
80 80 28
82 85 35
91 92 25
102 101 32
108 108 37
105 106 44
120 119 42
119 118 23
128 125 36
128 125 32
125 122 28
127 125 33
137 134 38
126 123 33
128 127 28
138 135 36
142 138 39
140 136 32
148 144 40
137 133 33
145 141 41
147 141 37
149 143 39
143 138 30
144 140 30
148 144 28
151 147 37
150 146 39
150 147 32
152 147 37
141 138 25
147 143 36
144 139 32
153 149 36
153 149 44
149 146 30
148 144 41
151 146 34
151 147 32
150 146 19
149 145 34
153 149 39
155 151 32
154 150 32
154 149 34
156 151 37
154 150 34
152 148 28
151 147 32
154 150 41
155 150 41
157 153 41
156 152 36
156 152 30
148 142 30
138 131 30
129 120 17
120 107 20
108 89 5
107 86 7
99 83 5
101 85 8
105 88 5
107 89 11
109 93 6
109 90 7
106 89 8
104 88 3
110 94 5
113 93 8
96 78 8
101 83 5
102 84 5
106 90 9
104 87 8
101 84 6
103 82 7
106 88 9
91 74 9
99 80 4
106 89 9
110 93 4
111 93 9
106 87 9
109 93 5
109 95 7
105 87 7
107 92 11
109 91 9
101 81 5
106 90 6
105 83 10
104 86 7
101 82 6
105 86 6
105 90 8
99 82 7
99 80 8
104 86 8
103 76 7
106 88 10
96 78 8
97 80 6
96 77 4
109 92 12
95 78 6
104 86 8
93 74 8
102 84 8
101 84 12
96 78 9
109 97 6
126 114 21
134 126 26
148 145 26
149 145 30
149 144 32
149 145 37
149 145 25
149 145 32
149 145 25
148 144 28
147 142 34
147 143 34
142 138 30
148 144 25
146 142 30
143 139 32
145 140 34
145 141 41
139 135 32
144 140 37
138 135 28
134 131 25
130 127 37
138 133 30
132 129 34
135 131 32
138 134 32
123 120 28
133 129 22
132 128 30
122 117 28
140 151 16
168 189 0
170 191 0
166 188 0
163 183 0
170 192 0
168 189 0
172 194 0
169 191 0
168 190 0
169 191 0
173 195 0
172 193 0
170 191 0
169 192 0
165 187 0
168 190 0
170 192 0
170 192 0
168 189 0
171 192 0
169 193 0
168 190 0
170 192 0
168 190 0
170 193 0
171 192 0
171 194 0
168 191 0
171 195 0
167 191 0
171 194 0
171 194 0
171 194 0
169 192 0
168 191 0
171 195 0
171 194 0
169 192 0
168 191 0
172 194 0
170 192 0
169 192 0
171 195 0
171 194 0
170 194 0
172 194 0
170 194 0
172 195 0
170 193 0
171 194 0
169 192 0
170 194 0
168 191 0
169 192 0
168 192 0
168 191 0
168 191 0
169 192 0
169 192 0
169 192 0
171 193 0
168 190 0
169 193 0
168 191 0
170 192 0
168 190 0
170 193 0
168 191 0
168 191 0
169 192 0
167 189 0
170 193 0
166 188 0
166 188 0
168 190 0
166 188 0
168 191 0
168 191 0
168 192 0
170 192 0
163 186 0
168 191 0
169 191 0
167 189 0
165 188 0
169 192 0
168 190 0
167 190 0
168 191 0
167 189 0
169 191 0
167 189 0
167 190 0
165 188 0
165 188 0
167 190 0
166 189 0
165 188 0
168 191 0
165 187 0
164 186 0
164 187 0
165 188 0
164 185 0
161 184 0
166 189 0
166 189 0
166 189 0
161 184 0
166 187 0
165 187 0
166 188 0
162 184 0
166 189 0
167 189 0
163 186 0
165 188 0
162 184 0
162 184 0
165 187 0
165 188 0
161 185 0
163 185 0
164 185 0
163 186 0
161 183 0
162 184 0
162 184 0
163 186 0
164 186 0
159 181 0
159 181 0
160 182 0
164 188 0
161 184 0
166 188 0
163 184 0
163 185 0
163 184 0
163 185 0
151 169 45
145 165 0
141 160 0
145 164 0
123 142 0
115 134 0
108 126 0
119 138 0
119 135 51
124 141 60
121 139 22
124 144 0
121 141 0
120 141 0
132 151 0
117 136 0
118 136 0
128 148 0
130 150 0
118 136 0
123 143 0
121 139 0
119 137 0
109 126 0
121 138 0
124 143 0
121 141 0
120 139 0
112 131 0
117 135 0
116 133 0
103 121 0
114 132 0
113 130 0
117 135 0
116 134 0
117 134 0
117 135 0
120 137 0
105 123 0
115 132 0
100 117 0
90 106 0
101 119 25
72 98 86
55 87 100
54 86 100
54 86 94
56 89 103
55 87 97
54 86 103
55 88 113
55 88 94
58 92 115
56 88 107
55 87 107
56 88 104
56 88 103
55 88 97
57 90 125
55 88 105
57 91 113
55 88 107
57 90 115
57 90 124
58 91 118
57 88 119
55 87 99
57 90 113
58 92 120
57 90 120
56 88 106
57 89 111
57 89 116
56 88 111
55 86 103
56 88 120
58 91 125
57 88 116
55 86 97
56 89 113
55 86 101
56 87 118
57 88 108
56 87 110
56 86 108
57 90 133
55 86 101
55 85 105
56 87 109
54 82 95
54 84 103
55 84 102
54 83 95
52 78 97
52 80 86
51 76 97
52 79 99
51 79 97
49 76 93
51 78 98
53 80 98
50 76 86
52 78 93
51 76 82
50 74 80
47 72 82
48 72 82
49 73 88
44 65 62
46 70 86
46 69 80
42 63 69
42 62 60
44 66 68
58 68 50
60 66 35
83 84 32
86 88 33
98 97 39
113 113 42
108 107 32
99 99 35
116 115 35
122 119 34
120 119 25
134 131 37
123 120 26
131 128 36
129 127 34
139 135 39
134 131 25
137 133 29
137 133 32
142 138 26
139 136 28
146 141 28
141 136 34
146 141 39
141 137 30
147 143 36
146 141 22
151 146 37
145 141 22
144 141 36
147 143 37
150 147 22
149 144 39
154 149 45
149 145 34
146 142 30
155 150 30
151 148 34
155 150 37
153 148 37
154 149 36
155 151 44
157 153 42
149 145 28
150 146 34
146 144 30
149 145 11
156 151 37
152 149 28
157 153 32
156 152 39
155 150 37
157 153 32
152 149 25
155 152 32
153 149 32
153 148 34
154 149 39
153 149 36
149 144 30
147 142 37
133 124 28
136 126 23
117 105 28
112 98 6
106 86 6
110 92 8
106 86 2
105 88 5
110 92 7
113 97 15
110 90 9
111 92 7
108 89 13
106 93 7
109 92 6
105 91 11
108 86 7
111 93 6
107 88 9
102 86 4
102 85 6
107 88 8
100 86 5
103 84 11
100 85 2
104 89 6
106 89 11
105 87 7
105 89 8
105 84 8
110 92 10
103 83 3
109 89 4
108 91 9
108 92 4
99 83 9
106 86 12
97 75 7
105 90 5
101 86 6
102 88 12
104 88 12
96 81 8
100 82 9
101 82 8
105 84 10
104 91 14
118 105 28
134 126 20
136 129 25
153 149 41
148 145 25
141 137 22
149 146 30
155 149 41
154 149 44
147 143 28
153 149 36
147 143 25
152 148 30
148 144 28
152 147 41
141 137 25
150 146 32
147 143 34
145 141 34
149 143 36
135 131 32
145 141 36
145 141 36
138 134 34
141 136 41
140 136 36
142 138 28
136 133 34
141 137 34
135 131 34
139 134 42
125 121 22
126 122 19
127 124 32
127 123 30
116 113 32
145 159 16
171 192 0
169 192 0
164 184 0
169 190 0
163 182 0
171 192 0
172 196 0
167 188 0
168 190 0
162 181 0
167 187 0
173 195 0
171 193 0
169 191 0
169 191 0
171 192 0
165 188 0
170 191 0
170 192 0
165 187 0
168 190 0
171 193 0
172 195 0
170 192 0
171 193 0
171 191 0
172 194 0
172 195 0
172 195 0
171 194 0
172 195 0
171 195 0
170 193 0
170 194 0
172 195 0
170 193 0
171 195 0
171 195 0
168 191 0
171 195 0
169 192 0
171 194 0
171 193 0
173 195 0
172 195 0
170 193 0
169 193 0
168 192 0
169 192 0
171 193 0
168 191 0
171 194 0
167 190 0
168 191 0
167 191 0
168 191 0
169 192 0
170 193 0
170 192 0
168 192 0
170 193 0
168 192 0
168 191 0
166 190 0
171 194 0
167 190 0
168 190 0
167 190 0
169 192 0
169 191 0
170 193 0
167 189 0
168 191 0
169 192 0
167 190 0
168 190 0
167 190 0
170 192 0
167 190 0
168 190 0
169 192 0
165 188 0
167 190 0
169 192 0
166 189 0
167 190 0
168 191 0
171 193 0
168 191 0
166 188 0
165 187 0
166 189 0
167 190 0
166 189 0
168 190 0
166 189 0
163 186 0
168 192 0
164 187 0
166 189 0
166 188 0
167 189 0
165 188 0
166 188 0
163 185 0
158 181 0
168 190 0
163 186 0
165 188 0
162 185 0
164 187 0
162 184 0
166 188 0
165 187 0
163 186 0
165 186 0
167 188 0
166 189 0
167 189 0
163 186 0
164 185 0
158 180 0
164 187 0
164 186 0
165 188 0
163 184 0
162 184 0
164 186 0
163 184 0
161 182 0
165 187 0
160 182 0
165 187 0
162 184 0
167 189 0
161 183 0
164 186 0
163 186 0
158 180 0
164 186 0
163 185 0
160 181 32
153 171 45
142 161 0
120 138 0
111 128 0
110 127 22
127 145 39
119 138 22
124 145 0
130 149 0
126 146 0
130 150 0
129 148 0
124 143 0
123 142 0
126 146 0
128 149 0
121 141 0
115 135 0
119 138 0
120 139 0
127 146 0
124 143 0
117 136 0
122 141 0
117 135 0
116 133 0
127 147 0
123 142 0
106 123 0
109 128 0
115 133 0
115 132 0
110 127 0
113 131 0
109 127 0
107 124 0
104 121 0
101 118 0
118 135 0
116 134 0
104 123 0
109 125 0
96 112 0
66 92 78
54 85 92
56 89 100
55 88 100
57 91 108
56 89 111
57 90 103
56 88 108
56 89 100
56 89 111
54 86 99
56 88 99
56 88 115
57 89 101
55 87 111
57 89 113
56 88 112
57 89 103
56 88 103
56 88 106
58 90 122
58 91 114
57 89 114
57 90 105
56 87 112
56 88 113
56 89 118
57 89 113
56 88 121
58 91 128
57 90 117
57 90 116
56 88 102
57 89 114
55 85 116
57 89 114
54 85 109
55 86 112
56 86 106
56 86 110
55 86 112
56 88 103
54 84 99
54 83 105
51 79 89
56 87 108
53 83 99
55 84 101
53 82 90
55 85 116
54 82 95
54 81 104
52 80 90
51 77 86
51 77 88
48 73 86
49 75 82
51 77 94
51 77 94
50 75 90
51 77 92
45 68 62
45 67 75
46 69 70
46 70 81
46 69 74
43 66 72
42 64 70
39 58 33
40 61 70
50 59 43
88 88 25
86 87 29
92 93 35
96 95 36
116 115 35
120 117 30
114 113 30
118 115 41
121 120 30
124 120 36
121 120 38
132 129 36
129 127 36
134 131 37
139 136 34
140 136 28
137 133 32
137 135 32
147 143 44
143 139 36
146 141 34
144 140 37
145 141 37
146 142 34
143 139 34
142 138 37
149 146 28
144 140 25
154 149 39
148 144 36
146 143 28
147 144 22
148 144 32
147 144 30
153 148 36
153 149 36
148 144 34
153 149 36
147 143 28
149 144 37
156 151 39
150 146 28
151 148 32
154 150 32
155 150 39
155 150 42
152 148 34
153 148 36
154 150 32
153 148 25
156 150 41
149 146 28
152 149 22
153 149 34
155 150 30
154 150 32
157 152 39
151 148 28
156 151 34
155 150 28
151 148 25
153 149 34
154 149 32
157 152 39
152 146 44
142 135 19
129 121 13
133 125 17
117 105 17
118 106 9
106 93 11
103 88 5
108 90 5
106 86 10
108 90 6
107 92 4
112 96 6
112 95 8
107 90 1
107 89 4
104 86 5
116 100 10
105 88 7
99 81 7
105 92 8
105 88 7
110 91 6
110 93 11
113 96 12
100 80 8
104 87 8
111 92 8
106 92 11
104 85 8
99 82 7
104 89 9
98 80 4
95 77 9
96 76 9
108 92 13
115 100 16
120 107 26
129 118 25
133 127 30
137 131 19
153 148 25
153 148 41
151 146 37
152 147 30
144 141 25
152 149 32
150 146 28
151 148 28
148 144 19
147 143 34
149 145 32
152 148 39
145 142 28
146 142 25
150 146 34
146 142 32
145 141 28
147 144 36
151 146 34
146 141 28
138 134 28
150 146 30
143 139 28
143 138 44
146 141 39
140 135 30
144 138 44
139 135 25
140 136 28
134 131 32
138 134 34
136 132 25
138 133 34
134 131 28
133 129 30
130 126 25
123 120 22
120 117 25
166 187 0
169 192 0
167 189 0
169 190 0
166 187 0
169 190 0
171 193 0
171 193 0
166 187 0
166 188 0
167 188 0
170 191 0
166 188 0
167 187 0
162 183 0
165 186 0
169 190 0
170 191 0
170 191 0
172 194 0
171 193 0
167 189 0
168 188 0
171 193 0
170 192 0
168 189 0
169 191 0
170 193 0
171 194 0
171 195 0
171 195 0
169 191 0
172 195 0
171 194 0
170 193 0
172 195 0
171 194 0
171 194 0
170 193 0
171 195 0
169 193 0
170 193 0
169 192 0
170 193 0
171 194 0
171 194 0
169 192 0
171 194 0
170 192 0
169 192 0
169 192 0
168 192 0
170 193 0
169 193 0
168 192 0
169 191 0
170 193 0
169 191 0
168 191 0
170 193 0
169 192 0
169 191 0
172 195 0
168 191 0
169 192 0
168 191 0
168 191 0
170 193 0
167 189 0
168 191 0
170 193 0
169 191 0
170 193 0
169 191 0
168 191 0
168 191 0
166 189 0
170 193 0
167 191 0
169 192 0
166 189 0
166 189 0
169 192 0
170 192 0
165 187 0
168 190 0
166 188 0
167 190 0
170 192 0
170 192 0
167 190 0
167 189 0
165 188 0
170 192 0
163 186 0
166 189 0
168 191 0
167 190 0
167 189 0
169 191 0
167 189 0
165 188 0
165 188 0
166 188 0
160 182 0
165 188 0
163 186 0
166 188 0
164 186 0
165 188 0
165 187 0
165 188 0
164 186 0
162 184 0
163 185 0
167 190 0
165 187 0
157 179 0
165 187 0
161 183 0
165 187 0
160 181 0
167 189 0
166 187 0
163 186 0
160 183 0
160 182 0
162 184 0
160 182 0
161 183 0
162 184 0
160 182 0
161 184 0
161 183 0
159 181 0
160 183 0
160 181 0
161 183 0
161 182 0
160 182 0
160 183 0
161 182 0
160 181 0
161 182 32
152 171 51
130 149 0
127 141 75
117 136 39
127 147 0
126 146 0
126 143 0
128 148 0
129 150 0
115 133 0
134 153 0
124 143 0
123 143 0
119 138 0
121 139 0
126 146 0
129 149 0
125 145 0
129 148 0
124 143 0
117 135 0
130 149 0
133 154 0
118 137 0
121 139 0
120 138 0
132 152 0
107 125 0
103 122 0
114 133 0
110 126 0
111 129 0
106 126 0
118 136 0
118 137 0
98 118 0
103 122 0
108 126 0
111 128 0
107 124 0
96 112 0
95 112 0
107 124 0
74 98 65
53 84 94
52 83 90
52 83 86
56 88 107
56 89 103
56 88 102
56 88 111
56 89 103
55 86 101
56 89 104
55 87 106
55 87 113
56 89 114
56 88 113
56 88 98
56 88 105
57 90 113
57 90 115
57 89 120
55 87 103
57 90 107
56 88 112
57 89 122
56 87 102
58 91 122
53 85 100
55 86 98
54 85 105
57 89 126
55 86 102
57 89 109
56 87 113
55 86 113
57 88 111
54 85 104
58 88 112
57 87 112
54 85 108
55 85 102
56 87 103
54 84 98
54 84 108
55 85 91
55 84 113
54 83 104
53 82 109
53 83 111
52 79 95
51 78 88
53 81 93
50 77 84
54 83 105
52 80 101
51 78 93
51 77 96
49 74 85
50 75 90
50 75 79
45 67 76
46 69 75
50 75 87
44 66 76
45 69 80
41 62 59
44 65 73
45 68 71
41 61 69
44 66 67
53 60 29
79 79 34
94 93 30
101 100 35
89 90 30
111 111 31
118 117 41
109 107 37
119 118 35
117 115 32
114 112 30
136 132 34
135 132 35
132 130 27
135 132 31
142 137 40
131 128 30
138 134 38
139 136 40
143 140 33
143 139 35
148 144 37
140 137 32
144 142 28
142 139 22
146 143 36
137 133 22
143 140 36
155 150 39
147 143 28
147 143 25
147 143 32
146 142 28
149 144 25
148 143 36
155 150 42
148 145 30
148 144 34
152 148 32
152 147 34
153 149 30
157 154 39
150 146 30
152 148 41
151 146 32
153 149 39
154 149 36
157 152 39
149 145 34
152 148 30
151 146 39
154 150 37
154 149 39
157 153 41
156 151 28
155 150 37
157 152 32
157 153 42
155 151 34
155 150 32
153 149 37
156 151 42
156 152 34
156 152 28
153 149 30
153 150 30
158 153 39
155 150 34
151 148 22
155 150 36
153 150 25
156 152 37
156 151 41
148 141 38
149 144 30
143 136 26
136 129 23
138 128 26
128 118 21
133 125 11
133 123 26
124 114 20
123 111 26
120 107 17
122 109 20
118 105 23
118 106 17
121 107 18
123 111 26
118 105 16
123 113 16
129 117 29
123 112 20
121 112 16
128 118 28
136 127 28
139 132 25
146 137 32
150 145 26
152 148 30
149 145 34
152 148 32
158 153 45
152 148 30
153 149 36
151 146 34
155 150 34
149 145 30
150 144 47
151 147 39
156 152 32
150 146 25
145 140 34
151 146 37
154 150 28
151 146 32
153 149 36
149 146 30
143 139 25
154 150 30
146 143 32
147 143 28
153 148 36
143 139 34
145 141 25
146 141 32
150 146 30
150 146 42
147 142 36
143 138 34
145 141 11
136 133 25
145 141 39
143 138 30
136 132 36
144 139 34
128 124 25
135 132 34
144 139 44
124 120 28
128 125 22
125 122 22
126 122 30
126 127 32
168 190 0
165 186 0
167 188 0
170 192 0
168 189 0
167 188 0
172 193 0
170 192 0
169 192 0
167 189 0
167 188 0
168 190 0
168 189 0
169 192 0
165 188 0
168 190 0
171 194 0
166 188 0
172 194 0
170 192 0
171 194 0
169 189 0
169 190 0
171 194 0
172 194 0
167 188 0
172 194 0
168 189 0
170 193 0
170 194 0
171 195 0
170 193 0
168 190 0
170 194 0
169 192 0
172 196 0
171 194 0
170 193 0
168 191 0
171 193 0
170 193 0
170 193 0
172 194 0
170 193 0
169 192 0
171 194 0
170 193 0
170 193 0
170 194 0
169 192 0
168 192 0
170 194 0
167 190 0
168 192 0
170 194 0
168 193 0
170 193 0
168 191 0
167 191 0
168 191 0
169 193 0
168 192 0
167 190 0
168 191 0
168 191 0
169 192 0
170 192 0
172 194 0
169 193 0
169 191 0
169 191 0
165 189 0
169 192 0
170 193 0
168 190 0
168 191 0
164 186 0
169 192 0
166 189 0
166 189 0
169 192 0
166 189 0
169 193 0
168 191 0
169 192 0
164 187 0
166 188 0
169 191 0
166 189 0
164 188 0
167 190 0
165 188 0
167 190 0
165 189 0
166 189 0
165 188 0
168 191 0
164 187 0
167 190 0
166 187 0
166 189 0
164 187 0
168 191 0
167 190 0
164 187 0
164 187 0
167 189 0
165 187 0
161 184 0
167 191 0
163 185 0
162 184 0
162 185 0
162 184 0
161 184 0
163 185 0
166 188 0
162 184 0
165 186 0
163 185 0
160 182 0
161 184 0
166 189 0
165 187 0
163 185 0
162 183 0
164 186 0
163 185 0
161 183 0
164 186 0
159 181 0
161 184 0
161 183 0
159 181 0
158 181 0
160 181 0
160 182 0
161 184 0
155 176 0
153 175 0
156 178 0
159 180 0
156 178 0
158 180 0
141 163 0
137 155 45
137 157 0
139 160 0
128 149 0
128 148 0
131 151 0
126 146 0
130 150 0
126 146 0
136 155 0
130 150 0
136 157 0
130 150 0
124 144 0
131 151 0
123 142 0
129 147 0
122 140 0
125 144 0
115 134 0
113 132 0
127 146 0
126 146 0
116 135 0
126 143 0
124 142 0
106 125 0
115 132 0
101 120 0
122 140 0
115 133 0
100 117 0
118 135 0
112 129 0
118 137 0
106 124 0
104 121 0
114 131 0
111 129 0
101 117 0
97 114 0
99 116 0
93 109 0
66 88 60
52 83 99
52 84 90
57 89 105
55 87 108
56 88 97
56 88 104
55 87 105
53 84 96
56 89 102
55 87 103
56 89 114
55 86 105
54 86 99
56 89 110
57 90 124
54 86 110
56 88 98
57 90 116
55 87 102
56 88 104
56 88 110
54 84 91
57 91 113
55 85 105
55 87 99
55 87 113
56 88 115
56 88 101
56 87 109
56 87 105
55 86 106
56 86 108
55 87 107
55 86 99
55 87 115
55 85 99
55 87 103
55 85 109
54 83 101
55 84 103
56 86 111
53 82 100
54 85 104
56 86 110
53 80 91
52 79 87
51 78 88
52 81 100
48 73 77
51 77 84
52 80 97
50 75 91
51 77 95
50 77 87
48 72 77
50 75 84
49 75 80
46 68 69
47 70 81
46 69 77
46 70 74
46 69 77
42 62 65
44 66 73
40 60 59
38 56 52
40 60 54
61 66 33
63 67 29
88 89 27
94 94 28
102 102 31
105 104 27
111 110 34
103 101 24
113 112 31
123 120 34
126 123 40
136 132 42
129 125 37
139 136 37
137 135 34
132 129 35
138 135 28
142 138 43
142 138 28
132 129 29
145 141 37
151 146 41
144 140 37
149 145 32
145 141 32
149 144 41
147 143 36
146 142 25
149 144 30
148 145 34
148 144 34
149 144 30
146 141 32
153 149 36
150 147 30
149 145 28
148 144 32
156 150 30
146 142 25
152 148 28
148 145 32
150 146 37
153 149 36
155 150 36
151 147 37
151 147 36
153 148 44
155 150 36
149 145 34
151 147 25
154 151 34
159 154 45
152 147 32
155 151 39
156 151 42
152 148 34
157 152 37
154 149 37
157 151 41
157 152 41
158 154 37
155 150 44
156 150 34
152 149 34
158 154 34
153 150 30
155 152 32
155 150 34
156 151 37
155 151 36
152 149 25
155 149 25
154 150 19
151 147 32
155 151 28
155 150 39
158 154 36
155 150 36
157 152 37
158 153 36
156 152 32
156 151 32
157 153 30
154 150 36
157 152 36
153 150 28
155 151 30
153 150 28
157 152 42
154 150 32
154 149 34
154 151 37
155 150 34
152 148 28
153 148 37
155 151 32
157 152 41
153 149 28
149 145 25
159 154 41
152 148 39
152 148 30
153 150 30
156 151 41
155 151 30
152 148 34
152 147 37
148 143 34
150 146 41
152 148 37
150 145 34
147 142 28
150 146 37
153 149 30
150 145 34
142 139 19
151 146 32
148 144 34
153 148 32
149 144 41
152 148 36
146 141 25
143 139 30
151 147 30
148 144 30
142 138 30
147 142 30
140 136 22
143 139 30
138 135 28
142 137 30
145 140 32
141 137 30
146 142 36
145 141 36
144 141 34
133 129 25
137 133 30
135 131 39
133 129 32
132 127 34
128 124 30
127 123 36
137 144 22
167 187 0
168 190 0
172 193 0
167 188 0
169 191 0
169 190 0
168 190 0
171 193 0
165 188 0
167 188 0
168 189 0
170 192 0
166 186 0
169 190 0
169 191 0
172 195 0
170 192 0
168 191 0
167 187 0
172 193 0
165 188 0
168 190 0
170 192 0
169 190 0
169 191 0
170 192 0
170 192 0
170 191 0
172 196 0
170 194 0
171 194 0
170 193 0
170 193 0
172 195 0
172 195 0
171 194 0
170 193 0
170 193 0
171 194 0
173 195 0
170 193 0
172 195 0
168 192 0
169 191 0
171 194 0
170 194 0
169 193 0
170 193 0
172 195 0
169 192 0
170 194 0
170 193 0
168 191 0
172 195 0
168 191 0
167 190 0
167 191 0
169 193 0
169 192 0
164 187 0
170 193 0
171 194 0
169 192 0
170 193 0
168 191 0
169 191 0
167 189 0
170 193 0
166 189 0
170 192 0
168 190 0
168 191 0
169 193 0
167 190 0
169 191 0
169 192 0
164 186 0
166 189 0
167 190 0
165 188 0
163 186 0
171 194 0
168 191 0
169 191 0
167 190 0
169 192 0
168 192 0
165 189 0
166 189 0
167 189 0
165 188 0
166 189 0
166 189 0
168 192 0
163 186 0
167 189 0
166 189 0
165 187 0
166 188 0
169 192 0
165 188 0
165 188 0
166 189 0
168 190 0
163 186 0
163 187 0
166 188 0
163 185 0
167 189 0
163 185 0
167 189 0
167 190 0
162 185 0
164 186 0
165 188 0
164 187 0
161 184 0
163 186 0
164 186 0
161 183 0
165 188 0
161 183 0
160 183 0
162 184 0
164 186 0
162 184 0
168 189 0
160 181 0
161 183 0
163 184 0
163 185 0
156 178 0
158 180 0
158 181 0
159 181 0
155 177 0
163 185 0
158 180 0
156 177 0
155 176 0
154 177 0
154 175 0
151 173 0
156 179 0
148 170 0
141 162 0
136 156 0
131 151 0
124 144 0
140 161 0
139 160 0
135 156 0
133 153 0
124 144 0
135 155 0
118 139 0
121 140 0
127 146 0
136 156 0
127 145 0
122 143 0
128 146 0
124 144 0
120 138 0
125 144 0
120 139 0
124 142 0
121 141 0
123 142 0
118 137 0
122 141 0
120 139 0
108 126 0
109 128 0
114 133 0
108 126 0
113 131 0
120 138 0
108 126 0
96 113 0
98 117 0
102 119 0
102 119 0
109 125 0
107 124 0
102 118 0
103 119 0
98 113 0
126 144 0
97 117 47
52 83 76
53 84 92
55 86 97
55 87 107
54 86 99
54 85 94
58 91 108
57 90 105
56 89 103
53 85 95
56 88 97
54 86 97
53 84 93
56 89 111
56 88 92
56 88 108
55 87 93
57 89 112
55 87 101
55 86 99
57 89 108
55 86 106
56 87 100
56 87 102
56 88 106
57 89 112
57 89 112
54 84 93
57 88 117
56 88 104
53 83 98
52 82 90
55 86 108
55 85 96
57 88 115
56 88 113
54 84 101
54 84 105
53 84 103
53 81 95
51 79 84
54 83 100
55 84 109
53 82 104
55 83 99
52 80 94
53 82 98
52 80 87
50 76 95
50 76 88
48 75 93
51 78 90
48 73 85
49 75 78
48 73 70
49 73 77
48 72 79
48 72 88
46 70 78
47 70 79
43 65 72
46 69 78
41 60 59
40 60 67
42 63 68
40 59 62
62 67 27
86 87 27
78 79 31
95 95 35
104 102 34
99 99 31
107 106 32
113 113 32
115 113 34
128 125 39
130 128 40
132 128 0
134 131 31
130 127 31
128 126 34
137 134 26
134 130 34
134 130 33
135 131 42
142 139 32
134 132 32
141 137 31
138 134 36
146 142 40
146 141 30
147 143 32
141 138 34
143 140 25
146 142 39
151 146 34
147 142 30
151 147 44
151 147 32
150 147 37
148 143 39
148 143 30
152 148 36
150 145 39
150 145 30
153 149 32
153 149 36
150 145 37
156 151 39
156 151 39
153 149 28
153 149 34
154 150 34
152 148 34
152 147 32
157 152 39
152 148 28
156 152 39
156 152 32
151 146 22
153 149 36
156 152 41
152 148 30
158 153 39
156 151 30
152 148 30
155 151 36
158 153 39
154 150 25
153 148 42
155 150 36
155 150 36
152 148 36
152 147 28
149 145 30
156 152 36
155 151 19
154 150 28
153 150 22
156 152 36
153 149 34
160 155 42
156 152 34
153 149 34
155 150 30
157 152 42
156 152 36
156 152 28
156 152 41
154 150 32
155 150 34
157 153 39
155 151 30
158 153 30
153 148 37
155 151 28
152 149 32
162 157 48
153 149 32
156 151 30
155 151 34
155 150 32
155 150 37
154 150 30
150 146 32
154 150 34
156 151 36
154 150 32
150 146 34
154 148 39
153 149 34
154 150 34
155 152 37
150 147 32
149 145 32
153 148 37
150 146 30
149 146 25
149 143 37
155 151 37
149 144 36
147 143 28
146 141 37
150 146 32
150 146 32
146 143 25
147 143 37
142 138 36
142 138 28
146 141 39
150 146 36
143 139 32
148 143 34
148 143 44
142 137 28
144 139 34
143 139 28
147 142 37
142 139 30
139 134 30
144 139 30
136 133 34
134 129 28
134 131 32
132 128 37
128 123 25
125 122 22
124 119 34
123 119 34
149 159 25
169 190 0
168 190 0
164 184 0
171 193 0
170 191 0
167 187 0
168 188 0
172 193 0
168 188 0
168 191 0
173 194 0
170 191 0
169 187 0
169 190 0
168 189 0
166 188 0
169 191 0
166 187 0
169 192 0
167 188 0
170 191 0
169 191 0
169 192 0
169 191 0
174 196 0
167 189 0
172 192 0
168 191 0
170 193 0
172 195 0
169 192 0
171 195 0
173 196 0
172 195 0
172 195 0
172 194 0
172 195 0
171 195 0
168 191 0
169 193 0
170 193 0
171 195 0
172 195 0
173 196 0
169 193 0
170 193 0
169 193 0
172 196 0
170 193 0
171 194 0
171 194 0
168 191 0
170 193 0
166 189 0
169 192 0
170 194 0
167 191 0
169 193 0
171 194 0
169 191 0
171 193 0
169 192 0
167 191 0
167 190 0
168 191 0
169 192 0
170 193 0
170 192 0
170 193 0
169 191 0
168 191 0
168 190 0
169 192 0
169 191 0
167 189 0
167 190 0
166 188 0
168 191 0
169 192 0
167 189 0
169 191 0
166 189 0
169 191 0
167 190 0
168 190 0
166 189 0
166 189 0
170 193 0
166 189 0
165 187 0
166 189 0
164 188 0
166 189 0
168 191 0
167 188 0
165 188 0
166 189 0
165 188 0
166 189 0
165 189 0
167 190 0
165 188 0
168 191 0
165 188 0
165 188 0
167 189 0
167 190 0
162 185 0
165 187 0
167 190 0
166 188 0
163 185 0
162 185 0
165 188 0
164 186 0
163 186 0
162 185 0
166 188 0
164 187 0
163 185 0
161 183 0
164 186 0
162 185 0
161 184 0
161 183 0
161 183 0
161 183 0
158 181 0
158 180 0
158 179 0
158 179 0
159 181 0
161 183 0
157 178 0
162 184 0
159 182 0
162 183 0
161 183 0
152 174 0
157 178 0
154 176 0
150 172 0
152 174 0
146 168 0
132 153 0
144 165 0
144 165 0
138 159 0
139 160 0
140 160 0
130 150 0
142 163 0
135 156 0
128 149 0
136 157 0
133 153 0
129 150 0
127 147 0
120 141 0
133 152 0
122 141 0
129 150 0
122 142 0
132 153 0
133 154 0
117 135 0
117 136 0
127 147 0
124 142 0
120 140 0
118 137 0
116 135 0
113 132 0
113 131 0
115 132 0
114 133 0
109 127 0
115 134 0
111 129 0
115 133 0
109 125 0
105 124 0
108 127 0
96 113 0
103 120 0
105 122 0
95 112 0
106 123 0
102 118 0
103 119 0
104 121 31
59 85 76
50 79 95
54 85 92
55 87 92
54 85 85
54 85 99
56 89 100
57 89 113
56 89 111
56 88 94
55 86 112
54 86 83
55 87 92
56 87 97
56 88 107
54 86 99
56 88 117
54 85 92
55 87 99
53 84 98
55 87 112
56 88 104
58 90 120
55 87 106
56 88 107
56 88 117
56 87 106
56 88 107
55 85 112
53 83 90
54 83 100
55 85 106
55 85 115
55 86 89
55 86 109
54 84 97
55 85 94
53 81 95
54 84 108
53 82 100
53 82 102
52 81 100
53 81 95
53 80 99
51 77 90
51 77 86
52 79 94
50 77 94
52 80 83
52 79 95
50 76 78
50 75 91
50 76 94
43 65 68
47 71 76
44 65 68
48 73 88
45 68 71
46 71 78
44 66 71
41 62 57
41 60 54
41 61 51
40 59 55
40 59 58
73 75 25
81 84 28
74 76 29
94 95 36
98 98 38
107 106 41
123 121 40
112 112 30
125 123 33
126 124 35
128 126 39
128 125 39
127 125 31
143 139 45
131 129 37
135 131 34
144 140 31
144 139 35
138 135 32
149 145 45
149 144 41
145 141 32
142 138 28
150 145 42
149 145 37
145 142 32
150 146 36
144 140 30
146 141 36
145 141 28
150 147 36
152 147 34
152 148 34
147 144 28
149 144 39
147 142 25
150 146 41
149 144 30
149 145 30
147 144 19
152 147 28
153 148 39
154 149 39
150 146 30
150 147 34
150 145 37
155 150 36
153 149 32
150 147 22
153 149 34
153 149 32
154 149 32
157 152 39
152 149 28
151 147 28
155 150 36
157 152 37
153 149 36
156 150 37
155 150 42
154 150 36
152 148 28
154 150 30
158 153 36
156 151 44
155 151 30
153 149 25
153 149 32
157 152 32
154 151 34
156 151 34
154 150 25
155 150 39
157 153 36
151 148 28
157 153 32
155 150 36
158 153 37
151 148 28
157 153 34
153 149 25
155 151 32
157 152 34
155 151 36
155 151 32
158 154 36
151 146 19
152 147 34
153 149 39
152 148 34
154 150 32
154 150 34
153 148 44
155 151 39
159 154 47
156 152 41
157 152 41
157 153 36
155 152 28
154 150 34
158 153 42
157 151 42
153 148 34
153 148 34
154 150 37
156 152 44
155 150 39
151 146 39
152 148 37
155 151 41
151 147 30
155 150 45
151 148 25
144 140 32
152 148 32
153 148 32
147 143 32
155 151 30
153 148 42
152 147 41
147 142 28
144 139 41
140 136 28
149 146 30
142 138 42
153 148 42
142 137 42
145 141 30
142 138 30
141 137 36
135 131 22
139 134 32
142 138 32
137 133 39
143 139 30
136 132 32
140 136 25
138 133 37
138 134 30
127 121 30
127 123 34
123 119 34
123 120 25
157 174 0
166 186 0
164 184 0
169 190 0
169 192 0
170 192 0
168 189 0
170 190 0
169 190 0
169 192 0
172 193 0
163 184 0
169 191 0
165 186 0
170 192 0
171 193 0
168 189 0
168 189 0
170 192 0
168 189 0
169 191 0
168 188 0
170 192 0
169 190 0
169 190 0
167 189 0
169 189 0
170 191 0
171 193 0
170 193 0
174 196 0
170 193 0
170 193 0
170 193 0
169 193 0
169 192 0
171 194 0
169 191 0
172 195 0
169 191 0
172 195 0
168 192 0
172 195 0
170 194 0
170 192 0
171 194 0
172 194 0
169 193 0
168 191 0
168 191 0
172 195 0
171 193 0
169 192 0
167 191 0
170 193 0
171 195 0
171 193 0
171 195 0
168 192 0
169 191 0
170 193 0
167 190 0
170 193 0
167 190 0
169 192 0
168 191 0
168 191 0
169 192 0
165 189 0
169 192 0
166 189 0
166 190 0
171 193 0
167 189 0
168 191 0
166 190 0
168 191 0
170 192 0
168 191 0
168 192 0
167 190 0
170 192 0
167 189 0
168 191 0
166 189 0
165 188 0
166 188 0
165 188 0
166 189 0
166 190 0
165 188 0
165 188 0
166 189 0
166 188 0
167 190 0
163 186 0
168 191 0
166 189 0
162 184 0
166 189 0
165 187 0
162 185 0
166 189 0
166 188 0
166 189 0
163 186 0
165 187 0
163 184 0
161 183 0
165 188 0
165 187 0
166 188 0
168 189 0
164 186 0
166 188 0
161 184 0
162 185 0
164 187 0
165 187 0
162 184 0
165 188 0
161 183 0
162 184 0
159 182 0
158 180 0
159 181 0
160 182 0
163 185 0
161 184 0
159 182 0
158 181 0
150 172 0
159 181 0
156 178 0
156 179 0
156 178 0
157 180 0
154 176 0
158 181 0
154 176 0
149 170 0
149 171 0
152 173 0
145 166 0
145 167 0
143 164 0
149 169 0
129 149 0
129 149 0
136 158 0
134 155 0
131 152 0
131 151 0
131 151 0
136 156 0
137 157 0
142 162 0
135 156 0
130 151 0
120 139 0
121 142 0
123 142 0
131 152 0
127 147 0
129 149 0
114 133 0
119 139 0
125 145 0
135 154 0
110 130 0
126 143 0
119 138 0
124 143 0
122 142 0
121 140 0
124 143 0
118 136 0
113 131 0
114 132 0
122 140 0
111 130 0
106 124 0
111 129 0
107 125 0
108 125 0
88 106 0
102 118 0
92 109 0
100 117 0
98 113 0
111 129 0
102 119 0
95 110 0
81 102 70
56 87 82
52 82 86
55 87 99
56 88 110
52 83 80
55 88 92
55 86 102
55 86 105
55 87 100
56 89 107
54 85 94
56 88 107
56 87 110
52 83 89
55 87 98
57 89 111
54 85 100
54 84 99
55 87 101
57 89 110
56 87 103
56 88 112
54 84 99
54 85 103
56 87 105
55 85 100
55 87 113
56 88 113
54 84 98
53 83 93
56 87 107
55 85 104
54 84 93
55 86 101
53 83 96
55 85 104
54 83 99
52 79 93
53 82 92
55 84 107
50 77 81
52 81 77
51 78 76
53 81 92
51 78 90
52 80 94
49 74 82
49 75 83
48 72 69
50 76 89
50 76 93
47 71 70
46 69 72
48 73 73
46 70 69
44 66 78
43 64 61
41 62 61
41 61 56
38 57 54
41 61 56
41 62 63
42 64 64
71 72 22
80 80 25
89 90 34
78 79 34
108 108 32
105 105 33
105 104 31
124 121 43
122 121 35
120 117 35
126 124 33
132 128 41
127 126 25
126 124 33
139 136 36
139 135 39
141 137 26
138 134 41
143 140 42
143 139 32
134 132 29
143 139 28
143 139 36
146 141 34
152 148 42
149 144 37
141 137 32
148 143 34
151 147 34
150 146 30
149 144 32
148 145 34
153 150 30
150 146 41
152 147 41
142 137 22
152 149 32
157 153 34
147 143 22
153 148 41
150 147 25
146 142 39
152 149 30
152 148 32
152 148 30
153 149 32
150 146 30
151 147 28
150 146 30
153 148 34
153 149 36
152 146 32
152 148 37
154 150 34
151 148 34
152 148 32
154 151 34
155 150 37
159 155 42
155 151 34
157 152 45
155 151 37
151 148 34
154 150 36
153 149 32
152 148 37
153 148 25
154 150 28
150 147 25
155 151 32
154 149 30
155 150 37
153 149 30
153 149 30
155 151 32
156 151 25
154 149 28
154 150 39
152 148 32
155 150 42
158 153 37
156 151 32
158 153 39
154 148 32
154 151 22
152 147 32
156 152 37
157 153 30
157 152 32
159 155 42
159 154 45
155 150 42
156 151 37
152 148 30
157 152 34
155 151 32
155 150 37
154 149 28
153 149 41
154 150 32
153 147 41
154 149 32
151 146 36
155 150 30
149 146 28
153 148 34
153 149 32
154 148 34
154 149 34
152 146 41
150 147 32
150 146 32
152 148 30
149 145 32
154 150 28
149 145 30
146 141 34
149 144 41
146 142 25
150 145 36
148 143 30
141 137 36
143 139 28
144 140 32
150 145 39
143 139 32
144 139 25
143 138 30
141 136 37
147 142 30
145 140 44
144 139 34
139 135 25
134 130 30
140 136 44
135 131 37
131 126 28
120 117 25
134 129 34
128 124 28
128 125 25
137 134 30
117 113 30
164 184 0
168 190 0
168 189 0
171 191 0
168 189 0
167 189 0
171 193 0
168 189 0
169 191 0
169 190 0
169 190 0
171 193 0
163 185 0
169 190 0
167 188 0
170 193 0
167 189 0
167 188 0
170 192 0
164 185 0
162 183 0
166 187 0
173 195 0
170 191 0
171 191 0
167 190 0
170 192 0
169 192 0
169 191 0
169 192 0
171 195 0
172 195 0
170 193 0
170 192 0
171 194 0
171 194 0
171 194 0
172 194 0
170 193 0
169 192 0
170 193 0
170 192 0
171 194 0
169 192 0
171 195 0
170 193 0
171 195 0
166 189 0
168 192 0
171 193 0
172 195 0
170 193 0
169 191 0
170 193 0
169 193 0
170 192 0
169 192 0
169 192 0
172 194 0
171 193 0
168 191 0
168 191 0
168 191 0
169 193 0
169 191 0
168 191 0
171 194 0
169 192 0
169 191 0
169 192 0
166 189 0
166 189 0
167 190 0
168 192 0
168 191 0
166 189 0
167 189 0
163 187 0
167 190 0
169 192 0
168 191 0
168 191 0
163 187 0
165 188 0
167 189 0
169 192 0
169 191 0
167 189 0
168 190 0
164 187 0
167 189 0
166 189 0
166 188 0
166 189 0
169 191 0
167 190 0
165 187 0
169 191 0
168 190 0
169 192 0
163 186 0
163 186 0
164 187 0
164 186 0
163 184 0
162 184 0
164 186 0
167 190 0
166 189 0
163 185 0
163 185 0
164 187 0
164 187 0
163 186 0
165 186 0
166 188 0
161 184 0
161 183 0
163 185 0
168 190 0
163 185 0
159 181 0
158 181 0
167 189 0
162 184 0
164 186 0
164 186 0
160 183 0
159 182 0
156 177 0
155 178 0
157 178 0
156 179 0
155 177 0
159 181 0
162 182 0
153 174 0
155 178 0
157 179 0
153 175 0
150 172 0
151 172 0
154 176 0
150 172 0
148 170 0
146 168 0
145 165 0
139 161 0
136 157 0
134 154 0
135 155 0
139 159 0
136 156 0
144 165 0
145 165 0
130 151 0
134 155 0
131 151 0
132 152 0
130 149 0
132 152 0
118 138 0
139 159 0
124 144 0
128 147 0
128 148 0
127 147 0
124 144 0
129 149 0
122 142 0
122 141 0
129 149 0
120 141 0
107 125 0
124 141 0
124 141 0
124 142 0
117 136 0
120 139 0
120 137 0
113 131 0
113 130 0
112 130 0
120 139 0
107 125 0
109 125 0
105 122 0
107 124 0
90 106 0
102 119 0
101 116 0
101 118 0
109 127 0
97 115 0
81 99 25
51 79 83
51 82 95
51 81 82
53 84 85
52 83 88
53 84 92
55 86 97
53 83 93
56 89 92
56 88 107
54 86 99
55 86 98
55 86 110
54 85 98
52 82 103
54 84 101
55 86 95
54 86 90
55 87 110
56 89 103
53 84 94
55 87 108
54 85 103
54 84 99
56 87 110
54 84 109
54 84 85
55 85 99
54 84 85
53 83 100
52 81 94
52 80 98
55 85 95
54 82 103
52 81 86
52 81 99
53 81 96
52 80 90
52 81 87
54 82 100
51 79 94
51 78 93
53 82 102
50 76 80
52 79 92
50 75 75
48 73 84
47 72 69
47 72 78
47 71 65
50 76 75
47 70 72
49 73 81
48 72 72
44 67 75
46 70 61
44 65 53
43 65 61
40 60 60
35 52 42
39 58 49
37 55 41
62 65 24
75 76 31
93 92 35
94 95 36
95 95 33
107 107 34
103 101 28
120 118 27
119 117 36
111 109 24
125 121 31
125 124 30
130 127 25
133 130 35
136 134 26
133 130 29
138 134 30
139 136 37
142 138 40
146 142 31
135 132 31
142 138 29
136 134 19
145 142 25
144 140 37
150 146 30
146 142 42
147 143 32
146 141 34
151 147 39
150 145 32
150 146 34
150 147 28
151 147 37
154 150 34
147 143 30
151 147 37
154 149 34
149 145 36
150 145 30
149 145 30
150 147 11
149 146 34
156 152 39
151 148 25
154 148 42
150 146 34
152 149 28
150 146 28
156 152 32
155 150 39
155 150 36
154 150 30
159 155 44
156 151 34
148 144 30
154 149 37
146 143 28
153 149 36
151 148 32
155 150 34
157 152 36
155 151 37
152 148 25
160 155 42
155 151 28
154 150 32
148 143 25
154 151 32
160 155 36
155 151 36
155 151 30
160 155 41
155 151 30
153 149 30
156 152 39
155 151 25
154 150 36
157 152 41
156 152 34
150 146 28
152 148 34
156 152 28
154 150 32
150 145 22
154 150 37
155 150 36
155 150 28
158 153 37
158 153 36
155 151 32
153 149 30
154 150 32
153 148 30
157 151 39
155 151 39
153 149 32
154 149 47
155 151 36
156 150 37
152 148 34
157 153 34
150 147 30
155 150 41
152 147 28
154 150 41
149 146 30
153 148 41
153 148 36
151 147 25
147 143 25
150 145 30
149 145 36
149 145 22
147 142 36
155 150 39
153 149 25
147 143 28
153 148 36
151 147 36
149 146 25
150 145 36
140 137 30
150 146 32
150 144 34
146 142 34
145 140 32
150 146 32
141 137 32
142 137 22
144 140 32
141 136 30
142 138 28
134 130 36
137 132 34
129 125 25
144 140 37
137 132 41
126 121 34
121 118 25
127 123 32
128 123 37
125 125 22
164 183 0
167 188 0
166 188 0
167 188 0
166 187 0
170 192 0
166 188 0
172 193 0
169 191 0
171 190 0
169 191 0
169 191 0
169 191 0
169 189 0
170 191 0
167 188 0
170 190 0
171 192 0
172 193 0
171 193 0
169 190 0
169 191 0
169 190 0
168 189 0
167 189 0
169 191 0
169 191 0
171 192 0
171 191 0
174 197 0
171 195 0
169 192 0
170 194 0
172 195 0
168 191 0
170 193 0
170 194 0
170 193 0
173 196 0
168 191 0
169 192 0
170 193 0
172 196 0
169 191 0
170 193 0
171 195 0
171 193 0
168 191 0
169 193 0
167 190 0
169 192 0
168 191 0
170 193 0
171 194 0
168 191 0
168 192 0
167 190 0
169 192 0
171 194 0
166 189 0
170 192 0
167 191 0
169 192 0
167 191 0
167 191 0
169 193 0
169 193 0
166 189 0
170 193 0
170 193 0
167 189 0
167 191 0
169 192 0
167 191 0
168 191 0
163 186 0
167 191 0
171 193 0
166 189 0
166 189 0
168 191 0
167 189 0
168 191 0
170 193 0
168 191 0
169 192 0
166 189 0
166 189 0
168 191 0
166 189 0
167 190 0
165 187 0
159 182 0
169 192 0
168 191 0
168 190 0
166 189 0
166 188 0
166 189 0
166 188 0
165 187 0
163 185 0
164 187 0
164 188 0
164 187 0
165 188 0
164 186 0
168 191 0
169 191 0
160 182 0
164 188 0
163 185 0
163 185 0
166 189 0
161 184 0
165 187 0
155 178 0
163 186 0
159 182 0
163 184 0
159 182 0
165 188 0
160 182 0
159 180 0
161 183 0
159 182 0
160 182 0
159 180 0
162 183 0
157 179 0
159 182 0
159 181 0
157 180 0
157 180 0
156 178 0
161 183 0
146 169 0
155 178 0
158 180 0
153 175 0
148 171 0
150 172 0
145 165 0
153 174 0
147 167 0
150 171 0
142 164 0
138 159 0
136 156 0
140 161 0
140 161 0
131 153 0
128 149 0
137 158 0
124 144 0
133 155 0
139 159 0
143 164 0
139 160 0
141 162 0
133 153 0
132 152 0
130 150 0
138 159 0
135 155 0
127 146 0
123 143 0
128 147 0
127 147 0
119 138 0
125 144 0
127 147 0
117 136 0
122 140 0
120 140 0
110 130 0
111 129 0
118 136 0
122 142 0
116 135 0
119 137 0
121 139 0
117 135 0
112 130 0
103 121 0
116 134 0
116 134 0
104 122 0
105 122 0
100 117 0
104 121 0
99 116 0
88 104 0
117 134 0
99 115 0
100 117 0
69 91 57
51 81 85
54 85 99
53 85 92
55 86 83
55 88 95
55 87 112
53 83 89
55 87 104
53 84 91
53 83 89
54 85 90
56 88 95
55 86 94
54 85 100
55 87 103
55 87 103
55 86 93
55 86 94
54 83 104
54 86 89
55 86 101
54 85 105
50 78 84
53 83 94
53 82 96
52 81 91
55 86 104
54 84 93
52 81 95
53 83 100
54 83 93
54 83 98
52 80 89
54 84 109
53 82 102
49 76 85
50 77 83
50 77 93
52 79 78
52 79 90
49 74 76
49 75 75
54 82 97
47 71 76
51 78 87
48 73 86
48 75 87
46 69 74
49 74 81
48 72 70
46 70 64
43 65 75
46 68 68
42 64 68
42 64 58
45 67 70
38 57 47
41 60 54
38 57 46
41 61 59
67 69 24
87 88 33
89 89 38
93 93 31
99 98 41
110 108 39
117 114 44
129 127 40
124 121 36
116 115 37
116 115 36
119 116 28
134 131 33
136 132 31
127 125 32
141 136 40
136 132 30
139 134 38
138 135 34
151 147 36
137 134 32
148 144 37
145 142 24
147 142 33
146 143 30
147 143 22
144 140 36
141 139 25
149 145 22
148 145 36
150 146 34
145 141 34
148 143 34
150 146 28
150 145 37
149 145 34
151 147 30
151 147 37
152 148 30
149 144 32
149 145 34
146 142 34
150 147 36
154 149 37
151 147 37
155 150 37
155 150 42
153 149 25
150 147 32
155 151 37
156 152 30
152 148 30
154 150 34
153 149 36
150 146 36
154 150 32
151 147 28
153 150 28
153 149 32
150 146 28
158 152 39
151 148 32
148 145 19
156 151 30
154 150 36
149 143 30
154 150 16
155 151 30
153 149 28
156 151 34
153 148 30
150 146 22
153 149 19
157 152 36
153 148 37
156 151 39
154 151 32
149 145 30
156 153 36
155 151 37
155 151 28
156 151 36
160 154 39
157 152 37
153 149 30
150 147 41
155 150 34
153 149 32
159 155 37
153 149 32
156 152 34
157 153 37
155 151 36
157 152 39
158 152 45
154 150 37
154 148 28
153 149 22
154 149 39
156 151 30
155 151 37
149 144 39
157 151 44
154 150 37
151 147 30
152 146 34
151 147 28
148 144 36
153 148 37
152 148 25
154 148 37
156 151 37
150 146 34
148 145 32
155 150 36
151 147 30
153 149 25
147 142 25
147 142 34
143 139 30
144 141 39
149 145 39
147 143 36
152 148 32
147 143 28
141 137 32
143 139 32
147 143 28
142 137 36
145 141 37
139 135 34
140 136 39
139 135 28
142 138 28
147 142 39
142 137 41
122 118 19
124 121 19
127 125 25
135 131 28
119 116 22
128 123 34
143 153 11
171 192 0
168 188 0
165 186 0
168 188 0
169 192 0
171 191 0
170 192 0
167 188 0
169 190 0
169 191 0
166 187 0
168 190 0
166 187 0
169 191 0
168 190 0
168 188 0
167 189 0
169 191 0
169 191 0
167 189 0
166 187 0
168 190 0
167 189 0
166 188 0
169 190 0
171 192 0
169 191 0
169 190 0
168 190 0
170 193 0
171 194 0
171 194 0
171 194 0
172 195 0
168 191 0
173 195 0
172 194 0
171 194 0
172 194 0
168 191 0
168 191 0
171 194 0
170 194 0
172 194 0
171 194 0
169 192 0
170 193 0
173 196 0
168 191 0
171 194 0
168 190 0
167 191 0
170 193 0
171 194 0
170 193 0
169 192 0
167 189 0
168 191 0
165 188 0
173 195 0
171 194 0
170 194 0
167 190 0
168 190 0
170 192 0
168 192 0
170 194 0
169 192 0
166 189 0
169 192 0
168 191 0
169 191 0
168 191 0
164 188 0
168 191 0
170 193 0
168 190 0
167 190 0
168 190 0
170 193 0
166 189 0
170 193 0
165 188 0
161 183 0
171 193 0
167 190 0
164 187 0
167 190 0
167 190 0
169 191 0
166 189 0
165 187 0
164 187 0
164 186 0
166 188 0
171 193 0
163 186 0
167 190 0
167 189 0
162 186 0
165 187 0
167 189 0
166 189 0
168 191 0
167 189 0
163 186 0
161 184 0
164 186 0
161 183 0
162 185 0
166 189 0
166 189 0
163 186 0
162 184 0
164 187 0
160 182 0
162 184 0
162 185 0
159 182 0
159 182 0
164 186 0
159 181 0
163 185 0
160 183 0
165 187 0
158 180 0
159 180 0
160 182 0
160 181 0
153 175 0
162 183 0
149 171 0
158 180 0
159 182 0
159 181 0
159 180 0
157 178 0
158 180 0
152 173 0
150 171 0
151 173 0
146 166 0
148 170 0
146 168 0
139 160 0
150 171 0
139 160 0
143 164 0
141 162 0
140 161 0
136 157 0
143 164 0
135 155 0
141 161 0
125 146 0
129 150 0
133 155 0
129 149 0
134 155 0
132 154 0
126 146 0
129 149 0
126 146 0
131 150 0
133 153 0
127 148 0
128 149 0
124 143 0
115 135 0
124 144 0
124 145 0
129 148 0
111 131 0
125 145 0
114 134 0
115 132 0
118 138 0
117 136 0
108 127 0
100 117 0
119 138 0
119 137 0
114 132 0
105 124 0
120 139 0
113 130 0
109 125 0
114 132 0
100 117 0
102 119 0
103 119 0
95 111 0
110 126 0
102 120 0
97 114 0
92 108 0
93 108 0
100 116 0
76 97 62
49 78 76
51 81 75
52 82 94
53 83 87
53 83 97
53 84 92
52 82 88
54 86 92
54 85 90
55 87 98
55 86 93
55 86 102
53 84 103
54 85 108
55 86 86
56 87 106
55 86 105
55 86 94
51 80 77
52 83 87
55 86 100
54 85 104
52 82 90
54 84 96
53 83 98
51 80 75
54 84 97
55 85 98
53 82 92
51 80 102
53 81 95
52 80 88
51 78 86
54 82 100
53 81 89
52 79 80
49 75 79
51 77 90
48 74 81
50 77 90
49 75 86
48 74 76
49 74 78
48 73 68
47 71 76
45 68 67
47 70 83
46 70 67
43 65 67
41 61 48
41 62 56
43 65 64
40 60 52
41 63 50
36 54 51
41 61 59
37 55 42
38 56 52
76 79 32
90 90 34
85 87 22
101 100 28
107 105 33
105 105 32
117 114 27
107 106 30
113 113 26
130 127 35
121 119 29
119 116 27
130 127 42
127 124 28
138 134 37
132 130 36
140 137 28
140 136 34
144 141 32
135 132 37
148 144 34
147 143 32
149 145 34
146 142 32
147 141 36
149 144 37
138 134 19
144 140 28
155 150 42
143 138 30
148 144 30
148 143 30
149 144 34
154 149 25
156 151 36
151 147 32
151 147 28
150 145 28
152 147 37
153 148 34
150 147 28
150 146 32
152 148 37
146 142 25
152 147 32
155 150 32
155 150 37
153 149 36
153 149 25
156 152 34
152 146 36
148 146 19
152 148 28
153 149 32
156 151 41
149 146 19
152 149 25
155 151 32
153 149 30
155 151 30
154 150 28
155 151 32
151 147 30
156 152 37
153 150 19
158 154 42
148 144 19
152 149 25
158 153 39
153 150 25
155 151 34
156 152 37
153 149 32
153 149 39
153 149 28
155 152 30
146 144 19
154 148 36
157 153 32
153 149 34
154 149 39
157 152 32
151 147 19
156 150 41
158 153 47
154 150 34
155 151 37
154 151 25
154 151 32
154 150 34
154 150 30
155 152 28
153 150 32
150 145 30
150 145 39
152 148 37
153 149 28
154 148 42
153 148 32
157 153 30
148 144 28
155 150 37
152 148 34
152 148 36
148 145 32
152 147 34
156 151 37
152 148 32
154 149 37
153 149 32
149 145 34
154 150 36
144 140 25
152 147 34
150 146 30
151 146 32
153 148 41
145 142 32
150 144 22
150 146 36
146 142 25
153 147 39
149 145 32
143 139 19
145 141 25
147 142 37
146 141 39
142 139 30
149 145 41
135 131 32
138 132 32
140 137 30
140 135 34
142 138 32
131 127 30
134 130 32
140 136 34
133 129 28
129 126 34
120 117 22
128 124 25
115 112 32
147 160 11
166 186 0
171 193 0
166 186 0
168 189 0
166 187 0
167 188 0
169 190 0
170 190 0
169 189 0
169 190 0
164 185 0
173 193 0
165 187 0
167 188 0
167 188 0
171 194 0
168 189 0
171 192 0
170 190 0
167 189 0
167 189 0
170 192 0
169 189 0
171 193 0
171 193 0
172 194 0
171 192 0
167 189 0
169 191 0
169 192 0
172 194 0
171 194 0
173 196 0
171 195 0
170 193 0
170 193 0
170 194 0
170 193 0
170 194 0
171 193 0
170 194 0
168 191 0
170 194 0
171 194 0
171 195 0
170 193 0
172 194 0
171 194 0
168 190 0
169 193 0
171 194 0
169 192 0
167 190 0
170 193 0
170 194 0
170 193 0
168 191 0
168 192 0
171 194 0
170 194 0
166 188 0
167 189 0
166 189 0
169 192 0
170 193 0
168 191 0
168 190 0
168 191 0
170 192 0
168 191 0
166 189 0
171 194 0
170 192 0
166 189 0
168 190 0
165 187 0
167 190 0
167 190 0
168 191 0
165 188 0
170 192 0
164 187 0
166 189 0
166 188 0
168 190 0
166 189 0
169 192 0
165 187 0
161 183 0
167 190 0
163 186 0
167 189 0
165 188 0
166 189 0
166 188 0
163 186 0
169 192 0
162 185 0
166 189 0
168 191 0
162 185 0
166 189 0
161 184 0
166 189 0
161 184 0
163 185 0
160 182 0
164 187 0
168 189 0
167 189 0
163 186 0
161 183 0
162 186 0
166 188 0
160 183 0
162 185 0
168 191 0
167 189 0
160 183 0
163 185 0
160 183 0
163 185 0
163 186 0
161 183 0
157 179 0
161 183 0
161 183 0
160 182 0
159 181 0
160 183 0
153 176 0
155 177 0
161 182 0
153 175 0
149 172 0
157 178 0
155 177 0
158 180 0
153 175 0
149 171 0
159 180 0
159 181 0
148 170 0
146 167 0
148 170 0
149 170 0
132 153 0
148 168 0
140 161 0
146 168 0
143 165 0
145 166 0
139 161 0
141 162 0
139 160 0
146 167 0
133 155 0
127 147 0
123 143 0
128 149 0
133 154 0
119 141 0
129 147 0
138 158 0
128 148 0
123 144 0
132 152 0
125 145 0
130 149 0
124 144 0
132 153 0
123 142 0
121 141 0
130 150 0
117 136 0
128 146 0
128 148 0
123 141 0
123 142 0
104 123 0
118 137 0
122 141 0
123 141 0
110 129 0
120 137 0
110 129 0
111 129 0
109 128 0
115 132 0
92 110 0
91 108 0
93 110 0
100 116 0
104 121 0
89 105 0
104 122 0
93 110 0
92 107 0
98 114 0
91 108 25
67 89 40
49 77 78
51 80 83
53 84 89
51 81 70
52 82 92
53 84 95
54 85 96
52 82 97
53 83 97
54 85 94
54 86 99
51 80 71
53 84 92
54 85 94
53 83 96
54 84 86
54 84 100
55 86 103
53 83 85
53 83 83
55 86 92
52 80 85
50 79 74
54 83 101
52 81 85
53 82 84
51 78 88
53 82 92
55 86 97
51 78 82
51 79 96
49 75 83
50 77 86
52 80 84
49 75 92
51 79 82
50 77 82
49 75 83
50 77 79
50 77 82
49 75 75
45 69 71
46 70 67
48 73 66
46 69 72
43 66 63
44 68 72
43 64 64
44 66 66
40 60 62
40 60 54
42 64 49
38 57 46
36 54 45
36 54 44
50 65 30
60 61 22
71 73 25
96 96 36
97 97 22
106 106 34
106 106 37
106 105 30
119 117 25
113 112 31
116 115 24
117 116 35
120 117 38
130 126 49
138 135 41
138 134 42
129 125 22
138 135 32
139 136 37
129 127 28
144 140 34
133 130 31
149 146 40
143 139 36
146 142 36
148 143 32
147 143 37
150 146 41
149 145 39
144 140 28
141 137 32
149 145 34
149 146 32
151 147 28
143 140 28
148 144 30
149 145 25
145 142 28
145 142 37
148 144 37
143 141 22
153 148 37
148 144 25
150 146 25
154 149 36
147 143 30
155 151 34
152 148 30
148 145 28
152 148 39
148 143 19
152 148 34
153 149 30
154 148 36
151 148 34
154 150 41
152 148 32
150 147 22
151 146 34
154 150 34
156 152 37
151 147 25
155 150 36
155 150 39
156 151 39
155 151 37
154 150 37
157 152 28
154 151 30
154 150 36
151 147 32
151 149 22
154 150 22
161 154 39
156 151 41
155 152 30
154 149 39
153 150 32
153 149 22
154 150 30
153 148 37
156 152 37
153 149 30
158 152 37
152 147 25
156 152 36
154 150 32
157 152 39
153 149 32
154 151 28
155 150 39
152 147 22
152 147 30
149 145 28
157 152 34
153 150 30
154 149 32
152 148 28
155 151 32
158 153 41
154 148 41
150 144 30
156 151 32
153 149 34
148 144 25
152 148 19
152 148 28
154 150 37
151 147 34
155 150 47
149 145 28
151 147 36
146 143 28
149 144 30
148 143 37
152 148 41
151 146 42
146 141 34
152 148 34
147 142 39
146 142 39
148 143 32
145 142 36
142 138 22
146 141 34
145 141 32
152 147 36
144 140 34
142 139 32
138 134 30
146 143 34
131 127 19
141 138 30
137 132 28
137 133 30
136 132 30
146 140 42
132 128 32
128 124 37
131 127 25
126 122 16
126 122 30
125 120 34
154 172 0
170 191 0
167 188 0
165 184 0
168 189 0
165 187 0
169 191 0
168 188 0
168 188 0
167 188 0
167 188 0
168 189 0
167 188 0
168 189 0
170 192 0
166 188 0
169 189 0
171 193 0
169 190 0
170 191 0
169 190 0
170 191 0
167 189 0
170 190 0
167 190 0
171 193 0
166 187 0
171 194 0
172 193 0
172 193 0
171 194 0
170 192 0
170 193 0
171 193 0
170 193 0
172 195 0
169 193 0
168 192 0
170 193 0
172 196 0
169 192 0
171 193 0
173 196 0
170 193 0
172 195 0
171 194 0
171 194 0
171 194 0
171 193 0
171 194 0
170 193 0
170 192 0
169 192 0
167 190 0
171 194 0
169 191 0
169 191 0
169 192 0
167 190 0
170 193 0
170 193 0
168 191 0
168 191 0
169 192 0
170 194 0
171 193 0
167 190 0
165 188 0
168 191 0
170 193 0
169 191 0
165 188 0
168 190 0
168 192 0
165 189 0
169 192 0
168 191 0
168 190 0
170 193 0
166 189 0
164 187 0
164 186 0
166 188 0
166 190 0
168 190 0
171 194 0
169 192 0
167 189 0
166 190 0
164 187 0
163 185 0
167 190 0
166 189 0
166 189 0
168 190 0
166 190 0
167 189 0
168 191 0
165 188 0
162 184 0
163 185 0
163 187 0
167 190 0
163 186 0
168 190 0
165 188 0
166 188 0
163 185 0
164 187 0
164 186 0
162 185 0
164 187 0
162 183 0
161 183 0
164 186 0
167 189 0
159 181 0
159 182 0
164 186 0
160 182 0
163 186 0
161 183 0
156 178 0
159 181 0
158 181 0
162 184 0
156 179 0
159 181 0
156 177 0
161 184 0
158 180 0
152 175 0
158 180 0
155 177 0
161 184 0
152 174 0
157 179 0
160 182 0
152 173 0
158 179 0
155 178 0
159 181 0
151 172 0
153 175 0
142 163 0
151 173 0
144 165 0
151 172 0
152 174 0
143 165 0
138 159 0
143 163 0
137 159 0
134 154 0
134 154 0
138 159 0
132 153 0
135 155 0
136 157 0
135 155 0
134 155 0
131 152 0
131 152 0
125 146 0
138 157 0
131 150 0
133 154 0
130 150 0
126 146 0
130 150 0
129 149 0
125 144 0
123 142 0
125 146 0
122 141 0
120 140 0
120 140 0
112 131 0
113 132 0
128 147 0
111 131 0
113 132 0
119 138 0
123 141 0
127 146 0
115 134 0
107 125 0
116 135 0
101 118 0
105 123 0
98 117 0
111 130 0
100 117 0
106 122 0
98 114 0
109 125 0
98 113 0
109 125 0
109 127 0
90 106 0
79 95 0
91 106 0
90 106 36
59 82 57
55 83 81
51 80 79
49 78 75
52 82 78
53 84 94
54 85 94
50 80 71
50 79 84
51 81 90
54 85 96
52 82 84
51 80 84
54 85 91
53 82 97
51 80 86
53 84 90
52 81 96
52 81 82
54 84 97
52 82 97
52 82 90
52 80 91
53 83 92
53 83 96
48 75 77
51 79 89
50 79 79
52 80 99
54 82 90
48 74 76
49 76 69
50 77 90
50 77 80
49 76 78
51 78 82
49 75 71
45 69 73
45 69 61
45 69 56
49 74 73
45 69 67
49 74 75
47 70 79
46 70 63
41 62 63
45 68 70
41 62 52
41 63 52
39 58 49
40 59 52
39 58 59
59 73 33
80 92 19
90 100 8
60 61 17
89 88 28
89 89 25
103 102 28
109 108 28
110 108 26
111 108 32
115 113 36
124 122 32
123 121 30
123 120 32
124 122 28
125 123 26
131 128 24
138 135 33
132 128 19
134 130 38
136 132 36
142 139 29
134 130 25
134 131 25
137 134 32
144 140 39
133 128 25
144 140 25
142 139 34
144 140 25
152 147 25
145 142 32
145 141 28
150 146 30
147 144 30
151 146 34
152 147 39
145 141 37
153 148 34
145 142 19
149 145 25
149 145 16
148 143 30
149 144 41
152 147 37
153 149 25
148 145 25
148 145 28
157 152 44
156 152 30
155 151 34
147 143 28
151 146 34
153 150 19
158 154 37
150 147 28
150 146 28
152 147 32
155 151 22
152 149 28
152 149 28
151 146 28
151 148 34
157 153 37
153 148 32
154 150 30
149 145 30
154 149 42
155 151 32
155 152 37
151 147 28
155 151 36
156 152 34
157 152 39
155 151 32
155 150 41
155 151 37
158 153 36
156 151 39
156 151 32
154 149 28
154 151 32
158 153 36
157 152 36
155 150 36
156 150 28
155 151 28
156 151 41
156 151 37
153 149 25
156 151 37
157 152 36
155 149 34
155 150 32
154 149 30
154 149 30
153 149 32
151 147 28
153 149 41
154 151 19
152 147 30
156 151 32
152 147 37
150 146 22
155 151 36
151 147 19
150 146 28
152 148 36
153 148 25
154 149 41
143 140 28
157 152 41
149 144 37
155 151 30
154 149 32
153 148 42
146 141 30
152 146 41
151 146 32
150 145 42
145 141 30
148 143 32
155 152 42
142 139 25
151 146 34
149 144 30
146 142 34
146 141 37
150 145 32
142 137 37
144 141 28
143 138 34
147 142 44
133 129 28
136 132 28
137 131 32
137 133 32
135 131 36
143 138 32
128 124 30
133 129 34
132 127 37
125 121 28
126 122 25
115 111 28
169 189 11
171 191 0
169 188 0
165 186 0
168 190 0
167 188 0
169 189 0
168 188 0
170 190 0
165 186 0
166 186 0
168 189 0
166 187 0
170 191 0
170 191 0
170 191 0
170 191 0
167 188 0
166 186 0
167 189 0
167 187 0
170 190 0
164 184 0
170 191 0
164 187 0
165 185 0
172 192 0
172 193 0
170 192 0
170 193 0
170 192 0
170 193 0
170 194 0
171 195 0
170 193 0
172 194 0
171 195 0
171 194 0
167 191 0
169 192 0
170 193 0
171 194 0
169 192 0
169 193 0
171 194 0
171 194 0
171 194 0
171 194 0
170 193 0
170 193 0
170 194 0
171 193 0
170 193 0
169 193 0
167 189 0
169 192 0
169 191 0
172 195 0
169 193 0
168 191 0
169 192 0
168 190 0
171 194 0
171 194 0
169 192 0
167 190 0
168 191 0
170 192 0
171 194 0
169 192 0
167 190 0
165 189 0
166 188 0
165 189 0
167 190 0
163 187 0
167 190 0
166 190 0
168 191 0
168 190 0
163 186 0
170 193 0
166 189 0
169 191 0
169 191 0
169 192 0
165 188 0
166 188 0
165 188 0
165 189 0
168 190 0
163 185 0
163 186 0
166 190 0
165 188 0
166 189 0
167 189 0
166 189 0
168 190 0
167 190 0
163 185 0
166 188 0
165 187 0
168 192 0
166 188 0
166 189 0
165 188 0
166 188 0
160 182 0
165 188 0
156 178 0
158 180 0
162 186 0
163 185 0
164 186 0
165 188 0
158 180 0
161 183 0
163 186 0
157 179 0
159 182 0
161 183 0
158 181 0
165 187 0
160 183 0
161 182 0
160 182 0
163 186 0
153 176 0
158 181 0
156 177 0
154 176 0
160 182 0
157 179 0
157 180 0
156 177 0
153 174 0
149 170 0
160 182 0
144 165 0
155 177 0
145 166 0
156 178 0
153 175 0
144 164 0
139 159 0
151 172 0
140 161 0
143 164 0
146 167 0
137 157 0
150 171 0
140 161 0
140 161 0
138 159 0
137 157 0
137 157 0
138 159 0
126 146 0
146 167 0
137 158 0
139 160 0
131 151 0
137 159 0
135 155 0
130 151 0
131 151 0
135 154 0
129 150 0
117 136 0
129 149 0
130 150 0
118 139 0
133 153 0
119 138 0
117 137 0
117 136 0
126 146 0
116 135 0
118 137 0
115 133 0
126 146 0
116 135 0
125 143 0
110 128 0
116 134 0
113 131 0
109 129 0
108 126 0
114 133 0
115 133 0
100 118 0
117 135 0
111 128 0
94 110 0
103 120 0
99 115 0
87 103 0
102 118 0
99 115 0
90 106 0
88 104 0
84 100 0
97 113 0
83 101 40
71 92 62
54 80 78
52 83 90
52 82 89
51 81 90
55 86 90
52 81 96
50 79 77
54 84 84
51 80 85
48 76 74
51 80 79
51 79 84
53 83 96
54 83 98
51 80 77
54 85 90
49 77 86
53 84 95
53 82 86
51 80 81
52 81 91
50 78 87
50 78 81
49 76 84
50 78 89
51 79 87
53 81 97
49 75 86
49 75 82
52 79 79
48 74 75
51 77 75
48 73 77
46 70 65
49 75 84
47 72 74
50 76 79
45 68 67
46 69 79
42 65 64
43 65 66
44 67 58
41 62 58
41 61 47
42 64 39
38 56 36
44 60 39
58 73 36
84 94 11
83 95 0
87 98 0
79 87 1
79 80 27
80 80 22
87 88 21
104 104 35
101 100 26
108 107 24
116 114 39
116 114 38
126 122 34
116 113 37
119 116 22
121 120 27
136 132 46
134 130 46
132 129 38
136 132 21
145 142 39
135 132 39
143 138 32
138 135 25
138 135 36
145 140 22
145 141 33
143 139 28
142 138 22
139 134 32
146 142 37
146 141 37
141 138 25
145 142 22
146 143 22
148 144 32
150 145 37
147 144 25
151 146 28
154 149 30
150 145 32
152 147 25
154 150 34
149 145 34
145 141 28
148 143 25
152 148 28
156 152 36
152 148 36
154 150 39
153 149 34
151 147 37
148 145 28
151 147 30
148 144 30
154 150 30
150 145 32
152 149 34
156 151 30
156 152 36
155 150 41
151 148 25
154 150 37
154 149 32
155 151 28
154 149 32
154 150 37
153 148 30
154 150 30
155 151 30
154 150 32
154 149 34
156 152 34
157 151 37
154 150 32
157 152 39
155 149 25
154 150 30
159 154 44
150 146 34
156 151 32
155 151 36
156 152 30
156 152 36
154 149 36
157 153 39
157 152 37
153 150 25
148 144 30
152 148 30
154 149 32
153 149 22
156 151 32
149 145 32
159 154 39
153 149 30
152 147 22
154 150 28
155 151 32
155 149 30
153 149 36
151 147 36
156 151 39
150 146 32
153 148 34
152 147 37
156 151 39
154 149 36
152 147 39
156 150 41
151 147 19
153 149 39
152 147 41
151 147 25
150 147 16
151 147 30
151 146 36
152 147 37
149 144 30
151 147 30
146 143 39
155 151 36
149 146 28
149 144 42
146 141 28
146 142 34
145 141 34
141 137 28
147 143 30
150 145 39
143 140 25
141 137 30
144 139 28
145 141 34
141 136 25
145 141 37
137 133 25
142 137 22
134 131 28
138 134 19
124 120 32
136 131 28
133 127 22
130 126 30
126 121 37
120 122 22
171 192 0
169 190 0
164 186 0
168 188 0
168 188 0
163 183 0
169 192 0
173 193 0
168 189 0
166 187 0
169 189 0
169 188 0
168 188 0
167 188 0
169 191 0
170 192 0
166 187 0
167 187 0
170 191 0
167 186 0
168 189 0
170 191 0
170 191 0
170 192 0
169 190 0
171 193 0
170 191 0
168 189 0
170 192 0
170 193 0
170 193 0
169 193 0
171 194 0
171 194 0
172 195 0
174 196 0
166 189 0
169 192 0
167 191 0
171 195 0
170 193 0
167 190 0
169 193 0
169 193 0
169 192 0
171 194 0
170 193 0
170 193 0
169 192 0
170 193 0
171 194 0
168 192 0
170 193 0
167 190 0
167 191 0
171 193 0
168 191 0
169 192 0
168 190 0
167 189 0
171 194 0
169 193 0
171 194 0
168 190 0
167 190 0
172 194 0
169 192 0
169 192 0
169 193 0
169 192 0
170 193 0
169 192 0
165 188 0
168 191 0
167 190 0
171 193 0
164 186 0
170 193 0
167 189 0
167 190 0
168 192 0
164 187 0
167 190 0
167 189 0
167 190 0
167 190 0
170 192 0
168 192 0
165 188 0
165 189 0
168 192 0
170 192 0
163 187 0
165 188 0
166 189 0
163 186 0
168 190 0
163 185 0
166 188 0
170 193 0
159 181 0
166 189 0
167 189 0
162 184 0
165 188 0
167 188 0
166 188 0
161 184 0
163 185 0
162 184 0
166 189 0
163 186 0
159 182 0
161 183 0
163 185 0
163 186 0
163 186 0
162 183 0
158 181 0
162 183 0
160 184 0
160 183 0
157 180 0
157 180 0
162 185 0
159 182 0
154 177 0
159 181 0
156 178 0
156 178 0
159 181 0
157 179 0
158 181 0
161 183 0
159 182 0
154 177 0
158 179 0
154 176 0
149 170 0
152 173 0
148 169 0
152 174 0
152 174 0
148 169 0
153 174 0
152 174 0
151 174 0
146 168 0
143 165 0
145 166 0
141 162 0
148 170 0
141 162 0
148 169 0
137 157 0
137 157 0
146 168 0
128 148 0
136 157 0
121 141 0
132 152 0
134 153 0
126 146 0
126 146 0
120 140 0
129 150 0
127 147 0
133 153 0
130 151 0
137 158 0
131 151 0
131 151 0
130 151 0
135 155 0
130 150 0
122 141 0
129 149 0
107 125 0
130 150 0
118 137 0
132 152 0
111 129 0
120 139 0
116 135 0
121 139 0
110 128 0
115 136 0
123 141 0
120 139 0
110 129 0
121 138 0
106 122 0
116 132 0
109 127 0
107 125 0
105 121 0
110 128 0
108 125 0
101 116 0
106 122 0
100 115 0
91 107 0
95 110 0
93 108 0
104 119 0
75 89 0
93 109 25
82 99 44
47 75 47
49 78 87
50 79 73
51 81 85
50 79 87
50 78 77
51 81 83
53 83 89
54 85 92
51 81 84
51 80 69
51 80 88
51 79 67
52 82 86
50 79 89
51 79 82
49 78 71
50 78 75
51 79 82
50 79 72
52 80 90
48 75 89
52 80 91
50 76 80
51 79 93
50 76 67
47 73 85
49 76 84
46 70 59
49 75 85
46 72 70
48 72 71
47 72 71
46 69 79
44 67 53
44 68 60
46 70 74
43 66 67
47 70 70
44 67 55
39 60 54
40 61 51
54 69 33
65 76 32
85 97 8
95 106 0
90 99 0
95 105 0
93 102 0
95 107 8
76 77 21
79 80 19
95 95 24
104 101 29
102 101 32
105 105 35
108 106 32
117 114 24
133 129 42
121 119 26
130 127 39
139 136 42
133 130 36
131 128 31
124 122 24
132 129 44
138 135 32
135 131 27
142 136 45
141 136 34
141 138 36
140 136 36
139 134 34
141 138 37
143 139 28
143 139 22
153 149 39
150 145 41
148 144 32
146 142 25
148 143 34
148 145 28
150 145 37
155 151 41
153 149 39
148 144 22
148 144 32
155 150 34
153 149 39
142 139 30
150 145 30
154 149 30
154 150 30
150 145 39
152 147 30
154 148 36
149 145 36
153 149 25
151 147 25
153 149 37
150 145 22
154 150 34
151 147 37
151 148 25
153 148 34
152 148 30
157 152 34
151 147 28
151 146 36
156 151 32
153 148 32
157 153 36
156 152 37
155 150 39
153 149 28
155 151 36
154 150 36
157 152 37
152 148 22
152 149 30
149 145 25
151 148 19
152 149 22
154 149 36
156 150 37
155 151 34
153 148 25
152 148 32
153 149 30
157 152 41
157 153 34
155 152 32
153 148 34
156 151 41
152 149 22
154 150 30
149 146 22
157 153 39
154 149 34
157 152 37
155 151 25
153 148 32
154 150 37
151 148 25
153 149 22
150 146 36
155 151 30
156 151 41
160 155 45
154 149 36
151 146 30
150 146 22
154 149 39
149 145 32
153 149 39
152 148 30
150 144 36
147 144 32
148 143 22
149 144 34
152 147 36
150 145 32
154 148 41
145 140 28
148 143 39
153 148 30
153 148 30
144 138 19
146 144 28
150 145 39
145 142 30
144 140 32
150 145 36
149 144 36
145 140 37
150 145 39
145 141 28
140 136 30
139 134 37
143 140 28
142 138 28
142 137 32
132 129 32
135 131 32
137 133 19
127 124 25
134 130 19
123 119 28
132 129 28
121 115 30
122 118 25
139 150 16
165 186 0
166 187 0
168 188 0
168 188 0
168 189 0
167 186 0
169 191 0
165 186 0
167 186 0
167 188 0
166 187 0
168 189 0
168 190 0
166 186 0
170 192 0
167 187 0
171 189 0
171 191 0
170 191 0
168 188 0
167 187 0
168 190 0
168 189 0
165 187 0
169 191 0
172 195 0
169 190 0
165 188 0
170 193 0
171 193 0
171 195 0
169 193 0
172 194 0
172 196 0
171 194 0
172 195 0
168 192 0
171 194 0
166 190 0
171 194 0
170 194 0
168 191 0
171 194 0
171 194 0
169 192 0
171 194 0
168 191 0
172 195 0
170 193 0
172 194 0
169 191 0
172 195 0
169 193 0
170 192 0
167 190 0
168 191 0
173 196 0
169 192 0
169 192 0
168 191 0
172 195 0
170 193 0
168 191 0
169 192 0
169 191 0
171 193 0
170 194 0
167 188 0
168 192 0
168 191 0
169 191 0
169 192 0
170 193 0
169 192 0
169 192 0
168 190 0
166 188 0
167 190 0
165 188 0
168 191 0
168 190 0
168 191 0
168 191 0
169 191 0
169 192 0
168 191 0
167 189 0
171 193 0
165 188 0
162 184 0
165 187 0
167 190 0
166 189 0
170 193 0
165 187 0
164 188 0
167 190 0
166 189 0
164 188 0
161 184 0
165 188 0
163 184 0
163 185 0
168 190 0
164 188 0
164 187 0
168 190 0
161 184 0
161 185 0
160 182 0
164 188 0
165 188 0
167 189 0
158 180 0
162 185 0
165 187 0
161 184 0
163 186 0
162 184 0
157 179 0
163 185 0
160 182 0
163 184 0
162 185 0
159 182 0
161 182 0
161 183 0
160 181 0
159 182 0
157 180 0
157 179 0
162 185 0
158 181 0
157 180 0
160 183 0
153 174 0
154 176 0
157 179 0
155 177 0
151 173 0
155 177 0
151 172 0
151 173 0
147 169 0
154 175 0
149 171 0
148 169 0
139 161 0
142 164 0
143 165 0
139 159 0
139 159 0
146 166 0
135 155 0
137 157 0
150 170 0
138 159 0
141 160 0
138 158 0
123 143 0
143 163 0
139 160 0
136 157 0
140 161 0
120 138 0
126 146 0
137 158 0
125 145 0
131 150 0
124 144 0
124 144 0
125 144 0
127 147 0
130 149 0
134 155 0
115 137 0
127 147 0
126 145 0
126 145 0
112 131 0
122 141 0
121 140 0
135 154 0
125 144 0
127 147 0
122 142 0
121 139 0
120 138 0
112 131 0
116 136 0
114 133 0
106 123 0
114 132 0
117 133 0
102 118 0
103 120 0
96 113 0
105 122 0
98 113 0
92 109 0
90 103 0
87 103 0
105 121 0
88 104 0
99 114 0
85 100 0
79 96 0
75 89 0
83 97 0
89 102 18
70 88 36
60 82 67
45 72 66
48 75 81
51 81 73
50 78 94
51 80 83
51 78 94
49 76 68
51 80 68
51 79 75
52 81 95
52 81 77
49 77 71
48 75 79
49 78 91
50 77 78
51 78 84
47 74 76
48 75 67
47 74 71
48 75 73
50 76 73
46 72 79
47 73 65
46 71 67
46 71 64
48 73 70
46 70 71
46 71 60
44 67 57
47 71 64
48 73 74
46 68 68
44 68 58
43 65 65
46 66 56
49 68 25
67 80 40
80 90 8
80 87 0
75 86 0
84 94 0
78 88 0
71 80 0
95 107 0
82 95 0
75 86 8
76 77 20
80 81 25
102 100 29
101 98 32
94 94 27
109 109 35
109 109 33
117 116 34
119 116 25
118 116 26
120 118 22
129 125 34
128 125 29
131 127 31
134 131 33
131 127 24
135 132 40
135 132 31
140 136 30
136 133 30
140 134 34
146 141 39
141 137 30
143 138 36
141 136 28
149 145 28
149 145 32
145 141 30
145 142 36
143 138 28
146 142 32
150 146 30
155 150 41
145 142 32
153 148 30
156 151 48
148 144 34
147 143 32
149 146 28
147 143 28
149 146 32
152 148 32
150 146 25
152 149 30
151 148 28
154 148 36
152 147 32
152 149 32
155 151 28
157 152 39
154 149 37
155 150 37
154 149 25
157 151 37
152 148 32
154 149 36
154 150 30
154 149 36
154 149 32
155 150 39
152 149 19
152 148 34
154 149 37
159 154 44
153 149 32
156 151 36
153 149 34
156 152 36
150 147 28
153 148 32
153 148 32
158 152 32
156 152 39
154 150 34
153 149 30
157 152 39
158 152 41
154 150 30
155 150 30
155 151 36
157 153 39
155 150 22
155 151 30
152 148 39
157 152 37
154 150 28
154 149 30
158 154 39
152 148 30
155 151 30
150 146 19
155 151 34
157 152 32
151 147 30
154 150 32
152 148 22
156 151 32
157 151 36
151 147 19
151 149 22
155 149 37
149 145 22
154 149 39
152 147 30
148 143 34
151 147 28
152 147 32
153 149 30
149 145 37
152 147 39
155 150 36
156 151 47
151 147 32
149 145 25
146 142 32
144 140 28
153 148 37
149 145 34
143 138 22
149 144 34
147 142 34
147 142 39
143 139 34
145 140 36
140 135 28
148 143 34
146 141 41
145 141 28
146 142 37
136 132 25
131 128 22
133 130 16
140 135 28
131 127 25
135 131 37
128 124 28
130 127 28
123 119 25
129 125 19
121 118 16
122 117 36
138 149 11
164 183 0
168 191 0
169 190 0
167 187 0
166 186 0
164 184 0
169 189 0
168 189 0
170 192 0
169 189 0
167 185 0
168 189 0
168 189 0
170 190 0
164 186 0
168 191 0
170 190 0
169 191 0
167 187 0
167 188 0
166 186 0
171 191 0
168 190 0
173 195 0
168 190 0
170 191 0
170 191 0
169 189 0
169 188 0
170 191 0
171 193 0
169 193 0
168 192 0
167 190 0
169 192 0
168 192 0
168 192 0
171 194 0
171 193 0
172 194 0
170 194 0
173 195 0
170 193 0
170 193 0
172 195 0
170 193 0
171 194 0
173 196 0
170 193 0
169 193 0
172 196 0
169 191 0
169 192 0
169 191 0
168 191 0
168 191 0
171 195 0
171 195 0
166 189 0
169 192 0
168 192 0
167 189 0
171 194 0
167 190 0
168 191 0
169 192 0
169 193 0
168 190 0
164 188 0
169 192 0
171 194 0
168 190 0
169 193 0
169 192 0
165 189 0
167 190 0
170 192 0
169 192 0
169 192 0
169 192 0
166 190 0
169 192 0
166 188 0
172 194 0
166 188 0
168 190 0
166 189 0
168 190 0
167 190 0
168 191 0
165 187 0
163 186 0
166 189 0
168 190 0
164 186 0
168 191 0
163 186 0
167 189 0
162 184 0
164 187 0
161 184 0
166 190 0
164 187 0
161 184 0
164 188 0
162 185 0
164 186 0
163 187 0
166 190 0
160 182 0
160 184 0
164 187 0
162 185 0
163 186 0
163 186 0
163 185 0
159 182 0
163 186 0
160 184 0
161 184 0
161 183 0
160 183 0
155 178 0
161 183 0
164 187 0
161 183 0
151 173 0
159 181 0
156 177 0
157 178 0
154 177 0
157 178 0
155 176 0
154 175 0
150 171 0
155 176 0
158 180 0
153 174 0
156 178 0
149 170 0
151 172 0
151 172 0
151 174 0
152 173 0
142 163 0
143 165 0
150 173 0
153 175 0
156 178 0
143 164 0
137 158 0
145 165 0
141 163 0
144 165 0
142 162 0
148 169 0
131 152 0
138 159 0
146 167 0
137 159 0
139 160 0
133 153 0
131 152 0
140 161 0
138 158 0
133 153 0
135 156 0
141 162 0
126 145 0
130 151 0
130 151 0
131 151 0
134 155 0
133 154 0
128 148 0
131 151 0
129 149 0
121 140 0
132 153 0
122 142 0
121 140 0
125 144 0
128 147 0
113 131 0
115 134 0
125 144 0
118 137 0
113 132 0
108 126 0
107 125 0
118 136 0
111 128 0
111 129 0
117 135 0
99 116 0
111 128 0
101 119 0
91 108 0
100 115 0
100 117 0
98 115 0
103 117 0
94 110 0
104 119 0
98 114 0
96 110 0
95 111 0
93 109 0
86 100 0
88 102 0
82 97 0
87 101 0
87 99 0
71 87 18
63 81 37
66 90 75
49 74 57
46 72 72
52 82 92
50 79 74
48 75 70
48 76 72
49 77 85
48 75 75
50 78 81
48 75 76
49 77 75
49 76 80
46 71 65
49 78 67
46 71 77
45 70 65
48 75 70
49 76 63
47 72 67
46 71 59
48 75 78
45 68 70
45 70 64
43 67 46
44 68 56
43 66 53
47 68 56
50 68 53
66 79 26
62 74 14
75 86 0
66 75 0
69 81 0
74 83 0
85 97 0
83 92 0
87 99 0
94 105 0
95 107 0
76 86 0
90 102 0
81 88 11
75 75 18
79 79 20
75 78 29
93 94 21
103 101 31
110 109 31
111 110 22
122 120 28
120 117 33
117 115 35
123 120 30
124 121 29
135 132 38
123 120 34
131 128 35
139 135 24
140 137 36
141 137 37
142 139 37
145 141 28
141 138 28
146 141 36
137 134 31
139 135 32
147 143 34
140 137 32
152 148 28
146 142 32
146 142 37
148 144 36
150 146 32
149 145 25
151 147 41
151 147 32
153 149 39
147 143 34
147 143 39
147 143 22
147 144 30
148 144 30
152 147 37
149 145 34
150 147 36
157 153 39
150 146 34
151 148 37
155 151 34
149 146 28
149 145 30
152 148 28
154 149 25
156 151 32
156 150 39
154 150 30
151 147 30
155 150 32
151 147 28
153 148 36
154 149 25
155 150 36
155 151 34
153 150 30
157 152 37
151 148 34
155 150 32
155 151 32
152 148 32
150 146 25
158 152 37
155 151 37
154 149 34
152 148 25
154 151 25
154 149 34
154 151 25
151 147 28
154 150 30
154 150 25
152 148 28
156 152 32
151 148 25
156 152 39
154 149 34
155 150 34
151 148 34
156 151 37
154 150 32
155 151 37
152 148 30
153 149 36
157 153 36
153 148 32
156 151 36
154 150 36
149 145 19
150 145 37
154 150 34
155 150 30
153 149 32
152 147 25
152 148 30
156 151 39
151 147 39
153 149 34
152 147 30
153 149 28
149 146 19
154 150 28
151 147 22
151 147 30
153 148 37
146 142 25
151 147 36
151 147 32
149 143 41
149 144 39
148 143 28
149 144 37
148 143 28
149 143 36
143 139 32
136 131 34
147 144 32
141 138 19
145 141 34
140 133 30
144 140 34
145 141 36
137 133 22
142 138 28
141 137 32
132 128 32
141 137 28
142 138 34
136 131 34
130 127 30
133 130 30
129 126 22
122 119 30
126 121 30
117 113 34
154 169 11
168 189 0
168 189 0
170 191 0
164 183 0
168 190 0
166 186 0
168 188 0
168 189 0
170 191 0
164 183 0
165 185 0
168 188 0
167 188 0
161 181 0
165 184 0
167 190 0
170 191 0
170 190 0
168 190 0
167 188 0
166 185 0
171 191 0
171 193 0
170 192 0
168 188 0
170 192 0
171 191 0
169 191 0
169 191 0
172 194 0
172 196 0
172 195 0
171 195 0
172 195 0
169 193 0
173 196 0
170 193 0
172 195 0
169 192 0
172 194 0
170 193 0
169 192 0
167 189 0
171 193 0
169 192 0
165 188 0
171 194 0
169 193 0
169 193 0
169 192 0
168 192 0
166 190 0
169 191 0
172 195 0
167 190 0
169 193 0
171 194 0
169 191 0
167 190 0
170 193 0
171 194 0
168 190 0
172 195 0
171 194 0
170 193 0
169 191 0
167 191 0
165 187 0
168 191 0
166 189 0
171 193 0
168 191 0
169 191 0
168 190 0
170 192 0
169 191 0
168 190 0
165 188 0
167 191 0
168 192 0
162 186 0
164 187 0
167 190 0
168 191 0
167 190 0
169 192 0
167 190 0
160 183 0
164 187 0
166 189 0
164 188 0
164 188 0
167 190 0
168 192 0
165 188 0
167 189 0
164 186 0
163 184 0
164 187 0
165 188 0
168 192 0
164 187 0
167 189 0
166 188 0
165 187 0
159 182 0
169 192 0
163 186 0
163 186 0
167 189 0
162 184 0
162 185 0
165 187 0
163 187 0
162 184 0
161 183 0
161 183 0
163 187 0
161 183 0
159 181 0
162 184 0
158 181 0
158 182 0
163 186 0
160 183 0
162 185 0
158 181 0
160 182 0
154 175 0
161 184 0
160 181 0
157 179 0
159 181 0
155 177 0
156 179 0
148 169 0
154 176 0
157 180 0
149 172 0
158 180 0
155 177 0
153 174 0
152 174 0
153 174 0
149 170 0
149 171 0
143 165 0
146 167 0
144 165 0
143 164 0
145 166 0
149 170 0
146 167 0
142 164 0
145 167 0
139 161 0
140 162 0
146 169 0
145 166 0
139 159 0
130 151 0
139 159 0
135 156 0
137 159 0
135 156 0
140 162 0
138 159 0
138 159 0
126 146 0
133 153 0
139 158 0
133 155 0
136 157 0
135 155 0
127 146 0
116 136 0
132 151 0
129 148 0
126 146 0
121 139 0
131 151 0
111 130 0
126 145 0
115 133 0
116 134 0
124 143 0
131 151 0
120 140 0
113 130 0
110 129 0
113 131 0
107 125 0
105 123 0
120 139 0
112 130 0
115 132 0
114 130 0
108 126 0
111 128 0
103 120 0
106 123 0
101 116 0
106 121 0
96 112 0
107 123 0
92 108 0
81 97 0
96 111 0
95 109 0
93 107 0
93 107 0
86 101 0
78 92 0
96 112 0
77 89 0
78 93 0
83 94 0
72 87 8
75 91 32
62 82 60
59 82 68
56 79 43
47 76 66
44 68 63
48 75 65
48 76 74
47 73 69
48 76 74
49 76 74
49 77 78
48 74 75
46 71 65
47 73 71
48 73 64
44 68 58
43 67 56
41 64 51
46 68 59
55 70 56
53 70 41
62 77 33
56 67 18
78 87 0
70 79 0
73 81 0
70 80 0
80 88 0
76 86 0
68 81 0
79 87 0
92 102 0
89 99 0
77 87 0
72 83 0
81 92 0
101 113 0
79 89 0
77 85 8
59 60 17
88 88 20
82 82 29
100 100 31
104 103 28
107 106 37
112 112 25
121 120 25
114 111 33
128 125 35
119 116 28
132 128 30
116 114 29
137 134 24
139 136 35
143 138 41
138 134 37
138 134 30
135 132 30
145 141 39
139 136 21
147 142 38
145 141 36
134 132 22
141 138 25
140 137 28
149 144 36
145 141 34
150 147 30
147 142 22
152 147 34
149 145 34
150 146 34
148 144 25
147 142 34
154 149 36
149 146 28
151 146 39
149 146 30
148 143 34
148 145 22
145 141 36
150 145 32
155 149 32
150 146 28
151 148 30
148 146 30
152 149 22
151 148 32
154 148 39
152 148 32
151 148 30
158 152 37
155 151 37
151 148 25
150 147 22
157 153 37
151 147 22
154 150 34
154 150 34
154 149 32
154 149 32
154 149 34
158 153 42
154 150 39
159 153 44
152 148 25
155 149 30
152 147 22
152 148 30
154 149 37
153 150 30
150 147 30
155 149 32
157 152 36
151 148 30
158 153 34
154 149 36
153 149 30
153 149 30
152 149 25
154 150 32
155 150 30
153 150 32
155 150 34
161 155 45
155 150 30
157 152 34
159 154 48
154 150 37
154 150 25
157 152 37
155 151 28
152 147 28
156 152 32
148 143 28
155 151 32
149 146 25
149 146 37
153 149 32
149 144 25
154 148 44
153 148 36
153 148 36
151 147 25
149 146 30
148 145 28
146 142 25
147 143 32
150 146 22
151 147 36
145 141 30
147 143 30
152 149 30
146 142 32
151 146 30
152 147 44
153 149 41
151 146 28
153 148 37
146 142 28
151 146 41
142 138 32
138 134 22
143 139 37
150 144 41
146 142 28
142 139 32
144 139 34
142 138 36
129 126 22
148 143 39
136 131 32
137 133 28
139 135 28
127 124 22
137 133 32
126 123 22
132 127 25
116 111 30
123 119 22
163 182 0
168 188 0
166 186 0
165 185 0
168 188 0
167 189 0
164 186 0
171 191 0
169 188 0
171 192 0
165 187 0
168 188 0
167 190 0
171 193 0
165 184 0
170 191 0
171 192 0
171 193 0
170 192 0
170 190 0
171 192 0
168 189 0
169 190 0
170 191 0
169 190 0
167 188 0
166 188 0
166 188 0
167 189 0
169 189 0
167 187 0
171 194 0
172 195 0
170 193 0
169 192 0
168 191 0
171 194 0
171 193 0
170 193 0
170 194 0
169 192 0
170 193 0
170 193 0
171 195 0
169 191 0
168 192 0
167 191 0
167 190 0
172 195 0
171 193 0
173 195 0
172 195 0
171 195 0
169 193 0
168 191 0
170 192 0
169 192 0
168 191 0
169 193 0
171 193 0
165 188 0
169 192 0
170 193 0
168 191 0
168 191 0
168 190 0
170 194 0
170 193 0
170 193 0
168 191 0
170 193 0
165 189 0
168 191 0
169 192 0
168 191 0
169 193 0
167 190 0
166 189 0
169 191 0
170 192 0
165 187 0
169 192 0
170 193 0
170 193 0
164 187 0
164 187 0
165 187 0
168 191 0
166 189 0
165 188 0
168 191 0
165 187 0
165 187 0
168 190 0
165 187 0
167 191 0
164 186 0
169 192 0
167 189 0
164 187 0
162 185 0
165 188 0
159 182 0
165 187 0
166 189 0
166 189 0
163 186 0
162 183 0
160 183 0
164 188 0
159 182 0
160 183 0
167 189 0
166 188 0
164 187 0
160 182 0
161 184 0
164 187 0
160 183 0
165 188 0
165 188 0
158 181 0
160 183 0
163 186 0
160 183 0
155 176 0
161 183 0
158 180 0
155 176 0
161 183 0
163 185 0
155 178 0
161 184 0
165 187 0
150 171 0
155 177 0
156 178 0
150 172 0
153 175 0
149 170 0
155 177 0
154 176 0
150 172 0
160 182 0
143 166 0
158 179 0
153 174 0
146 168 0
151 173 0
136 158 0
145 166 0
142 161 0
144 166 0
146 166 0
143 165 0
145 166 0
144 166 0
138 157 0
137 158 0
143 164 0
140 162 0
135 155 0
134 153 0
134 156 0
130 149 0
139 160 0
129 149 0
128 148 0
140 161 0
128 148 0
128 149 0
131 152 0
136 157 0
138 158 0
137 159 0
137 158 0
116 136 0
126 145 0
134 154 0
119 138 0
128 148 0
137 157 0
124 144 0
114 135 0
116 135 0
129 149 0
120 139 0
127 146 0
118 137 0
120 137 0
111 129 0
110 129 0
110 129 0
106 123 0
108 127 0
113 132 0
115 132 0
105 123 0
119 137 0
113 130 0
107 125 0
108 125 0
99 116 0
109 126 0
107 124 0
111 126 0
99 115 0
92 108 0
88 106 0
93 107 0
101 115 0
88 101 0
80 96 0
96 111 0
90 105 0
91 105 0
77 91 0
88 101 0
79 92 0
86 98 0
80 93 0
77 89 0
72 85 0
83 97 0
68 80 19
56 70 36
70 85 41
62 76 41
64 77 32
63 78 34
62 78 38
55 67 26
55 66 29
51 64 25
69 81 32
68 81 8
71 81 18
74 83 0
77 86 0
79 89 0
68 79 0
66 75 0
83 96 0
83 92 0
78 86 0
90 101 0
73 84 0
76 88 0
73 83 0
85 96 0
66 75 0
88 98 0
96 108 0
83 93 0
84 94 0
94 106 0
79 90 0
78 87 0
79 89 0
80 80 21
61 64 22
98 96 24
104 104 26
100 100 31
107 106 24
104 103 31
111 111 28
132 128 37
114 112 29
123 121 31
132 129 26
133 129 36
139 135 30
130 127 33
138 134 40
136 133 37
139 135 32
142 139 32
142 138 37
140 136 28
142 138 39
144 140 25
142 138 28
140 137 25
141 138 22
146 143 22
144 140 34
152 148 41
141 138 22
149 145 32
146 142 36
152 148 25
147 143 28
150 146 28
150 146 32
150 145 28
155 150 44
149 146 34
150 145 37
153 149 34
157 151 41
155 149 36
151 147 32
148 145 28
150 146 25
155 150 30
150 146 28
152 148 30
151 147 28
155 150 36
155 150 41
147 144 22
154 150 34
153 149 32
155 150 34
151 147 32
154 150 37
154 150 30
155 151 34
148 144 30
151 147 28
153 148 37
155 151 37
149 145 28
150 146 37
156 151 36
152 149 34
156 152 30
158 153 45
153 149 25
153 149 28
154 151 28
158 154 36
153 148 32
154 150 34
159 154 36
151 147 37
149 145 30
154 149 28
157 153 34
155 149 37
153 148 30
154 149 37
152 147 25
153 148 34
157 151 32
157 153 37
157 151 42
152 148 30
152 147 30
155 150 32
153 148 30
154 150 28
154 150 34
153 149 32
152 147 37
153 148 28
153 149 34
153 148 32
155 150 32
153 149 37
150 147 34
154 150 32
153 149 39
151 145 30
152 148 34
150 145 34
153 149 30
153 149 30
152 147 36
146 142 30
152 147 30
151 147 30
155 150 44
150 146 34
148 145 30
143 138 25
147 142 30
147 143 34
144 140 28
146 141 30
139 134 28
146 141 36
145 141 25
141 136 25
148 143 44
140 136 34
142 137 22
147 141 42
137 133 36
145 141 34
138 134 36
136 132 30
129 126 25
130 126 30
134 129 32
131 128 28
122 119 25
122 118 30
121 126 22
165 186 0
167 188 0
166 185 0
167 186 0
168 188 0
168 187 0
167 186 0
167 187 0
169 190 0
167 187 0
170 191 0
166 186 0
167 188 0
166 188 0
172 193 0
164 185 0
169 191 0
166 187 0
168 190 0
169 190 0
169 190 0
169 191 0
171 193 0
169 190 0
167 189 0
169 189 0
169 191 0
170 192 0
168 189 0
166 188 0
172 194 0
171 194 0
172 195 0
172 195 0
170 194 0
171 194 0
171 194 0
173 196 0
173 196 0
170 194 0
170 194 0
168 192 0
169 192 0
170 192 0
169 192 0
165 188 0
170 194 0
169 192 0
171 194 0
171 194 0
171 194 0
171 194 0
169 192 0
170 194 0
172 195 0
170 193 0
166 190 0
169 193 0
168 192 0
169 192 0
171 194 0
168 190 0
168 191 0
168 190 0
170 193 0
169 191 0
167 191 0
172 195 0
169 193 0
170 191 0
166 189 0
168 192 0
169 191 0
167 190 0
170 193 0
169 193 0
166 189 0
168 191 0
170 193 0
164 187 0
166 189 0
168 191 0
164 187 0
167 190 0
169 192 0
167 190 0
167 189 0
167 189 0
168 190 0
167 190 0
164 187 0
161 183 0
165 189 0
167 189 0
167 190 0
167 189 0
165 188 0
167 190 0
170 192 0
166 188 0
167 190 0
165 188 0
167 190 0
159 182 0
163 185 0
165 187 0
162 186 0
163 185 0
166 189 0
161 184 0
160 182 0
170 192 0
165 188 0
164 186 0
163 185 0
164 187 0
156 179 0
163 187 0
162 183 0
158 181 0
164 186 0
162 185 0
163 187 0
159 182 0
162 185 0
163 184 0
162 185 0
161 184 0
159 182 0
163 185 0
159 182 0
156 178 0
154 177 0
156 180 0
156 179 0
152 175 0
155 177 0
160 183 0
159 181 0
160 182 0
157 179 0
148 169 0
144 165 0
150 172 0
148 169 0
140 162 0
156 178 0
143 164 0
159 180 0
147 169 0
145 167 0
153 175 0
151 172 0
141 162 0
142 163 0
136 157 0
146 167 0
142 164 0
136 155 0
145 167 0
140 161 0
137 157 0
129 149 0
127 148 0
141 162 0
138 159 0
133 154 0
144 163 0
134 154 0
130 150 0
124 144 0
129 149 0
130 149 0
130 151 0
129 149 0
130 151 0
122 141 0
132 152 0
134 154 0
123 143 0
126 144 0
131 150 0
129 149 0
127 147 0
119 139 0
118 138 0
125 144 0
116 135 0
116 136 0
124 144 0
123 140 0
110 130 0
111 130 0
120 138 0
116 133 0
111 129 0
116 133 0
116 134 0
116 135 0
103 120 0
110 127 0
113 130 0
104 121 0
104 120 0
102 117 0
106 122 0
98 114 0
106 122 0
96 114 0
89 105 0
95 111 0
84 99 0
100 115 0
108 121 0
90 105 0
86 100 0
83 97 0
96 110 0
86 99 0
90 103 0
93 107 0
84 99 0
66 79 0
79 92 0
74 87 0
83 96 0
69 81 0
83 96 0
66 78 0
70 80 0
71 83 0
68 79 0
70 82 0
56 67 0
70 82 0
74 84 0
78 88 0
82 93 0
74 83 0
77 87 0
52 64 0
66 76 0
73 82 0
89 100 0
87 96 0
82 94 0
79 87 0
77 89 0
82 95 0
94 106 0
87 97 0
75 85 0
83 94 0
84 94 0
84 92 0
75 86 0
82 93 0
83 95 0
88 97 8
84 84 13
97 98 25
90 91 25
106 104 27
101 100 27
95 94 28
114 112 28
117 115 25
132 128 31
132 127 37
126 123 37
140 136 32
123 119 25
129 126 30
133 129 34
142 138 37
138 134 43
138 136 25
144 139 30
139 134 29
141 137 25
143 140 30
142 138 34
145 141 30
150 145 30
150 145 34
147 143 25
148 144 25
150 146 30
152 148 41
147 143 28
143 139 28
149 145 30
154 149 34
141 138 30
149 145 25
149 145 34
148 144 34
154 150 28
150 144 37
148 142 34
157 151 39
153 148 28
145 141 30
154 151 28
152 146 37
151 147 32
151 145 32
152 147 34
147 143 28
153 149 36
154 149 37
152 148 32
156 151 37
151 146 32
154 150 25
149 144 30
153 148 32
154 149 36
156 151 32
152 148 28
150 146 25
152 147 32
152 148 30
148 145 22
157 153 37
155 152 30
154 149 36
153 149 30
150 146 28
155 150 30
155 149 30
156 150 34
153 149 30
152 148 30
156 151 34
158 153 37
155 151 30
155 151 36
149 146 28
154 150 34
155 149 42
158 153 39
155 151 32
154 150 32
150 145 36
156 151 36
153 148 25
156 151 37
154 149 32
153 150 16
153 149 32
159 153 39
150 146 30
152 148 28
153 148 37
148 144 32
152 148 28
151 148 28
155 150 34
156 150 41
149 146 28
149 145 32
151 145 36
151 146 37
150 146 28
152 147 37
150 146 32
150 146 30
150 145 39
150 145 30
145 141 34
144 139 19
151 146 41
147 144 34
146 142 22
146 142 32
142 139 25
148 144 32
147 143 34
151 146 42
145 141 36
147 142 30
144 139 34
141 137 30
144 140 34
146 142 34
143 140 30
148 145 28
136 132 34
138 134 25
139 135 32
133 129 22
139 135 37
137 134 32
126 123 19
128 124 16
125 121 28
127 122 32
123 118 19
134 138 28
168 189 0
167 187 0
165 187 0
164 185 0
170 190 0
166 186 0
166 186 0
169 189 0
166 186 0
168 188 0
170 191 0
167 188 0
169 188 0
166 188 0
167 188 0
172 193 0
167 189 0
168 190 0
166 186 0
166 187 0
166 186 0
169 190 0
167 188 0
166 188 0
171 192 0
170 193 0
171 192 0
169 190 0
170 191 0
168 189 0
167 188 0
168 190 0
171 193 0
169 192 0
171 194 0
168 192 0
168 191 0
168 192 0
169 192 0
169 192 0
171 194 0
168 191 0
169 192 0
168 192 0
167 191 0
170 194 0
171 194 0
171 194 0
171 195 0
170 194 0
165 188 0
168 191 0
170 192 0
171 194 0
172 194 0
170 193 0
168 191 0
167 191 0
170 193 0
171 193 0
170 193 0
167 191 0
167 189 0
170 193 0
171 194 0
166 189 0
170 192 0
169 191 0
166 190 0
169 192 0
167 190 0
168 192 0
167 190 0
169 192 0
167 190 0
166 189 0
165 187 0
167 189 0
166 189 0
168 191 0
165 189 0
168 191 0
165 188 0
166 188 0
167 190 0
166 189 0
165 188 0
165 188 0
166 188 0
167 191 0
164 187 0
168 190 0
167 189 0
166 189 0
162 185 0
166 189 0
163 184 0
164 188 0
163 186 0
166 188 0
166 189 0
166 189 0
169 192 0
167 189 0
166 189 0
168 191 0
166 189 0
159 182 0
167 190 0
163 186 0
163 186 0
161 184 0
163 185 0
167 189 0
164 186 0
166 189 0
162 185 0
162 184 0
160 182 0
162 183 0
166 188 0
159 181 0
166 189 0
161 183 0
161 183 0
155 177 0
161 183 0
163 185 0
159 182 0
159 181 0
155 177 0
158 181 0
157 178 0
152 174 0
161 184 0
153 177 0
159 182 0
155 177 0
153 176 0
155 176 0
154 176 0
149 171 0
153 174 0
151 172 0
151 172 0
152 175 0
146 169 0
149 171 0
148 170 0
145 167 0
151 174 0
149 170 0
146 167 0
149 170 0
149 170 0
140 161 0
147 169 0
149 171 0
136 157 0
141 162 0
144 164 0
133 153 0
136 157 0
144 165 0
127 147 0
144 165 0
130 152 0
138 159 0
133 153 0
133 155 0
129 150 0
128 148 0
129 149 0
146 166 0
132 152 0
127 147 0
137 156 0
136 156 0
133 153 0
137 155 0
126 146 0
129 149 0
122 142 0
122 142 0
124 143 0
130 149 0
123 142 0
129 149 0
126 146 0
120 138 0
121 139 0
113 131 0
117 135 0
115 133 0
111 130 0
117 135 0
120 138 0
109 125 0
112 129 0
109 127 0
105 123 0
107 125 0
116 133 0
94 111 0
94 110 0
102 119 0
90 104 0
112 129 0
91 107 0
97 113 0
98 113 0
98 111 0
83 97 0
91 106 0
85 101 0
85 100 0
89 104 0
89 103 0
105 118 0
96 109 0
88 100 0
90 104 0
80 93 0
79 92 0
82 94 0
83 96 0
81 92 0
80 91 0
79 91 0
88 100 0
83 96 0
66 78 0
73 83 0
87 97 0
85 95 0
72 82 0
86 98 0
72 83 0
87 97 0
85 97 0
76 87 0
73 83 0
88 98 0
82 93 0
84 95 0
83 92 0
72 82 0
96 106 0
76 86 0
94 106 0
87 98 0
90 100 0
67 77 0
90 102 0
107 119 0
94 103 0
97 108 0
92 103 0
89 97 16
83 83 25
83 83 26
91 91 23
96 96 28
90 89 27
105 101 28
107 106 28
118 116 34
130 126 34
122 118 35
130 128 40
123 122 26
136 131 28
132 129 36
137 133 33
139 137 33
131 128 24
137 133 30
138 135 31
142 138 29
141 137 30
142 139 44
144 140 38
140 136 28
143 139 32
151 146 36
145 141 30
147 143 30
151 145 28
148 143 32
146 142 22
151 146 36
147 144 34
148 144 30
148 144 34
147 143 25
153 148 42
155 150 28
155 151 32
151 147 30
155 151 42
153 147 42
156 151 34
151 146 36
149 144 36
154 149 30
146 143 22
153 149 32
157 153 36
152 148 30
152 147 37
155 151 30
158 153 36
149 145 34
155 151 30
153 149 37
154 150 36
151 147 32
158 153 39
156 151 39
156 151 37
154 149 34
150 146 25
151 146 30
155 149 44
157 152 34
153 148 34
155 150 32
151 146 25
154 151 30
151 146 34
154 149 32
154 149 44
155 149 30
153 148 36
151 147 28
160 155 37
157 152 39
152 148 22
154 150 25
154 150 34
153 149 22
155 151 28
156 152 39
155 149 25
158 152 39
156 152 39
151 148 22
153 150 30
158 153 41
155 151 30
155 151 41
155 151 41
153 148 32
152 147 34
155 151 37
160 155 45
151 147 25
154 149 36
148 144 30
152 148 32
156 152 41
155 150 34
154 150 37
152 147 36
153 149 36
153 148 36
151 148 32
151 147 34
152 147 37
156 151 37
152 147 37
152 147 41
149 145 28
146 142 30
146 142 28
151 146 39
149 144 32
152 147 39
146 140 34
145 141 30
139 135 19
143 139 32
147 142 30
144 139 32
148 143 42
147 142 37
150 145 28
145 140 44
141 136 34
132 127 25
141 136 36
142 137 32
144 139 37
126 122 22
131 126 34
132 128 30
130 126 28
122 117 22
131 126 39
145 157 19
166 187 0
168 188 0
167 186 0
167 187 0
167 187 0
165 185 0
165 185 0
167 187 0
163 184 0
169 190 0
166 185 0
169 188 0
166 186 0
169 190 0
168 189 0
168 190 0
166 188 0
170 190 0
167 189 0
173 195 0
166 187 0
166 188 0
169 190 0
168 189 0
171 192 0
167 187 0
168 188 0
169 189 0
168 189 0
168 187 0
171 192 0
172 195 0
171 194 0
173 195 0
172 195 0
169 193 0
170 193 0
172 195 0
172 194 0
172 195 0
169 193 0
170 193 0
168 192 0
168 191 0
171 193 0
169 193 0
171 193 0
170 192 0
171 194 0
171 195 0
172 194 0
170 193 0
170 193 0
170 193 0
168 191 0
166 189 0
169 192 0
169 191 0
168 191 0
167 189 0
171 194 0
172 195 0
170 194 0
168 191 0
169 192 0
171 194 0
167 190 0
167 190 0
167 191 0
166 189 0
170 193 0
166 190 0
168 191 0
168 191 0
169 191 0
165 188 0
168 191 0
166 189 0
165 188 0
167 190 0
167 191 0
167 189 0
167 191 0
169 191 0
168 190 0
170 193 0
166 190 0
168 191 0
167 191 0
166 189 0
168 191 0
163 186 0
169 192 0
163 186 0
167 189 0
168 191 0
167 191 0
166 190 0
165 188 0
162 184 0
162 185 0
162 186 0
164 187 0
164 187 0
162 185 0
164 186 0
162 185 0
165 188 0
167 190 0
163 186 0
162 185 0
163 185 0
168 190 0
165 187 0
164 186 0
161 184 0
162 185 0
160 183 0
163 185 0
160 182 0
165 187 0
162 184 0
154 176 0
159 182 0
162 184 0
164 187 0
157 180 0
154 176 0
156 178 0
158 180 0
155 177 0
157 178 0
155 177 0
156 178 0
158 181 0
156 179 0
161 183 0
153 174 0
158 180 0
156 177 0
153 175 0
150 172 0
155 177 0
152 173 0
155 178 0
153 175 0
145 167 0
146 167 0
142 164 0
155 177 0
141 162 0
144 164 0
148 168 0
149 171 0
141 160 0
139 160 0
145 166 0
141 161 0
146 167 0
134 154 0
146 165 0
140 162 0
136 155 0
141 163 0
137 156 0
140 160 0
137 158 0
136 155 0
140 162 0
137 158 0
139 160 0
135 155 0
125 145 0
134 155 0
141 161 0
131 149 0
132 152 0
141 161 0
134 152 0
128 149 0
129 148 0
137 156 0
113 133 0
124 144 0
118 138 0
123 143 0
122 142 0
121 140 0
129 148 0
110 128 0
117 136 0
119 137 0
126 145 0
111 128 0
106 124 0
116 134 0
105 124 0
108 125 0
105 123 0
98 115 0
108 126 0
114 133 0
110 126 0
117 135 0
88 105 0
111 126 0
102 119 0
107 123 0
99 115 0
111 127 0
104 120 0
97 112 0
103 116 0
99 115 0
98 113 0
99 116 0
93 108 0
93 109 0
97 113 0
82 98 0
97 112 0
87 98 0
68 81 0
85 97 0
80 94 0
91 104 0
78 89 0
96 109 0
72 84 0
77 88 0
71 82 0
85 97 0
78 87 0
90 100 0
88 100 0
78 88 0
75 86 0
84 97 0
79 90 0
82 95 0
76 86 0
84 95 0
90 100 0
83 93 0
81 91 0
88 101 0
87 99 0
79 90 0
93 104 0
97 107 0
88 97 0
89 99 0
83 95 0
89 99 0
87 97 0
101 112 0
100 112 0
94 104 0
92 101 2
77 78 19
91 90 20
87 88 26
111 108 38
104 103 28
108 107 20
119 116 35
118 117 35
112 109 20
127 124 31
136 132 36
136 132 28
131 128 29
128 126 34
137 134 25
138 134 38
132 128 26
142 136 37
136 133 24
133 130 30
145 140 42
146 142 37
144 140 32
149 144 34
136 133 22
143 138 30
147 142 34
147 142 30
148 145 36
147 143 34
143 139 32
148 144 28
148 144 34
145 140 49
148 145 25
149 144 34
148 144 22
149 146 28
150 146 28
153 148 39
153 148 16
145 141 25
151 145 32
150 146 28
157 151 32
154 149 30
154 149 36
151 145 30
150 147 19
153 148 32
153 149 28
154 150 28
156 152 34
152 148 32
157 152 37
156 151 34
152 147 28
153 149 28
155 151 28
153 148 32
152 148 30
155 151 32
154 150 28
156 150 37
156 152 36
156 151 30
154 150 19
154 150 30
156 151 36
152 148 30
150 146 25
154 149 30
155 150 39
151 147 25
155 150 22
159 153 45
154 150 32
154 149 36
157 153 39
155 150 36
155 150 37
151 147 11
152 149 19
157 152 37
150 146 36
155 151 37
155 150 36
158 153 42
155 149 37
154 149 34
151 146 37
155 149 34
155 151 34
156 151 37
153 149 30
150 146 25
156 151 32
153 149 36
152 146 36
156 151 41
152 148 34
151 147 30
151 146 32
154 149 34
150 146 32
154 149 34
153 148 37
150 146 28
153 149 28
146 142 25
145 140 30
150 146 32
154 149 30
140 136 25
146 142 30
149 146 36
149 145 28
149 145 28
150 146 22
144 140 37
149 144 41
144 139 34
142 138 25
145 141 34
146 141 28
145 140 34
145 140 37
148 143 42
137 133 34
143 139 25
132 128 25
129 125 28
135 132 19
130 126 30
129 125 28
133 130 25
135 130 28
121 118 22
118 114 22
130 125 34
161 177 0
172 192 0
168 187 0
167 186 0
168 188 0
169 190 0
168 186 0
163 183 0
170 190 0
164 184 0
165 185 0
165 185 0
169 189 0
168 188 0
167 187 0
171 190 0
170 190 0
166 187 0
169 191 0
168 189 0
169 189 0
164 184 0
167 189 0
169 191 0
169 190 0
167 188 0
170 191 0
168 190 0
166 187 0
171 191 0
167 186 0
171 192 0
170 194 0
169 193 0
169 192 0
170 193 0
173 195 0
171 194 0
169 192 0
170 193 0
169 192 0
173 196 0
173 195 0
171 194 0
170 192 0
171 193 0
171 195 0
169 193 0
171 194 0
166 189 0
170 193 0
169 192 0
172 195 0
169 192 0
173 195 0
172 195 0
169 192 0
171 194 0
167 190 0
169 191 0
170 193 0
166 189 0
170 193 0
168 191 0
168 191 0
168 191 0
170 193 0
167 190 0
169 192 0
168 191 0
164 186 0
166 190 0
171 193 0
168 191 0
168 190 0
169 192 0
169 192 0
168 191 0
168 191 0
168 191 0
169 193 0
163 186 0
164 188 0
166 189 0
166 189 0
164 187 0
168 191 0
163 185 0
165 188 0
170 192 0
164 187 0
165 187 0
166 189 0
170 193 0
165 187 0
165 189 0
169 192 0
161 183 0
165 188 0
167 189 0
162 185 0
162 185 0
166 190 0
165 187 0
166 189 0
161 183 0
166 189 0
167 188 0
167 190 0
164 186 0
166 189 0
166 188 0
166 189 0
160 183 0
168 190 0
158 180 0
165 186 0
165 187 0
160 183 0
161 184 0
161 184 0
156 179 0
163 185 0
162 184 0
157 180 0
159 182 0
159 181 0
154 177 0
160 182 0
165 187 0
161 183 0
161 184 0
154 176 0
156 177 0
158 181 0
159 181 0
155 178 0
156 177 0
159 182 0
156 178 0
153 176 0
151 174 0
155 178 0
159 180 0
152 173 0
155 177 0
145 166 0
152 174 0
148 171 0
146 168 0
147 168 0
144 165 0
150 172 0
139 160 0
146 168 0
138 160 0
144 166 0
146 167 0
143 165 0
136 158 0
137 159 0
145 166 0
140 162 0
142 162 0
137 158 0
139 159 0
146 168 0
141 163 0
140 161 0
130 151 0
131 151 0
140 163 0
136 157 0
137 158 0
139 159 0
139 160 0
134 154 0
147 167 0
121 142 0
126 147 0
131 151 0
135 157 0
132 153 0
131 152 0
128 148 0
114 132 0
126 145 0
117 136 0
118 138 0
130 150 0
125 144 0
122 139 0
115 133 0
118 136 0
113 132 0
123 141 0
114 132 0
121 139 0
110 129 0
111 128 0
109 127 0
112 130 0
110 128 0
115 131 0
121 139 0
120 138 0
101 118 0
96 111 0
88 105 0
111 129 0
91 105 0
119 135 0
104 120 0
100 116 0
98 113 0
110 126 0
90 104 0
92 108 0
101 115 0
99 113 0
89 104 0
96 111 0
84 98 0
102 116 0
94 107 0
79 89 0
93 106 0
95 109 0
88 99 0
99 111 0
87 101 0
77 88 0
77 90 0
86 98 0
85 97 0
85 97 0
89 101 0
83 95 0
94 105 0
86 96 0
89 101 0
84 95 0
99 109 0
87 98 0
78 90 0
88 99 0
89 100 0
98 108 0
75 85 0
92 105 0
96 107 0
71 81 0
94 104 0
87 97 0
88 99 0
87 98 0
85 96 0
93 104 0
91 103 0
82 89 14
86 86 27
78 80 25
82 83 23
94 94 26
107 106 25
108 107 14
112 110 27
114 112 25
124 121 18
131 128 34
124 121 26
135 132 37
136 132 30
127 124 14
138 134 35
133 130 32
138 133 41
143 140 39
136 132 16
140 137 22
144 140 19
133 128 28
143 138 37
145 141 34
146 142 37
144 140 30
148 144 36
148 144 28
155 149 37
147 143 32
147 143 28
146 143 22
145 142 28
148 144 32
148 144 22
149 144 25
151 146 37
151 147 34
154 150 32
146 142 30
150 144 39
149 146 30
149 145 25
157 153 39
155 149 45
153 147 48
149 144 25
149 145 25
153 147 32
155 150 34
152 148 30
155 150 32
153 149 30
149 145 36
149 144 34
152 147 36
150 146 16
156 151 41
152 147 34
150 146 22
151 147 30
151 147 32
151 147 30
153 148 30
156 151 34
152 147 34
150 146 34
152 148 30
155 149 41
156 151 28
156 151 32
149 144 30
153 149 32
151 147 30
152 148 28
156 152 36
155 150 36
155 151 32
151 146 34
154 150 19
152 148 34
159 154 42
152 148 11
154 149 32
154 149 32
153 149 36
154 149 37
156 151 41
156 151 34
151 146 22
154 150 32
150 146 28
150 145 30
153 149 34
157 153 42
153 149 30
150 146 32
153 148 32
154 149 41
151 147 28
155 149 44
149 145 22
153 149 41
154 150 32
149 144 11
152 148 34
156 152 37
145 141 30
149 146 28
151 147 32
154 148 32
150 146 32
151 146 37
154 150 32
153 148 41
150 144 39
146 142 36
141 137 30
143 140 28
141 137 28
152 148 34
147 142 36
148 143 34
145 141 30
133 130 28
145 141 32
143 138 28
147 141 36
141 137 19
142 137 32
137 132 32
144 140 39
134 131 28
126 122 22
135 131 30
126 122 32
125 121 30
132 129 28
125 121 30
121 117 30
168 187 0
169 188 0
165 184 0
167 187 0
166 184 0
168 189 0
169 188 0
166 186 0
167 187 0
166 187 0
167 186 0
171 192 0
165 185 0
166 187 0
168 189 0
167 187 0
169 189 0
168 189 0
166 187 0
168 189 0
168 190 0
170 190 0
169 191 0
169 189 0
169 190 0
167 186 0
170 192 0
169 190 0
165 187 0
168 189 0
173 196 0
171 192 0
171 194 0
172 196 0
171 194 0
172 195 0
169 192 0
170 194 0
170 193 0
167 190 0
170 193 0
172 195 0
172 194 0
171 194 0
169 191 0
172 195 0
171 193 0
169 192 0
170 193 0
168 192 0
168 191 0
167 190 0
170 194 0
170 193 0
169 192 0
169 192 0
171 194 0
170 193 0
168 192 0
171 194 0
167 189 0
167 191 0
165 188 0
170 193 0
168 191 0
169 192 0
167 191 0
168 192 0
168 191 0
170 193 0
165 190 0
168 192 0
170 193 0
171 193 0
170 193 0
166 188 0
169 193 0
166 190 0
164 188 0
166 189 0
167 190 0
165 187 0
164 187 0
170 193 0
168 190 0
164 187 0
165 188 0
168 191 0
171 193 0
167 190 0
166 189 0
168 192 0
165 188 0
168 191 0
163 186 0
169 192 0
164 187 0
165 188 0
169 192 0
164 186 0
164 186 0
164 187 0
169 192 0
162 186 0
164 187 0
164 186 0
166 189 0
160 182 0
162 185 0
160 182 0
163 186 0
165 188 0
160 182 0
161 183 0
161 184 0
162 184 0
164 186 0
161 182 0
163 186 0
159 181 0
162 184 0
157 180 0
161 183 0
159 180 0
163 185 0
164 186 0
159 182 0
156 178 0
156 177 0
153 176 0
162 183 0
159 181 0
153 175 0
159 181 0
156 176 0
157 179 0
156 178 0
158 181 0
154 177 0
153 175 0
151 173 0
153 176 0
148 169 0
153 176 0
155 177 0
144 166 0
143 165 0
152 174 0
144 166 0
149 171 0
150 171 0
147 169 0
148 171 0
156 179 0
153 175 0
146 169 0
143 165 0
148 169 0
147 170 0
142 163 0
135 156 0
134 154 0
140 160 0
136 157 0
146 167 0
137 158 0
132 152 0
144 165 0
133 154 0
135 155 0
135 156 0
142 160 0
128 149 0
136 156 0
138 159 0
144 164 0
134 154 0
132 152 0
126 145 0
134 153 0
130 150 0
126 146 0
126 144 0
126 146 0
127 147 0
127 146 0
128 149 0
119 140 0
120 139 0
127 146 0
119 138 0
108 127 0
115 134 0
115 134 0
120 139 0
115 133 0
126 146 0
110 127 0
113 132 0
114 133 0
116 134 0
120 138 0
103 120 0
113 130 0
107 124 0
122 140 0
110 125 0
115 132 0
114 132 0
115 133 0
112 128 0
111 128 0
106 123 0
108 124 0
105 123 0
91 107 0
98 113 0
91 105 0
98 113 0
105 121 0
95 110 0
91 105 0
107 120 0
86 101 0
91 104 0
95 109 0
77 90 0
94 107 0
102 113 0
106 121 0
91 103 0
79 90 0
88 100 0
98 111 0
76 88 0
91 104 0
86 101 0
85 96 0
79 92 0
103 115 0
89 101 0
85 97 0
88 101 0
88 98 0
82 95 0
88 98 0
94 104 0
105 117 0
83 94 0
99 110 0
97 109 0
101 113 0
88 98 0
94 105 0
96 105 0
91 101 0
85 93 0
95 105 0
96 109 0
74 80 8
77 77 9
93 92 18
103 103 28
113 111 24
93 95 25
111 108 25
115 113 37
117 115 26
113 108 24
128 126 39
125 121 28
120 117 30
127 124 33
132 129 29
137 134 28
135 132 27
136 133 30
133 129 28
137 134 32
133 130 31
139 136 25
149 145 34
138 134 34
148 144 39
146 143 34
144 142 19
142 138 36
149 144 36
147 143 28
143 140 22
143 140 32
148 144 32
150 146 34
150 146 25
147 143 32
150 145 34
148 144 34
151 147 22
151 146 32
150 146 34
148 145 30
150 147 36
148 144 25
149 146 30
150 146 30
150 145 30
149 145 30
152 148 30
150 145 22
154 150 25
150 145 25
152 147 36
158 152 32
156 150 34
155 151 34
152 147 25
153 149 32
152 148 32
157 152 39
146 142 25
155 150 39
155 151 34
158 153 42
152 148 32
154 149 37
152 148 25
154 149 34
153 148 11
157 152 37
154 150 37
151 147 32
154 148 34
156 152 39
152 148 25
152 149 28
155 151 32
152 149 22
154 151 22
156 151 28
155 150 28
152 148 36
154 150 22
156 151 30
158 152 42
154 150 28
154 148 39
152 148 25
157 151 37
154 149 22
156 152 30
153 149 25
156 151 34
154 148 34
153 149 32
150 146 25
154 150 32
155 150 30
149 145 22
156 151 42
155 150 36
150 146 30
148 143 32
151 146 34
150 146 25
155 151 30
147 143 28
153 149 28
152 148 32
155 151 25
151 147 28
154 149 30
152 147 37
149 144 39
151 146 39
145 140 30
144 139 34
148 145 25
143 138 32
151 146 32
148 143 37
144 139 28
141 137 41
147 143 32
145 141 30
145 141 25
144 140 42
138 133 28
145 141 32
138 134 22
140 136 22
140 135 37
131 126 28
134 131 32
131 127 34
134 129 42
132 128 34
123 119 16
122 117 34
117 113 16
126 128 22
169 188 0
166 184 0
164 184 0
169 189 0
166 186 0
166 186 0
166 187 0
169 189 0
169 188 0
167 186 0
168 188 0
166 187 0
168 189 0
165 185 0
165 183 0
171 190 0
169 190 0
171 190 0
165 185 0
169 192 0
167 187 0
166 188 0
166 188 0
170 192 0
169 190 0
170 191 0
167 186 0
170 192 0
170 191 0
167 186 0
172 192 0
167 189 0
170 193 0
173 196 0
171 194 0
170 193 0
170 192 0
169 193 0
169 192 0
170 194 0
172 194 0
172 195 0
170 193 0
171 194 0
169 192 0
171 194 0
170 193 0
169 192 0
170 194 0
165 189 0
170 194 0
170 194 0
167 190 0
167 190 0
172 194 0
170 193 0
170 193 0
168 193 0
166 189 0
169 191 0
168 190 0
170 193 0
165 189 0
168 191 0
170 194 0
166 190 0
169 192 0
170 193 0
169 192 0
170 193 0
168 191 0
166 189 0
168 191 0
168 191 0
166 190 0
168 190 0
167 190 0
171 193 0
171 193 0
161 184 0
168 191 0
167 190 0
168 191 0
168 191 0
165 188 0
167 189 0
162 185 0
168 191 0
165 187 0
169 192 0
167 189 0
168 191 0
165 188 0
163 186 0
169 192 0
163 186 0
164 186 0
167 190 0
164 187 0
167 189 0
165 187 0
164 186 0
164 186 0
163 186 0
166 189 0
164 187 0
160 183 0
167 190 0
167 189 0
166 188 0
168 190 0
165 187 0
163 186 0
161 184 0
161 183 0
163 185 0
161 183 0
164 187 0
165 188 0
159 182 0
161 184 0
161 184 0
160 182 0
159 182 0
163 186 0
158 179 0
160 182 0
158 181 0
160 182 0
162 184 0
156 178 0
155 177 0
159 182 0
160 182 0
154 175 0
155 177 0
152 174 0
152 174 0
159 182 0
161 183 0
160 182 0
151 173 0
154 176 0
152 174 0
158 179 0
160 182 0
153 174 0
153 174 0
151 171 0
147 169 0
150 172 0
159 181 0
149 169 0
145 167 0
151 172 0
150 169 0
148 170 0
144 165 0
146 167 0
145 165 0
147 169 0
141 163 0
149 169 0
131 153 0
148 169 0
134 154 0
140 159 0
145 167 0
139 161 0
142 164 0
139 159 0
134 155 0
140 161 0
135 156 0
136 155 0
143 164 0
145 166 0
138 158 0
143 164 0
137 158 0
131 152 0
131 150 0
135 154 0
139 159 0
136 156 0
129 149 0
134 154 0
123 142 0
135 154 0
120 138 0
117 136 0
120 139 0
134 153 0
116 134 0
125 146 0
109 127 0
124 142 0
131 151 0
119 138 0
119 138 0
113 130 0
115 134 0
122 140 0
107 124 0
106 121 0
116 134 0
104 120 0
99 116 0
110 127 0
100 116 0
98 113 0
99 114 0
110 126 0
113 129 0
100 116 0
111 128 0
101 118 0
102 118 0
96 112 0
104 118 0
97 113 0
94 107 0
91 105 0
98 113 0
93 107 0
98 113 0
85 101 0
93 106 0
93 105 0
96 110 0
85 100 0
92 106 0
76 90 0
99 112 0
96 110 0
83 96 0
91 102 0
95 107 0
95 107 0
85 97 0
79 92 0
107 120 0
89 100 0
93 103 0
92 103 0
74 84 0
92 103 0
97 108 0
84 95 0
90 102 0
86 97 0
103 113 0
101 111 0
82 91 0
99 109 0
84 96 0
93 104 0
103 115 0
96 107 0
98 105 11
80 78 10
88 89 27
92 92 18
96 96 24
104 103 14
111 109 27
111 110 33
109 106 30
115 113 29
121 119 26
130 127 42
121 118 29
127 125 29
133 131 25
132 129 32
135 131 32
143 140 25
143 138 36
141 137 39
136 132 28
144 139 42
144 139 42
142 139 25
138 134 19
146 143 37
148 144 30
148 144 34
150 145 30
144 140 28
141 138 30
146 141 37
142 138 30
148 142 25
149 145 30
151 146 28
146 143 30
154 149 41
145 141 34
143 141 32
155 151 32
152 147 30
150 145 42
152 148 30
152 148 34
151 147 36
145 142 28
155 150 36
154 150 37
151 147 28
154 149 34
151 147 30
153 148 37
149 145 37
154 149 32
153 149 30
156 150 30
152 148 22
151 147 32
152 148 30
156 152 32
155 150 42
154 149 32
151 147 34
150 146 22
153 149 19
156 151 34
154 150 32
157 152 37
154 149 41
154 149 32
151 147 28
155 150 34
152 149 34
155 150 37
156 150 34
156 152 32
153 148 25
146 142 28
155 151 37
153 149 25
150 146 30
149 145 19
151 147 39
152 148 25
157 152 34
152 148 32
151 147 28
151 148 25
154 150 30
151 146 28
156 150 41
156 151 30
153 148 30
154 150 34
155 150 30
157 152 36
148 144 28
152 147 30
150 146 32
150 146 25
153 149 39
149 143 34
155 151 25
150 146 25
152 147 28
145 141 16
149 145 28
146 142 19
151 148 30
151 147 32
153 148 37
149 144 36
147 142 36
148 143 36
140 137 28
150 146 34
147 143 28
146 143 22
147 142 32
146 141 28
146 141 28
150 145 37
150 146 34
140 136 25
145 140 30
140 137 19
145 141 34
137 133 28
135 130 30
136 132 36
141 137 37
132 127 30
133 129 34
123 120 25
127 122 30
134 129 36
121 118 25
123 119 36
123 118 28
143 148 25
169 188 0
167 186 0
169 188 0
167 187 0
169 189 0
166 186 0
167 188 0
168 188 0
166 185 0
166 185 0
171 192 0
169 188 0
171 193 0
165 185 0
167 185 0
166 188 0
172 193 0
162 182 0
171 189 0
169 191 0
165 186 0
169 191 0
167 187 0
169 192 0
171 192 0
167 187 0
168 189 0
166 187 0
166 188 0
171 193 0
168 188 0
170 192 0
171 195 0
171 194 0
172 195 0
172 195 0
168 192 0
171 194 0
171 194 0
169 193 0
168 190 0
169 193 0
170 192 0
170 194 0
168 192 0
169 192 0
172 195 0
170 193 0
170 193 0
169 192 0
173 195 0
168 191 0
170 194 0
171 194 0
173 195 0
171 194 0
171 194 0
169 191 0
170 193 0
167 190 0
171 194 0
169 191 0
166 189 0
168 192 0
169 192 0
169 193 0
171 193 0
170 192 0
166 189 0
168 190 0
169 191 0
167 191 0
167 190 0
170 193 0
170 193 0
167 190 0
167 191 0
168 190 0
165 190 0
170 193 0
169 192 0
166 190 0
168 192 0
168 191 0
168 191 0
167 190 0
164 187 0
169 192 0
169 191 0
166 189 0
165 188 0
167 190 0
164 187 0
167 190 0
167 190 0
170 193 0
168 190 0
165 188 0
165 188 0
166 188 0
166 189 0
167 190 0
165 187 0
168 191 0
163 185 0
161 183 0
163 187 0
162 185 0
161 184 0
163 186 0
160 183 0
165 187 0
159 181 0
160 183 0
163 187 0
164 186 0
160 182 0
163 186 0
164 187 0
162 185 0
160 184 0
162 185 0
157 178 0
160 182 0
156 179 0
159 182 0
162 185 0
157 179 0
155 178 0
160 183 0
150 174 0
152 175 0
152 173 0
154 176 0
154 177 0
159 181 0
158 179 0
154 176 0
154 175 0
156 178 0
152 174 0
152 174 0
154 177 0
152 173 0
152 174 0
155 177 0
152 174 0
155 178 0
150 173 0
150 171 0
153 175 0
142 163 0
148 169 0
146 166 0
150 171 0
148 169 0
142 163 0
144 164 0
148 169 0
150 172 0
149 170 0
142 164 0
142 164 0
145 165 0
142 162 0
140 162 0
134 155 0
142 162 0
134 155 0
132 152 0
135 155 0
137 158 0
130 150 0
134 154 0
136 156 0
129 149 0
135 155 0
139 159 0
132 152 0
136 156 0
132 151 0
128 149 0
127 147 0
131 152 0
131 149 0
131 152 0
128 149 0
120 139 0
128 147 0
121 141 0
133 153 0
120 140 0
121 141 0
122 142 0
122 142 0
132 150 0
113 129 0
118 136 0
129 147 0
114 133 0
115 133 0
103 120 0
119 136 0
114 132 0
116 132 0
116 133 0
124 141 0
118 136 0
119 136 0
113 130 0
120 136 0
118 135 0
116 134 0
94 110 0
106 122 0
109 123 0
97 113 0
102 117 0
96 111 0
103 119 0
106 122 0
97 112 0
97 112 0
97 112 0
116 131 0
105 119 0
108 122 0
92 106 0
83 97 0
90 103 0
94 106 0
90 103 0
98 111 0
102 115 0
100 114 0
89 102 0
99 113 0
89 99 0
76 88 0
105 118 0
95 106 0
95 107 0
84 96 0
99 110 0
84 95 0
98 110 0
94 107 0
88 98 0
88 96 0
84 94 0
99 112 0
98 110 0
101 112 0
94 105 0
98 111 0
104 117 0
97 107 0
88 96 0
108 117 0
84 91 0
82 83 20
86 85 20
88 88 18
102 101 20
109 108 26
113 110 27
117 113 32
123 120 37
128 125 33
123 120 31
126 123 31
123 120 30
131 128 42
136 132 22
126 124 19
134 129 36
139 135 36
135 132 21
147 142 39
140 136 28
141 136 34
140 137 30
142 138 28
146 142 30
145 141 36
148 143 37
146 143 25
147 142 36
138 135 28
151 146 34
143 140 22
148 144 30
150 145 32
146 143 32
150 145 28
146 142 25
148 143 30
151 147 37
147 143 28
149 144 28
153 147 32
150 146 36
153 148 32
151 148 25
152 147 32
152 147 34
148 143 28
149 145 32
155 150 37
150 146 32
151 146 28
154 150 30
154 150 37
153 148 34
155 151 30
154 150 37
157 151 37
150 146 22
154 150 42
152 147 28
154 150 30
155 150 39
153 148 28
151 147 36
153 147 36
154 151 32
151 148 30
153 148 36
151 148 30
153 149 36
151 147 28
148 144 28
151 147 30
156 151 32
154 150 25
156 151 36
153 149 32
152 147 37
159 154 36
155 151 34
154 151 36
152 148 28
155 149 44
155 149 36
154 149 37
151 146 28
154 149 37
154 150 39
156 152 41
151 147 28
155 149 39
155 150 36
156 151 36
148 143 32
150 147 22
158 152 39
150 146 28
150 146 30
155 151 37
150 145 25
149 145 25
152 147 25
154 149 44
150 146 36
155 150 42
144 139 22
149 145 28
153 148 30
147 142 32
148 144 25
145 139 37
152 146 39
148 143 28
147 143 16
150 146 25
152 147 34
150 145 30
144 141 25
142 138 25
149 143 37
147 142 37
141 135 32
139 135 22
144 140 30
148 144 25
139 135 22
141 136 37
144 140 28
133 129 19
138 134 30
139 135 37
141 137 28
139 136 25
131 127 32
135 130 28
126 123 30
123 120 22
125 121 22
114 111 19
150 163 16
167 187 0
166 186 0
168 188 0
166 186 0
170 189 0
170 188 0
166 185 0
169 187 0
170 189 0
167 188 0
170 190 0
168 189 0
168 190 0
168 187 0
169 190 0
166 187 0
168 189 0
168 188 0
170 189 0
164 184 0
169 191 0
169 189 0
167 187 0
167 190 0
166 187 0
169 189 0
169 190 0
168 189 0
170 191 0
168 189 0
172 192 0
170 191 0
171 194 0
170 192 0
171 194 0
173 195 0
172 194 0
168 192 0
171 194 0
173 196 0
170 193 0
173 195 0
171 194 0
172 195 0
170 193 0
169 192 0
170 194 0
171 195 0
169 193 0
169 192 0
170 194 0
170 193 0
167 190 0
170 193 0
168 192 0
169 192 0
169 192 0
170 194 0
173 196 0
172 195 0
171 193 0
171 194 0
168 191 0
167 190 0
171 194 0
170 194 0
170 193 0
168 192 0
170 195 0
169 192 0
165 189 0
170 193 0
171 195 0
168 191 0
170 193 0
166 188 0
171 193 0
170 193 0
168 191 0
168 191 0
164 186 0
170 193 0
168 192 0
166 189 0
170 192 0
168 191 0
166 188 0
165 187 0
167 190 0
166 189 0
164 188 0
166 188 0
170 192 0
168 189 0
165 188 0
165 186 0
167 189 0
167 190 0
166 189 0
162 185 0
166 189 0
163 186 0
165 188 0
166 189 0
167 190 0
168 190 0
162 185 0
161 183 0
163 185 0
166 190 0
166 189 0
167 190 0
163 184 0
165 187 0
165 188 0
157 179 0
163 186 0
163 186 0
165 188 0
163 186 0
159 182 0
159 182 0
167 190 0
162 186 0
160 182 0
166 189 0
164 187 0
161 185 0
159 182 0
156 178 0
155 177 0
162 183 0
158 181 0
156 179 0
149 171 0
156 177 0
156 178 0
159 180 0
147 169 0
154 176 0
156 178 0
155 178 0
150 173 0
156 178 0
157 179 0
146 168 0
144 165 0
151 173 0
146 167 0
153 175 0
151 171 0
151 174 0
149 170 0
139 161 0
144 167 0
140 162 0
149 171 0
146 168 0
150 172 0
141 163 0
144 165 0
138 160 0
149 169 0
143 164 0
144 164 0
143 164 0
143 164 0
143 165 0
143 164 0
139 160 0
137 157 0
134 155 0
136 157 0
138 159 0
131 151 0
136 156 0
149 171 0
134 156 0
135 155 0
141 162 0
137 158 0
128 148 0
132 153 0
131 152 0
128 148 0
133 154 0
131 150 0
132 152 0
130 149 0
133 153 0
135 156 0
128 147 0
128 147 0
132 151 0
124 143 0
123 142 0
124 143 0
126 146 0
133 153 0
123 142 0
117 136 0
127 146 0
112 129 0
106 124 0
116 134 0
109 128 0
105 122 0
112 130 0
115 132 0
115 130 0
102 118 0
114 131 0
115 133 0
115 134 0
103 119 0
108 125 0
114 131 0
106 121 0
115 131 0
110 126 0
94 108 0
97 114 0
101 116 0
104 120 0
108 122 0
100 114 0
94 109 0
111 126 0
102 118 0
91 106 0
95 108 0
94 107 0
92 107 0
92 105 0
96 110 0
91 105 0
99 113 0
98 111 0
99 111 0
99 109 0
93 108 0
97 109 0
86 97 0
104 116 0
111 124 0
103 116 0
99 110 0
101 114 0
95 107 0
97 109 0
102 114 0
93 104 0
87 100 0
100 112 0
94 103 0
95 106 0
109 121 0
95 107 0
112 125 0
84 92 8
90 88 21
92 91 20
91 91 16
96 96 20
108 105 38
113 111 33
112 110 21
112 111 21
121 119 28
133 130 42
127 123 29
126 121 26
127 124 36
136 133 32
136 133 28
134 130 26
135 133 30
135 133 31
130 127 26
135 131 29
132 128 30
146 142 25
142 138 32
143 139 30
149 145 34
144 140 32
143 140 25
142 138 19
151 146 32
146 142 28
143 140 28
147 143 28
147 144 22
145 140 30
152 148 34
141 137 28
154 150 30
149 145 30
151 147 22
153 148 32
150 145 32
152 148 30
144 140 19
147 144 32
154 149 30
151 148 25
153 149 30
150 144 34
155 151 34
152 148 36
148 144 25
149 145 30
154 150 32
153 149 36
154 150 30
155 151 36
152 147 36
152 148 28
157 151 34
153 149 36
150 145 28
156 151 42
156 151 34
151 148 36
153 149 37
154 149 32
153 149 25
150 145 39
159 153 44
156 152 37
157 153 37
157 153 36
153 148 36
150 147 19
151 147 30
154 149 34
149 146 16
155 151 30
155 150 36
152 147 25
154 149 30
154 149 28
151 146 32
151 147 28
152 147 36
152 148 36
150 144 28
156 150 44
151 145 34
154 149 36
155 150 28
151 147 25
149 145 30
156 150 39
152 148 19
152 149 30
152 147 37
148 145 28
153 149 32
153 149 28
154 149 32
152 148 32
152 147 36
151 146 25
153 148 34
152 148 28
153 148 32
155 151 36
152 147 41
156 150 45
149 146 28
151 147 28
148 145 30
149 145 32
147 142 34
149 145 30
143 139 28
152 147 22
143 140 22
138 133 30
146 142 30
143 139 30
147 143 30
144 140 32
145 141 28
149 143 41
147 142 32
139 134 30
138 134 25
137 131 41
140 136 28
131 126 36
138 134 32
136 131 19
136 131 22
132 127 25
113 110 11
128 123 28
126 121 37
162 177 11
165 185 0
166 187 0
167 185 0
167 185 0
167 186 0
166 186 0
162 182 0
167 186 0
165 186 0
169 189 0
169 189 0
167 187 0
168 187 0
168 188 0
168 188 0
163 183 0
169 188 0
166 187 0
170 191 0
170 189 0
170 190 0
168 189 0
171 192 0
170 189 0
171 192 0
170 192 0
169 189 0
168 189 0
170 190 0
172 192 0
169 190 0
170 190 0
173 196 0
170 193 0
171 194 0
168 191 0
170 193 0
168 191 0
169 192 0
171 194 0
171 195 0
169 192 0
170 192 0
170 193 0
169 193 0
172 195 0
170 193 0
168 191 0
171 193 0
170 193 0
171 194 0
167 191 0
169 192 0
171 194 0
170 192 0
168 192 0
171 194 0
171 194 0
166 188 0
171 194 0
170 193 0
169 193 0
169 192 0
169 191 0
170 194 0
167 190 0
170 193 0
169 193 0
168 192 0
168 191 0
167 190 0
166 190 0
167 190 0
171 195 0
167 191 0
167 191 0
169 192 0
165 188 0
168 191 0
168 192 0
168 192 0
165 188 0
165 189 0
165 188 0
169 192 0
169 192 0
167 191 0
167 189 0
169 192 0
167 189 0
167 191 0
168 191 0
165 188 0
165 188 0
169 192 0
169 192 0
166 189 0
164 187 0
162 185 0
169 190 0
167 190 0
163 186 0
163 187 0
162 184 0
160 183 0
165 188 0
165 188 0
169 192 0
165 187 0
168 191 0
156 179 0
163 186 0
169 191 0
161 185 0
161 184 0
162 184 0
164 187 0
165 188 0
159 181 0
161 183 0
159 182 0
169 191 0
164 187 0
159 182 0
160 182 0
161 185 0
154 176 0
156 178 0
158 181 0
160 181 0
159 182 0
152 174 0
154 174 0
159 182 0
163 185 0
158 179 0
155 177 0
159 182 0
156 178 0
148 170 0
154 175 0
156 178 0
157 178 0
156 178 0
149 172 0
151 172 0
151 172 0
156 178 0
150 173 0
149 171 0
151 172 0
144 167 0
156 177 0
144 165 0
148 171 0
147 169 0
147 168 0
145 166 0
145 167 0
139 161 0
147 168 0
141 162 0
135 156 0
137 159 0
145 166 0
141 162 0
143 164 0
134 155 0
139 159 0
138 160 0
133 154 0
135 155 0
148 169 0
143 165 0
144 167 0
143 163 0
124 145 0
132 152 0
138 157 0
133 151 0
132 153 0
133 154 0
132 153 0
121 141 0
136 157 0
135 155 0
128 147 0
138 157 0
137 157 0
133 153 0
137 157 0
120 138 0
129 148 0
119 138 0
122 141 0
119 138 0
123 143 0
125 144 0
135 152 0
127 146 0
113 131 0
113 130 0
124 142 0
112 129 0
122 139 0
120 139 0
101 118 0
114 132 0
116 133 0
118 137 0
116 133 0
119 136 0
118 135 0
109 127 0
112 127 0
92 107 0
118 135 0
109 125 0
99 114 0
86 102 0
115 131 0
109 126 0
113 129 0
98 113 0
103 119 0
106 121 0
108 122 0
96 112 0
90 103 0
103 118 0
99 112 0
103 115 0
102 115 0
107 119 0
101 118 0
89 103 0
102 117 0
93 106 0
100 113 0
91 104 0
98 113 0
97 111 0
102 115 0
84 96 0
101 114 0
89 99 0
98 112 0
103 114 0
91 100 0
96 107 0
98 111 0
110 122 0
103 115 0
99 111 0
107 118 0
106 117 0
95 108 0
99 112 0
111 121 0
88 94 9
67 68 22
82 82 26
92 91 23
102 100 27
103 102 29
105 105 24
120 117 29
114 111 28
121 118 38
124 121 26
126 124 27
126 123 33
126 123 25
131 128 25
124 122 29
140 137 28
137 133 28
143 140 36
144 139 39
140 137 28
142 138 40
146 142 25
142 138 30
145 141 41
140 136 25
145 141 32
144 141 30
145 140 30
150 146 30
142 139 16
153 148 41
152 147 34
145 141 25
146 142 34
145 141 19
148 144 22
152 148 30
152 147 32
152 148 39
154 150 34
150 145 30
152 147 22
152 146 32
155 150 34
151 147 32
152 147 28
150 145 30
149 145 25
151 147 32
150 145 39
149 145 25
155 151 28
154 150 32
155 150 37
152 148 32
157 153 37
153 148 34
151 146 32
148 144 36
153 149 32
152 147 32
155 150 39
152 148 25
152 148 28
157 151 44
152 148 30
152 146 34
149 145 25
153 150 32
148 143 36
155 151 28
152 148 30
156 149 34
153 149 22
154 148 36
157 151 39
156 151 47
155 150 34
158 152 36
154 150 32
154 149 32
152 147 34
160 154 44
155 149 41
158 153 42
153 148 37
152 148 25
154 149 30
155 150 28
153 149 34
153 149 28
155 150 32
151 148 34
154 149 28
154 150 37
150 147 22
153 149 34
151 147 36
155 150 37
154 149 37
154 149 28
143 139 25
155 149 37
150 146 30
153 149 36
151 146 36
151 147 28
152 146 37
150 145 34
145 142 16
144 141 25
152 147 32
147 144 16
148 144 34
144 139 30
147 143 28
149 145 28
149 145 32
134 132 22
145 139 41
149 143 34
145 140 28
150 145 36
138 134 25
134 130 28
144 139 30
129 125 19
136 132 28
138 134 39
139 134 34
137 133 34
133 129 34
134 131 34
133 128 34
122 118 28
124 120 32
121 118 25
125 121 28
116 113 22
166 186 0
170 189 0
168 187 0
169 188 0
164 184 0
164 184 0
168 190 0
166 185 0
169 189 0
166 186 0
167 188 0
168 190 0
167 187 0
166 186 0
167 188 0
170 191 0
168 190 0
168 190 0
167 188 0
166 186 0
166 187 0
171 192 0
166 186 0
169 190 0
168 189 0
169 189 0
170 192 0
168 189 0
169 191 0
166 188 0
171 192 0
170 191 0
166 185 0
168 191 0
173 195 0
172 194 0
169 192 0
170 193 0
172 194 0
172 195 0
171 195 0
167 190 0
172 195 0
172 195 0
171 195 0
171 195 0
168 191 0
169 191 0
170 194 0
171 194 0
168 190 0
171 193 0
170 193 0
169 192 0
169 192 0
170 194 0
171 194 0
170 193 0
168 191 0
167 191 0
169 192 0
171 194 0
168 191 0
169 193 0
166 189 0
167 189 0
167 190 0
172 195 0
165 188 0
168 192 0
167 190 0
165 188 0
169 193 0
168 191 0
169 192 0
168 191 0
167 190 0
165 188 0
167 190 0
169 192 0
169 192 0
171 194 0
167 189 0
170 193 0
170 193 0
167 190 0
165 188 0
167 189 0
164 186 0
169 192 0
168 191 0
168 190 0
165 188 0
166 189 0
168 191 0
164 187 0
166 189 0
166 188 0
164 186 0
164 188 0
162 185 0
165 187 0
165 188 0
168 191 0
163 186 0
162 184 0
164 187 0
165 188 0
165 187 0
165 187 0
160 183 0
159 180 0
165 188 0
164 186 0
167 190 0
163 186 0
161 184 0
164 186 0
166 188 0
159 182 0
158 182 0
161 182 0
154 176 0
159 182 0
167 190 0
159 181 0
158 180 0
162 185 0
164 187 0
157 181 0
160 183 0
157 180 0
163 185 0
156 179 0
158 181 0
158 180 0
158 180 0
161 184 0
161 183 0
161 182 0
159 182 0
159 182 0
161 184 0
154 177 0
156 179 0
152 174 0
154 176 0
148 170 0
154 175 0
149 171 0
152 174 0
152 174 0
149 170 0
149 171 0
153 176 0
154 175 0
149 170 0
154 175 0
143 164 0
142 164 0
149 170 0
147 168 0
144 165 0
151 174 0
141 163 0
142 163 0
143 165 0
136 158 0
147 168 0
134 154 0
137 157 0
148 169 0
143 163 0
141 160 0
136 157 0
137 157 0
138 160 0
140 161 0
135 155 0
143 163 0
136 154 0
116 135 0
137 156 0
136 155 0
130 149 0
130 148 0
131 152 0
135 154 0
138 157 0
123 143 0
139 159 0
125 143 0
133 153 0
137 157 0
142 163 0
114 132 0
128 149 0
125 143 0
127 146 0
127 146 0
125 143 0
118 138 0
119 138 0
114 134 0
119 137 0
116 134 0
125 142 0
118 136 0
117 133 0
116 134 0
118 135 0
112 129 0
120 137 0
107 126 0
120 137 0
95 112 0
121 137 0
118 136 0
129 145 0
112 128 0
110 125 0
111 129 0
99 114 0
111 126 0
98 114 0
105 122 0
112 128 0
112 125 0
106 121 0
94 107 0
97 112 0
106 120 0
97 110 0
103 115 0
99 112 0
89 102 0
94 107 0
119 132 0
78 91 0
103 117 0
100 113 0
106 118 0
107 121 0
105 118 0
90 102 0
89 99 0
95 109 0
106 118 0
103 115 0
98 110 0
102 115 0
94 106 0
112 124 0
88 101 0
102 114 0
102 113 0
104 117 0
95 108 0
107 119 0
95 108 0
77 85 0
89 89 21
95 94 20
88 87 16
100 100 18
111 110 23
108 106 22
121 118 33
116 113 28
117 115 20
128 126 16
128 125 35
122 120 31
121 117 31
136 132 26
132 129 31
139 134 36
139 135 36
137 133 35
133 130 28
142 137 34
142 137 35
142 138 22
144 140 19
138 136 19
141 137 32
155 149 39
143 139 28
143 138 22
143 139 36
150 146 36
145 140 28
152 147 32
150 145 30
148 143 30
146 142 19
152 148 39
149 143 32
147 143 34
151 147 32
141 137 28
152 149 22
150 144 34
154 150 41
154 150 39
154 150 32
150 146 25
158 153 41
151 147 30
153 148 39
157 153 36
151 147 36
147 143 25
154 150 34
154 150 30
152 147 32
154 150 34
152 148 25
157 152 34
155 150 37
152 148 30
153 148 19
150 146 30
152 147 36
150 145 39
155 150 30
149 145 22
153 148 30
153 150 25
156 151 36
153 149 25
154 150 28
156 151 36
156 152 34
155 150 32
150 147 28
154 150 34
158 153 41
153 148 30
154 150 28
153 149 28
157 152 28
155 150 28
157 151 30
154 149 34
155 149 37
149 144 25
153 148 30
151 146 32
151 144 36
151 146 32
155 151 28
153 148 42
150 146 36
155 149 34
154 150 37
153 148 30
149 145 37
150 146 28
151 146 37
153 149 22
148 144 25
149 146 28
153 147 25
149 144 30
153 148 37
154 149 32
156 151 34
148 144 36
154 148 32
152 148 34
147 144 28
152 147 37
147 144 28
149 144 36
143 139 32
148 143 37
151 146 44
148 144 30
142 139 25
141 137 34
147 143 30
147 142 36
149 144 39
137 133 19
137 132 22
136 132 25
140 135 32
130 127 19
132 127 25
135 130 28
136 131 22
132 129 28
134 130 36
129 125 22
127 122 30
124 120 25
110 106 19
115 110 28
126 128 28
169 189 0
168 189 0
167 185 0
166 183 0
170 189 0
172 192 0
167 186 0
162 181 0
167 187 0
166 186 0
167 187 0
166 186 0
166 186 0
168 190 0
167 188 0
167 187 0
165 186 0
166 188 0
163 184 0
169 188 0
166 188 0
172 192 0
167 186 0
171 192 0
169 190 0
166 185 0
167 189 0
165 184 0
169 186 0
169 190 0
171 193 0
169 189 0
168 190 0
168 191 0
167 190 0
171 194 0
172 195 0
171 195 0
172 194 0
170 194 0
173 196 0
171 194 0
168 191 0
170 193 0
171 194 0
170 193 0
168 191 0
171 194 0
172 195 0
168 192 0
170 192 0
169 192 0
168 191 0
171 193 0
167 191 0
169 193 0
169 192 0
169 192 0
169 194 0
168 192 0
167 191 0
168 191 0
167 190 0
168 191 0
170 194 0
169 192 0
171 194 0
169 192 0
168 192 0
170 193 0
169 192 0
173 195 0
169 193 0
169 192 0
169 193 0
166 190 0
169 191 0
170 193 0
168 191 0
167 190 0
167 189 0
170 192 0
168 191 0
169 192 0
166 188 0
165 188 0
168 191 0
169 192 0
168 192 0
167 190 0
166 190 0
166 189 0
164 187 0
166 189 0
162 185 0
170 193 0
167 190 0
165 188 0
167 189 0
166 189 0
168 190 0
166 189 0
166 189 0
166 189 0
162 184 0
165 187 0
164 188 0
161 185 0
164 187 0
160 182 0
165 187 0
163 187 0
162 185 0
162 186 0
161 184 0
161 184 0
165 188 0
163 184 0
159 181 0
164 185 0
161 184 0
163 187 0
160 183 0
164 188 0
162 185 0
159 182 0
157 180 0
161 183 0
163 187 0
154 176 0
161 184 0
162 184 0
162 184 0
155 177 0
162 185 0
158 181 0
160 182 0
154 177 0
162 185 0
162 184 0
152 173 0
155 178 0
158 179 0
158 181 0
154 177 0
155 177 0
156 179 0
151 173 0
153 176 0
157 180 0
149 172 0
150 172 0
157 179 0
154 177 0
151 173 0
154 176 0
144 164 0
154 176 0
144 165 0
146 168 0
135 157 0
141 161 0
137 157 0
141 163 0
147 168 0
150 171 0
143 164 0
140 160 0
147 169 0
134 155 0
134 155 0
141 163 0
143 164 0
141 163 0
140 161 0
135 156 0
130 149 0
133 154 0
140 161 0
139 160 0
147 168 0
131 150 0
130 151 0
128 147 0
133 154 0
134 155 0
132 153 0
127 147 0
132 152 0
125 145 0
133 154 0
128 147 0
137 157 0
134 153 0
113 132 0
132 151 0
126 147 0
128 148 0
125 143 0
119 138 0
126 144 0
131 149 0
124 143 0
123 142 0
123 142 0
126 145 0
117 135 0
111 129 0
110 128 0
106 121 0
117 135 0
120 138 0
116 133 0
116 134 0
113 130 0
117 134 0
109 125 0
120 135 0
104 120 0
108 125 0
111 128 0
109 125 0
105 120 0
103 116 0
107 122 0
103 119 0
114 130 0
119 134 0
99 115 0
96 111 0
110 123 0
100 114 0
111 126 0
94 108 0
91 106 0
100 113 0
94 108 0
92 103 0
104 118 0
117 131 0
104 118 0
106 118 0
95 107 0
109 123 0
105 119 0
104 116 0
92 103 0
96 108 0
100 114 0
115 128 0
96 109 0
107 118 0
103 115 0
98 111 0
109 121 0
104 116 0
92 103 0
104 115 0
112 122 0
96 109 0
89 92 8
95 93 20
83 82 19
89 88 19
99 98 24
114 111 25
109 108 29
117 113 25
124 120 37
121 118 34
124 120 28
120 115 24
124 121 22
133 130 32
127 123 25
136 132 28
140 137 37
133 129 26
134 131 28
135 132 28
140 137 22
143 139 28
140 136 25
145 141 37
140 136 28
146 142 30
140 136 28
147 143 34
151 146 34
152 148 36
147 143 39
149 144 30
147 143 36
152 147 42
154 150 42
149 145 32
157 152 48
148 144 30
147 144 30
148 143 25
152 149 36
152 148 22
145 141 28
152 148 25
152 148 28
151 147 36
151 146 22
150 146 34
155 150 34
150 145 28
145 142 28
151 146 39
148 145 34
143 140 19
156 152 32
155 149 42
151 147 32
148 144 25
152 148 34
150 146 30
154 150 30
157 153 34
156 152 39
153 149 32
152 147 30
152 148 25
152 147 25
153 148 30
151 147 32
155 151 32
153 148 22
152 146 34
159 152 47
154 150 32
153 149 41
148 143 32
154 150 30
155 150 34
151 145 30
151 147 30
154 150 34
155 151 28
148 145 25
152 148 16
150 147 22
154 150 32
157 153 28
155 150 34
152 148 32
152 149 22
154 151 34
153 149 25
153 150 30
150 146 19
155 149 39
151 147 28
153 148 34
152 148 19
149 144 22
153 149 36
153 149 32
148 144 32
147 143 30
149 145 25
151 146 32
148 145 22
154 148 36
152 146 36
148 144 22
150 146 25
149 144 32
147 143 30
149 145 28
149 145 28
154 149 36
151 146 37
150 147 34
150 145 37
147 143 30
145 141 28
141 137 28
139 135 36
146 141 30
137 134 11
138 133 30
138 134 34
139 135 30
144 139 37
143 138 36
144 139 39
137 133 32
133 130 34
142 138 32
138 134 28
134 129 30
130 126 32
134 130 28
126 122 25
125 121 34
130 138 16
162 181 0
170 191 0
167 187 0
167 185 0
166 187 0
166 186 0
169 189 0
162 182 0
167 188 0
171 189 0
168 187 0
165 185 0
168 189 0
168 188 0
162 182 0
166 186 0
163 184 0
169 188 0
169 190 0
168 189 0
167 186 0
165 186 0
167 187 0
167 186 0
166 187 0
170 193 0
166 185 0
169 190 0
166 185 0
169 190 0
166 188 0
168 189 0
168 189 0
169 191 0
170 193 0
172 195 0
171 194 0
171 194 0
169 192 0
169 192 0
172 196 0
167 190 0
170 193 0
170 194 0
172 195 0
170 194 0
169 192 0
173 196 0
169 193 0
171 195 0
170 191 0
169 193 0
166 189 0
169 193 0
172 194 0
168 191 0
171 193 0
170 192 0
168 192 0
169 192 0
170 193 0
169 192 0
168 191 0
169 192 0
167 190 0
171 194 0
171 193 0
171 194 0
169 192 0
169 192 0
167 190 0
166 189 0
167 190 0
170 193 0
164 188 0
167 189 0
168 190 0
170 192 0
171 193 0
169 192 0
167 189 0
163 186 0
166 189 0
168 191 0
167 189 0
170 193 0
168 191 0
167 190 0
168 191 0
166 189 0
163 186 0
167 189 0
164 187 0
164 187 0
166 189 0
164 187 0
165 188 0
167 190 0
166 189 0
167 189 0
164 187 0
165 186 0
168 191 0
162 184 0
168 191 0
163 186 0
161 184 0
169 191 0
168 191 0
160 183 0
162 185 0
164 187 0
165 187 0
161 183 0
164 187 0
158 181 0
162 185 0
155 177 0
160 183 0
158 181 0
163 184 0
163 186 0
165 187 0
157 179 0
157 180 0
166 188 0
156 178 0
159 181 0
158 181 0
162 184 0
158 180 0
159 182 0
163 185 0
153 175 0
161 184 0
157 178 0
155 179 0
157 178 0
155 177 0
152 175 0
155 178 0
152 173 0
148 170 0
150 173 0
153 175 0
156 177 0
156 177 0
148 170 0
149 171 0
153 175 0
159 181 0
151 173 0
150 172 0
147 170 0
146 168 0
151 173 0
148 169 0
144 164 0
154 176 0
150 172 0
146 168 0
149 171 0
145 166 0
134 156 0
145 165 0
147 168 0
142 162 0
143 163 0
140 161 0
145 166 0
151 172 0
141 163 0
141 162 0
139 160 0
136 156 0
146 167 0
143 163 0
133 153 0
133 154 0
139 159 0
134 156 0
136 157 0
138 160 0
147 167 0
136 157 0
129 148 0
126 145 0
130 150 0
128 149 0
135 154 0
130 149 0
132 151 0
123 143 0
131 150 0
127 146 0
131 150 0
128 148 0
128 145 0
121 140 0
138 158 0
129 148 0
118 137 0
132 151 0
126 144 0
130 150 0
124 142 0
118 137 0
129 146 0
114 134 0
107 124 0
121 139 0
134 151 0
116 133 0
120 137 0
117 133 0
125 142 0
116 132 0
115 132 0
114 131 0
124 142 0
122 137 0
107 124 0
108 124 0
105 120 0
105 121 0
109 125 0
110 126 0
98 115 0
110 125 0
114 126 0
104 120 0
118 135 0
111 123 0
101 116 0
97 110 0
100 113 0
104 117 0
109 123 0
104 116 0
106 120 0
110 125 0
105 118 0
113 129 0
101 113 0
98 111 0
120 132 0
93 104 0
102 114 0
104 116 0
102 115 0
120 132 0
91 102 0
107 120 0
108 120 0
100 112 0
94 104 0
97 109 0
96 107 0
100 112 0
106 118 0
82 87 8
90 87 20
95 94 30
106 104 28
100 98 22
114 113 21
105 104 25
116 113 26
122 120 30
118 115 28
118 116 14
130 126 37
123 119 28
127 124 29
125 122 27
141 136 42
128 125 16
134 130 32
144 139 36
136 132 26
141 138 30
141 137 36
147 143 30
147 143 30
144 139 37
145 141 34
145 139 37
148 144 22
142 138 30
145 142 19
150 146 37
142 138 28
142 139 22
148 144 22
145 141 30
152 147 36
153 148 32
150 146 30
148 144 25
147 142 34
152 149 25
151 148 32
151 146 32
151 148 30
151 147 32
147 143 19
152 147 30
151 146 32
151 147 22
154 149 28
153 150 34
144 139 19
153 149 25
155 151 37
151 147 28
146 142 22
151 147 32
155 151 28
151 147 30
156 152 36
157 151 34
158 152 47
158 153 39
153 147 32
152 146 32
153 148 28
155 149 28
149 144 19
151 146 25
154 149 34
158 153 42
151 147 32
157 153 36
150 146 22
154 149 34
153 148 37
157 151 41
154 150 34
152 147 30
149 145 22
154 149 34
152 148 32
156 152 34
154 150 28
152 149 22
155 151 36
150 145 32
160 154 45
152 148 25
154 148 25
157 151 41
152 148 34
152 147 25
156 151 39
154 150 30
154 149 37
152 147 32
156 151 36
152 148 34
155 151 32
154 150 36
150 146 30
153 148 34
148 144 19
143 140 19
150 145 28
143 139 19
150 147 28
152 148 28
150 146 32
149 144 32
148 143 34
146 142 32
155 150 32
151 146 25
151 146 30
146 142 34
151 146 37
149 144 30
155 149 39
147 144 16
146 142 32
145 140 36
151 147 34
136 132 30
140 136 25
143 137 34
136 131 22
136 131 28
141 136 30
132 128 32
139 135 19
134 129 36
126 122 25
131 128 19
132 128 25
120 117 19
123 119 25
117 113 25
145 156 19
169 188 0
165 184 0
166 183 0
162 179 0
163 181 0
167 186 0
167 186 0
168 189 0
170 191 0
168 187 0
167 186 0
171 193 0
172 191 0
166 185 0
167 187 0
169 190 0
171 192 0
167 189 0
170 188 0
167 189 0
169 189 0
169 190 0
170 190 0
168 188 0
169 190 0
167 187 0
170 190 0
170 190 0
170 190 0
171 192 0
169 190 0
170 191 0
169 191 0
169 193 0
170 193 0
170 193 0
171 194 0
171 194 0
170 194 0
171 195 0
172 195 0
170 194 0
170 193 0
168 191 0
168 192 0
167 191 0
167 190 0
168 191 0
167 190 0
173 196 0
168 192 0
173 195 0
168 191 0
169 192 0
166 189 0
166 189 0
167 191 0
168 191 0
169 192 0
170 193 0
171 194 0
168 191 0
169 193 0
170 193 0
170 193 0
171 194 0
167 191 0
168 191 0
169 192 0
170 193 0
168 191 0
170 193 0
165 188 0
166 188 0
168 191 0
167 190 0
164 187 0
169 192 0
164 188 0
168 191 0
169 192 0
168 191 0
167 189 0
171 193 0
165 188 0
167 190 0
166 189 0
163 187 0
162 184 0
169 193 0
165 187 0
164 188 0
162 185 0
163 186 0
165 188 0
169 192 0
168 190 0
165 187 0
168 190 0
165 188 0
165 188 0
165 188 0
165 187 0
165 188 0
161 183 0
164 186 0
165 188 0
165 188 0
166 188 0
169 191 0
160 184 0
163 186 0
167 188 0
170 192 0
160 183 0
160 183 0
157 180 0
165 188 0
162 183 0
164 186 0
165 188 0
159 182 0
161 184 0
163 186 0
159 182 0
157 180 0
156 178 0
163 186 0
162 185 0
158 181 0
163 186 0
158 181 0
153 174 0
159 181 0
155 177 0
158 179 0
150 171 0
156 178 0
159 182 0
160 182 0
156 177 0
155 179 0
159 182 0
150 171 0
157 179 0
153 174 0
155 177 0
152 173 0
151 172 0
152 174 0
148 170 0
149 170 0
147 170 0
152 174 0
153 174 0
155 178 0
141 162 0
154 175 0
149 170 0
142 164 0
150 172 0
144 165 0
149 170 0
145 167 0
147 167 0
142 163 0
143 164 0
152 174 0
142 163 0
143 164 0
147 169 0
137 158 0
139 159 0
147 169 0
134 155 0
149 170 0
138 160 0
134 155 0
145 164 0
135 155 0
139 157 0
142 163 0
134 154 0
141 161 0
141 161 0
125 145 0
128 148 0
135 156 0
132 152 0
133 153 0
130 149 0
143 163 0
133 152 0
135 156 0
126 145 0
135 154 0
129 148 0
128 146 0
126 145 0
124 143 0
126 146 0
124 143 0
127 145 0
124 143 0
123 143 0
121 139 0
129 147 0
122 140 0
116 133 0
120 137 0
109 126 0
107 124 0
124 141 0
113 130 0
120 137 0
117 133 0
121 138 0
117 133 0
119 135 0
113 129 0
106 123 0
122 139 0
105 120 0
115 129 0
114 129 0
111 126 0
109 125 0
116 132 0
101 116 0
111 124 0
107 122 0
112 128 0
107 120 0
103 117 0
104 120 0
101 115 0
104 118 0
120 134 0
115 129 0
107 120 0
109 124 0
83 98 0
95 109 0
110 121 0
114 129 0
101 114 0
97 109 0
99 111 0
123 138 0
92 106 0
109 123 0
113 125 0
103 115 0
110 120 0
92 104 0
116 130 0
111 125 0
101 113 0
117 130 0
99 113 0
80 85 8
78 76 9
92 90 16
91 90 22
97 95 8
111 110 29
112 110 21
119 117 29
113 111 31
131 128 27
130 128 18
128 125 31
127 125 25
138 134 34
135 131 34
129 126 31
128 126 25
139 135 35
133 129 28
134 131 33
131 129 28
137 132 36
142 137 30
146 143 22
149 144 39
141 137 28
148 144 34
147 142 30
148 144 34
147 143 32
146 142 30
149 145 34
146 141 36
152 147 34
148 145 16
148 144 19
150 146 30
147 143 34
151 147 36
151 147 32
147 143 22
154 149 36
154 150 34
153 149 36
152 147 36
147 142 30
150 145 34
156 151 32
157 152 37
147 142 30
153 149 16
154 149 32
155 150 32
151 147 30
147 143 11
154 149 34
156 152 39
154 149 41
151 147 30
157 153 32
153 149 39
152 148 41
157 152 44
149 146 25
153 149 32
154 149 25
155 150 41
155 151 32
155 150 32
150 146 28
156 152 37
157 153 34
156 151 36
152 149 28
153 149 22
152 148 22
155 151 32
155 151 32
153 148 30
151 148 28
152 148 30
154 149 32
154 150 36
151 147 28
151 147 32
155 149 32
151 147 28
154 150 32
154 149 34
152 148 32
150 146 34
156 150 41
151 147 28
152 148 25
158 152 44
154 149 39
155 151 34
151 146 39
150 145 25
152 146 39
149 145 34
151 147 28
155 149 37
154 149 32
151 146 34
150 145 34
149 144 34
154 150 36
148 144 30
151 145 30
146 142 34
148 144 28
146 141 30
143 138 25
144 141 32
149 144 36
152 146 41
143 140 22
145 142 32
145 141 28
148 144 30
139 135 30
142 137 30
145 142 22
147 141 30
147 143 30
131 127 25
141 137 32
140 136 25
135 131 36
137 133 28
137 132 32
130 127 19
131 127 28
127 122 25
124 121 34
120 116 19
124 119 32
118 114 19
156 172 0
166 186 0
165 183 0
164 184 0
164 182 0
167 188 0
169 188 0
167 187 0
165 184 0
167 186 0
166 185 0
166 186 0
169 188 0
168 187 0
167 188 0
163 184 0
169 189 0
167 186 0
170 191 0
166 186 0
168 189 0
169 189 0
169 189 0
166 186 0
166 187 0
165 185 0
169 190 0
171 190 0
167 188 0
170 191 0
171 191 0
172 192 0
166 185 0
167 188 0
170 193 0
172 195 0
173 196 0
170 193 0
172 195 0
171 194 0
171 195 0
169 191 0
171 194 0
172 195 0
172 195 0
170 193 0
168 191 0
170 193 0
172 194 0
171 194 0
172 195 0
170 193 0
172 194 0
171 194 0
169 192 0
169 193 0
170 193 0
171 193 0
169 193 0
170 194 0
170 194 0
171 194 0
170 193 0
172 195 0
169 193 0
171 193 0
171 195 0
170 193 0
168 191 0
168 191 0
170 194 0
167 191 0
168 192 0
169 191 0
168 192 0
166 189 0
168 191 0
171 194 0
168 191 0
172 195 0
168 192 0
165 187 0
168 191 0
170 194 0
166 190 0
166 190 0
162 184 0
170 193 0
165 187 0
169 192 0
163 186 0
168 191 0
165 188 0
166 189 0
167 190 0
167 190 0
169 193 0
167 189 0
168 190 0
164 188 0
167 189 0
161 183 0
167 189 0
169 191 0
166 188 0
166 189 0
166 188 0
168 191 0
166 189 0
158 181 0
163 185 0
169 191 0
161 184 0
163 187 0
165 187 0
161 182 0
164 186 0
163 186 0
161 183 0
170 192 0
161 184 0
159 181 0
162 185 0
155 178 0
158 179 0
160 184 0
164 186 0
157 180 0
155 177 0
156 179 0
157 180 0
158 181 0
158 180 0
153 174 0
156 177 0
155 177 0
158 180 0
162 184 0
161 182 0
157 180 0
161 184 0
160 181 0
155 177 0
154 176 0
153 174 0
153 175 0
159 180 0
149 171 0
158 180 0
158 180 0
156 178 0
149 171 0
152 175 0
157 179 0
154 176 0
151 172 0
151 172 0
150 173 0
150 173 0
146 168 0
156 177 0
148 169 0
154 177 0
151 172 0
143 164 0
147 168 0
142 164 0
145 166 0
143 165 0
142 163 0
144 164 0
137 158 0
143 165 0
139 159 0
144 165 0
143 164 0
140 162 0
141 161 0
140 161 0
139 159 0
135 156 0
141 161 0
133 154 0
143 164 0
137 156 0
135 156 0
128 148 0
136 156 0
139 159 0
133 154 0
137 156 0
131 149 0
133 154 0
136 156 0
139 160 0
136 155 0
129 149 0
132 151 0
123 141 0
135 155 0
125 145 0
122 140 0
118 134 0
133 151 0
133 154 0
127 146 0
129 149 0
112 130 0
129 148 0
129 148 0
131 151 0
118 137 0
122 140 0
122 139 0
122 140 0
115 133 0
118 136 0
111 126 0
114 131 0
116 131 0
111 127 0
116 133 0
109 123 0
115 131 0
107 125 0
115 131 0
110 127 0
116 131 0
99 116 0
102 114 0
111 128 0
118 133 0
111 125 0
108 124 0
108 123 0
115 131 0
111 128 0
108 122 0
107 121 0
116 129 0
114 128 0
115 129 0
104 117 0
109 123 0
112 125 0
113 127 0
92 104 0
105 118 0
105 119 0
99 110 0
116 131 0
107 120 0
106 119 0
99 110 0
100 115 0
104 117 0
111 125 0
88 101 0
108 120 0
103 116 0
101 115 0
80 86 12
80 80 13
84 84 21
104 101 24
101 99 18
105 103 29
96 95 18
117 115 28
120 118 23
127 124 30
137 132 38
133 130 35
125 122 32
134 129 29
126 123 26
128 125 21
133 130 30
137 133 36
136 133 28
139 135 25
132 129 25
143 138 32
143 137 42
142 139 30
142 138 16
149 144 37
144 140 34
144 141 25
146 142 28
147 143 16
142 138 28
150 146 28
148 144 22
146 143 32
146 142 30
148 145 19
150 146 32
150 146 36
147 143 34
149 145 25
147 142 25
152 147 30
151 148 11
152 147 32
152 148 25
149 145 30
146 142 22
151 146 30
151 146 28
149 145 19
154 149 28
151 146 34
151 148 32
151 148 32
155 151 32
151 146 36
152 147 30
149 144 32
156 151 36
153 150 25
153 147 34
152 147 30
151 146 34
152 147 30
151 147 16
150 146 28
153 148 28
149 144 16
160 154 45
153 149 36
154 150 32
151 148 34
151 148 22
153 148 36
152 147 19
154 150 41
148 144 30
147 143 28
152 149 32
155 150 32
149 145 28
149 144 28
151 147 19
154 150 30
150 145 32
154 148 37
150 146 32
149 145 25
153 149 34
150 146 34
153 148 32
152 148 32
154 149 34
151 148 25
153 149 37
154 150 19
152 147 30
149 145 32
151 146 37
152 146 32
154 148 34
145 141 25
154 149 36
151 147 32
148 144 25
149 145 25
153 148 36
147 142 36
147 143 28
149 144 34
147 141 34
151 146 36
145 141 32
145 140 19
147 143 25
151 147 30
150 145 34
152 146 44
146 141 25
142 137 30
146 141 36
137 132 28
145 139 32
143 137 36
139 135 25
136 132 11
139 135 19
141 137 28
136 132 30
140 135 34
141 136 36
138 135 28
131 128 22
141 136 34
130 126 25
132 128 16
130 126 32
119 116 19
117 113 30
165 182 0
167 185 0
165 183 0
171 190 0
168 185 0
164 185 0
165 183 0
164 184 0
169 190 0
167 188 0
165 185 0
165 182 0
169 189 0
169 188 0
166 184 0
166 185 0
169 190 0
170 191 0
168 189 0
172 193 0
166 185 0
166 187 0
168 188 0
168 188 0
166 184 0
168 188 0
170 191 0
165 186 0
169 188 0
170 191 0
167 186 0
168 190 0
168 187 0
167 187 0
172 194 0
167 190 0
172 195 0
172 195 0
169 192 0
170 194 0
171 194 0
170 194 0
171 194 0
169 192 0
168 192 0
166 188 0
171 194 0
171 194 0
171 193 0
172 195 0
170 194 0
171 194 0
170 194 0
169 192 0
171 194 0
169 193 0
171 194 0
169 192 0
172 195 0
169 192 0
169 192 0
168 192 0
167 189 0
170 193 0
169 192 0
169 191 0
168 191 0
164 187 0
169 192 0
166 189 0
169 192 0
169 193 0
166 190 0
166 189 0
170 192 0
170 192 0
166 190 0
170 193 0
167 190 0
169 192 0
169 193 0
165 188 0
171 194 0
165 188 0
165 188 0
168 191 0
167 190 0
170 193 0
167 190 0
169 192 0
166 189 0
166 189 0
163 186 0
167 191 0
169 193 0
167 189 0
170 193 0
166 190 0
166 189 0
167 190 0
166 188 0
167 190 0
166 189 0
166 189 0
164 188 0
169 193 0
165 188 0
163 186 0
162 184 0
160 182 0
165 188 0
161 183 0
160 184 0
168 191 0
163 186 0
164 186 0
161 184 0
165 188 0
166 190 0
163 185 0
162 184 0
159 182 0
162 185 0
158 179 0
165 187 0
160 183 0
164 187 0
166 188 0
163 185 0
160 183 0
166 189 0
166 189 0
162 184 0
157 180 0
163 184 0
159 180 0
150 172 0
163 186 0
159 181 0
159 180 0
158 180 0
156 178 0
160 183 0
154 176 0
152 174 0
153 175 0
150 171 0
156 179 0
149 170 0
151 172 0
162 184 0
148 169 0
155 177 0
148 171 0
156 177 0
148 170 0
151 171 0
151 173 0
145 166 0
155 177 0
146 168 0
148 169 0
149 171 0
151 172 0
152 171 0
146 167 0
144 165 0
143 164 0
150 172 0
148 167 0
148 171 0
145 167 0
150 172 0
143 165 0
139 159 0
147 168 0
132 155 0
144 165 0
143 163 0
142 163 0
144 164 0
145 165 0
138 157 0
136 156 0
144 165 0
127 146 0
143 164 0
131 152 0
142 161 0
146 166 0
133 150 0
135 155 0
135 156 0
124 142 0
137 158 0
137 157 0
138 159 0
134 151 0
127 145 0
120 137 0
128 148 0
127 145 0
133 152 0
125 145 0
129 147 0
129 148 0
126 145 0
129 147 0
127 146 0
128 147 0
116 134 0
119 137 0
127 144 0
116 133 0
118 136 0
122 138 0
138 157 0
110 125 0
137 153 0
122 139 0
120 136 0
113 129 0
122 140 0
125 141 0
121 136 0
113 131 0
113 126 0
118 135 0
112 129 0
113 130 0
94 110 0
128 144 0
113 130 0
107 123 0
110 124 0
109 124 0
114 129 0
113 128 0
124 139 0
103 117 0
101 114 0
113 127 0
106 120 0
113 128 0
110 123 0
94 108 0
110 124 0
110 125 0
119 133 0
111 125 0
106 120 0
101 113 0
111 123 0
102 116 0
101 113 0
122 135 0
109 122 0
107 119 0
114 124 0
110 122 0
95 107 0
84 86 8
77 78 16
94 92 16
88 85 21
94 92 12
106 105 25
112 110 29
120 117 22
120 118 29
118 115 22
130 126 30
121 117 28
134 131 32
132 128 30
132 128 30
131 127 33
139 136 30
134 131 19
134 129 30
139 135 29
140 135 25
141 137 22
142 137 30
145 141 34
134 130 34
144 138 37
143 139 41
134 131 16
151 145 36
144 140 32
152 148 37
147 143 36
150 146 30
148 143 30
152 147 36
146 142 28
150 147 32
149 145 32
146 141 30
150 146 32
147 144 30
152 147 34
148 144 32
145 141 32
145 141 19
151 147 28
146 142 28
153 148 36
150 146 22
152 147 37
152 148 30
150 146 22
155 151 30
148 145 30
152 147 25
155 151 30
148 143 30
150 146 28
149 144 25
149 145 30
155 151 28
155 149 22
152 148 34
154 149 32
151 147 28
155 151 36
156 151 39
153 148 32
152 147 19
153 148 37
155 149 37
156 152 36
156 151 30
153 148 22
154 150 25
155 150 22
153 148 30
154 149 36
148 145 25
154 150 32
155 150 30
154 150 28
154 148 32
155 150 39
146 142 22
147 144 25
153 148 28
156 152 36
153 149 28
154 150 30
147 142 37
146 142 22
152 147 25
151 146 28
154 150 30
147 142 28
152 148 30
150 147 28
155 151 36
149 145 25
154 149 32
151 147 25
150 146 28
152 147 30
153 147 37
144 141 25
155 150 39
149 144 22
148 144 25
153 148 32
146 142 34
150 146 36
143 139 30
147 142 32
151 145 39
143 139 25
144 141 28
150 145 28
146 143 28
150 146 37
141 139 22
147 144 30
143 139 37
146 141 36
135 130 28
142 138 22
135 132 19
136 131 34
137 133 25
135 131 22
147 142 34
125 122 25
127 123 30
128 125 30
133 129 28
127 124 11
121 116 25
114 110 16
122 124 22
166 184 0
165 183 0
169 188 0
168 186 0
167 186 0
165 184 0
167 187 0
167 186 0
168 186 0
164 183 0
170 188 0
169 189 0
164 184 0
167 186 0
168 187 0
167 186 0
169 189 0
168 189 0
169 191 0
170 191 0
170 191 0
168 188 0
168 189 0
171 191 0
171 192 0
168 187 0
171 191 0
170 191 0
167 188 0
169 189 0
167 189 0
170 189 0
166 187 0
171 193 0
171 194 0
172 194 0
171 193 0
172 195 0
169 191 0
172 195 0
171 194 0
171 194 0
169 192 0
169 194 0
168 192 0
169 192 0
172 195 0
169 191 0
170 193 0
170 193 0
173 195 0
166 189 0
169 192 0
168 192 0
168 192 0
169 193 0
168 191 0
170 193 0
170 193 0
168 191 0
169 192 0
173 196 0
167 190 0
171 194 0
167 190 0
168 192 0
171 194 0
173 195 0
168 192 0
164 187 0
166 189 0
167 190 0
165 189 0
167 191 0
168 191 0
170 192 0
166 188 0
167 190 0
166 188 0
165 188 0
166 188 0
165 188 0
169 193 0
165 187 0
166 188 0
164 187 0
166 189 0
163 186 0
171 194 0
170 194 0
164 187 0
163 187 0
169 192 0
166 188 0
166 188 0
168 190 0
168 192 0
166 189 0
163 187 0
166 189 0
165 187 0
166 189 0
166 189 0
166 188 0
168 190 0
165 188 0
166 189 0
169 192 0
165 188 0
165 188 0
165 187 0
161 184 0
169 191 0
162 185 0
160 182 0
165 189 0
163 185 0
165 187 0
168 191 0
161 183 0
162 184 0
162 185 0
160 182 0
159 181 0
160 182 0
160 183 0
158 181 0
160 182 0
164 186 0
157 179 0
161 184 0
159 182 0
158 181 0
158 180 0
160 182 0
156 179 0
158 181 0
158 181 0
168 191 0
161 183 0
154 176 0
156 178 0
154 176 0
154 174 0
156 179 0
155 177 0
154 176 0
163 185 0
157 179 0
153 175 0
152 174 0
151 172 0
152 174 0
145 168 0
157 180 0
151 172 0
155 176 0
154 177 0
149 170 0
146 168 0
152 173 0
145 167 0
148 170 0
152 175 0
147 169 0
147 167 0
147 167 0
151 174 0
141 163 0
150 171 0
145 166 0
142 163 0
146 169 0
144 165 0
142 163 0
144 165 0
139 162 0
141 163 0
132 152 0
137 156 0
135 157 0
132 150 0
138 158 0
142 162 0
132 153 0
136 158 0
142 162 0
132 150 0
132 153 0
133 154 0
140 161 0
134 155 0
136 156 0
139 159 0
129 150 0
137 157 0
138 158 0
124 143 0
135 153 0
132 150 0
136 155 0
120 138 0
129 148 0
131 151 0
132 152 0
123 141 0
140 161 0
135 154 0
132 149 0
131 151 0
120 139 0
122 140 0
120 139 0
123 141 0
125 143 0
130 148 0
114 132 0
124 142 0
123 140 0
125 143 0
113 132 0
125 142 0
123 139 0
118 135 0
119 135 0
114 130 0
119 134 0
107 121 0
112 127 0
116 133 0
119 136 0
105 121 0
121 138 0
114 130 0
111 126 0
112 127 0
119 136 0
108 124 0
111 124 0
112 126 0
112 126 0
95 110 0
116 129 0
104 118 0
111 126 0
112 127 0
100 114 0
110 123 0
112 125 0
114 128 0
111 125 0
111 125 0
104 116 0
115 128 0
119 131 0
115 127 0
116 129 0
99 109 0
102 114 0
113 126 0
113 123 0
60 65 8
82 81 19
101 99 16
91 91 23
93 93 9
110 108 14
115 112 26
112 112 24
123 120 19
125 122 35
114 112 28
137 133 38
131 128 35
133 128 37
128 124 33
136 133 28
132 128 26
135 131 30
138 132 19
133 129 32
139 135 28
138 133 31
142 137 34
141 138 22
138 134 30
147 143 25
141 137 30
143 139 32
149 145 30
149 144 32
145 142 34
146 140 28
142 139 28
144 140 28
148 144 32
153 148 36
147 143 28
150 144 32
142 139 28
148 145 22
148 142 30
150 145 28
149 144 39
151 147 28
151 146 34
150 147 30
150 146 28
150 147 34
156 150 36
153 148 34
154 149 34
147 143 28
151 146 30
153 148 41
152 148 28
155 151 36
155 149 32
149 144 22
148 143 28
155 151 30
152 148 30
150 147 22
154 149 34
153 149 30
152 147 32
158 152 44
151 147 39
156 151 39
153 148 34
156 151 32
155 150 37
152 147 32
155 150 28
153 148 32
154 150 30
152 147 32
149 144 28
155 149 34
152 148 34
158 153 36
158 153 39
156 152 28
151 147 28
154 148 36
152 147 30
157 152 37
149 145 25
155 151 30
153 148 30
152 148 32
153 149 32
150 146 28
150 147 25
154 148 28
154 148 37
150 146 34
157 151 41
151 146 28
152 147 16
155 151 34
152 149 32
151 147 28
151 146 37
155 151 34
156 150 37
148 144 22
149 145 34
146 141 22
152 148 37
149 145 32
146 141 25
149 144 32
140 137 25
149 144 32
146 142 22
151 148 28
145 142 19
143 139 32
148 144 30
146 142 28
146 141 34
139 136 11
147 143 34
151 145 41
144 139 30
144 139 32
141 138 25
142 138 32
138 134 32
139 134 32
135 130 22
129 125 25
130 125 34
130 127 30
133 130 32
129 125 37
122 118 19
116 113 19
137 145 19
168 187 0
165 185 0
168 187 0
162 181 0
165 183 0
167 187 0
170 190 0
164 183 0
164 182 0
166 185 0
167 186 0
169 189 0
161 180 0
166 184 0
168 188 0
169 188 0
166 185 0
164 185 0
168 188 0
165 184 0
169 188 0
167 186 0
166 185 0
168 188 0
172 193 0
169 189 0
169 189 0
168 189 0
171 192 0
171 191 0
172 191 0
168 188 0
167 188 0
168 189 0
167 191 0
169 192 0
171 194 0
170 193 0
172 195 0
169 193 0
171 194 0
167 190 0
169 193 0
168 192 0
168 191 0
165 187 0
171 194 0
172 194 0
169 192 0
170 193 0
168 191 0
170 193 0
172 195 0
166 190 0
170 193 0
169 192 0
171 195 0
171 194 0
169 191 0
169 192 0
170 193 0
169 192 0
169 193 0
170 192 0
168 192 0
169 193 0
171 194 0
168 191 0
170 192 0
168 190 0
170 193 0
168 191 0
168 191 0
164 186 0
164 187 0
169 193 0
169 191 0
169 191 0
169 192 0
169 192 0
169 190 0
167 190 0
166 188 0
170 193 0
164 187 0
171 193 0
167 190 0
165 188 0
167 190 0
166 189 0
162 185 0
166 188 0
167 190 0
163 185 0
171 194 0
170 193 0
167 189 0
164 187 0
164 187 0
165 187 0
166 189 0
163 186 0
165 188 0
166 189 0
165 188 0
167 189 0
169 192 0
164 187 0
165 187 0
160 183 0
163 185 0
165 187 0
163 187 0
161 184 0
164 185 0
163 186 0
159 182 0
163 186 0
166 188 0
160 182 0
163 185 0
160 183 0
166 188 0
163 186 0
164 187 0
159 181 0
157 178 0
159 181 0
159 180 0
163 185 0
161 183 0
162 185 0
157 178 0
162 186 0
159 181 0
155 177 0
158 181 0
161 184 0
164 186 0
154 177 0
160 182 0
154 177 0
157 180 0
155 179 0
154 177 0
155 177 0
163 184 0
158 179 0
161 183 0
154 176 0
155 177 0
158 179 0
148 169 0
147 167 0
154 176 0
152 175 0
146 168 0
156 178 0
151 172 0
150 172 0
148 170 0
149 171 0
149 171 0
153 174 0
145 167 0
149 171 0
145 166 0
143 165 0
151 173 0
145 166 0
144 164 0
144 165 0
138 159 0
150 171 0
142 163 0
144 165 0
149 170 0
141 162 0
140 161 0
148 167 0
151 173 0
144 166 0
144 165 0
143 164 0
140 160 0
133 153 0
140 162 0
140 161 0
135 154 0
131 151 0
131 151 0
139 159 0
134 155 0
141 160 0
136 155 0
139 159 0
140 161 0
135 155 0
139 159 0
130 149 0
127 147 0
132 151 0
129 148 0
130 151 0
131 149 0
130 149 0
131 150 0
127 145 0
132 151 0
130 148 0
124 142 0
127 144 0
122 140 0
126 142 0
129 148 0
124 140 0
115 134 0
114 131 0
126 144 0
114 127 0
126 143 0
132 148 0
118 136 0
115 130 0
111 128 0
120 136 0
123 140 0
118 134 0
116 133 0
117 135 0
108 122 0
109 124 0
118 133 0
110 123 0
129 145 0
113 126 0
118 132 0
110 124 0
112 127 0
116 131 0
121 135 0
106 121 0
108 123 0
105 119 0
111 127 0
119 134 0
122 137 0
115 130 0
113 127 0
100 113 0
117 130 0
103 117 0
111 123 0
118 131 0
115 126 0
105 117 0
108 120 0
113 128 0
109 122 0
111 125 0
107 121 0
80 80 16
86 85 22
91 90 29
103 102 19
99 97 16
109 105 14
111 109 22
112 110 28
110 107 31
123 120 28
122 118 12
127 125 22
133 129 25
128 124 33
132 129 27
130 127 29
135 131 21
133 130 23
136 133 30
140 136 31
141 137 37
139 135 16
134 130 32
144 141 28
142 138 30
143 139 25
139 135 28
144 139 25
143 139 30
146 142 16
146 142 25
148 144 39
147 144 25
145 141 28
150 145 30
153 148 36
148 144 30
142 140 16
144 139 34
146 141 28
148 145 28
147 143 36
147 143 34
150 146 28
149 144 36
149 145 32
148 143 36
148 144 22
153 148 30
151 146 30
151 146 25
153 150 28
150 147 19
156 151 37
154 148 41
150 146 25
147 143 28
153 148 32
153 149 22
148 144 22
156 151 36
153 148 34
152 147 25
148 144 37
147 143 28
155 150 37
152 146 37
151 146 22
155 150 34
153 149 30
152 148 28
150 145 28
151 145 25
154 149 32
155 150 30
156 150 41
157 152 37
153 147 28
151 147 32
155 150 34
155 150 28
150 145 28
153 148 34
148 144 16
150 147 28
145 141 28
150 146 28
154 150 41
149 145 22
150 146 28
152 146 32
154 150 37
153 149 30
152 147 22
153 148 36
151 147 32
153 148 37
154 149 34
155 151 32
150 144 34
149 145 25
154 150 30
148 143 30
152 147 30
149 144 28
154 149 39
153 148 30
149 145 25
151 146 30
151 146 32
150 145 34
153 148 37
149 145 28
148 144 30
150 145 28
148 143 28
147 142 28
145 141 28
149 144 34
139 135 28
144 139 30
140 135 34
139 136 25
144 138 34
138 133 30
144 139 22
140 136 34
138 133 32
143 138 25
142 137 30
138 133 30
132 129 34
130 127 28
126 122 22
137 133 28
126 121 19
127 123 28
116 112 30
147 158 11
166 185 0
161 179 0
167 186 0
167 184 0
168 187 0
166 184 0
164 184 0
167 187 0
165 185 0
167 188 0
165 186 0
169 188 0
166 184 0
170 188 0
167 186 0
166 184 0
165 185 0
166 185 0
166 182 0
168 188 0
169 189 0
167 187 0
167 187 0
171 191 0
169 188 0
167 186 0
170 190 0
168 187 0
170 191 0
169 190 0
166 185 0
171 191 0
168 190 0
172 194 0
171 194 0
172 195 0
171 195 0
169 192 0
171 193 0
170 193 0
170 193 0
171 195 0
169 193 0
170 194 0
168 191 0
172 195 0
171 193 0
169 192 0
169 193 0
164 188 0
170 194 0
171 194 0
168 192 0
169 193 0
170 194 0
171 194 0
171 195 0
171 193 0
169 192 0
167 191 0
167 191 0
167 190 0
167 191 0
169 193 0
172 195 0
172 195 0
169 192 0
170 193 0
168 191 0
168 191 0
170 192 0
167 190 0
171 193 0
169 193 0
171 193 0
168 191 0
168 191 0
164 187 0
169 193 0
169 191 0
173 195 0
165 189 0
169 192 0
165 189 0
163 186 0
165 189 0
166 189 0
169 193 0
166 189 0
163 187 0
169 193 0
164 187 0
169 192 0
172 195 0
170 192 0
161 184 0
166 190 0
169 192 0
163 187 0
166 188 0
169 191 0
165 188 0
162 184 0
166 188 0
164 186 0
172 194 0
162 184 0
164 187 0
165 187 0
162 184 0
166 188 0
161 183 0
165 186 0
165 188 0
162 185 0
156 178 0
164 185 0
164 188 0
169 191 0
164 186 0
165 188 0
157 178 0
159 181 0
157 180 0
160 181 0
165 187 0
161 183 0
156 180 0
160 181 0
166 189 0
156 178 0
162 183 0
157 179 0
156 177 0
160 181 0
160 182 0
153 175 0
164 186 0
157 181 0
149 171 0
161 183 0
162 184 0
157 181 0
158 180 0
159 182 0
159 181 0
151 173 0
153 176 0
153 176 0
153 174 0
163 185 0
159 180 0
155 178 0
156 179 0
145 167 0
149 170 0
150 171 0
156 178 0
147 169 0
142 163 0
146 169 0
142 164 0
146 167 0
154 177 0
149 170 0
147 169 0
148 170 0
148 169 0
148 170 0
145 167 0
149 169 0
140 161 0
149 170 0
148 170 0
137 158 0
151 171 0
143 165 0
135 155 0
146 167 0
155 176 0
142 163 0
137 156 0
140 160 0
146 167 0
137 158 0
132 153 0
140 159 0
147 167 0
133 153 0
134 155 0
138 158 0
138 157 0
130 150 0
141 159 0
145 165 0
132 151 0
136 156 0
140 160 0
137 156 0
141 160 0
124 145 0
129 147 0
127 146 0
135 154 0
138 157 0
131 152 0
133 153 0
124 143 0
137 156 0
120 137 0
142 159 0
131 149 0
137 156 0
128 146 0
128 146 0
135 152 0
131 149 0
120 138 0
120 138 0
123 141 0
120 138 0
127 143 0
126 143 0
120 138 0
119 137 0
130 147 0
119 137 0
122 139 0
115 132 0
124 140 0
114 131 0
120 135 0
112 128 0
123 140 0
125 141 0
119 135 0
109 123 0
123 138 0
119 135 0
118 134 0
116 130 0
106 118 0
122 137 0
114 129 0
111 124 0
112 127 0
112 126 0
115 128 0
117 130 0
104 119 0
118 131 0
114 127 0
119 134 0
124 137 0
101 115 0
118 131 0
114 126 0
101 113 0
100 112 0
110 125 0
116 130 0
81 85 8
83 82 16
85 83 20
101 98 26
100 99 26
104 100 22
121 117 19
125 123 28
112 109 18
113 111 30
116 114 18
121 118 25
124 121 23
132 128 25
137 134 29
141 137 32
146 141 32
132 129 31
139 134 25
135 132 19
147 142 34
145 140 34
142 139 25
141 139 11
145 140 39
136 133 28
144 140 28
143 138 42
146 141 28
148 143 37
150 145 37
150 144 42
147 142 30
148 144 30
152 147 32
148 144 28
145 140 30
150 146 22
150 147 25
148 145 16
143 139 25
149 146 22
151 147 32
151 146 39
149 145 30
155 150 39
150 145 32
148 144 22
149 145 32
152 147 28
153 148 28
148 143 28
150 146 30
149 145 28
149 146 28
153 148 39
151 146 28
154 150 22
154 149 28
149 146 19
153 149 32
148 144 16
153 147 41
156 152 30
153 148 36
154 149 30
157 152 37
154 150 36
157 151 32
152 148 30
155 152 25
157 152 39
151 145 32
152 148 37
153 149 34
152 147 36
155 151 36
155 151 34
148 145 22
156 152 34
153 148 34
150 145 25
154 150 25
156 152 34
154 149 30
153 149 32
153 148 34
155 151 32
156 150 32
152 149 25
150 146 22
153 148 32
152 148 30
154 149 36
152 147 32
153 149 25
149 145 28
152 148 32
150 145 30
147 144 32
155 149 36
153 148 32
153 148 34
146 142 22
147 142 30
149 144 32
141 138 32
151 147 22
153 148 34
150 145 28
148 145 28
150 145 25
146 142 32
145 140 30
146 141 36
149 144 36
149 145 28
140 136 22
143 138 30
143 138 36
145 142 28
141 136 25
138 134 28
146 141 36
141 137 25
138 133 28
136 132 36
137 133 37
138 134 30
133 129 36
141 136 36
134 129 39
132 128 30
130 125 30
125 122 25
123 119 25
136 130 30
127 122 34
158 172 11
166 185 0
166 187 0
163 181 0
167 186 0
165 183 0
167 186 0
169 188 0
170 188 0
166 186 0
166 183 0
168 188 0
167 187 0
167 186 0
167 187 0
165 185 0
167 186 0
168 187 0
164 180 0
167 187 0
167 186 0
168 186 0
168 189 0
169 190 0
171 192 0
170 191 0
169 190 0
168 189 0
168 190 0
170 189 0
169 191 0
166 185 0
170 191 0
172 193 0
172 193 0
173 196 0
170 194 0
172 196 0
171 194 0
170 194 0
170 193 0
171 193 0
166 189 0
172 195 0
166 190 0
170 192 0
172 195 0
170 193 0
171 194 0
166 190 0
169 193 0
169 192 0
170 193 0
171 194 0
170 193 0
166 190 0
171 194 0
167 191 0
171 194 0
171 194 0
171 194 0
172 194 0
167 190 0
170 193 0
171 195 0
166 189 0
169 191 0
166 190 0
169 192 0
168 191 0
169 192 0
170 193 0
168 191 0
166 189 0
168 190 0
166 190 0
169 192 0
170 192 0
164 187 0
168 192 0
166 188 0
167 190 0
169 192 0
166 188 0
165 187 0
166 190 0
168 191 0
165 188 0
165 188 0
166 190 0
170 193 0
169 192 0
165 187 0
168 190 0
166 189 0
169 191 0
165 187 0
169 193 0
164 187 0
166 190 0
164 186 0
161 183 0
165 188 0
163 187 0
162 185 0
168 190 0
167 190 0
168 191 0
168 190 0
160 183 0
165 187 0
164 186 0
163 185 0
165 187 0
166 188 0
164 186 0
167 189 0
164 187 0
165 187 0
163 184 0
165 188 0
164 188 0
155 178 0
161 183 0
160 183 0
162 185 0
162 185 0
160 182 0
160 181 0
157 179 0
161 182 0
164 185 0
160 182 0
157 179 0
154 176 0
154 177 0
156 178 0
161 184 0
159 181 0
159 180 0
159 182 0
160 183 0
158 180 0
158 181 0
158 179 0
153 176 0
160 183 0
156 179 0
155 175 0
153 175 0
155 175 0
154 175 0
157 179 0
154 177 0
158 178 0
155 178 0
145 166 0
153 174 0
153 176 0
156 178 0
146 168 0
156 178 0
151 171 0
151 173 0
156 177 0
138 159 0
144 165 0
149 170 0
147 169 0
145 168 0
149 170 0
146 168 0
139 161 0
144 165 0
146 169 0
147 167 0
143 165 0
140 160 0
137 157 0
139 160 0
153 175 0
138 159 0
140 161 0
143 164 0
142 163 0
136 157 0
133 152 0
138 159 0
140 163 0
133 152 0
142 164 0
141 161 0
134 152 0
140 160 0
141 160 0
137 158 0
128 148 0
140 160 0
126 146 0
141 162 0
137 156 0
126 145 0
129 147 0
134 154 0
141 161 0
129 148 0
131 150 0
130 147 0
126 145 0
131 151 0
120 137 0
130 148 0
126 144 0
132 149 0
125 142 0
132 150 0
130 150 0
124 141 0
133 152 0
130 147 0
121 139 0
118 135 0
129 148 0
118 133 0
106 121 0
123 139 0
129 146 0
128 145 0
126 141 0
112 129 0
122 138 0
130 147 0
126 141 0
110 125 0
126 141 0
116 132 0
118 133 0
113 129 0
123 137 0
118 132 0
126 142 0
126 140 0
115 129 0
120 135 0
119 133 0
114 128 0
116 132 0
128 141 0
111 125 0
118 132 0
114 129 0
115 128 0
104 116 0
114 126 0
112 126 0
113 126 0
89 102 0
107 121 0
111 125 0
117 130 0
98 108 0
103 115 0
85 85 20
95 93 14
98 97 21
95 94 27
94 92 21
114 112 28
105 105 12
117 116 35
121 118 24
114 112 29
113 111 21
132 129 36
132 129 33
128 125 26
139 135 35
138 133 32
141 136 31
139 135 41
137 132 36
135 131 34
141 137 25
134 130 25
148 144 32
134 129 30
144 140 32
146 141 25
139 136 30
142 137 36
150 145 32
145 141 30
143 139 30
145 142 16
149 145 34
147 142 28
150 146 30
149 146 30
147 143 25
145 141 22
146 144 22
149 145 22
148 144 34
149 146 22
153 150 30
145 142 28
152 149 30
149 144 34
155 149 39
146 142 30
148 144 22
149 146 25
149 144 28
147 144 25
148 145 28
149 145 30
156 150 36
145 142 30
154 149 34
150 145 37
148 143 25
150 145 37
155 149 25
153 148 34
155 150 16
152 148 36
149 143 30
152 147 30
155 151 37
154 150 32
154 149 37
147 144 19
150 146 16
149 144 25
155 150 30
152 148 25
153 147 30
153 150 30
151 147 19
153 150 32
152 148 22
151 146 36
155 149 32
153 148 30
153 149 37
148 143 11
155 150 34
158 153 37
152 148 30
156 153 28
154 149 32
158 152 39
152 148 28
154 150 32
155 150 41
154 149 32
154 150 34
149 144 30
149 144 36
147 143 19
156 150 41
151 147 25
148 142 34
156 151 34
145 141 25
145 141 22
150 144 36
150 145 36
147 142 28
146 142 30
147 143 28
153 148 32
153 147 45
144 140 25
150 145 28
141 137 30
148 142 28
149 145 34
145 141 32
148 143 30
141 135 32
150 146 37
148 144 32
146 142 28
151 147 28
145 140 28
148 142 44
141 137 22
136 132 25
144 138 34
143 139 28
129 124 32
141 136 19
130 126 25
132 128 30
129 124 25
126 123 22
112 109 19
124 121 25
129 125 22
166 184 0
164 180 0
162 179 0
164 184 0
167 184 0
168 186 0
169 189 0
170 189 0
169 189 0
168 187 0
166 185 0
170 190 0
165 183 0
168 186 0
165 185 0
169 188 0
168 188 0
169 187 0
169 188 0
168 189 0
170 189 0
171 188 0
168 187 0
167 186 0
169 188 0
163 185 0
169 187 0
169 188 0
170 191 0
169 189 0
168 188 0
169 189 0
168 189 0
172 193 0
165 184 0
173 195 0
172 195 0
169 192 0
171 193 0
172 195 0
166 190 0
172 195 0
171 193 0
169 192 0
170 194 0
171 194 0
173 196 0
167 191 0
172 195 0
166 189 0
169 192 0
173 196 0
164 188 0
167 191 0
166 189 0
170 194 0
172 195 0
169 192 0
165 189 0
168 191 0
171 193 0
168 190 0
168 190 0
166 190 0
167 190 0
170 193 0
167 190 0
169 193 0
171 194 0
169 193 0
168 190 0
169 192 0
168 190 0
169 192 0
166 189 0
171 194 0
171 195 0
165 188 0
162 186 0
166 190 0
169 192 0
169 192 0
169 190 0
168 190 0
163 186 0
165 188 0
163 185 0
164 187 0
170 193 0
169 192 0
164 187 0
167 189 0
163 186 0
166 188 0
164 186 0
167 190 0
165 189 0
169 192 0
169 192 0
160 184 0
167 190 0
163 186 0
167 190 0
168 191 0
167 190 0
165 189 0
164 186 0
167 191 0
161 184 0
162 185 0
162 185 0
167 189 0
166 189 0
164 185 0
162 184 0
164 187 0
163 186 0
161 184 0
166 188 0
165 187 0
165 187 0
162 184 0
165 189 0
159 182 0
167 191 0
164 188 0
161 184 0
161 184 0
160 184 0
164 187 0
165 187 0
158 180 0
155 177 0
162 184 0
161 184 0
154 177 0
162 184 0
161 184 0
156 178 0
165 188 0
156 178 0
159 181 0
151 173 0
159 182 0
153 176 0
160 182 0
154 176 0
156 178 0
155 177 0
159 181 0
157 178 0
153 176 0
156 179 0
161 183 0
155 176 0
155 177 0
150 172 0
148 169 0
157 179 0
152 172 0
152 173 0
152 173 0
147 167 0
154 176 0
152 174 0
141 162 0
151 172 0
139 160 0
156 178 0
152 174 0
146 167 0
145 167 0
147 168 0
143 164 0
144 163 0
148 170 0
145 166 0
141 162 0
141 161 0
142 163 0
144 165 0
144 165 0
141 161 0
141 163 0
146 168 0
141 163 0
137 157 0
143 164 0
143 164 0
139 158 0
139 160 0
138 158 0
134 154 0
134 155 0
136 156 0
140 159 0
137 157 0
139 158 0
140 160 0
140 159 0
133 152 0
141 160 0
131 151 0
141 160 0
136 156 0
123 141 0
126 147 0
135 153 0
129 146 0
136 156 0
129 147 0
129 148 0
129 148 0
128 146 0
133 151 0
139 157 0
130 150 0
128 145 0
127 145 0
127 144 0
116 133 0
130 147 0
121 140 0
124 142 0
127 144 0
126 144 0
129 148 0
121 137 0
124 138 0
116 133 0
123 139 0
120 138 0
115 133 0
120 137 0
121 138 0
118 135 0
129 145 0
117 131 0
123 141 0
113 130 0
114 130 0
116 131 0
114 128 0
120 135 0
121 135 0
115 130 0
110 123 0
125 142 0
118 130 0
125 140 0
117 132 0
112 126 0
113 128 0
112 125 0
107 120 0
110 124 0
111 123 0
112 125 0
104 116 0
109 121 0
109 120 0
122 133 0
78 75 11
93 92 24
94 92 18
113 110 29
104 102 12
110 106 18
114 113 25
113 110 24
120 116 22
119 116 25
123 119 29
123 119 19
138 133 35
129 125 32
123 119 28
132 129 24
137 133 29
138 133 39
128 126 22
139 134 30
145 141 30
138 134 34
139 135 30
140 136 25
149 146 28
141 137 28
139 135 34
148 144 34
144 141 28
145 142 25
145 142 30
149 145 36
143 139 22
144 139 28
144 140 22
146 142 32
149 144 34
147 143 30
148 144 32
148 143 25
153 148 36
150 146 30
149 145 34
145 142 32
151 146 39
153 149 30
152 147 41
151 147 32
151 146 30
155 150 28
151 147 25
156 150 36
153 149 30
149 144 25
150 146 28
148 144 25
151 148 25
158 152 42
153 149 32
154 148 44
153 148 30
149 145 25
148 143 32
153 149 25
149 143 28
153 149 30
152 148 34
157 152 37
154 149 34
154 149 28
152 146 32
152 148 30
152 148 32
154 150 28
154 149 25
152 147 30
155 151 30
156 151 39
150 145 28
155 151 32
154 149 39
158 152 42
156 152 25
151 146 36
151 147 28
150 146 25
151 146 36
155 150 36
148 143 30
152 148 34
155 150 36
154 150 28
151 147 11
151 147 30
152 147 32
152 148 32
155 150 37
151 146 30
148 144 28
150 146 34
155 150 37
151 146 28
147 142 30
148 143 19
150 146 25
148 143 25
145 141 28
152 147 36
153 148 36
149 144 34
148 144 25
147 143 28
147 143 25
146 141 34
148 142 32
148 143 34
146 141 32
137 133 16
150 146 34
146 141 22
148 144 32
142 137 28
144 139 30
147 141 25
145 140 32
144 138 25
143 139 22
138 134 25
131 127 22
134 129 25
133 129 22
130 125 16
131 126 32
130 124 28
118 113 22
127 121 22
125 121 28
133 137 28
164 182 0
166 185 0
169 189 0
166 184 0
165 184 0
165 184 0
168 189 0
169 186 0
168 186 0
165 183 0
170 190 0
171 190 0
167 185 0
170 189 0
167 187 0
167 188 0
167 187 0
170 190 0
170 190 0
168 188 0
167 186 0
169 188 0
171 190 0
167 186 0
169 188 0
167 186 0
171 192 0
166 186 0
170 190 0
171 188 0
170 192 0
169 191 0
169 190 0
169 190 0
169 189 0
170 193 0
173 197 0
170 193 0
171 195 0
174 197 0
174 196 0
171 194 0
170 193 0
172 195 0
170 193 0
172 194 0
169 192 0
172 195 0
170 194 0
172 195 0
169 192 0
170 192 0
170 194 0
168 190 0
171 194 0
165 189 0
170 192 0
171 195 0
172 195 0
170 192 0
172 195 0
166 189 0
167 190 0
169 191 0
168 191 0
171 193 0
166 189 0
167 189 0
167 190 0
170 193 0
168 191 0
169 193 0
168 190 0
167 190 0
167 190 0
169 192 0
165 187 0
170 194 0
169 191 0
167 190 0
171 195 0
167 190 0
164 186 0
169 193 0
166 190 0
165 187 0
168 190 0
165 189 0
168 191 0
164 187 0
166 190 0
167 190 0
168 190 0
167 190 0
164 187 0
168 191 0
166 188 0
166 189 0
164 186 0
168 191 0
166 190 0
163 186 0
168 191 0
163 185 0
168 191 0
165 187 0
163 186 0
167 189 0
162 187 0
166 188 0
164 188 0
163 186 0
162 186 0
166 189 0
158 181 0
162 185 0
164 186 0
163 186 0
159 182 0
160 181 0
163 186 0
159 181 0
166 189 0
161 184 0
162 185 0
164 187 0
159 182 0
160 183 0
159 179 0
155 178 0
162 185 0
165 186 0
159 182 0
158 181 0
160 183 0
159 181 0
157 178 0
159 182 0
160 182 0
157 178 0
154 175 0
152 174 0
159 183 0
159 182 0
156 179 0
154 176 0
161 184 0
158 179 0
155 177 0
159 181 0
160 183 0
155 175 0
159 181 0
156 179 0
157 179 0
159 181 0
152 174 0
154 175 0
148 169 0
156 177 0
151 173 0
149 170 0
145 166 0
153 174 0
147 169 0
143 164 0
153 175 0
147 168 0
151 173 0
149 171 0
145 167 0
148 169 0
144 164 0
148 170 0
146 167 0
150 170 0
149 171 0
136 158 0
135 157 0
140 160 0
148 170 0
139 160 0
135 157 0
140 160 0
150 173 0
152 172 0
142 162 0
147 168 0
138 159 0
138 158 0
142 163 0
135 152 0
147 169 0
141 162 0
138 157 0
136 155 0
144 163 0
140 160 0
139 160 0
131 151 0
135 155 0
133 151 0
144 162 0
143 163 0
144 164 0
135 153 0
132 150 0
142 161 0
132 150 0
132 150 0
129 147 0
133 152 0
130 150 0
131 151 0
129 149 0
122 141 0
131 150 0
124 141 0
128 147 0
124 141 0
127 143 0
128 146 0
120 136 0
127 146 0
137 155 0
130 149 0
129 147 0
138 155 0
128 144 0
121 137 0
125 141 0
128 145 0
126 143 0
118 134 0
118 133 0
128 143 0
124 140 0
127 143 0
120 136 0
117 132 0
123 140 0
127 141 0
137 150 0
122 135 0
115 129 0
119 134 0
116 133 0
116 129 0
110 122 0
121 136 0
118 132 0
101 112 0
116 128 0
122 135 0
114 128 0
114 127 0
112 124 0
115 128 0
116 129 0
118 131 0
119 133 0
105 119 0
84 83 14
84 84 12
94 93 16
100 97 22
104 103 24
118 116 28
112 110 14
113 112 28
115 113 24
115 112 19
121 118 22
133 129 31
129 127 31
122 120 18
133 129 26
135 132 35
134 131 24
135 132 25
137 133 36
144 140 32
136 133 22
146 141 37
138 134 30
148 145 32
140 136 19
145 140 34
136 132 28
145 141 28
144 139 28
149 144 28
140 136 25
151 147 28
146 143 22
146 142 34
145 142 30
143 141 25
147 143 28
154 150 25
148 144 34
154 148 39
149 145 28
149 144 32
152 146 37
155 150 34
153 149 25
152 148 32
154 149 34
147 143 25
150 146 30
151 146 36
158 152 37
150 146 22
151 147 32
149 146 32
154 150 32
152 147 28
152 148 22
154 149 32
153 149 36
151 147 30
154 149 30
154 149 30
153 148 28
155 151 34
154 150 30
151 146 28
151 147 22
153 148 30
153 149 37
154 150 39
161 155 42
153 149 34
153 148 32
152 148 28
157 153 34
147 144 28
152 147 19
154 150 28
151 146 22
149 145 28
154 149 30
157 151 36
152 147 34
151 146 22
153 149 30
153 147 30
149 145 28
152 147 32
148 144 25
151 146 30
148 143 32
150 147 28
154 149 36
153 149 36
152 148 37
153 148 34
150 145 32
152 148 32
147 142 28
150 146 22
148 142 32
151 147 25
148 144 25
151 146 28
151 146 25
147 142 22
149 144 36
149 146 32
154 149 32
148 142 28
149 144 39
144 139 32
149 144 30
152 147 37
144 139 34
151 145 30
147 141 36
147 143 28
145 141 25
136 132 25
144 139 28
140 135 30
138 133 19
145 139 34
142 136 37
139 135 32
142 137 32
138 133 28
133 128 32
135 131 32
127 122 30
129 126 30
124 120 28
122 117 30
129 126 19
131 126 34
123 117 28
138 143 25
167 185 0
167 186 0
160 176 0
164 183 0
164 182 0
167 185 0
168 185 0
164 180 0
167 185 0
170 188 0
167 185 0
166 185 0
167 188 0
167 184 0
167 185 0
167 186 0
170 190 0
170 189 0
170 188 0
170 188 0
166 184 0
171 191 0
165 185 0
166 187 0
165 185 0
169 189 0
168 189 0
168 188 0
168 187 0
168 189 0
168 187 0
167 188 0
170 190 0
171 190 0
170 189 0
171 194 0
168 191 0
169 193 0
169 192 0
169 192 0
171 195 0
169 193 0
168 191 0
171 194 0
172 195 0
172 195 0
170 193 0
170 194 0
168 190 0
174 196 0
168 192 0
171 193 0
168 191 0
168 191 0
170 193 0
172 195 0
165 189 0
170 192 0
169 193 0
170 193 0
169 192 0
169 191 0
166 190 0
169 192 0
171 193 0
170 194 0
169 193 0
171 194 0
169 193 0
169 191 0
171 193 0
171 194 0
167 190 0
170 193 0
167 191 0
166 189 0
169 191 0
168 191 0
167 190 0
168 191 0
167 190 0
167 191 0
164 188 0
168 192 0
169 192 0
168 190 0
165 188 0
167 191 0
170 193 0
165 189 0
163 186 0
166 190 0
164 186 0
164 186 0
168 191 0
167 190 0
165 187 0
166 189 0
164 187 0
165 188 0
165 187 0
167 189 0
168 191 0
161 185 0
166 189 0
168 191 0
166 187 0
168 192 0
160 183 0
162 184 0
162 185 0
161 183 0
165 188 0
161 183 0
164 187 0
161 183 0
163 186 0
165 186 0
162 184 0
159 182 0
165 188 0
158 181 0
161 182 0
166 188 0
161 184 0
166 189 0
162 185 0
163 186 0
155 177 0
162 185 0
161 183 0
159 182 0
150 172 0
161 183 0
159 181 0
165 187 0
161 184 0
161 184 0
157 178 0
161 183 0
153 176 0
161 183 0
158 180 0
151 174 0
157 179 0
159 182 0
156 179 0
154 175 0
166 188 0
163 186 0
154 176 0
154 175 0
153 175 0
155 177 0
151 173 0
154 176 0
157 179 0
148 170 0
158 180 0
147 171 0
153 175 0
145 167 0
151 173 0
149 172 0
159 180 0
150 172 0
157 179 0
151 173 0
148 169 0
144 166 0
155 176 0
147 167 0
148 170 0
144 166 0
143 161 0
147 168 0
149 171 0
146 169 0
150 171 0
147 169 0
145 166 0
142 163 0
138 160 0
142 164 0
142 161 0
141 161 0
143 163 0
143 163 0
145 165 0
143 164 0
142 161 0
138 159 0
147 168 0
133 154 0
138 157 0
145 167 0
138 159 0
139 159 0
141 161 0
136 155 0
134 154 0
134 153 0
139 159 0
144 164 0
142 162 0
143 162 0
142 161 0
135 155 0
133 154 0
141 161 0
136 155 0
137 154 0
132 151 0
130 148 0
133 151 0
127 145 0
129 145 0
134 151 0
137 156 0
130 149 0
128 145 0
140 159 0
121 139 0
133 152 0
124 142 0
120 135 0
136 151 0
132 149 0
121 137 0
127 145 0
129 147 0
123 137 0
118 134 0
127 142 0
137 153 0
122 139 0
133 148 0
122 138 0
110 126 0
127 140 0
137 154 0
127 143 0
123 137 0
132 146 0
117 132 0
117 130 0
118 130 0
119 132 0
114 127 0
129 144 0
111 127 0
118 131 0
115 129 0
123 139 0
108 121 0
122 135 0
102 117 0
126 138 0
112 124 0
121 134 0
120 131 0
106 117 0
89 88 14
88 86 5
89 88 14
99 98 19
107 104 28
111 108 28
111 109 28
121 118 30
117 114 24
123 118 32
122 120 25
129 126 26
129 126 29
130 127 35
139 133 44
126 123 21
132 128 32
137 133 34
130 127 22
134 130 32
141 136 37
139 135 28
142 138 33
142 139 19
144 141 30
146 140 39
142 137 32
136 134 28
146 141 37
137 133 25
148 144 22
149 144 28
140 136 25
148 144 36
151 146 28
151 147 36
141 138 22
148 144 28
146 142 25
146 141 25
150 145 16
150 145 34
147 144 22
150 144 30
152 145 45
151 146 37
150 146 32
149 144 30
151 147 34
153 149 32
156 151 28
148 144 30
152 147 32
156 151 36
148 144 25
149 145 28
148 144 28
152 147 30
154 149 37
153 148 30
149 145 22
149 145 28
154 148 30
153 149 39
155 150 32
154 150 30
150 146 19
148 144 28
158 153 34
151 148 22
153 149 28
154 149 42
148 143 22
155 150 37
149 145 36
155 150 32
154 149 32
153 148 28
150 145 22
158 153 41
151 146 34
153 149 34
155 151 30
155 150 34
150 146 30
153 147 28
151 146 44
153 148 36
155 150 34
149 145 34
151 146 30
152 147 28
149 144 32
155 150 28
148 144 22
150 145 28
151 147 28
156 151 36
150 145 28
148 144 30
146 141 28
152 147 30
153 148 28
152 147 30
151 147 37
150 145 32
149 145 32
150 144 28
145 140 34
141 136 30
138 135 16
146 143 11
148 144 34
148 144 36
150 146 30
150 146 32
149 143 36
144 139 36
147 143 22
145 141 30
142 138 30
139 135 22
138 134 34
136 132 22
147 142 32
144 139 30
132 127 22
141 137 22
145 140 36
137 133 16
134 130 22
124 121 0
134 130 32
121 118 25
124 121 25
123 118 30
114 111 22
148 161 11
164 181 0
166 185 0
163 182 0
166 184 0
168 186 0
164 183 0
165 184 0
165 184 0
164 184 0
162 181 0
166 185 0
165 185 0
164 182 0
169 187 0
167 184 0
168 188 0
164 184 0
169 188 0
169 187 0
170 190 0
170 188 0
167 188 0
171 191 0
171 191 0
171 191 0
170 190 0
165 184 0
167 188 0
167 189 0
166 185 0
172 192 0
169 190 0
168 188 0
172 193 0
168 189 0
172 194 0
170 194 0
170 193 0
172 195 0
170 194 0
170 192 0
172 195 0
170 193 0
169 193 0
169 192 0
170 194 0
170 193 0
170 193 0
168 191 0
167 191 0
168 192 0
172 194 0
170 193 0
172 194 0
168 191 0
172 195 0
167 192 0
170 193 0
171 194 0
168 191 0
169 191 0
167 190 0
169 192 0
170 193 0
170 193 0
170 192 0
170 193 0
164 186 0
168 192 0
168 192 0
169 191 0
168 190 0
173 195 0
170 192 0
163 185 0
167 190 0
169 192 0
167 190 0
169 192 0
165 187 0
164 187 0
169 193 0
171 194 0
170 192 0
165 188 0
167 189 0
167 190 0
168 192 0
166 189 0
164 187 0
169 191 0
169 192 0
168 191 0
166 189 0
168 192 0
167 191 0
170 193 0
166 189 0
166 189 0
165 187 0
164 187 0
165 187 0
163 186 0
168 190 0
164 186 0
162 184 0
166 187 0
162 184 0
163 186 0
165 187 0
159 182 0
163 186 0
163 184 0
160 182 0
164 186 0
166 189 0
165 188 0
158 181 0
162 184 0
158 181 0
163 186 0
163 186 0
160 183 0
163 185 0
164 187 0
157 179 0
163 186 0
164 187 0
162 184 0
160 181 0
161 184 0
157 180 0
158 180 0
156 178 0
162 185 0
153 175 0
164 187 0
157 180 0
161 183 0
159 183 0
156 179 0
163 185 0
155 177 0
153 176 0
160 182 0
162 184 0
154 176 0
156 178 0
156 178 0
157 180 0
156 177 0
155 177 0
159 180 0
156 179 0
155 178 0
160 182 0
157 179 0
157 179 0
150 172 0
157 179 0
152 173 0
153 174 0
154 175 0
149 171 0
152 173 0
155 176 0
147 169 0
141 161 0
156 177 0
145 165 0
151 173 0
154 176 0
148 169 0
147 169 0
148 171 0
144 166 0
151 173 0
134 155 0
146 167 0
144 165 0
144 165 0
151 173 0
149 171 0
143 164 0
156 177 0
147 167 0
144 164 0
139 159 0
144 164 0
145 164 0
150 170 0
143 164 0
141 161 0
141 161 0
137 158 0
140 160 0
140 160 0
136 156 0
137 158 0
135 154 0
140 159 0
144 162 0
131 151 0
128 146 0
136 154 0
120 139 0
143 164 0
128 147 0
136 155 0
131 149 0
122 140 0
139 160 0
126 144 0
132 151 0
132 151 0
127 145 0
126 143 0
141 157 0
128 145 0
129 147 0
128 146 0
135 153 0
131 148 0
120 136 0
135 150 0
127 145 0
127 143 0
137 155 0
125 142 0
119 135 0
134 151 0
126 143 0
117 132 0
119 136 0
126 141 0
123 141 0
125 141 0
134 149 0
127 143 0
128 143 0
128 142 0
110 122 0
112 127 0
112 127 0
109 123 0
130 146 0
118 134 0
120 135 0
119 135 0
126 141 0
117 129 0
129 142 0
118 133 0
126 142 0
120 135 0
118 131 0
108 119 0
122 135 0
118 131 0
115 127 0
123 133 0
108 116 0
78 75 3
92 91 20
100 99 23
101 98 25
101 99 19
111 108 28
102 101 25
116 114 19
114 111 16
120 118 30
119 116 24
128 123 28
137 133 38
131 127 31
129 126 28
137 133 32
137 133 28
142 139 22
143 139 22
138 136 19
135 133 25
140 137 19
146 141 37
146 142 28
141 137 22
141 137 32
139 135 22
141 137 25
142 138 28
149 145 25
148 143 32
142 139 30
151 146 32
144 140 22
146 142 22
153 149 22
145 141 28
147 143 25
151 146 39
149 143 30
149 145 30
152 148 19
151 146 25
146 142 22
151 146 28
149 145 30
153 148 34
152 146 32
150 146 0
143 139 32
153 147 32
151 146 28
147 143 16
148 144 19
146 142 32
151 147 28
155 148 36
153 148 22
155 150 32
146 142 25
153 149 22
154 150 34
152 147 32
154 149 30
157 152 44
150 145 28
153 147 36
152 148 22
151 148 19
155 150 39
147 143 25
151 147 19
154 149 28
156 150 36
152 147 28
153 149 28
153 148 28
153 148 28
150 144 28
155 150 34
150 145 30
154 149 30
152 148 30
151 146 32
152 148 19
152 147 37
151 146 34
152 147 30
150 146 22
153 148 30
149 144 28
152 148 25
150 145 30
155 150 37
149 144 32
154 150 32
147 143 22
155 152 30
148 144 25
149 145 28
149 145 30
153 148 41
149 146 32
151 145 34
156 151 41
150 145 37
148 144 28
149 144 32
147 142 28
152 147 22
148 144 30
142 137 32
152 146 34
142 139 25
145 140 28
143 138 32
145 141 19
143 140 16
140 137 30
144 139 32
143 138 32
136 131 28
140 137 22
147 141 42
139 135 30
137 133 36
138 134 39
140 135 28
140 136 34
127 123 19
141 135 34
126 122 22
127 123 22
126 122 28
129 126 28
120 116 22
118 114 28
156 170 0
163 180 0
164 181 0
165 183 0
166 184 0
167 184 0
162 180 0
165 184 0
170 188 0
165 181 0
167 185 0
171 189 0
165 183 0
164 183 0
166 186 0
165 185 0
170 190 0
168 188 0
169 187 0
170 189 0
166 185 0
166 186 0
170 191 0
169 188 0
169 187 0
170 189 0
169 189 0
170 189 0
171 190 0
171 190 0
170 189 0
172 191 0
167 188 0
170 191 0
164 185 0
169 189 0
170 193 0
169 193 0
172 194 0
170 194 0
170 193 0
170 194 0
171 194 0
171 194 0
170 192 0
169 193 0
172 196 0
171 194 0
170 192 0
169 193 0
170 193 0
169 191 0
170 194 0
171 195 0
167 190 0
169 192 0
169 192 0
168 191 0
170 193 0
171 193 0
171 194 0
167 190 0
168 192 0
169 192 0
172 195 0
166 190 0
170 193 0
172 195 0
169 192 0
168 191 0
170 194 0
168 191 0
167 190 0
172 195 0
169 192 0
168 191 0
168 191 0
170 192 0
164 187 0
166 190 0
163 186 0
169 192 0
166 190 0
170 192 0
165 188 0
168 191 0
167 190 0
167 190 0
168 190 0
164 187 0
169 191 0
170 193 0
164 187 0
165 189 0
170 193 0
165 187 0
165 187 0
165 188 0
163 185 0
168 190 0
162 185 0
167 190 0
164 186 0
161 184 0
163 186 0
164 187 0
164 186 0
163 186 0
162 185 0
166 188 0
161 184 0
166 188 0
163 185 0
166 189 0
165 187 0
164 186 0
165 187 0
166 189 0
162 185 0
161 183 0
165 188 0
154 177 0
167 189 0
162 184 0
160 183 0
162 185 0
161 183 0
161 185 0
158 181 0
162 184 0
157 179 0
164 186 0
158 180 0
161 183 0
163 185 0
158 180 0
159 181 0
159 182 0
161 184 0
156 177 0
163 185 0
161 184 0
159 182 0
157 179 0
159 181 0
157 178 0
159 181 0
157 180 0
156 179 0
161 183 0
153 175 0
160 181 0
152 173 0
153 173 0
151 173 0
153 175 0
154 176 0
146 169 0
150 171 0
158 180 0
153 175 0
154 175 0
146 168 0
147 167 0
153 174 0
149 171 0
153 173 0
154 175 0
146 167 0
146 168 0
148 169 0
147 168 0
151 171 0
156 177 0
157 178 0
149 171 0
143 164 0
144 166 0
143 165 0
144 167 0
141 162 0
145 167 0
140 160 0
149 170 0
146 166 0
138 157 0
152 173 0
137 156 0
141 161 0
147 167 0
145 166 0
144 163 0
140 161 0
143 162 0
145 166 0
140 162 0
129 147 0
147 167 0
140 160 0
139 160 0
137 156 0
140 160 0
134 155 0
141 160 0
136 155 0
133 153 0
142 161 0
134 152 0
129 150 0
136 154 0
148 169 0
137 154 0
133 150 0
131 150 0
128 146 0
135 154 0
133 152 0
141 157 0
139 158 0
133 152 0
134 153 0
135 153 0
131 150 0
134 151 0
129 146 0
126 141 0
122 139 0
124 140 0
135 153 0
121 138 0
129 146 0
122 139 0
127 142 0
130 144 0
129 146 0
126 142 0
119 132 0
126 141 0
130 147 0
128 144 0
127 145 0
127 142 0
129 143 0
118 132 0
122 137 0
124 140 0
115 128 0
122 135 0
120 135 0
130 146 0
114 128 0
124 137 0
114 129 0
128 142 0
125 140 0
120 136 0
120 136 0
119 132 0
112 123 0
126 139 0
115 128 0
112 123 0
117 127 8
88 85 8
91 89 16
96 94 16
88 85 11
100 98 20
108 107 23
117 113 26
119 116 28
120 117 22
123 119 16
128 123 22
129 126 33
119 116 25
135 131 26
138 134 37
136 132 21
135 131 22
131 127 22
127 124 31
139 136 31
135 131 19
136 132 16
140 135 30
149 144 44
137 133 30
137 132 25
142 138 16
146 140 32
144 141 32
145 141 28
140 137 19
142 138 30
148 144 22
146 142 28
145 143 19
150 145 34
148 143 32
147 144 34
149 145 22
150 146 25
152 147 22
149 145 28
152 147 32
150 146 28
153 149 28
150 147 19
151 146 37
153 147 30
150 147 32
148 143 16
150 146 28
149 144 30
151 147 28
153 148 41
150 146 30
152 149 22
150 145 32
147 142 25
149 144 30
153 149 34
156 150 37
150 145 32
153 147 39
154 150 36
152 148 32
151 147 32
153 149 37
151 147 22
151 147 25
155 150 36
154 149 30
151 147 28
151 146 28
152 148 30
153 149 34
153 149 30
148 145 22
152 147 30
151 147 28
153 149 34
153 148 30
152 147 32
150 146 28
149 145 19
153 148 30
154 149 30
151 145 25
151 146 28
150 145 32
152 147 32
152 148 34
151 147 22
147 143 28
151 148 25
153 148 30
155 150 32
154 148 34
150 145 32
146 141 28
152 148 32
155 150 34
148 144 32
149 145 28
151 147 36
152 147 34
147 144 28
149 144 25
151 147 37
145 141 25
153 148 42
146 142 25
151 145 30
152 146 36
141 137 28
147 142 32
148 143 19
146 142 32
148 142 32
145 139 39
146 141 30
145 141 19
144 139 34
140 135 28
140 136 34
135 130 32
143 138 30
140 134 42
140 135 28
135 130 32
132 128 34
135 130 32
134 130 28
131 127 32
113 110 19
131 127 32
121 117 22
110 106 19
163 181 0
163 180 0
167 184 0
167 183 0
163 182 0
171 190 0
167 186 0
163 181 0
167 186 0
168 186 0
165 182 0
168 186 0
168 186 0
168 186 0
167 186 0
170 189 0
170 191 0
165 184 0
165 184 0
171 191 0
168 187 0
167 187 0
166 184 0
167 185 0
168 187 0
165 186 0
167 186 0
168 188 0
166 187 0
169 190 0
168 188 0
169 189 0
169 189 0
168 189 0
170 192 0
168 189 0
166 189 0
169 192 0
170 192 0
170 192 0
169 193 0
173 196 0
173 196 0
171 195 0
170 194 0
171 194 0
170 193 0
170 192 0
168 192 0
169 191 0
169 192 0
167 191 0
171 195 0
166 189 0
172 195 0
168 191 0
170 193 0
172 195 0
171 193 0
169 193 0
166 190 0
163 185 0
170 193 0
167 191 0
171 194 0
172 195 0
168 191 0
170 193 0
168 190 0
163 185 0
169 192 0
167 190 0
168 190 0
169 191 0
168 191 0
168 190 0
167 190 0
171 195 0
168 191 0
169 191 0
166 190 0
166 189 0
170 194 0
166 189 0
168 191 0
168 190 0
165 188 0
172 194 0
164 188 0
167 191 0
166 189 0
167 190 0
167 191 0
168 191 0
170 192 0
164 187 0
163 186 0
167 190 0
167 189 0
167 190 0
166 189 0
166 189 0
164 186 0
168 190 0
166 189 0
169 192 0
165 188 0
163 185 0
171 193 0
166 189 0
165 187 0
163 186 0
164 187 0
165 188 0
162 184 0
159 182 0
163 185 0
163 187 0
162 184 0
163 186 0
162 185 0
163 186 0
159 180 0
165 187 0
168 191 0
161 183 0
160 182 0
159 181 0
165 187 0
163 186 0
164 186 0
158 182 0
159 182 0
160 182 0
163 184 0
160 183 0
164 186 0
159 182 0
163 186 0
159 182 0
153 175 0
158 180 0
157 179 0
164 186 0
158 180 0
161 183 0
159 181 0
158 179 0
158 180 0
156 179 0
155 176 0
161 183 0
160 182 0
151 173 0
154 176 0
157 179 0
153 174 0
155 178 0
153 175 0
147 168 0
159 181 0
146 168 0
149 170 0
151 173 0
154 176 0
153 175 0
146 169 0
154 177 0
146 169 0
160 182 0
154 175 0
148 169 0
157 178 0
151 174 0
147 167 0
148 169 0
154 174 0
151 173 0
147 168 0
147 167 0
139 160 0
152 172 0
149 171 0
144 165 0
142 162 0
136 156 0
146 167 0
150 170 0
145 166 0
145 167 0
143 165 0
135 154 0
140 160 0
144 165 0
150 170 0
148 168 0
143 163 0
140 161 0
133 153 0
146 168 0
133 152 0
138 158 0
145 165 0
141 161 0
132 153 0
140 159 0
129 147 0
138 157 0
142 163 0
137 156 0
128 149 0
134 153 0
145 165 0
127 146 0
133 152 0
125 143 0
140 159 0
119 136 0
128 148 0
136 154 0
139 157 0
134 153 0
133 150 0
125 143 0
137 155 0
132 151 0
133 152 0
133 152 0
137 153 0
137 155 0
128 145 0
127 146 0
127 144 0
125 141 0
135 152 0
130 144 0
127 143 0
124 140 0
127 145 0
124 140 0
130 142 0
126 142 0
124 141 0
120 136 0
116 131 0
126 143 0
120 134 0
125 139 0
131 146 0
129 143 0
122 138 0
124 138 0
130 148 0
121 136 0
117 128 0
128 142 0
123 136 0
100 112 0
124 138 0
121 135 0
110 122 0
128 143 0
104 115 0
75 74 0
92 90 14
101 99 3
103 100 14
99 97 18
115 113 19
116 114 0
105 102 25
120 118 25
122 120 24
123 119 25
129 123 29
127 123 18
125 121 31
129 125 28
134 130 22
131 127 22
131 127 30
139 134 37
138 134 28
138 135 31
137 132 22
136 131 37
140 135 36
147 142 30
142 137 25
146 142 30
139 134 25
149 143 19
150 145 28
146 142 30
147 144 30
144 140 22
149 145 32
151 146 34
150 145 28
146 142 25
143 140 32
145 142 16
152 147 37
148 143 41
153 148 25
153 148 39
147 143 30
151 146 28
150 145 28
149 144 32
148 145 28
147 142 32
153 149 32
151 147 34
151 147 32
146 142 25
151 146 30
150 145 34
149 145 22
153 147 37
150 145 32
152 147 34
151 146 28
148 144 19
155 149 39
154 150 30
151 146 32
155 150 30
151 148 32
152 147 36
150 146 34
156 151 34
155 151 39
153 148 25
151 147 30
153 148 30
152 147 25
150 146 28
154 149 30
151 145 37
154 150 32
150 145 32
153 148 25
153 148 28
154 149 32
154 149 39
153 148 30
153 148 25
150 145 30
154 147 32
151 146 36
154 149 37
148 143 22
151 146 28
149 145 34
153 146 34
154 149 28
151 146 22
152 145 36
146 142 19
148 144 25
149 145 32
150 144 36
148 143 22
152 148 30
151 147 25
152 148 25
152 146 39
150 146 30
149 144 25
148 144 32
150 145 32
149 144 36
147 143 34
151 146 22
146 141 25
149 144 34
145 140 25
148 143 34
147 142 34
142 139 19
145 139 30
151 145 32
146 140 32
139 135 25
144 139 30
138 132 22
133 128 28
133 128 28
139 134 22
138 134 22
131 127 25
129 124 25
134 129 30
124 119 25
129 125 32
132 128 28
123 118 28
118 114 19
135 138 22
167 183 0
159 175 0
164 182 0
168 184 0
165 186 0
162 179 0
164 182 0
166 185 0
166 184 0
168 186 0
164 184 0
166 185 0
166 183 0
168 186 0
167 186 0
165 185 0
167 186 0
169 187 0
166 186 0
168 189 0
167 187 0
167 186 0
168 187 0
172 190 0
169 189 0
170 190 0
168 188 0
170 190 0
168 189 0
167 189 0
168 188 0
169 189 0
169 190 0
168 187 0
169 189 0
169 190 0
170 194 0
172 195 0
170 194 0
170 194 0
169 192 0
170 193 0
170 194 0
170 194 0
171 194 0
168 192 0
171 194 0
168 191 0
170 193 0
171 195 0
167 190 0
168 192 0
167 190 0
171 194 0
170 194 0
172 194 0
169 193 0
171 193 0
170 193 0
170 193 0
168 192 0
172 195 0
170 193 0
168 191 0
169 192 0
168 191 0
166 189 0
167 191 0
169 192 0
171 195 0
168 190 0
168 191 0
168 191 0
165 188 0
166 189 0
169 193 0
170 194 0
169 192 0
172 194 0
165 188 0
164 188 0
167 189 0
169 192 0
168 192 0
167 190 0
173 195 0
164 187 0
165 189 0
171 192 0
167 191 0
167 191 0
167 190 0
168 191 0
166 189 0
170 193 0
165 188 0
165 188 0
166 188 0
163 187 0
166 189 0
164 187 0
162 185 0
166 190 0
164 189 0
164 187 0
167 190 0
167 189 0
164 188 0
163 185 0
165 188 0
167 189 0
162 184 0
162 186 0
162 185 0
167 190 0
163 186 0
160 183 0
163 185 0
162 185 0
156 181 0
164 186 0
162 184 0
160 183 0
163 185 0
158 181 0
164 187 0
161 184 0
162 185 0
162 184 0
155 178 0
160 183 0
160 183 0
162 185 0
167 189 0
164 187 0
156 179 0
164 187 0
158 180 0
163 185 0
165 187 0
156 178 0
165 188 0
158 182 0
156 177 0
162 185 0
159 181 0
153 174 0
160 182 0
153 175 0
149 170 0
154 175 0
159 181 0
154 176 0
159 182 0
154 177 0
156 178 0
148 169 0
155 177 0
157 179 0
156 178 0
155 177 0
153 175 0
151 172 0
151 172 0
150 172 0
147 168 0
157 178 0
146 166 0
154 176 0
148 170 0
155 178 0
149 171 0
148 169 0
153 174 0
153 174 0
151 171 0
150 171 0
154 175 0
145 167 0
150 171 0
144 164 0
152 173 0
147 168 0
155 176 0
147 169 0
151 172 0
144 165 0
143 163 0
143 163 0
137 157 0
156 177 0
143 162 0
137 156 0
140 161 0
145 166 0
143 163 0
139 158 0
135 156 0
146 165 0
138 158 0
141 161 0
141 161 0
145 165 0
137 157 0
138 155 0
140 160 0
134 153 0
138 156 0
135 155 0
140 161 0
137 156 0
136 156 0
127 146 0
143 162 0
136 156 0
141 160 0
137 154 0
138 158 0
136 156 0
139 159 0
126 144 0
128 145 0
133 152 0
135 151 0
130 147 0
145 163 0
122 137 0
127 145 0
125 141 0
133 151 0
131 149 0
137 154 0
140 157 0
127 143 0
127 142 0
124 141 0
135 151 0
127 143 0
125 140 0
115 130 0
132 149 0
131 147 0
128 142 0
123 139 0
119 135 0
127 140 0
122 138 0
124 140 0
126 140 0
126 142 0
111 126 0
131 146 0
127 141 0
132 144 0
125 138 0
125 141 0
122 135 0
121 133 0
122 136 0
112 125 0
119 131 0
112 123 0
115 125 0
79 78 0
99 94 14
99 98 28
109 106 22
102 102 22
121 117 23
112 110 19
120 117 28
117 114 21
108 105 14
129 125 26
125 121 18
129 126 24
136 131 36
128 125 25
135 130 36
134 131 21
136 132 32
138 134 28
132 128 28
139 135 19
138 134 34
141 138 22
131 127 22
143 140 28
145 140 28
139 135 28
144 140 30
144 139 28
148 143 30
151 146 34
141 138 25
145 141 28
150 144 30
143 140 19
146 141 28
148 144 25
140 137 28
149 144 34
152 147 34
145 141 22
146 142 32
151 147 22
149 143 30
152 147 39
152 147 32
151 146 30
150 146 34
148 142 34
151 147 25
149 145 22
152 148 25
147 142 25
152 147 41
153 147 36
150 146 30
153 149 25
156 151 36
153 149 37
154 149 37
153 148 32
153 148 34
153 149 36
153 149 19
150 145 30
153 147 34
153 149 28
150 147 16
152 148 28
149 145 16
153 149 28
153 148 28
154 149 34
151 146 36
149 144 34
152 148 28
154 150 32
154 149 25
149 145 22
150 145 28
153 149 22
151 147 28
149 145 28
154 149 36
152 148 30
153 148 34
155 150 32
152 147 30
154 149 30
154 148 32
153 148 30
155 150 32
152 147 32
152 147 32
147 143 22
147 143 30
155 150 36
149 144 34
150 145 16
145 139 28
150 146 30
149 144 22
152 147 28
148 143 30
147 143 19
149 144 32
148 143 37
151 146 39
145 142 22
144 140 22
145 142 25
144 140 30
145 139 30
151 146 30
147 143 22
139 135 25
146 142 16
143 137 30
149 143 36
148 144 22
149 144 32
147 141 34
144 140 37
131 127 19
149 143 37
137 132 32
137 132 30
136 133 25
140 135 30
131 127 28
138 134 30
131 127 16
125 121 30
126 123 28
124 120 19
121 118 22
137 146 16
163 179 0
166 182 0
169 187 0
168 186 0
168 187 0
165 183 0
167 186 0
164 180 0
166 183 0
168 187 0
167 185 0
164 182 0
165 184 0
165 186 0
164 184 0
168 189 0
166 186 0
167 186 0
169 189 0
165 183 0
168 186 0
170 190 0
163 181 0
165 183 0
167 187 0
168 188 0
168 186 0
169 188 0
166 185 0
171 191 0
170 190 0
169 189 0
167 187 0
167 187 0
170 191 0
168 187 0
172 196 0
171 194 0
172 195 0
168 192 0
172 195 0
168 192 0
172 195 0
170 194 0
171 194 0
170 193 0
169 193 0
172 194 0
168 192 0
168 191 0
168 192 0
170 193 0
169 192 0
168 191 0
169 191 0
165 188 0
170 193 0
169 193 0
169 191 0
170 191 0
165 189 0
171 195 0
172 195 0
169 192 0
172 195 0
170 193 0
168 192 0
172 195 0
171 194 0
171 194 0
168 192 0
171 194 0
169 194 0
166 189 0
171 194 0
166 190 0
170 193 0
169 192 0
169 192 0
170 193 0
170 192 0
168 190 0
166 188 0
170 192 0
168 191 0
168 190 0
168 190 0
166 188 0
171 193 0
166 188 0
165 188 0
169 191 0
167 190 0
164 188 0
165 189 0
169 191 0
168 190 0
166 189 0
169 193 0
167 190 0
166 189 0
166 189 0
170 194 0
169 192 0
165 188 0
163 186 0
165 188 0
162 186 0
159 182 0
161 184 0
166 188 0
166 188 0
164 187 0
158 180 0
159 182 0
162 184 0
160 182 0
166 189 0
164 186 0
160 182 0
164 187 0
167 189 0
162 184 0
165 187 0
161 184 0
165 187 0
160 183 0
157 179 0
158 181 0
166 187 0
157 179 0
162 184 0
162 185 0
158 180 0
156 179 0
159 182 0
154 177 0
160 183 0
156 178 0
162 184 0
165 187 0
158 179 0
157 180 0
159 182 0
165 188 0
157 179 0
158 179 0
155 176 0
157 178 0
157 180 0
156 178 0
157 180 0
157 180 0
156 178 0
157 179 0
150 172 0
159 180 0
154 177 0
156 177 0
161 182 0
153 175 0
153 176 0
148 169 0
153 173 0
157 179 0
152 174 0
151 173 0
154 177 0
156 178 0
150 172 0
155 175 0
158 180 0
148 170 0
151 173 0
150 171 0
154 177 0
155 177 0
150 171 0
142 162 0
152 173 0
148 170 0
149 170 0
148 169 0
146 166 0
144 163 0
149 169 0
151 170 0
148 169 0
142 164 0
143 164 0
143 165 0
148 169 0
146 167 0
146 166 0
138 158 0
138 157 0
144 164 0
143 164 0
143 163 0
141 161 0
148 167 0
138 156 0
145 166 0
143 162 0
141 162 0
144 165 0
129 149 0
141 160 0
142 162 0
137 157 0
135 153 0
137 156 0
141 160 0
138 155 0
138 157 0
143 163 0
140 157 0
135 153 0
136 155 0
143 163 0
138 156 0
134 152 0
136 153 0
140 159 0
127 145 0
132 148 0
131 149 0
126 143 0
135 154 0
138 155 0
138 156 0
125 142 0
126 141 0
121 137 0
131 147 0
129 145 0
130 147 0
130 145 0
136 157 0
131 147 0
131 146 0
120 135 0
118 135 0
128 145 0
123 139 0
128 142 0
124 139 0
131 145 0
134 148 0
120 136 0
125 142 0
126 142 0
123 138 0
118 133 0
121 137 0
126 141 0
125 138 0
118 133 0
127 141 0
121 134 0
118 133 0
108 118 0
111 123 0
82 79 5
91 89 12
93 91 29
114 111 24
99 97 11
108 104 18
115 114 21
122 118 28
118 115 29
129 126 30
128 125 29
128 125 25
129 126 22
130 126 29
134 131 21
133 130 37
133 130 26
137 134 19
132 128 16
140 136 32
148 143 42
146 142 30
138 134 19
130 126 28
142 139 19
136 132 22
136 133 28
146 142 25
146 143 32
151 148 32
147 143 22
149 144 32
147 143 32
146 141 25
146 142 34
147 143 28
150 145 34
148 143 34
149 146 22
147 143 19
148 143 32
152 147 34
148 144 28
148 145 19
151 146 30
148 145 19
147 142 30
146 142 22
149 144 34
150 146 22
150 145 39
156 150 37
153 148 36
149 146 25
156 150 34
154 149 36
150 145 22
152 146 30
152 146 25
154 149 32
154 148 32
157 152 30
150 145 25
153 149 28
153 149 25
152 148 28
150 146 32
152 147 30
153 148 30
151 146 28
152 148 30
151 147 25
153 148 32
153 148 28
147 143 28
150 146 34
153 148 32
154 149 30
148 144 32
147 143 19
155 150 30
151 146 32
152 147 25
151 147 30
150 144 34
154 150 28
151 145 32
151 146 34
152 147 28
151 146 36
152 148 28
149 144 32
146 142 19
152 145 25
149 145 19
149 145 30
152 147 32
149 144 32
151 146 28
150 145 28
152 147 32
149 144 28
147 142 32
147 142 30
148 144 37
148 143 19
150 144 36
149 144 32
150 144 30
147 142 32
145 141 30
150 145 25
148 143 34
148 145 30
151 146 34
141 137 34
151 145 36
146 143 30
133 128 25
138 134 25
143 137 30
131 127 25
136 131 30
143 138 34
143 138 28
140 136 30
133 129 30
130 126 28
139 134 41
140 135 34
135 129 32
134 129 34
128 123 22
130 124 34
128 123 36
117 113 19
147 157 16
164 181 0
160 178 0
167 185 0
170 188 0
164 182 0
164 182 0
166 182 0
168 186 0
169 188 0
168 187 0
167 183 0
168 186 0
168 186 0
168 186 0
168 186 0
167 185 0
163 182 0
172 193 0
169 190 0
166 184 0
167 187 0
169 186 0
168 188 0
169 188 0
169 188 0
168 187 0
169 189 0
167 186 0
169 191 0
165 184 0
171 190 0
173 193 0
169 190 0
172 190 0
167 188 0
170 190 0
171 193 0
169 192 0
169 193 0
170 192 0
169 192 0
169 192 0
170 193 0
169 192 0
169 192 0
169 193 0
171 194 0
169 192 0
173 196 0
168 192 0
170 192 0
171 194 0
170 193 0
166 189 0
171 195 0
170 192 0
171 194 0
171 194 0
170 193 0
165 188 0
169 193 0
169 192 0
167 191 0
168 191 0
172 194 0
168 192 0
168 192 0
171 194 0
171 194 0
166 189 0
170 193 0
169 192 0
166 188 0
169 191 0
168 192 0
168 191 0
166 190 0
169 193 0
171 194 0
167 189 0
165 187 0
168 191 0
171 194 0
166 189 0
169 192 0
165 188 0
168 191 0
166 189 0
167 190 0
170 193 0
167 190 0
173 195 0
167 190 0
169 191 0
166 189 0
165 188 0
168 191 0
168 191 0
170 194 0
166 190 0
165 188 0
166 188 0
165 188 0
164 188 0
166 189 0
166 189 0
167 190 0
165 188 0
166 188 0
166 188 0
164 187 0
166 189 0
166 188 0
159 182 0
163 186 0
167 191 0
166 188 0
165 187 0
164 187 0
164 187 0
164 188 0
161 183 0
160 183 0
163 187 0
165 187 0
165 187 0
160 183 0
162 185 0
165 187 0
161 183 0
164 187 0
165 186 0
162 185 0
162 184 0
159 181 0
160 182 0
154 176 0
163 185 0
161 184 0
161 184 0
164 187 0
158 180 0
158 180 0
163 186 0
162 183 0
156 178 0
160 182 0
153 175 0
151 172 0
157 180 0
159 182 0
160 182 0
155 178 0
153 175 0
161 184 0
154 175 0
160 181 0
151 173 0
155 178 0
149 169 0
154 176 0
151 174 0
151 173 0
153 176 0
152 172 0
158 181 0
156 178 0
151 174 0
147 167 0
153 175 0
150 171 0
152 173 0
145 166 0
152 172 0
152 175 0
150 171 0
148 168 0
149 171 0
147 168 0
135 156 0
149 170 0
147 167 0
149 169 0
147 166 0
153 173 0
149 171 0
141 161 0
156 177 0
153 173 0
146 167 0
146 167 0
148 169 0
148 169 0
145 165 0
142 162 0
135 154 0
148 169 0
145 164 0
143 162 0
141 161 0
139 160 0
142 160 0
141 162 0
150 170 0
142 162 0
137 156 0
127 145 0
136 154 0
136 155 0
137 155 0
141 160 0
142 163 0
141 161 0
142 161 0
145 164 0
145 163 0
125 144 0
136 155 0
152 172 0
134 154 0
136 154 0
137 156 0
131 149 0
132 151 0
135 154 0
132 150 0
132 148 0
139 158 0
133 152 0
136 153 0
141 158 0
133 150 0
128 144 0
131 146 0
138 155 0
126 142 0
132 149 0
122 137 0
125 143 0
133 151 0
139 155 0
128 143 0
133 148 0
134 151 0
123 140 0
124 139 0
124 140 0
124 140 0
122 137 0
132 147 0
129 143 0
120 136 0
122 135 0
127 138 0
126 141 0
139 152 0
125 136 0
127 142 0
127 139 0
128 142 0
111 124 0
115 127 0
117 129 0
86 85 15
88 85 16
91 89 19
109 107 14
108 105 20
112 109 26
120 116 24
111 108 16
118 115 19
125 122 8
119 116 24
127 123 19
129 125 37
132 130 33
135 132 32
137 134 16
135 132 25
132 129 25
135 131 25
137 133 29
142 137 36
136 132 25
143 138 30
145 142 30
144 140 22
151 145 39
142 137 30
142 138 25
142 138 28
150 146 32
153 147 34
145 140 22
140 136 32
145 141 28
148 143 34
144 139 25
144 139 28
141 138 19
150 145 28
148 145 28
148 141 36
147 144 25
150 145 34
146 141 25
150 146 28
149 145 25
149 146 25
150 146 34
155 150 32
149 144 28
151 147 22
146 142 22
153 148 28
147 143 22
151 147 32
148 144 28
148 144 28
149 145 28
149 144 32
150 146 41
155 150 30
153 149 25
158 152 36
154 149 34
148 144 28
144 139 28
154 149 30
154 148 30
156 151 37
148 144 19
154 149 36
151 146 34
159 153 44
153 148 30
152 148 19
152 148 32
151 146 37
152 148 25
155 149 42
150 144 30
154 148 36
156 151 36
155 150 37
148 144 22
151 146 32
153 148 30
155 150 32
153 148 37
155 149 37
150 145 36
155 150 32
151 146 36
153 149 25
147 143 28
150 144 28
146 142 25
154 150 36
148 144 28
152 147 34
156 150 48
151 145 37
152 147 32
158 152 34
147 142 37
146 141 25
151 146 36
145 141 25
151 146 32
151 145 28
150 145 16
150 145 36
147 142 32
144 140 22
146 142 25
149 144 28
149 143 39
148 142 32
148 144 32
141 136 28
136 132 16
146 142 25
148 144 32
143 139 30
143 139 25
142 137 22
142 137 34
136 132 19
133 129 28
129 125 28
136 132 37
123 118 19
128 125 19
127 123 28
116 112 19
123 118 22
114 109 19
156 171 11
165 182 0
165 183 0
163 178 0
163 180 0
168 186 0
164 181 0
165 183 0
166 184 0
165 183 0
169 189 0
165 182 0
167 186 0
166 185 0
168 188 0
169 184 0
168 187 0
163 182 0
165 184 0
168 187 0
165 184 0
168 188 0
164 184 0
165 184 0
169 187 0
167 187 0
170 188 0
167 186 0
170 189 0
167 188 0
171 190 0
169 189 0
171 191 0
168 188 0
168 188 0
167 187 0
170 190 0
172 195 0
171 194 0
172 195 0
171 194 0
171 194 0
173 196 0
172 194 0
173 196 0
169 193 0
171 193 0
171 194 0
172 195 0
171 194 0
170 193 0
171 194 0
169 192 0
172 195 0
170 195 0
171 193 0
169 193 0
169 191 0
170 194 0
170 194 0
170 194 0
171 194 0
170 193 0
170 192 0
166 190 0
170 193 0
168 190 0
170 193 0
171 194 0
171 194 0
171 193 0
170 193 0
169 192 0
170 193 0
168 192 0
171 193 0
164 187 0
169 192 0
168 189 0
168 191 0
167 190 0
166 189 0
168 190 0
169 192 0
169 191 0
168 191 0
169 193 0
164 188 0
170 193 0
170 193 0
168 191 0
166 188 0
170 193 0
165 188 0
168 192 0
166 190 0
169 193 0
159 182 0
168 191 0
171 194 0
167 190 0
164 185 0
162 185 0
169 192 0
168 192 0
167 190 0
165 188 0
163 186 0
167 189 0
160 184 0
167 190 0
166 189 0
166 189 0
165 188 0
167 189 0
165 187 0
163 186 0
161 182 0
165 188 0
162 185 0
162 184 0
165 189 0
166 188 0
165 187 0
163 186 0
163 185 0
161 183 0
168 190 0
164 186 0
162 184 0
161 182 0
165 187 0
167 188 0
165 188 0
163 186 0
168 191 0
160 182 0
163 186 0
159 180 0
162 185 0
158 181 0
161 183 0
163 185 0
165 187 0
159 182 0
161 183 0
159 182 0
162 185 0
157 180 0
159 182 0
153 175 0
157 179 0
158 181 0
158 179 0
164 187 0
157 178 0
157 180 0
153 174 0
157 179 0
158 179 0
160 182 0
155 176 0
151 171 0
146 166 0
157 179 0
154 177 0
159 181 0
151 172 0
159 181 0
149 172 0
150 172 0
152 173 0
160 181 0
151 172 0
160 182 0
152 173 0
153 174 0
147 168 0
149 170 0
152 174 0
146 169 0
151 170 0
152 171 0
152 173 0
151 173 0
152 172 0
151 172 0
141 162 0
153 173 0
147 166 0
155 174 0
145 166 0
149 170 0
134 155 0
145 165 0
148 169 0
141 162 0
143 163 0
136 155 0
150 171 0
141 162 0
147 166 0
142 163 0
149 170 0
140 159 0
139 160 0
145 166 0
136 155 0
138 158 0
132 152 0
132 152 0
140 159 0
133 151 0
136 155 0
135 154 0
141 158 0
140 159 0
134 153 0
136 155 0
139 158 0
146 164 0
129 146 0
146 166 0
144 165 0
140 159 0
131 150 0
135 151 0
146 165 0
127 143 0
138 154 0
131 150 0
132 151 0
136 153 0
139 155 0
136 154 0
118 133 0
136 152 0
130 146 0
129 146 0
117 133 0
135 153 0
130 145 0
130 148 0
134 149 0
123 137 0
133 149 0
129 144 0
123 136 0
141 158 0
128 143 0
129 140 0
136 150 0
123 138 0
120 133 0
126 141 0
126 141 0
123 137 0
125 140 0
128 140 0
119 132 0
122 133 0
115 127 0
118 130 0
104 113 8
84 83 14
92 91 8
99 97 19
106 103 14
111 109 23
101 100 24
115 113 30
122 119 33
122 120 27
124 121 29
123 119 26
124 120 19
123 119 28
126 121 34
133 130 26
138 133 36
133 129 22
133 130 29
139 134 22
131 128 22
134 130 19
140 136 19
149 145 32
136 132 32
144 140 30
137 134 34
146 141 37
140 136 22
138 134 22
143 139 30
147 142 32
146 140 36
149 145 28
143 138 28
142 139 19
148 143 25
149 144 37
149 144 39
154 149 25
146 141 36
155 149 42
145 141 16
146 141 22
150 146 32
147 144 22
154 150 30
150 146 25
147 143 34
147 142 19
148 144 19
152 148 11
154 149 32
148 144 19
154 149 44
152 147 32
152 148 39
148 143 28
155 148 28
150 145 30
146 141 30
153 148 36
152 147 30
153 148 30
152 148 34
153 149 32
155 151 34
148 145 32
152 147 28
150 146 25
150 146 28
150 146 28
151 147 22
150 146 22
156 151 25
148 145 22
150 146 22
149 145 28
149 144 32
154 150 22
154 149 30
153 148 30
150 146 28
151 147 30
153 148 34
149 144 36
153 149 32
151 147 28
152 147 28
149 144 28
151 145 34
152 148 36
153 148 16
152 146 34
148 143 28
151 146 19
153 149 37
152 147 30
158 152 39
150 146 22
154 149 39
151 147 22
153 149 25
149 144 34
148 143 28
153 148 30
146 140 32
145 141 28
152 147 44
148 144 19
146 142 16
146 141 22
143 139 25
143 138 34
153 148 39
151 146 30
141 137 22
150 145 37
141 136 28
143 137 32
144 139 28
137 133 22
141 136 30
147 143 34
138 134 19
141 137 28
140 135 28
134 130 28
138 133 28
139 135 32
134 129 41
129 125 19
131 127 19
123 120 19
123 119 19
116 111 19
109 106 25
166 179 0
167 184 0
162 178 0
166 183 0
162 179 0
167 183 0
168 186 0
163 182 0
161 177 0
167 183 0
170 192 0
167 183 0
167 187 0
167 186 0
168 186 0
169 188 0
168 186 0
171 190 0
170 189 0
166 186 0
169 187 0
166 184 0
166 185 0
165 184 0
168 185 0
165 184 0
166 185 0
169 189 0
170 188 0
169 189 0
170 191 0
169 189 0
168 187 0
169 188 0
169 189 0
170 190 0
171 192 0
172 195 0
169 192 0
169 193 0
170 193 0
171 194 0
170 194 0
168 190 0
171 193 0
170 193 0
169 192 0
170 193 0
171 194 0
168 191 0
171 194 0
174 196 0
168 191 0
172 194 0
171 194 0
171 194 0
167 191 0
165 189 0
169 192 0
169 192 0
170 194 0
171 195 0
165 189 0
172 195 0
171 193 0
168 191 0
171 195 0
170 193 0
170 194 0
172 195 0
168 191 0
170 193 0
168 191 0
168 191 0
171 193 0
167 190 0
171 194 0
169 191 0
167 191 0
170 193 0
172 196 0
166 189 0
168 191 0
169 192 0
169 192 0
166 189 0
167 190 0
167 190 0
167 190 0
169 193 0
165 188 0
166 189 0
166 190 0
170 194 0
167 191 0
168 191 0
169 192 0
166 188 0
164 188 0
168 190 0
173 196 0
163 187 0
165 187 0
164 188 0
167 190 0
167 189 0
161 185 0
163 186 0
167 190 0
163 185 0
160 182 0
166 188 0
168 190 0
165 188 0
164 187 0
164 186 0
167 190 0
167 190 0
165 188 0
163 185 0
168 189 0
162 184 0
164 187 0
163 185 0
160 183 0
165 187 0
163 186 0
161 184 0
164 187 0
162 184 0
158 181 0
162 184 0
163 185 0
159 181 0
161 185 0
164 186 0
158 181 0
163 185 0
164 187 0
154 177 0
159 181 0
162 184 0
162 186 0
159 181 0
160 183 0
159 183 0
161 184 0
157 179 0
158 181 0
160 183 0
158 181 0
150 171 0
162 185 0
159 181 0
164 186 0
154 177 0
158 181 0
158 181 0
153 175 0
159 180 0
158 180 0
155 177 0
152 174 0
152 174 0
158 179 0
155 177 0
156 179 0
159 181 0
157 178 0
151 174 0
145 167 0
150 171 0
152 174 0
151 172 0
148 169 0
153 174 0
150 170 0
152 174 0
151 172 0
146 167 0
157 178 0
154 176 0
152 172 0
149 171 0
147 169 0
149 171 0
145 165 0
147 167 0
146 165 0
147 166 0
144 165 0
143 162 0
141 159 0
149 169 0
145 164 0
148 169 0
141 161 0
141 163 0
144 165 0
141 162 0
142 160 0
144 165 0
142 161 0
145 165 0
145 163 0
141 161 0
150 171 0
135 154 0
139 157 0
138 156 0
140 161 0
138 158 0
143 161 0
143 162 0
141 160 0
146 165 0
147 167 0
141 159 0
143 161 0
133 150 0
137 155 0
137 155 0
139 159 0
133 152 0
136 156 0
137 153 0
142 161 0
135 152 0
136 155 0
129 146 0
141 159 0
139 156 0
141 157 0
139 157 0
143 159 0
138 156 0
129 146 0
125 139 0
119 135 0
134 149 0
138 153 0
131 146 0
133 149 0
134 151 0
133 150 0
129 143 0
129 146 0
137 152 0
120 135 0
117 129 0
128 141 0
130 146 0
126 141 0
128 141 0
121 134 0
132 148 0
133 146 0
128 142 0
131 146 0
127 140 0
128 142 0
126 138 0
130 143 0
112 125 0
85 82 11
89 87 8
111 107 25
87 86 16
103 100 18
109 105 26
119 114 26
124 120 31
116 114 28
130 126 30
118 116 22
130 127 18
129 125 28
131 127 40
127 125 31
137 132 25
131 128 28
140 135 30
138 135 31
134 129 36
135 131 22
144 140 28
138 135 32
141 136 34
144 140 30
140 136 30
138 134 22
148 142 37
142 138 36
143 138 25
146 139 32
139 136 22
138 133 30
141 137 22
147 142 34
147 142 30
149 145 34
146 141 28
145 141 28
149 144 22
145 142 16
147 142 28
145 140 32
144 141 22
151 147 28
148 143 16
150 146 30
149 144 22
145 140 37
152 147 34
152 147 28
148 144 25
151 146 28
154 149 32
148 143 19
151 146 30
152 147 36
154 150 28
148 143 22
148 142 28
152 148 32
151 146 32
150 145 25
152 147 25
157 152 34
148 144 30
153 148 32
152 147 28
151 147 30
151 146 42
149 144 34
150 146 19
153 148 25
155 149 30
151 147 22
148 143 30
152 147 25
157 151 36
148 143 36
152 147 28
152 147 34
157 151 36
149 146 22
151 147 22
156 150 37
149 144 34
152 147 28
154 149 32
153 148 30
150 146 19
150 146 25
151 146 28
151 147 25
152 147 30
154 150 34
153 147 34
149 146 19
148 143 22
150 143 28
156 150 37
149 144 32
156 150 34
149 143 36
152 148 36
151 146 30
151 146 39
154 150 28
141 137 34
144 140 25
139 135 22
146 142 32
151 147 30
141 137 32
146 141 32
143 138 36
149 144 30
143 138 42
141 137 22
139 135 25
138 134 25
143 138 34
135 131 16
142 138 30
138 133 30
141 136 28
133 129 22
136 132 25
137 133 25
135 131 25
135 131 28
130 124 30
129 125 28
135 129 37
121 117 22
123 118 19
121 124 0
164 180 0
165 180 0
166 184 0
166 182 0
166 184 0
165 181 0
165 183 0
169 186 0
165 182 0
167 184 0
164 182 0
168 186 0
169 188 0
166 184 0
168 187 0
166 184 0
169 187 0
168 184 0
169 189 0
168 186 0
169 188 0
169 188 0
171 189 0
169 187 0
166 185 0
168 186 0
168 188 0
165 184 0
168 187 0
169 190 0
170 191 0
170 191 0
170 190 0
170 190 0
169 188 0
170 190 0
170 191 0
173 196 0
172 194 0
172 195 0
169 191 0
171 195 0
169 193 0
168 191 0
170 191 0
169 192 0
168 191 0
172 195 0
170 193 0
173 196 0
173 195 0
169 193 0
170 193 0
170 193 0
170 194 0
170 193 0
169 193 0
168 190 0
172 194 0
169 192 0
169 192 0
169 192 0
167 189 0
167 190 0
169 193 0
172 194 0
168 191 0
171 194 0
170 192 0
169 192 0
163 185 0
170 192 0
169 192 0
168 191 0
169 191 0
165 188 0
168 190 0
160 182 0
163 186 0
168 191 0
168 191 0
168 191 0
167 191 0
170 194 0
165 189 0
166 188 0
168 191 0
170 193 0
169 192 0
168 191 0
168 192 0
168 191 0
164 188 0
163 185 0
166 189 0
168 191 0
167 190 0
169 193 0
169 192 0
167 188 0
165 187 0
167 190 0
165 189 0
165 187 0
169 192 0
161 185 0
166 189 0
167 190 0
166 190 0
163 186 0
167 190 0
161 184 0
168 192 0
165 187 0
162 185 0
165 188 0
167 189 0
162 186 0
160 183 0
161 183 0
166 188 0
167 188 0
162 185 0
157 179 0
162 185 0
157 180 0
164 185 0
162 185 0
157 179 0
162 185 0
162 185 0
164 185 0
158 181 0
163 185 0
159 182 0
155 176 0
163 186 0
165 187 0
159 182 0
158 180 0
163 186 0
160 182 0
156 178 0
165 187 0
160 183 0
158 180 0
153 175 0
164 186 0
160 182 0
158 180 0
153 175 0
163 187 0
162 185 0
163 186 0
162 185 0
161 182 0
155 177 0
156 178 0
151 173 0
153 175 0
155 176 0
156 177 0
154 176 0
156 177 0
156 178 0
150 173 0
146 168 0
155 178 0
157 181 0
145 166 0
153 175 0
163 185 0
157 179 0
154 176 0
150 170 0
149 170 0
157 178 0
148 170 0
152 172 0
151 170 0
148 167 0
147 168 0
142 163 0
145 165 0
150 173 0
143 164 0
148 167 0
138 159 0
148 169 0
148 170 0
136 156 0
146 167 0
149 168 0
151 172 0
143 163 0
144 164 0
140 161 0
142 161 0
134 154 0
147 167 0
149 170 0
149 169 0
143 163 0
138 158 0
144 164 0
143 162 0
150 170 0
144 161 0
144 165 0
136 155 0
130 149 0
138 158 0
146 164 0
135 154 0
144 162 0
141 161 0
137 155 0
143 162 0
136 155 0
139 155 0
139 157 0
136 155 0
142 162 0
132 151 0
141 159 0
142 158 0
144 163 0
138 153 0
139 157 0
132 149 0
134 152 0
129 146 0
141 158 0
136 154 0
143 160 0
135 153 0
128 144 0
124 140 0
127 144 0
138 156 0
136 154 0
137 155 0
136 153 0
136 153 0
135 151 0
140 157 0
120 137 0
126 143 0
124 139 0
135 150 0
136 152 0
123 139 0
132 148 0
131 149 0
128 144 0
140 157 0
123 137 0
130 144 0
129 143 0
125 141 0
122 135 0
123 136 0
129 142 0
105 113 8
80 77 18
92 90 21
99 96 16
115 112 25
113 110 21
112 109 18
114 111 27
127 122 32
114 111 24
123 120 14
125 121 29
123 120 25
122 119 21
135 132 25
130 125 30
132 128 33
129 125 26
130 127 19
140 136 28
141 137 28
140 135 37
133 129 25
142 138 22
143 138 30
137 134 22
137 132 22
143 139 30
141 138 30
141 136 32
140 136 25
146 142 34
146 143 25
149 143 36
144 140 25
151 146 37
148 144 19
149 144 32
148 143 28
151 147 22
152 147 36
152 147 34
149 144 39
149 144 30
150 146 32
142 138 16
146 142 28
147 144 30
146 142 28
149 146 30
151 145 32
152 147 36
150 147 25
149 144 36
147 142 19
144 140 25
154 148 22
153 149 25
153 149 32
153 148 44
150 145 22
147 142 28
152 147 32
150 147 16
154 149 32
152 148 22
155 148 37
153 148 30
155 150 36
150 146 25
156 150 42
154 150 36
154 150 34
155 150 30
151 147 30
151 146 34
151 146 30
151 146 22
148 143 32
152 147 28
152 147 34
151 147 28
152 148 30
154 148 32
149 145 25
155 150 34
154 149 30
152 148 30
153 148 19
148 145 22
149 144 32
153 148 34
150 145 36
150 146 28
152 147 32
155 150 32
151 146 30
156 150 36
155 151 41
150 145 32
153 148 32
152 145 22
150 145 34
153 149 28
149 145 32
149 145 16
145 142 19
150 146 28
150 145 32
147 143 28
147 142 30
146 140 28
145 141 25
148 142 34
144 140 19
146 141 37
145 141 25
144 139 32
145 139 37
142 136 34
146 140 37
138 134 25
142 137 34
141 136 22
139 135 28
142 137 30
135 130 16
139 134 30
138 133 32
133 129 28
137 132 34
128 123 28
123 119 25
129 124 22
124 119 22
118 113 32
137 142 11
167 184 0
165 182 0
161 177 0
166 185 0
169 187 0
167 183 0
167 185 0
165 183 0
164 180 0
168 185 0
167 185 0
166 185 0
166 185 0
168 187 0
164 184 0
167 187 0
164 183 0
163 183 0
167 186 0
171 190 0
166 184 0
167 185 0
168 187 0
170 189 0
166 185 0
170 191 0
169 188 0
168 186 0
167 188 0
169 187 0
169 188 0
170 191 0
172 193 0
170 193 0
167 186 0
172 193 0
171 192 0
171 194 0
170 194 0
170 194 0
173 196 0
168 192 0
171 194 0
169 193 0
170 194 0
171 194 0
168 192 0
172 195 0
170 193 0
170 194 0
167 190 0
172 195 0
166 190 0
171 194 0
170 193 0
171 195 0
168 191 0
170 194 0
169 193 0
172 195 0
172 194 0
171 193 0
168 191 0
168 191 0
171 193 0
168 191 0
167 190 0
170 193 0
170 193 0
169 192 0
169 192 0
168 192 0
169 191 0
165 188 0
167 189 0
169 192 0
167 190 0
170 192 0
167 190 0
165 188 0
170 193 0
165 187 0
168 192 0
166 189 0
169 193 0
166 188 0
170 193 0
166 188 0
167 191 0
167 190 0
168 191 0
168 192 0
168 191 0
170 193 0
167 190 0
169 192 0
168 190 0
163 187 0
169 192 0
167 190 0
168 191 0
166 189 0
164 187 0
166 188 0
166 190 0
168 192 0
166 189 0
163 186 0
163 186 0
163 185 0
165 187 0
162 185 0
163 185 0
168 190 0
160 182 0
167 190 0
162 185 0
161 184 0
164 187 0
161 182 0
162 185 0
164 187 0
163 186 0
160 183 0
167 188 0
163 186 0
164 187 0
163 185 0
168 191 0
160 181 0
163 186 0
159 182 0
161 184 0
163 184 0
162 184 0
164 187 0
167 190 0
157 180 0
162 185 0
160 184 0
163 186 0
165 187 0
163 186 0
158 181 0
156 178 0
160 181 0
164 186 0
159 181 0
158 180 0
161 184 0
158 180 0
153 176 0
158 181 0
161 184 0
150 171 0
157 179 0
150 171 0
159 180 0
165 187 0
161 184 0
150 171 0
151 172 0
160 182 0
152 174 0
161 182 0
154 176 0
156 178 0
152 173 0
151 171 0
156 177 0
155 176 0
155 176 0
164 186 0
154 176 0
138 160 0
149 171 0
151 173 0
141 162 0
155 177 0
144 165 0
144 164 0
145 165 0
151 172 0
149 170 0
153 173 0
150 171 0
149 170 0
147 169 0
148 168 0
150 170 0
145 165 0
147 167 0
144 164 0
150 171 0
145 165 0
139 160 0
148 167 0
144 165 0
148 167 0
147 166 0
143 163 0
150 170 0
146 167 0
150 170 0
135 156 0
147 167 0
137 157 0
140 159 0
139 159 0
141 158 0
140 159 0
149 168 0
143 161 0
139 159 0
141 159 0
143 162 0
136 156 0
138 157 0
143 163 0
136 154 0
148 167 0
148 167 0
149 168 0
136 154 0
135 154 0
145 161 0
137 155 0
141 160 0
130 148 0
137 155 0
135 151 0
139 157 0
141 159 0
130 148 0
128 141 0
137 154 0
145 162 0
141 159 0
124 141 0
129 145 0
133 147 0
129 144 0
140 154 0
133 150 0
137 155 0
129 146 0
134 150 0
131 148 0
127 142 0
134 150 0
129 144 0
135 151 0
125 138 0
136 151 0
134 148 0
125 140 0
132 144 0
132 149 0
121 135 0
132 146 0
119 130 0
125 137 0
118 131 0
103 112 0
81 80 16
89 89 16
96 93 22
99 96 14
112 109 31
97 95 16
119 116 21
116 113 11
117 114 16
123 120 25
119 115 28
126 123 22
127 125 22
134 131 19
126 123 24
137 134 32
129 125 25
130 127 16
139 135 19
139 134 22
138 134 36
137 133 28
144 138 38
144 140 32
143 140 36
144 138 30
144 139 28
139 133 34
144 140 30
143 138 32
149 145 30
145 140 19
148 144 19
140 135 25
152 148 41
148 143 36
149 144 34
153 147 37
145 140 28
142 138 22
150 145 34
142 139 0
151 146 34
151 146 25
155 150 39
148 143 28
148 143 28
149 145 28
148 143 25
151 147 37
150 147 28
149 145 19
152 147 36
147 143 30
150 145 22
151 146 25
151 147 32
152 146 28
153 147 28
154 150 32
148 143 22
149 144 30
154 150 30
154 150 37
156 152 41
155 149 28
153 148 25
152 149 22
152 148 25
149 145 11
154 149 32
150 146 16
151 146 25
152 147 32
154 149 37
153 148 30
154 149 36
151 146 32
156 152 34
150 145 11
157 151 34
150 146 28
153 148 32
150 146 30
151 146 22
150 145 34
151 145 34
151 146 30
154 149 25
153 148 30
148 144 32
150 145 32
150 146 19
152 147 22
145 140 22
145 140 22
153 147 37
151 144 36
148 145 19
154 150 32
152 148 34
150 145 32
142 138 11
147 142 22
149 144 28
143 138 25
148 142 28
144 139 28
147 143 28
145 141 28
149 143 37
146 142 32
141 136 32
150 143 41
148 144 32
140 136 22
143 139 28
145 140 28
145 140 28
147 143 34
135 129 22
143 138 30
139 135 41
139 134 22
136 131 25
136 131 16
129 125 28
128 123 28
132 127 30
143 137 32
130 125 28
124 119 25
127 122 28
125 121 28
121 116 25
151 161 11
165 182 0
168 185 0
166 182 0
169 185 0
169 188 0
164 181 0
166 183 0
167 185 0
165 183 0
167 183 0
169 188 0
166 184 0
166 182 0
167 186 0
165 183 0
169 189 0
168 187 0
165 184 0
169 188 0
167 185 0
167 185 0
164 182 0
168 187 0
168 186 0
170 190 0
167 186 0
169 189 0
163 181 0
170 188 0
167 187 0
170 190 0
167 187 0
168 186 0
170 191 0
165 185 0
169 189 0
168 185 0
171 195 0
170 194 0
171 194 0
172 194 0
171 194 0
171 195 0
171 195 0
170 194 0
171 194 0
172 196 0
172 195 0
167 190 0
172 195 0
173 197 0
172 194 0
169 193 0
172 195 0
167 191 0
171 193 0
169 192 0
169 192 0
170 193 0
170 193 0
170 194 0
171 194 0
167 189 0
170 194 0
167 190 0
165 188 0
171 195 0
165 188 0
170 193 0
164 188 0
166 189 0
170 193 0
172 195 0
167 190 0
168 192 0
167 189 0
163 186 0
168 192 0
163 186 0
168 191 0
170 192 0
170 193 0
169 192 0
165 189 0
167 190 0
169 192 0
166 190 0
170 192 0
168 191 0
167 191 0
166 189 0
170 194 0
167 189 0
164 188 0
168 190 0
164 187 0
165 188 0
166 190 0
165 187 0
163 186 0
167 190 0
164 187 0
163 186 0
165 188 0
163 185 0
167 189 0
164 187 0
162 183 0
165 188 0
163 186 0
163 185 0
160 183 0
166 189 0
165 188 0
166 189 0
163 186 0
166 188 0
169 191 0
164 187 0
165 189 0
163 185 0
168 190 0
163 187 0
166 188 0
162 184 0
159 183 0
164 187 0
164 188 0
156 179 0
167 190 0
165 187 0
162 184 0
159 183 0
160 182 0
166 188 0
162 185 0
158 180 0
157 179 0
158 181 0
158 181 0
156 180 0
165 187 0
153 176 0
163 186 0
158 180 0
160 181 0
159 182 0
157 179 0
162 185 0
156 179 0
161 183 0
160 182 0
153 174 0
158 180 0
156 177 0
159 181 0
160 182 0
163 185 0
153 174 0
159 180 0
159 181 0
153 176 0
157 179 0
150 172 0
153 174 0
155 177 0
160 182 0
157 178 0
149 170 0
159 182 0
156 177 0
155 175 0
149 170 0
157 178 0
152 173 0
150 171 0
161 182 0
153 174 0
153 173 0
155 176 0
151 172 0
148 169 0
152 173 0
150 171 0
157 179 0
158 179 0
149 171 0
143 162 0
149 169 0
154 175 0
150 172 0
143 163 0
153 174 0
145 165 0
139 158 0
148 168 0
148 169 0
149 170 0
152 173 0
147 166 0
152 174 0
140 160 0
151 171 0
144 161 0
150 170 0
149 171 0
138 159 0
143 162 0
138 158 0
143 163 0
141 160 0
138 156 0
135 155 0
143 161 0
140 159 0
138 156 0
148 166 0
141 160 0
128 148 0
142 160 0
144 162 0
143 160 0
135 153 0
141 160 0
142 160 0
139 155 0
136 156 0
130 145 0
131 149 0
134 155 0
143 162 0
131 146 0
134 152 0
140 156 0
139 155 0
129 146 0
136 154 0
130 148 0
144 161 0
138 156 0
139 158 0
143 161 0
136 151 0
141 157 0
141 158 0
135 151 0
133 148 0
127 142 0
127 142 0
132 146 0
129 143 0
130 143 0
120 134 0
133 146 0
134 148 0
134 148 0
126 139 0
132 146 0
134 148 0
127 135 0
117 130 0
125 138 0
118 131 0
112 121 0
90 88 14
99 96 14
103 100 18
97 95 14
106 103 24
117 114 19
107 104 19
119 115 30
127 123 25
112 109 24
123 119 37
123 120 30
123 119 19
124 121 24
133 129 34
134 129 25
141 136 30
130 125 31
137 131 28
142 137 25
121 118 18
136 132 19
143 140 11
142 138 0
143 139 25
148 143 28
135 131 34
143 139 30
135 132 11
143 139 25
138 133 30
151 147 32
146 141 30
151 146 34
149 144 30
145 141 28
151 146 34
146 141 28
149 145 32
152 146 22
146 142 19
142 138 25
150 145 34
149 144 32
149 147 32
148 145 30
151 147 28
149 145 32
144 140 28
150 145 19
149 145 28
149 144 30
149 145 19
151 146 32
153 148 30
152 147 34
154 149 36
154 149 37
150 146 32
153 148 42
154 149 30
156 151 25
149 145 22
151 146 16
151 145 30
151 145 28
150 147 11
154 149 25
153 149 28
155 149 32
147 142 32
156 151 32
152 147 19
152 147 25
146 142 25
153 148 28
154 150 28
154 149 34
151 147 30
154 150 30
149 145 30
150 145 30
151 146 34
150 145 30
150 145 28
155 150 36
150 146 25
148 144 28
151 147 28
153 147 37
151 147 25
149 145 34
152 147 30
149 144 28
152 147 36
150 146 28
155 151 34
152 147 25
151 146 30
144 140 22
147 142 25
153 148 30
150 145 28
148 144 32
150 147 19
150 144 28
148 143 37
147 144 28
144 140 28
147 143 32
144 140 19
141 137 30
143 139 22
151 145 39
149 143 37
149 143 30
147 142 32
138 133 22
147 142 32
132 126 19
140 136 30
144 139 25
142 137 19
141 137 25
138 133 36
142 138 32
143 138 30
126 122 32
124 120 16
131 127 37
125 122 16
118 114 22
133 128 25
127 122 28
116 112 28
160 175 0
166 181 0
166 181 0
160 176 0
165 183 0
162 176 0
170 187 0
167 188 0
167 185 0
164 180 0
165 183 0
166 183 0
168 186 0
168 187 0
168 188 0
167 185 0
167 186 0
168 189 0
167 186 0
163 180 0
170 188 0
167 187 0
166 185 0
166 185 0
166 185 0
170 189 0
168 186 0
169 187 0
166 185 0
167 186 0
169 188 0
166 185 0
168 187 0
169 188 0
166 185 0
171 191 0
170 189 0
169 187 0
172 195 0
168 192 0
170 195 0
170 193 0
170 192 0
170 193 0
170 193 0
168 191 0
168 191 0
169 192 0
169 191 0
172 195 0
170 194 0
169 192 0
170 193 0
169 191 0
168 192 0
169 192 0
170 193 0
169 192 0
168 191 0
170 193 0
170 194 0
167 190 0
167 190 0
167 190 0
171 194 0
170 193 0
169 192 0
171 194 0
165 188 0
169 192 0
171 193 0
170 193 0
166 189 0
171 194 0
168 191 0
168 191 0
170 192 0
168 191 0
170 194 0
166 190 0
167 191 0
168 192 0
165 188 0
170 193 0
168 191 0
166 188 0
167 189 0
168 190 0
166 189 0
167 190 0
165 188 0
170 193 0
167 189 0
164 188 0
168 191 0
168 191 0
169 191 0
164 187 0
162 185 0
168 189 0
170 194 0
165 188 0
166 190 0
164 185 0
163 186 0
166 189 0
165 188 0
165 188 0
167 190 0
167 190 0
165 187 0
161 185 0
159 181 0
168 191 0
166 189 0
168 191 0
164 187 0
165 188 0
165 189 0
166 190 0
160 183 0
163 186 0
158 180 0
165 187 0
166 189 0
160 182 0
167 189 0
164 188 0
160 183 0
159 181 0
165 187 0
164 186 0
167 190 0
166 187 0
156 180 0
160 183 0
166 189 0
156 180 0
155 178 0
158 180 0
166 188 0
158 181 0
155 176 0
155 178 0
154 176 0
153 175 0
154 176 0
156 179 0
154 175 0
162 184 0
159 182 0
157 179 0
162 185 0
160 182 0
165 188 0
160 182 0
165 187 0
156 178 0
154 177 0
154 176 0
158 179 0
159 182 0
156 179 0
156 178 0
157 178 0
156 176 0
158 179 0
151 171 0
156 178 0
149 171 0
157 179 0
151 173 0
153 174 0
151 172 0
156 178 0
153 174 0
153 175 0
154 175 0
155 175 0
151 173 0
149 170 0
150 171 0
145 166 0
149 169 0
150 173 0
151 172 0
151 171 0
145 165 0
147 168 0
154 174 0
146 167 0
151 172 0
144 164 0
140 161 0
140 159 0
149 169 0
150 169 0
146 168 0
143 164 0
141 160 0
140 159 0
148 166 0
145 166 0
140 160 0
150 171 0
141 161 0
143 162 0
151 171 0
146 166 0
153 172 0
147 166 0
143 162 0
142 163 0
153 172 0
137 158 0
139 159 0
148 168 0
137 156 0
150 168 0
147 165 0
147 166 0
138 157 0
146 166 0
141 159 0
140 160 0
139 155 0
136 154 0
144 162 0
139 158 0
138 157 0
149 168 0
136 153 0
144 163 0
143 159 0
139 156 0
131 148 0
133 149 0
135 154 0
135 153 0
130 146 0
137 155 0
137 155 0
137 156 0
136 154 0
134 148 0
125 142 0
130 147 0
138 155 0
121 134 0
131 147 0
138 155 0
132 146 0
130 144 0
134 146 0
130 146 0
142 155 0
122 137 0
139 153 0
132 146 0
127 140 0
129 143 0
136 149 0
127 140 0
128 143 0
110 119 0
94 92 8
85 82 8
108 105 11
103 100 14
100 96 21
119 113 26
114 110 18
112 109 16
117 114 30
121 117 16
122 119 25
133 130 22
127 123 11
134 130 25
133 127 28
127 123 32
137 134 22
138 134 25
130 126 19
138 134 22
136 133 16
139 136 30
150 145 37
142 138 28
143 138 36
140 137 28
148 143 37
145 139 30
145 141 11
148 143 36
148 142 42
142 138 19
147 141 36
146 141 32
150 147 34
148 143 36
146 142 22
148 144 25
149 144 19
148 144 16
146 142 22
152 147 25
150 144 30
143 138 25
147 143 30
148 143 28
147 143 19
144 140 22
146 142 22
153 149 32
150 146 32
148 145 0
156 151 37
148 144 25
149 145 25
143 140 11
149 143 16
149 146 28
146 143 16
154 148 28
147 143 22
149 144 30
153 151 32
152 147 30
150 145 25
150 145 28
147 144 16
151 148 30
152 147 30
153 147 28
149 144 28
148 141 30
156 151 39
155 151 34
149 145 28
155 149 28
155 149 32
150 145 30
150 146 25
154 149 34
154 149 22
155 150 34
151 147 25
152 147 25
148 144 30
151 147 34
146 143 19
149 145 19
149 144 28
145 140 22
147 142 28
150 145 19
150 147 28
155 151 37
150 145 32
143 139 22
152 148 34
152 147 37
150 145 25
151 146 32
146 141 34
152 147 34
152 147 30
151 146 22
149 144 30
150 146 34
148 143 34
145 140 22
145 140 30
141 136 22
149 144 36
142 138 25
149 145 28
148 143 25
148 143 37
149 144 28
139 133 16
142 137 19
137 133 19
144 139 22
144 139 22
134 130 36
139 133 32
135 129 30
135 131 19
137 132 22
136 131 25
133 129 25
130 125 30
126 122 30
127 123 16
130 125 36
128 124 30
118 112 22
110 108 19
166 180 0
165 182 0
165 180 0
165 179 0
167 184 0
166 183 0
167 184 0
166 182 0
170 188 0
166 182 0
164 181 0
167 185 0
167 181 0
170 188 0
166 183 0
168 185 0
167 186 0
170 191 0
162 181 0
169 188 0
166 184 0
170 188 0
167 182 0
169 188 0
169 186 0
164 183 0
166 186 0
166 186 0
168 187 0
168 187 0
169 188 0
168 189 0
167 184 0
170 189 0
163 181 0
172 193 0
172 194 0
167 187 0
169 192 0
171 194 0
173 196 0
167 191 0
171 195 0
169 193 0
170 193 0
170 192 0
171 193 0
172 195 0
170 194 0
170 193 0
170 194 0
169 192 0
168 192 0
171 194 0
170 193 0
169 193 0
170 193 0
168 191 0
169 193 0
170 193 0
168 191 0
171 194 0
168 192 0
172 194 0
168 192 0
168 191 0
169 192 0
166 189 0
169 191 0
170 193 0
171 194 0
171 194 0
168 191 0
168 191 0
169 193 0
168 191 0
165 187 0
171 194 0
170 194 0
165 188 0
170 193 0
170 193 0
166 190 0
169 191 0
167 189 0
167 190 0
169 192 0
169 191 0
168 192 0
162 184 0
168 190 0
164 187 0
165 189 0
168 191 0
166 190 0
164 187 0
166 189 0
166 189 0
164 187 0
168 191 0
167 190 0
167 190 0
168 191 0
168 190 0
164 186 0
166 189 0
167 190 0
163 185 0
164 187 0
169 192 0
168 190 0
168 191 0
161 184 0
165 187 0
166 188 0
167 190 0
167 190 0
162 185 0
164 187 0
168 191 0
162 184 0
162 184 0
169 192 0
164 188 0
163 185 0
163 186 0
166 189 0
163 186 0
164 187 0
164 187 0
162 185 0
159 181 0
165 187 0
164 187 0
156 178 0
155 177 0
162 183 0
161 183 0
164 188 0
164 186 0
162 185 0
162 185 0
159 182 0
161 183 0
155 177 0
162 184 0
162 184 0
155 177 0
159 181 0
159 182 0
160 183 0
157 180 0
159 180 0
158 180 0
161 183 0
160 182 0
159 182 0
159 181 0
158 181 0
153 176 0
156 178 0
162 184 0
149 171 0
163 185 0
153 175 0
157 179 0
150 171 0
159 181 0
161 183 0
147 168 0
154 177 0
147 168 0
155 177 0
157 178 0
148 171 0
160 182 0
150 171 0
148 169 0
155 176 0
150 171 0
147 168 0
150 170 0
152 173 0
147 169 0
151 173 0
152 173 0
155 175 0
143 164 0
151 170 0
146 166 0
151 171 0
148 168 0
148 169 0
144 165 0
140 159 0
153 174 0
145 165 0
143 164 0
146 166 0
150 170 0
151 171 0
146 167 0
147 166 0
152 173 0
143 163 0
138 157 0
141 161 0
141 161 0
147 167 0
146 166 0
144 164 0
148 167 0
147 166 0
149 170 0
146 165 0
143 159 0
143 161 0
141 161 0
141 160 0
137 156 0
138 156 0
150 170 0
144 162 0
144 163 0
142 160 0
139 158 0
148 168 0
134 150 0
136 155 0
145 162 0
142 160 0
137 156 0
140 159 0
150 169 0
144 163 0
139 158 0
148 165 0
137 156 0
134 150 0
141 159 0
136 152 0
134 152 0
140 156 0
135 150 0
123 138 0
141 157 0
143 160 0
136 149 0
132 147 0
146 162 0
129 144 0
136 151 0
132 146 0
131 145 0
137 152 0
127 144 0
130 144 0
126 139 0
124 137 0
130 146 0
128 142 0
130 144 0
120 133 0
128 139 0
107 115 0
92 90 18
87 84 7
103 99 19
110 108 25
100 96 11
109 106 31
111 108 22
121 117 26
117 114 21
128 124 25
125 122 16
115 113 16
118 114 31
125 121 25
130 126 37
130 127 22
133 128 22
128 125 29
137 133 28
144 140 34
136 132 22
142 139 19
145 141 36
141 137 19
139 135 11
141 136 28
143 138 25
141 136 25
137 133 25
146 143 32
146 143 25
150 144 37
147 142 32
147 141 32
148 143 30
147 143 25
146 141 28
144 140 28
146 141 30
150 146 37
144 140 19
147 143 28
149 144 22
150 146 36
148 144 28
147 141 28
151 147 28
148 143 22
151 146 22
154 149 32
147 142 28
152 147 30
144 139 25
148 144 30
153 149 39
144 140 22
150 144 30
145 141 22
152 147 30
150 145 28
150 145 28
154 149 37
147 141 28
153 148 28
154 148 30
153 149 34
149 145 19
151 146 32
153 149 28
151 146 19
153 148 19
148 144 22
155 150 28
153 148 32
154 150 36
149 145 25
150 146 22
149 144 25
150 147 16
158 153 36
149 145 25
147 143 22
148 144 36
151 146 28
152 147 28
150 145 28
152 147 30
147 144 19
153 148 16
148 145 22
153 148 25
152 148 32
151 146 28
153 148 28
149 145 28
148 143 22
151 147 28
149 144 25
153 147 25
150 146 25
146 141 32
150 145 34
149 143 32
151 146 34
145 140 19
147 142 19
146 142 22
147 142 28
147 142 34
144 139 32
153 148 32
148 144 32
142 138 32
136 133 19
145 140 30
142 136 19
141 136 28
146 141 22
144 139 32
137 133 22
144 138 32
137 132 28
138 133 22
127 122 28
138 133 28
127 122 19
142 138 30
136 130 16
121 116 22
128 124 30
126 121 11
136 132 30
124 119 32
114 110 11
128 129 19
160 175 0
163 178 0
165 181 0
169 186 0
164 179 0
163 179 0
168 185 0
167 184 0
168 186 0
164 181 0
167 184 0
162 179 0
167 184 0
168 186 0
168 185 0
168 188 0
165 182 0
167 185 0
167 184 0
170 189 0
170 189 0
167 185 0
166 184 0
167 186 0
167 185 0
169 188 0
166 183 0
166 184 0
166 184 0
168 187 0
168 188 0
171 190 0
169 189 0
168 187 0
169 187 0
166 186 0
166 185 0
167 187 0
172 195 0
169 192 0
170 193 0
175 197 0
173 195 0
170 193 0
169 192 0
172 194 0
171 194 0
170 193 0
170 193 0
171 194 0
170 194 0
170 193 0
167 191 0
169 192 0
172 196 0
170 193 0
168 191 0
167 190 0
168 193 0
168 191 0
172 195 0
167 191 0
170 193 0
170 193 0
168 191 0
172 194 0
171 194 0
170 193 0
171 194 0
170 194 0
170 193 0
168 191 0
165 188 0
169 192 0
167 190 0
168 192 0
168 191 0
171 194 0
169 193 0
169 191 0
169 192 0
172 194 0
166 188 0
167 191 0
170 193 0
169 192 0
169 192 0
168 191 0
169 192 0
168 191 0
165 188 0
168 190 0
168 190 0
167 190 0
166 189 0
169 192 0
169 191 0
169 192 0
169 192 0
169 192 0
169 192 0
165 189 0
166 189 0
164 188 0
164 187 0
164 186 0
166 188 0
169 191 0
165 188 0
164 186 0
166 188 0
168 190 0
168 191 0
163 186 0
161 184 0
167 190 0
166 190 0
165 188 0
165 188 0
165 187 0
165 187 0
165 186 0
166 188 0
158 180 0
159 182 0
163 186 0
155 178 0
163 187 0
165 186 0
164 187 0
159 181 0
157 178 0
163 186 0
159 182 0
162 185 0
166 189 0
164 187 0
159 181 0
164 186 0
166 188 0
163 185 0
158 180 0
162 184 0
166 188 0
162 186 0
161 182 0
162 184 0
168 190 0
158 180 0
154 176 0
161 181 0
161 184 0
156 178 0
161 183 0
159 181 0
156 178 0
154 176 0
161 184 0
158 179 0
157 180 0
152 174 0
163 185 0
156 178 0
152 174 0
158 179 0
154 176 0
153 176 0
158 181 0
157 179 0
154 176 0
156 177 0
156 178 0
155 176 0
157 180 0
153 173 0
151 173 0
150 172 0
155 177 0
148 168 0
151 171 0
152 171 0
153 175 0
144 166 0
152 173 0
151 171 0
155 177 0
150 170 0
146 165 0
153 174 0
154 175 0
155 176 0
148 167 0
152 171 0
153 174 0
153 171 0
153 174 0
151 172 0
148 169 0
153 174 0
148 169 0
144 164 0
149 170 0
146 166 0
148 167 0
144 163 0
149 168 0
150 169 0
148 168 0
146 165 0
148 168 0
152 171 0
145 165 0
136 156 0
144 162 0
145 166 0
144 164 0
140 160 0
144 163 0
142 162 0
144 164 0
144 161 0
145 164 0
144 161 0
148 167 0
150 169 0
138 157 0
134 151 0
147 166 0
137 156 0
137 155 0
139 157 0
136 156 0
137 155 0
141 159 0
137 154 0
137 155 0
143 160 0
131 148 0
136 154 0
145 163 0
131 145 0
144 162 0
129 146 0
138 154 0
139 156 0
134 150 0
137 154 0
129 145 0
125 141 0
128 142 0
135 152 0
136 153 0
131 148 0
132 146 0
131 144 0
133 147 0
136 150 0
138 154 0
128 141 0
127 140 0
123 136 0
123 136 0
120 133 0
135 146 0
95 102 0
84 82 0
104 99 8
104 101 13
113 109 16
103 100 18
107 105 21
116 111 24
117 113 11
112 109 18
124 121 16
115 112 22
118 117 11
123 119 25
132 128 28
127 123 22
139 136 30
134 131 28
135 130 28
134 129 28
139 135 28
145 141 28
135 131 30
134 129 22
144 140 34
141 138 28
146 142 30
140 136 28
146 142 30
145 139 32
149 145 28
143 139 32
144 140 25
142 137 28
145 141 19
146 141 25
148 144 22
145 140 30
154 148 32
150 144 30
151 146 28
150 144 32
145 140 32
148 145 28
150 145 30
142 139 22
150 146 25
148 144 19
152 147 36
152 148 34
150 145 28
150 144 25
148 143 30
149 144 28
147 144 16
147 143 32
158 152 42
150 146 32
151 146 30
149 145 22
149 146 25
151 147 30
148 144 32
147 143 22
150 146 25
147 142 25
153 149 22
153 149 28
154 149 22
149 143 28
151 146 28
152 147 22
151 146 22
150 146 22
154 150 30
156 151 30
150 146 25
151 147 19
150 145 32
155 150 30
150 146 34
151 146 32
149 145 28
152 148 30
149 145 28
153 149 34
152 146 37
147 143 25
149 145 28
154 149 25
153 149 32
146 142 25
149 144 28
148 144 22
157 152 30
146 139 30
152 148 34
148 142 30
150 146 19
152 147 25
147 141 30
149 145 28
145 140 28
152 146 30
150 146 25
150 146 22
143 138 25
151 146 36
144 140 25
151 146 28
145 140 37
144 140 28
151 145 30
146 141 28
141 136 19
145 140 32
133 131 19
138 134 28
148 144 28
145 140 28
135 131 16
139 134 30
138 134 16
138 134 25
145 141 32
135 131 34
134 129 19
139 134 30
138 133 25
133 128 19
136 131 30
124 120 22
128 122 19
117 113 19
119 115 28
139 144 16
166 182 0
163 178 0
165 183 0
163 176 0
167 184 0
167 185 0
166 182 0
167 186 0
167 184 0
164 181 0
165 185 0
163 180 0
166 183 0
163 179 0
167 186 0
169 186 0
170 189 0
169 189 0
168 187 0
167 186 0
167 186 0
166 185 0
167 186 0
170 191 0
168 187 0
166 184 0
166 185 0
172 193 0
165 183 0
168 185 0
169 189 0
166 187 0
170 191 0
167 188 0
167 188 0
167 186 0
172 192 0
167 187 0
169 191 0
169 193 0
170 193 0
173 196 0
171 194 0
173 196 0
170 193 0
171 194 0
172 195 0
172 195 0
168 193 0
166 190 0
166 190 0
170 193 0
170 192 0
170 194 0
167 189 0
167 190 0
169 192 0
171 193 0
170 193 0
169 193 0
168 190 0
170 193 0
168 191 0
169 192 0
167 190 0
170 193 0
168 191 0
168 192 0
169 192 0
167 191 0
168 191 0
171 194 0
168 190 0
168 192 0
171 194 0
169 192 0
169 192 0
170 194 0
166 190 0
170 192 0
169 192 0
172 195 0
166 190 0
172 194 0
170 193 0
167 191 0
166 190 0
166 190 0
168 192 0
166 189 0
164 187 0
166 188 0
169 192 0
169 192 0
168 190 0
166 188 0
166 189 0
166 189 0
165 188 0
164 187 0
164 188 0
167 190 0
165 187 0
171 193 0
167 191 0
166 188 0
170 192 0
167 189 0
171 193 0
163 186 0
163 187 0
166 188 0
162 185 0
161 184 0
163 186 0
167 191 0
163 186 0
168 191 0
165 187 0
162 184 0
166 187 0
167 190 0
163 186 0
169 192 0
164 186 0
168 190 0
167 190 0
163 186 0
166 189 0
166 189 0
166 189 0
167 189 0
166 188 0
157 180 0
165 188 0
164 186 0
159 182 0
165 186 0
161 184 0
162 185 0
158 180 0
157 180 0
163 185 0
163 184 0
161 184 0
156 179 0
160 182 0
158 180 0
162 184 0
162 184 0
159 182 0
161 184 0
158 180 0
160 182 0
157 179 0
151 172 0
157 179 0
156 179 0
155 176 0
159 180 0
166 189 0
163 184 0
161 184 0
160 183 0
152 175 0
154 176 0
153 174 0
157 179 0
159 182 0
155 178 0
153 174 0
156 178 0
151 173 0
162 184 0
156 178 0
151 171 0
154 176 0
153 175 0
153 175 0
154 175 0
145 166 0
151 173 0
159 181 0
156 178 0
156 178 0
152 172 0
140 161 0
149 170 0
153 175 0
154 176 0
145 164 0
149 170 0
147 169 0
156 176 0
149 169 0
145 167 0
148 168 0
146 165 0
145 166 0
151 171 0
153 171 0
151 171 0
149 168 0
142 162 0
148 167 0
145 165 0
155 174 0
151 170 0
145 164 0
149 169 0
150 170 0
133 151 0
150 170 0
150 169 0
149 168 0
148 167 0
144 164 0
147 165 0
142 159 0
139 158 0
139 158 0
141 161 0
148 169 0
149 169 0
141 158 0
140 157 0
143 162 0
141 160 0
136 153 0
150 168 0
148 166 0
144 163 0
135 152 0
146 166 0
138 155 0
141 158 0
135 154 0
140 158 0
143 160 0
141 158 0
142 161 0
136 152 0
132 149 0
130 148 0
125 143 0
144 160 0
138 154 0
136 151 0
134 149 0
139 154 0
127 143 0
141 155 0
131 145 0
131 143 0
133 149 0
134 148 0
131 146 0
125 139 0
126 140 0
128 141 0
129 141 0
135 150 0
121 131 0
135 151 0
111 116 0
89 86 18
97 94 0
101 98 16
113 108 19
111 107 29
102 99 0
113 110 20
117 113 30
124 121 22
126 122 24
121 117 33
124 119 28
127 123 18
132 127 30
134 131 19
128 124 21
136 132 22
137 133 22
130 126 25
137 132 35
132 128 22
141 136 30
144 139 32
138 135 22
138 133 25
136 130 22
143 137 34
148 143 34
142 137 22
149 144 34
149 143 34
150 145 36
145 140 22
142 138 22
147 143 30
146 142 30
151 146 30
150 146 36
147 142 30
152 148 32
147 143 25
149 145 30
152 147 36
150 146 28
149 143 25
154 150 36
149 144 30
143 139 28
153 148 28
150 145 32
156 151 37
153 149 28
152 146 28
152 148 28
150 145 25
151 146 30
147 142 22
149 144 25
148 143 19
151 146 34
155 150 30
149 145 34
148 144 28
156 150 41
153 149 30
151 147 34
155 149 37
153 147 37
151 145 25
152 147 28
147 143 22
149 144 28
149 145 16
151 147 25
147 143 28
155 150 36
155 151 30
157 152 30
154 149 32
150 145 30
152 147 32
156 151 28
149 146 28
155 149 32
150 146 28
145 140 22
149 144 22
150 148 16
152 147 22
145 141 28
155 149 34
152 147 32
151 146 30
151 145 30
148 143 34
149 144 34
150 145 30
151 146 32
153 147 28
152 148 30
150 146 28
148 143 30
148 143 28
145 142 30
150 146 32
148 144 30
149 145 30
149 144 34
142 136 28
142 137 25
140 136 22
148 143 36
146 141 30
144 138 28
138 133 11
143 136 30
144 137 32
134 128 19
138 133 22
138 134 34
142 138 36
136 132 25
135 130 25
135 131 22
141 136 30
139 134 32
132 126 25
133 129 28
137 133 36
132 127 30
126 122 19
128 125 32
127 121 25
120 114 22
152 163 11
163 179 0
163 177 0
164 180 0
165 180 0
159 174 0
160 176 0
167 185 0
167 186 0
164 179 0
168 186 0
164 181 0
166 184 0
166 181 0
166 184 0
165 184 0
169 186 0
167 182 0
165 182 0
166 184 0
167 186 0
168 188 0
168 187 0
163 180 0
169 189 0
166 186 0
168 188 0
170 187 0
166 185 0
169 188 0
166 183 0
168 186 0
167 186 0
170 190 0
169 190 0
170 190 0
167 189 0
170 189 0
166 183 0
170 194 0
168 192 0
171 195 0
171 194 0
172 195 0
170 195 0
172 195 0
166 191 0
171 194 0
171 195 0
172 195 0
169 192 0
172 195 0
169 193 0
170 193 0
172 195 0
170 193 0
171 194 0
171 195 0
169 192 0
167 190 0
170 193 0
170 193 0
166 190 0
167 190 0
168 192 0
169 192 0
172 194 0
167 190 0
173 195 0
174 197 0
170 192 0
169 193 0
171 193 0
172 195 0
165 188 0
167 190 0
167 191 0
165 188 0
168 191 0
169 191 0
169 192 0
165 187 0
166 189 0
169 193 0
164 186 0
169 191 0
170 194 0
168 191 0
169 191 0
166 190 0
166 188 0
167 191 0
168 191 0
168 191 0
168 191 0
167 189 0
169 192 0
169 192 0
167 191 0
170 194 0
165 187 0
166 188 0
164 187 0
169 191 0
168 191 0
168 190 0
164 188 0
167 190 0
162 185 0
165 188 0
164 187 0
168 191 0
167 190 0
168 191 0
167 189 0
165 188 0
167 190 0
167 190 0
167 190 0
155 177 0
162 186 0
162 185 0
162 184 0
165 187 0
163 187 0
167 189 0
163 186 0
161 183 0
164 188 0
162 185 0
165 189 0
164 187 0
162 185 0
160 182 0
161 184 0
164 187 0
165 187 0
164 186 0
162 184 0
164 186 0
164 186 0
158 180 0
161 183 0
162 185 0
161 183 0
164 186 0
158 181 0
158 180 0
166 189 0
161 184 0
157 178 0
162 184 0
158 180 0
161 181 0
159 182 0
162 185 0
156 179 0
162 185 0
160 181 0
158 180 0
153 175 0
162 185 0
155 177 0
159 180 0
157 178 0
157 178 0
161 183 0
152 175 0
157 180 0
156 177 0
157 179 0
155 178 0
158 179 0
152 174 0
157 178 0
155 177 0
154 176 0
155 177 0
153 173 0
158 179 0
153 174 0
160 183 0
151 173 0
149 171 0
150 173 0
151 173 0
153 176 0
149 170 0
145 165 0
150 170 0
141 162 0
161 182 0
151 171 0
150 170 0
149 169 0
150 171 0
151 173 0
154 175 0
140 161 0
150 171 0
153 173 0
151 172 0
140 161 0
150 169 0
149 170 0
145 165 0
146 164 0
155 174 0
150 170 0
149 168 0
146 166 0
145 164 0
147 167 0
143 162 0
148 168 0
146 164 0
145 164 0
146 165 0
140 160 0
148 165 0
139 158 0
152 169 0
148 168 0
145 162 0
150 170 0
144 162 0
139 157 0
141 159 0
138 156 0
148 165 0
138 156 0
147 164 0
142 158 0
136 154 0
146 164 0
135 154 0
147 164 0
140 157 0
137 153 0
138 156 0
135 152 0
138 155 0
144 160 0
134 147 0
144 161 0
140 156 0
142 159 0
134 149 0
142 156 0
139 155 0
138 153 0
143 160 0
128 141 0
147 162 0
142 158 0
133 146 0
133 148 0
138 154 0
140 154 0
137 153 0
124 139 0
126 140 0
126 139 0
133 147 0
132 143 0
106 110 0
97 92 14
88 84 11
101 98 15
105 102 13
116 113 21
111 108 26
112 108 19
117 113 14
130 125 26
118 115 19
117 114 16
127 123 22
131 127 30
128 127 22
137 133 39
131 127 26
136 132 28
136 132 32
136 133 19
133 130 16
139 135 32
133 129 19
140 136 32
138 132 36
145 140 32
147 142 30
139 135 25
136 133 19
149 144 30
148 143 39
139 134 32
141 137 25
145 141 22
144 141 30
147 141 30
148 144 32
148 144 28
145 140 22
148 143 30
142 138 19
141 136 19
146 142 22
148 144 28
147 142 28
144 139 30
151 146 32
150 145 28
154 150 30
151 146 28
143 138 30
152 147 25
148 144 19
151 147 25
151 145 30
153 149 34
150 147 30
156 151 37
146 142 34
156 151 32
152 148 19
153 149 30
152 148 25
149 145 22
154 149 30
154 149 32
150 146 19
150 145 22
149 144 28
150 145 25
151 146 34
152 147 22
150 145 16
154 149 22
150 146 22
150 145 28
151 146 30
151 147 36
151 147 30
149 144 28
154 150 28
153 148 19
151 146 36
152 147 34
151 146 36
153 150 32
152 148 25
152 147 34
148 144 22
148 144 28
153 149 32
150 144 36
154 150 34
150 145 32
151 146 30
153 148 32
149 143 30
148 143 30
148 143 30
149 145 28
150 146 32
148 144 11
150 145 34
150 144 36
146 141 30
154 149 32
144 139 32
147 143 22
151 145 34
145 140 28
143 138 30
139 134 22
147 144 19
143 138 22
142 138 28
146 141 22
138 134 30
150 144 32
138 134 32
137 133 30
143 138 30
135 131 32
141 136 25
129 126 16
132 127 32
139 134 32
132 128 28
136 131 34
129 123 25
128 124 28
126 120 36
125 121 30
118 114 16
110 106 19
117 113 19
156 168 0
158 174 0
163 179 0
164 180 0
167 183 0
161 181 0
166 182 0
164 182 0
166 183 0
163 180 0
164 183 0
167 183 0
166 184 0
168 185 0
171 190 0
168 187 0
170 189 0
168 184 0
166 185 0
166 183 0
167 186 0
169 188 0
165 182 0
168 188 0
166 185 0
165 185 0
169 185 0
168 188 0
168 187 0
170 189 0
167 184 0
173 192 0
168 187 0
170 187 0
171 192 0
171 191 0
168 188 0
168 187 0
170 189 0
172 194 0
172 196 0
170 193 0
171 194 0
173 197 0
170 193 0
171 194 0
174 196 0
172 195 0
169 192 0
170 194 0
173 196 0
170 192 0
173 195 0
170 194 0
168 191 0
170 194 0
171 194 0
171 194 0
166 190 0
169 191 0
170 193 0
169 192 0
168 192 0
167 191 0
168 192 0
170 193 0
171 195 0
169 191 0
169 192 0
166 188 0
173 196 0
167 189 0
171 193 0
166 189 0
168 190 0
168 191 0
167 189 0
169 192 0
168 191 0
166 189 0
170 194 0
171 194 0
169 192 0
169 192 0
166 189 0
170 193 0
165 188 0
166 190 0
170 193 0
169 191 0
170 193 0
168 191 0
172 194 0
165 188 0
165 188 0
168 191 0
171 193 0
168 190 0
167 190 0
165 189 0
168 191 0
165 188 0
164 187 0
169 192 0
165 189 0
165 187 0
168 191 0
166 191 0
170 193 0
163 184 0
166 189 0
168 191 0
164 186 0
165 187 0
170 193 0
167 191 0
166 188 0
163 186 0
165 188 0
157 180 0
166 189 0
167 190 0
167 190 0
166 189 0
164 187 0
167 190 0
154 176 0
162 185 0
162 186 0
165 187 0
165 187 0
164 187 0
165 187 0
168 191 0
167 189 0
162 185 0
164 187 0
163 185 0
164 186 0
159 181 0
166 188 0
162 184 0
167 189 0
164 186 0
166 187 0
159 182 0
159 180 0
166 189 0
159 181 0
162 183 0
160 182 0
164 188 0
158 181 0
161 184 0
156 178 0
161 183 0
165 187 0
158 181 0
161 183 0
163 185 0
156 177 0
159 181 0
158 179 0
152 174 0
163 185 0
155 177 0
159 181 0
158 180 0
158 180 0
154 176 0
152 174 0
160 181 0
157 180 0
160 182 0
155 176 0
158 180 0
157 179 0
158 180 0
153 173 0
153 175 0
153 175 0
150 172 0
157 178 0
158 180 0
154 174 0
152 173 0
155 177 0
158 179 0
147 169 0
152 173 0
148 170 0
147 167 0
153 173 0
151 171 0
151 171 0
158 179 0
152 174 0
151 172 0
154 175 0
149 172 0
147 168 0
150 170 0
157 178 0
151 172 0
153 174 0
151 171 0
153 174 0
151 171 0
149 169 0
149 168 0
146 165 0
147 167 0
148 169 0
142 160 0
140 160 0
153 172 0
142 163 0
146 167 0
151 172 0
145 165 0
145 165 0
148 167 0
145 164 0
143 162 0
145 164 0
152 170 0
140 157 0
136 153 0
140 158 0
144 162 0
146 166 0
142 161 0
140 160 0
127 144 0
142 160 0
146 163 0
144 160 0
148 166 0
140 159 0
146 163 0
139 155 0
143 161 0
146 163 0
144 161 0
141 159 0
144 160 0
143 161 0
137 152 0
134 150 0
137 154 0
140 155 0
136 152 0
146 160 0
133 149 0
138 153 0
133 145 0
136 150 0
137 152 0
142 157 0
127 143 0
135 148 0
135 146 0
131 143 0
136 151 0
134 149 0
101 105 0
90 87 0
100 96 14
100 97 0
106 103 17
110 105 19
118 114 21
115 111 16
108 105 22
121 118 22
122 119 23
132 129 30
124 120 22
133 128 37
126 121 22
133 129 19
132 128 22
134 130 26
140 134 28
139 135 38
131 126 28
141 136 32
141 137 30
141 136 19
139 133 30
146 142 28
141 136 32
147 142 32
141 137 25
144 139 28
150 145 36
140 136 22
147 142 28
145 140 34
147 142 32
150 146 34
146 141 25
144 140 11
147 143 25
143 138 25
144 140 11
148 145 30
147 142 32
149 145 32
147 143 25
146 143 25
147 143 25
147 144 22
149 145 19
152 147 34
151 146 28
152 147 25
151 147 25
151 146 32
153 149 25
155 150 30
152 147 32
152 147 30
147 144 16
150 145 25
147 142 22
148 143 22
149 145 16
142 139 0
152 148 32
152 148 19
154 150 34
148 145 25
150 145 32
153 148 30
147 142 30
149 146 25
152 147 25
149 145 19
151 146 30
147 143 19
149 145 11
151 145 19
154 149 36
150 145 19
153 148 30
150 147 25
152 146 30
152 148 25
151 147 25
153 148 32
149 145 25
153 149 32
148 143 32
153 149 25
153 148 30
150 146 36
151 146 32
156 150 39
148 142 22
152 148 32
143 139 28
150 145 28
141 136 25
149 144 34
145 141 34
145 140 22
146 141 34
142 137 28
149 144 22
148 144 28
153 147 39
149 144 25
142 137 28
149 145 28
152 147 32
143 139 25
147 142 28
148 143 30
145 139 41
153 147 34
144 139 37
146 141 34
144 139 22
143 139 19
138 134 32
140 135 37
140 136 30
145 139 30
130 126 22
131 126 25
131 126 28
128 123 22
130 126 25
129 124 28
127 122 25
125 121 22
112 107 16
117 112 22
118 114 19
166 182 0
161 178 0
161 177 0
165 182 0
163 179 0
165 180 0
164 181 0
166 180 0
166 185 0
167 183 0
162 182 0
168 184 0
161 179 0
167 185 0
164 179 0
166 183 0
165 182 0
166 183 0
164 182 0
169 188 0
166 182 0
171 188 0
166 185 0
167 185 0
171 191 0
167 186 0
171 193 0
164 182 0
171 192 0
164 180 0
164 184 0
166 186 0
169 189 0
167 188 0
170 190 0
171 191 0
167 188 0
172 192 0
168 187 0
170 193 0
171 195 0
169 193 0
171 195 0
172 195 0
169 192 0
169 193 0
172 194 0
172 195 0
169 193 0
171 193 0
169 193 0
165 189 0
169 191 0
171 194 0
171 194 0
169 193 0
170 193 0
171 194 0
172 194 0
171 193 0
172 195 0
171 194 0
171 194 0
162 184 0
169 192 0
169 192 0
169 191 0
170 194 0
166 189 0
170 193 0
171 195 0
166 190 0
168 191 0
164 188 0
171 194 0
172 195 0
172 195 0
170 194 0
167 191 0
169 192 0
168 190 0
170 193 0
167 190 0
168 191 0
168 190 0
169 192 0
165 188 0
163 187 0
166 188 0
168 191 0
166 189 0
170 193 0
168 192 0
165 188 0
170 194 0
162 184 0
167 189 0
167 190 0
168 192 0
164 187 0
165 188 0
167 189 0
163 186 0
168 190 0
165 187 0
165 188 0
164 188 0
167 190 0
167 191 0
168 191 0
167 189 0
167 191 0
167 190 0
166 188 0
167 190 0
168 191 0
164 188 0
165 189 0
164 187 0
162 185 0
164 186 0
165 188 0
168 190 0
166 189 0
166 188 0
161 183 0
167 190 0
167 190 0
164 185 0
163 185 0
161 183 0
161 183 0
164 188 0
166 190 0
164 186 0
162 185 0
163 186 0
163 186 0
160 183 0
163 186 0
163 186 0
163 185 0
156 179 0
163 185 0
163 185 0
159 181 0
153 176 0
161 182 0
159 181 0
161 184 0
157 179 0
163 184 0
161 183 0
160 181 0
158 179 0
156 177 0
152 173 0
161 184 0
160 183 0
159 181 0
158 180 0
156 178 0
150 171 0
158 180 0
158 179 0
155 177 0
157 179 0
156 178 0
156 178 0
154 177 0
154 175 0
151 173 0
158 181 0
154 176 0
154 175 0
160 182 0
160 181 0
158 179 0
158 181 0
153 174 0
152 173 0
156 177 0
157 177 0
154 173 0
157 179 0
160 181 0
150 173 0
156 176 0
153 174 0
152 173 0
158 179 0
150 170 0
158 179 0
152 171 0
150 170 0
150 170 0
147 169 0
139 160 0
151 171 0
154 174 0
151 172 0
153 173 0
152 171 0
150 171 0
154 175 0
145 165 0
150 172 0
153 172 0
148 169 0
156 177 0
146 166 0
148 167 0
149 169 0
150 168 0
151 169 0
153 172 0
146 165 0
151 170 0
144 164 0
146 165 0
140 160 0
138 160 0
147 166 0
149 169 0
141 160 0
146 164 0
144 163 0
153 172 0
134 153 0
140 159 0
143 163 0
144 161 0
136 155 0
139 156 0
139 155 0
146 163 0
139 160 0
139 157 0
137 155 0
139 153 0
142 158 0
135 152 0
139 158 0
145 163 0
143 160 0
151 167 0
143 159 0
135 151 0
124 139 0
139 155 0
135 150 0
131 146 0
141 158 0
136 152 0
140 155 0
137 153 0
132 146 0
140 155 0
135 150 0
138 154 0
135 148 0
139 153 0
144 159 0
134 147 0
140 154 0
112 118 11
87 85 16
98 94 18
104 101 22
97 94 16
112 107 28
111 108 4
107 105 19
114 112 22
125 120 22
123 120 19
126 122 22
127 123 16
131 128 25
132 127 26
140 135 32
131 127 28
128 124 28
139 135 25
137 133 36
140 134 30
138 133 28
142 138 30
133 129 30
136 132 30
139 134 22
139 135 30
145 140 25
140 137 19
153 146 28
144 139 28
143 138 25
148 143 28
144 140 32
144 140 36
146 141 34
146 142 32
139 135 19
151 145 36
147 142 32
140 135 25
147 142 25
148 144 25
147 142 28
148 144 30
142 138 16
145 140 30
149 143 30
148 144 22
143 139 25
146 142 22
153 147 32
152 147 25
154 148 34
149 143 34
150 146 28
152 149 25
151 146 25
151 146 22
146 141 28
154 149 30
154 148 32
153 148 30
156 150 37
150 146 30
152 147 22
152 147 30
150 146 22
152 147 34
154 149 32
151 146 30
152 148 22
146 141 30
150 144 28
155 150 37
147 142 28
151 146 25
155 149 37
149 144 19
150 146 30
150 146 22
153 147 44
155 149 28
151 147 22
153 147 32
152 147 28
150 145 25
151 147 32
149 143 34
152 148 25
150 145 25
157 151 37
154 149 30
147 143 28
149 144 30
149 144 30
155 150 28
150 146 25
144 139 25
150 144 39
150 144 30
142 137 16
151 147 25
148 144 16
146 142 28
147 143 19
150 145 28
150 145 36
144 139 22
146 142 25
146 142 32
140 135 22
142 137 28
148 143 34
145 140 28
146 141 32
141 136 25
141 136 30
138 132 25
142 137 39
142 138 22
138 132 19
138 133 25
132 127 32
130 127 22
139 133 39
139 134 32
120 117 11
137 132 34
139 135 22
128 123 25
130 124 16
116 112 25
116 111 19
125 128 22
161 176 0
166 180 0
162 178 0
164 181 0
165 183 0
167 184 0
167 185 0
164 182 0
167 185 0
165 182 0
171 190 0
166 183 0
168 187 0
164 181 0
165 185 0
167 184 0
167 185 0
167 185 0
168 187 0
167 186 0
168 186 0
170 188 0
166 185 0
167 186 0
167 187 0
167 187 0
167 188 0
164 183 0
166 186 0
168 188 0
167 185 0
169 188 0
169 188 0
170 189 0
169 188 0
168 187 0
170 190 0
165 186 0
169 188 0
171 195 0
173 196 0
170 193 0
172 195 0
170 194 0
172 195 0
168 192 0
174 197 0
171 195 0
169 193 0
169 192 0
169 194 0
171 194 0
169 193 0
171 193 0
170 194 0
169 193 0
169 193 0
172 195 0
168 191 0
170 193 0
170 194 0
168 191 0
169 192 0
168 191 0
171 194 0
168 191 0
172 195 0
166 190 0
168 191 0
171 193 0
170 192 0
170 192 0
167 189 0
170 194 0
169 191 0
166 190 0
171 194 0
170 192 0
167 189 0
165 189 0
169 192 0
168 191 0
170 193 0
169 192 0
168 192 0
170 193 0
172 195 0
170 192 0
167 190 0
168 191 0
168 191 0
167 190 0
167 190 0
169 192 0
168 191 0
169 191 0
166 190 0
170 193 0
171 194 0
169 192 0
165 188 0
169 193 0
168 190 0
165 189 0
164 187 0
164 188 0
166 188 0
164 187 0
168 191 0
169 192 0
164 187 0
165 188 0
162 185 0
166 189 0
172 195 0
169 191 0
166 188 0
166 189 0
164 188 0
162 186 0
167 189 0
160 183 0
163 186 0
163 186 0
165 187 0
162 185 0
166 188 0
162 186 0
166 190 0
160 183 0
165 187 0
168 191 0
165 188 0
161 184 0
163 185 0
163 185 0
161 184 0
163 186 0
161 182 0
157 179 0
166 189 0
164 186 0
161 184 0
161 182 0
154 175 0
164 186 0
159 182 0
162 184 0
160 182 0
153 177 0
159 181 0
163 185 0
163 185 0
162 184 0
163 184 0
163 185 0
160 183 0
155 178 0
154 175 0
157 178 0
160 182 0
153 174 0
161 184 0
162 184 0
156 177 0
156 179 0
157 178 0
154 175 0
153 174 0
148 169 0
153 174 0
156 178 0
155 176 0
158 178 0
160 181 0
156 177 0
153 174 0
157 177 0
154 176 0
152 173 0
158 178 0
159 181 0
162 183 0
151 173 0
153 173 0
156 177 0
143 164 0
152 174 0
154 174 0
143 163 0
152 174 0
159 180 0
155 175 0
156 178 0
155 176 0
151 172 0
156 177 0
153 175 0
149 168 0
154 175 0
149 169 0
154 175 0
148 169 0
155 175 0
149 169 0
143 163 0
152 171 0
152 174 0
158 179 0
146 165 0
141 161 0
154 173 0
148 168 0
148 168 0
145 163 0
150 169 0
152 172 0
144 162 0
155 175 0
152 172 0
148 166 0
141 160 0
145 164 0
153 172 0
139 157 0
135 156 0
150 170 0
145 164 0
152 170 0
148 167 0
151 169 0
147 165 0
144 162 0
147 166 0
140 158 0
138 154 0
149 167 0
135 151 0
143 160 0
138 155 0
144 163 0
140 158 0
146 163 0
141 156 0
146 164 0
137 152 0
137 154 0
150 164 0
140 158 0
140 157 0
136 150 0
147 165 0
128 143 0
140 155 0
136 147 0
142 157 0
132 146 0
141 155 0
127 142 0
138 151 0
140 153 0
138 152 0
132 145 0
130 144 0
126 139 0
118 125 11
93 88 0
93 90 8
114 109 16
102 100 14
107 103 22
113 110 20
118 113 26
119 115 22
124 119 24
127 122 32
119 116 20
130 127 19
129 126 31
130 126 21
130 125 25
131 127 36
140 134 32
133 128 28
132 128 30
132 128 22
147 142 36
138 133 28
143 139 22
140 136 22
134 128 25
143 138 28
144 139 30
139 134 28
138 132 34
144 140 19
143 138 32
145 141 32
144 138 36
147 142 34
143 139 28
149 143 28
148 143 32
146 142 22
150 144 32
145 141 16
146 142 22
150 145 36
154 148 36
148 142 25
153 147 36
147 142 32
148 143 32
146 142 19
153 148 39
146 143 22
155 152 25
151 147 32
148 144 19
153 148 37
152 147 34
144 140 25
150 146 22
154 149 37
148 142 22
152 146 32
154 148 34
152 147 25
152 146 28
156 151 41
148 144 30
153 149 30
149 146 28
156 150 32
149 145 19
145 140 28
150 145 28
147 142 30
153 148 34
153 147 19
146 141 22
151 147 30
151 145 28
148 143 36
147 143 28
152 146 32
150 145 34
145 140 19
155 150 36
146 141 30
148 144 30
148 144 25
150 146 28
149 143 25
150 145 19
152 148 25
151 147 22
146 142 22
149 145 32
148 143 22
148 143 36
149 144 16
150 145 30
144 140 22
151 145 34
144 140 11
144 140 19
147 143 28
152 146 30
148 144 25
150 144 37
143 140 16
146 142 25
152 147 36
150 144 32
141 135 30
150 145 34
148 142 36
142 135 32
143 137 34
141 136 37
141 136 28
141 136 16
144 141 28
138 134 22
131 127 22
133 128 28
135 131 28
136 132 30
135 130 19
138 133 22
128 124 22
130 126 22
137 133 28
123 119 19
131 127 25
124 119 22
127 121 28
123 118 30
143 151 16
166 181 0
163 179 0
160 176 0
168 184 0
161 174 0
169 187 0
168 186 0
165 181 0
167 184 0
163 177 0
163 181 0
164 180 0
165 184 0
160 177 0
165 185 0
163 178 0
168 185 0
167 185 0
166 185 0
170 189 0
166 184 0
167 186 0
168 187 0
165 184 0
168 188 0
170 189 0
169 186 0
167 187 0
168 187 0
170 191 0
169 187 0
167 186 0
170 189 0
167 186 0
170 192 0
169 188 0
170 191 0
170 190 0
172 191 0
170 192 0
171 193 0
171 193 0
169 192 0
171 195 0
170 193 0
171 194 0
171 194 0
169 192 0
168 191 0
170 193 0
172 195 0
169 192 0
169 192 0
171 193 0
168 192 0
170 193 0
172 196 0
170 193 0
168 192 0
169 191 0
169 192 0
171 194 0
169 192 0
169 193 0
169 192 0
166 190 0
170 194 0
169 193 0
170 192 0
172 195 0
169 192 0
169 192 0
172 195 0
168 190 0
163 187 0
169 191 0
171 194 0
172 195 0
166 189 0
168 191 0
170 193 0
168 191 0
168 191 0
168 189 0
167 190 0
168 191 0
165 189 0
169 192 0
167 190 0
165 188 0
166 189 0
165 189 0
166 190 0
169 192 0
167 191 0
168 190 0
168 191 0
166 189 0
165 187 0
166 189 0
167 191 0
165 188 0
169 192 0
166 189 0
164 187 0
163 186 0
164 186 0
164 186 0
168 191 0
169 191 0
166 189 0
165 188 0
166 188 0
167 189 0
166 188 0
165 188 0
169 192 0
168 191 0
165 187 0
160 183 0
167 190 0
164 187 0
163 186 0
165 187 0
156 178 0
168 190 0
162 185 0
166 188 0
165 187 0
165 187 0
165 187 0
169 190 0
163 186 0
166 188 0
161 184 0
166 189 0
163 185 0
163 186 0
161 182 0
161 183 0
165 189 0
166 189 0
159 182 0
161 184 0
163 185 0
161 184 0
162 182 0
165 187 0
160 182 0
163 185 0
160 182 0
161 182 0
162 185 0
149 170 0
159 181 0
158 180 0
163 185 0
159 181 0
159 181 0
158 181 0
164 187 0
150 173 0
160 181 0
156 178 0
159 180 0
160 181 0
163 184 0
159 180 0
153 175 0
159 181 0
160 183 0
158 180 0
164 187 0
159 181 0
151 172 0
153 175 0
157 178 0
156 177 0
155 176 0
149 169 0
151 172 0
156 177 0
150 170 0
156 178 0
158 180 0
152 173 0
155 178 0
158 180 0
151 171 0
161 183 0
154 174 0
153 173 0
158 177 0
150 172 0
154 177 0
159 181 0
154 175 0
150 169 0
158 179 0
154 175 0
154 176 0
149 170 0
147 167 0
144 165 0
150 170 0
149 170 0
149 167 0
146 164 0
152 171 0
150 169 0
145 165 0
149 169 0
155 176 0
146 165 0
142 160 0
148 168 0
156 176 0
153 173 0
144 164 0
140 159 0
149 168 0
150 169 0
147 165 0
152 170 0
145 164 0
146 165 0
139 155 0
150 168 0
146 163 0
149 167 0
150 169 0
153 173 0
143 160 0
136 153 0
148 163 0
146 163 0
144 163 0
145 164 0
147 167 0
137 152 0
141 158 0
137 154 0
149 167 0
149 168 0
148 164 0
140 158 0
138 154 0
135 152 0
143 158 0
143 159 0
143 157 0
144 162 0
130 145 0
142 159 0
145 162 0
138 154 0
128 141 0
147 161 0
135 151 0
133 144 0
138 152 0
144 158 0
132 147 0
136 150 0
137 152 0
112 113 11
92 89 11
97 93 10
105 100 11
108 104 21
104 100 21
110 106 21
107 103 19
122 118 21
113 110 14
109 106 16
129 124 33
125 120 25
126 122 28
128 121 20
134 129 11
127 124 22
139 134 25
129 124 16
134 129 28
139 134 32
136 133 19
143 138 28
139 135 30
135 130 28
141 136 28
145 141 39
132 130 19
145 140 30
147 141 30
143 139 25
138 134 28
139 135 19
140 134 22
144 139 34
142 137 30
145 141 25
150 146 37
152 147 28
149 144 25
143 138 19
147 143 25
152 147 30
145 140 16
149 144 25
146 141 25
148 142 25
148 143 11
149 145 32
145 140 16
142 137 19
150 144 34
147 142 22
152 146 37
150 145 30
150 145 28
151 145 30
152 147 34
151 146 32
145 140 25
148 143 19
154 149 28
149 144 32
149 143 25
145 139 19
151 146 32
153 148 37
142 137 28
152 147 25
153 149 25
150 147 34
152 148 32
149 144 19
147 143 28
155 150 34
152 149 28
151 145 25
153 149 32
144 139 22
154 149 34
150 145 25
153 149 32
152 148 22
149 145 28
151 146 30
147 143 22
150 145 30
151 147 28
153 148 32
152 147 32
151 146 28
154 149 32
153 148 34
152 148 30
151 146 22
148 143 16
146 141 25
149 144 32
146 142 19
152 148 28
147 142 28
146 142 28
147 143 30
146 141 37
142 137 25
153 148 39
147 142 37
144 138 36
138 135 25
149 145 37
149 143 37
143 138 16
149 143 37
143 138 22
142 138 28
137 131 22
146 139 34
132 129 19
142 137 19
144 139 30
145 138 32
133 128 16
136 131 32
133 127 30
138 134 34
137 131 28
129 125 36
121 116 28
133 129 28
137 131 19
128 123 25
127 122 22
120 114 16
114 110 30
148 159 0
165 180 0
160 172 0
165 182 0
169 185 0
163 179 0
164 181 0
163 177 0
167 184 0
163 179 0
165 182 0
168 187 0
168 187 0
164 180 0
166 185 0
167 185 0
164 181 0
166 185 0
169 187 0
165 182 0
167 186 0
167 186 0
169 187 0
167 186 0
167 185 0
170 190 0
168 186 0
169 189 0
167 184 0
168 186 0
170 188 0
170 188 0
169 188 0
170 188 0
169 187 0
166 185 0
169 190 0
167 187 0
168 186 0
170 189 0
169 193 0
171 194 0
171 194 0
172 195 0
172 195 0
172 196 0
170 193 0
169 192 0
172 196 0
168 191 0
170 193 0
171 195 0
170 194 0
169 192 0
172 195 0
171 195 0
169 192 0
171 195 0
169 192 0
172 193 0
171 195 0
169 192 0
172 195 0
167 190 0
171 194 0
169 191 0
169 192 0
168 190 0
169 194 0
170 193 0
171 193 0
169 192 0
169 193 0
171 193 0
166 188 0
168 190 0
170 194 0
169 192 0
171 194 0
171 194 0
169 192 0
170 192 0
168 191 0
165 187 0
168 191 0
166 188 0
166 188 0
169 192 0
168 191 0
166 189 0
166 190 0
168 192 0
165 187 0
169 191 0
167 190 0
168 192 0
167 190 0
167 189 0
164 187 0
167 190 0
165 188 0
169 193 0
168 191 0
168 192 0
168 192 0
167 191 0
165 187 0
171 194 0
166 189 0
164 188 0
165 188 0
163 184 0
167 190 0
168 191 0
169 193 0
166 189 0
166 189 0
162 185 0
169 192 0
163 185 0
163 185 0
166 189 0
165 188 0
167 190 0
162 186 0
168 190 0
161 184 0
164 186 0
162 183 0
163 186 0
158 181 0
161 184 0
161 183 0
159 182 0
160 182 0
162 184 0
158 181 0
164 187 0
167 190 0
165 188 0
165 189 0
160 183 0
160 183 0
163 186 0
157 180 0
156 178 0
160 183 0
163 185 0
166 188 0
166 189 0
161 182 0
166 188 0
162 186 0
161 182 0
159 181 0
165 187 0
158 180 0
159 182 0
159 180 0
162 184 0
155 177 0
163 185 0
161 183 0
162 183 0
157 179 0
159 180 0
157 179 0
156 176 0
156 178 0
150 170 0
159 179 0
155 175 0
157 179 0
157 178 0
161 184 0
155 176 0
155 176 0
162 183 0
161 182 0
157 177 0
161 182 0
158 179 0
155 177 0
158 180 0
156 178 0
146 167 0
156 177 0
156 178 0
152 173 0
155 176 0
155 175 0
152 171 0
159 181 0
147 168 0
155 175 0
148 169 0
153 175 0
155 176 0
155 175 0
154 174 0
154 176 0
153 173 0
154 173 0
146 164 0
158 177 0
148 169 0
151 169 0
156 176 0
149 169 0
149 168 0
153 173 0
151 172 0
140 159 0
144 163 0
154 175 0
146 166 0
154 174 0
150 171 0
146 167 0
146 165 0
150 169 0
149 170 0
155 175 0
145 164 0
143 163 0
139 159 0
152 169 0
153 172 0
152 172 0
147 165 0
147 165 0
146 166 0
144 161 0
148 167 0
147 163 0
148 166 0
148 166 0
139 157 0
142 160 0
143 159 0
144 161 0
142 159 0
144 162 0
142 161 0
139 153 0
147 162 0
138 155 0
142 160 0
145 161 0
135 151 0
146 161 0
148 166 0
142 157 0
140 155 0
144 160 0
142 157 0
144 158 0
142 158 0
136 151 0
127 140 0
140 156 0
140 155 0
140 155 0
135 145 0
133 144 0
131 143 0
108 111 0
83 79 0
96 93 0
109 105 21
111 107 16
117 112 16
117 113 21
117 112 19
118 114 18
117 113 24
130 124 25
124 121 11
123 118 16
131 128 25
129 123 30
136 130 28
135 132 19
132 128 32
138 133 30
136 133 25
134 129 25
135 131 28
141 136 30
137 132 30
136 132 30
143 138 25
143 138 25
137 133 25
140 136 28
151 146 32
141 136 28
142 137 25
144 139 25
144 140 28
143 138 22
146 141 32
145 140 28
145 141 37
137 133 19
147 143 25
145 141 11
149 144 34
147 142 22
152 147 30
150 144 25
146 141 0
146 142 25
150 145 34
148 143 25
144 139 28
148 143 16
150 144 22
146 142 36
145 140 28
155 150 36
153 148 34
152 148 25
145 141 22
150 145 25
149 143 32
151 147 32
152 146 34
152 148 30
150 145 30
152 147 25
147 141 30
150 145 25
155 150 25
148 143 32
150 145 19
152 148 30
155 150 44
153 147 28
148 144 22
144 140 19
149 144 22
146 141 25
154 149 25
155 150 30
152 147 36
151 146 30
152 148 34
149 145 22
152 147 30
155 150 34
148 143 28
157 151 41
151 145 39
153 148 28
150 144 28
149 145 28
152 147 25
154 148 37
147 142 22
148 143 34
151 148 11
149 144 25
149 145 25
152 147 22
147 141 32
149 144 28
149 144 41
141 136 16
144 140 28
145 140 30
142 137 32
148 143 22
143 138 25
147 142 28
153 148 30
146 142 28
149 144 37
138 134 25
146 142 30
151 146 37
143 137 32
143 136 19
144 140 30
138 134 25
134 129 25
140 136 25
138 133 37
139 134 22
131 125 19
135 131 28
130 125 32
135 130 28
120 117 25
128 124 19
122 117 30
123 119 19
112 107 19
124 119 22
114 109 22
158 172 0
164 179 0
163 178 0
163 180 0
162 178 0
163 178 0
164 181 0
162 181 0
167 184 0
164 181 0
166 183 0
165 182 0
167 185 0
168 186 0
163 179 0
168 185 0
168 184 0
168 184 0
170 187 0
169 187 0
168 185 0
167 187 0
168 185 0
170 189 0
167 188 0
168 188 0
168 187 0
167 186 0
171 189 0
168 188 0
170 190 0
167 185 0
168 185 0
163 180 0
167 187 0
170 191 0
171 192 0
169 189 0
170 189 0
169 188 0
172 195 0
168 190 0
171 195 0
171 195 0
169 193 0
171 195 0
170 193 0
171 194 0
167 190 0
171 193 0
171 193 0
171 194 0
172 195 0
172 195 0
170 194 0
170 194 0
170 194 0
166 189 0
172 193 0
169 193 0
168 192 0
168 192 0
168 191 0
172 195 0
170 193 0
170 194 0
169 192 0
169 193 0
168 191 0
171 194 0
168 192 0
166 189 0
171 194 0
169 192 0
166 189 0
169 191 0
170 194 0
169 193 0
165 187 0
169 192 0
169 191 0
169 192 0
170 192 0
170 194 0
166 188 0
167 190 0
169 191 0
167 190 0
164 187 0
166 188 0
169 191 0
171 194 0
165 189 0
171 194 0
168 191 0
170 193 0
170 192 0
170 192 0
167 191 0
167 189 0
165 189 0
169 192 0
169 192 0
167 190 0
165 188 0
162 187 0
165 187 0
167 189 0
162 184 0
164 187 0
163 184 0
167 190 0
164 187 0
167 190 0
164 187 0
168 191 0
166 189 0
159 182 0
162 184 0
164 187 0
164 188 0
167 190 0
166 188 0
166 188 0
165 188 0
163 185 0
160 184 0
168 191 0
164 187 0
163 185 0
161 184 0
169 191 0
165 188 0
157 181 0
169 192 0
163 185 0
161 184 0
162 185 0
161 184 0
159 182 0
163 187 0
166 188 0
167 190 0
159 181 0
163 184 0
163 185 0
163 185 0
166 188 0
163 185 0
160 183 0
159 182 0
159 182 0
162 184 0
155 177 0
156 177 0
161 184 0
162 185 0
157 179 0
155 177 0
161 182 0
161 185 0
159 180 0
159 182 0
162 184 0
163 185 0
161 183 0
163 185 0
165 185 0
161 183 0
161 184 0
156 178 0
162 184 0
162 185 0
158 180 0
155 176 0
157 177 0
157 178 0
161 183 0
156 178 0
157 178 0
150 171 0
161 183 0
158 179 0
155 176 0
157 177 0
162 183 0
152 174 0
159 181 0
153 175 0
156 178 0
153 175 0
151 172 0
148 168 0
155 177 0
154 176 0
144 165 0
150 171 0
157 179 0
156 176 0
153 175 0
152 173 0
150 168 0
154 176 0
156 177 0
156 176 0
147 166 0
150 171 0
144 164 0
154 173 0
153 172 0
152 173 0
149 169 0
156 177 0
149 168 0
145 163 0
151 171 0
150 168 0
150 169 0
145 163 0
151 170 0
148 168 0
145 165 0
141 160 0
143 163 0
148 165 0
150 170 0
152 173 0
155 176 0
149 167 0
148 165 0
146 165 0
152 170 0
139 158 0
152 170 0
154 173 0
150 166 0
144 161 0
144 163 0
143 163 0
145 163 0
145 162 0
141 158 0
143 161 0
144 161 0
139 156 0
142 160 0
136 154 0
146 162 0
143 159 0
144 159 0
147 164 0
145 161 0
145 161 0
140 154 0
136 152 0
143 157 0
138 152 0
137 152 0
145 162 0
131 145 0
144 161 0
144 157 0
144 159 0
142 158 0
143 159 0
129 142 0
102 106 0
92 87 16
100 96 18
98 95 17
94 90 8
111 108 23
116 112 29
113 108 22
111 107 19
122 116 22
123 119 25
121 118 25
120 116 19
134 130 16
129 124 29
132 128 12
131 126 31
136 131 34
138 134 28
132 128 21
136 131 25
139 135 32
139 135 30
145 138 25
135 132 22
139 136 30
139 133 30
143 138 32
148 143 32
140 134 30
141 137 16
138 134 22
144 140 22
143 138 28
143 138 36
146 142 30
143 138 19
148 143 32
144 140 16
152 147 25
149 144 25
148 144 30
148 143 28
149 144 28
151 145 36
148 142 25
148 144 22
143 139 28
144 139 28
151 146 22
144 140 22
150 145 37
152 146 32
153 148 32
148 143 28
147 142 25
144 140 30
145 140 22
152 147 30
148 145 19
152 147 30
151 146 22
151 146 28
153 148 28
154 150 32
150 146 28
150 145 25
154 149 30
151 146 22
154 148 34
149 145 25
151 146 28
150 145 25
149 145 30
152 147 22
146 141 28
151 147 34
152 147 32
150 144 19
149 144 28
152 147 34
154 150 32
150 145 36
149 144 34
155 149 30
152 147 32
152 148 28
151 146 28
150 145 28
148 144 25
155 150 25
154 149 22
151 145 32
151 145 28
156 151 41
151 147 19
145 140 22
149 144 28
154 148 32
147 142 22
151 146 32
144 139 32
148 143 37
147 142 22
146 141 28
142 137 25
142 138 36
146 142 30
146 142 22
145 141 22
147 143 32
136 132 19
142 136 22
143 137 28
137 131 25
143 139 34
143 138 34
142 137 30
142 137 32
137 132 28
135 130 22
130 125 22
131 126 30
133 130 22
136 133 11
135 131 25
139 133 34
127 123 32
135 129 30
125 121 22
120 117 19
123 118 32
125 120 19
116 113 19
165 180 0
162 179 0
164 178 0
159 175 0
160 174 0
160 176 0
161 175 0
163 179 0
162 176 0
163 182 0
163 180 0
162 177 0
167 185 0
170 188 0
167 186 0
167 185 0
167 184 0
168 187 0
163 181 0
168 187 0
168 185 0
170 189 0
169 187 0
168 187 0
168 187 0
167 186 0
169 189 0
166 184 0
168 187 0
170 189 0
168 186 0
170 190 0
170 190 0
169 189 0
167 186 0
170 189 0
168 187 0
170 190 0
168 188 0
169 191 0
173 196 0
171 195 0
172 195 0
170 193 0
168 191 0
170 193 0
170 195 0
169 192 0
169 192 0
171 194 0
172 195 0
166 190 0
170 193 0
171 194 0
167 189 0
171 194 0
170 193 0
172 195 0
171 194 0
165 189 0
170 194 0
170 193 0
171 194 0
172 195 0
171 194 0
172 196 0
170 193 0
166 189 0
172 195 0
169 193 0
168 192 0
172 195 0
169 191 0
170 192 0
170 192 0
169 191 0
166 189 0
171 192 0
166 189 0
170 194 0
170 193 0
167 189 0
168 190 0
171 193 0
168 191 0
170 193 0
166 190 0
171 194 0
170 193 0
172 195 0
165 189 0
170 192 0
170 194 0
170 193 0
169 192 0
166 189 0
169 192 0
165 188 0
167 190 0
167 190 0
168 192 0
165 187 0
168 191 0
163 186 0
167 190 0
169 193 0
171 193 0
168 191 0
163 186 0
162 184 0
166 190 0
166 189 0
163 186 0
164 187 0
167 188 0
169 190 0
166 188 0
167 190 0
159 181 0
166 189 0
160 182 0
165 188 0
166 189 0
165 187 0
160 183 0
165 187 0
168 189 0
166 189 0
164 186 0
164 185 0
165 188 0
165 188 0
163 185 0
164 187 0
166 189 0
168 190 0
163 186 0
162 183 0
165 187 0
159 181 0
161 183 0
161 183 0
162 184 0
163 185 0
162 184 0
162 184 0
161 183 0
165 188 0
162 184 0
162 186 0
156 179 0
158 180 0
160 184 0
165 187 0
161 184 0
161 183 0
158 180 0
160 183 0
158 180 0
162 183 0
161 183 0
159 182 0
158 180 0
152 175 0
158 181 0
163 185 0
161 184 0
165 186 0
159 181 0
154 176 0
154 175 0
157 177 0
159 180 0
162 183 0
154 176 0
161 183 0
157 178 0
152 173 0
150 171 0
161 183 0
160 180 0
155 178 0
158 179 0
159 180 0
159 179 0
157 178 0
157 178 0
155 176 0
156 176 0
160 181 0
154 174 0
160 181 0
160 180 0
152 174 0
148 167 0
157 180 0
150 170 0
153 174 0
159 179 0
155 178 0
158 178 0
150 171 0
156 176 0
157 179 0
150 169 0
152 173 0
160 179 0
148 169 0
146 166 0
143 163 0
147 168 0
153 173 0
157 178 0
154 172 0
147 167 0
150 171 0
152 173 0
149 169 0
151 170 0
146 164 0
150 168 0
149 169 0
146 164 0
144 165 0
155 175 0
156 174 0
152 170 0
155 174 0
152 170 0
145 166 0
141 160 0
140 159 0
139 156 0
148 168 0
139 158 0
155 174 0
142 159 0
149 168 0
148 166 0
141 160 0
146 166 0
151 169 0
149 167 0
148 165 0
137 155 0
149 165 0
146 164 0
142 159 0
136 150 0
151 170 0
142 158 0
146 162 0
140 157 0
147 164 0
141 158 0
149 164 0
132 147 0
146 159 0
146 163 0
134 147 0
136 149 0
136 149 0
140 153 0
146 159 0
140 152 0
137 152 0
117 121 0
93 89 11
108 104 8
106 102 19
117 113 20
111 108 16
100 97 21
119 115 24
117 114 25
132 128 30
119 115 24
118 115 16
126 123 33
128 125 25
132 127 30
133 129 22
136 131 28
136 132 16
129 125 25
137 133 16
128 124 19
134 129 28
144 139 28
138 134 25
140 135 22
138 133 25
142 138 22
140 136 30
143 138 30
141 136 28
142 137 36
146 141 36
144 140 25
145 141 30
146 141 28
147 141 28
142 138 16
144 140 25
148 143 25
141 135 25
143 140 19
146 142 16
148 143 32
145 141 25
144 139 25
150 146 28
151 146 36
151 146 30
150 145 32
150 144 28
148 143 25
149 143 36
145 141 28
149 145 22
147 142 28
148 143 22
149 145 28
149 145 19
154 150 34
151 146 25
152 146 22
152 146 30
151 146 32
152 146 25
150 145 30
153 147 32
151 145 28
151 146 30
143 139 25
149 143 22
154 149 34
153 148 30
150 145 30
154 150 30
148 143 34
156 151 30
155 149 36
151 146 30
152 146 25
152 147 30
148 144 22
150 145 36
145 141 25
149 145 28
147 143 32
152 147 30
150 144 36
150 145 28
149 144 25
148 144 19
152 146 36
152 146 30
151 146 34
156 149 41
151 145 34
153 147 37
153 148 32
145 140 28
150 145 30
150 146 28
149 144 28
147 142 32
146 141 22
150 144 32
150 146 28
151 148 32
143 139 25
145 141 30
141 136 28
147 142 30
146 140 19
143 138 19
141 137 25
140 135 25
146 142 32
138 132 34
149 143 36
142 136 32
138 133 16
142 138 30
137 133 22
124 120 16
136 131 28
142 137 22
131 127 25
138 132 34
130 126 30
129 124 16
137 132 25
122 118 16
132 126 32
131 127 19
122 118 25
130 133 19
165 179 0
160 174 0
165 181 0
163 179 0
162 179 0
163 176 0
161 177 0
162 179 0
165 181 0
167 184 0
162 179 0
166 182 0
162 179 0
170 189 0
163 179 0
171 190 0
167 185 0
167 182 0
167 183 0
168 185 0
170 187 0
166 185 0
167 182 0
168 188 0
169 187 0
166 184 0
165 185 0
171 190 0
165 184 0
170 190 0
169 191 0
168 188 0
167 185 0
167 186 0
168 188 0
168 187 0
167 187 0
168 188 0
168 187 0
169 189 0
170 192 0
171 195 0
171 195 0
169 193 0
170 193 0
171 194 0
169 192 0
170 193 0
170 194 0
172 195 0
170 193 0
173 196 0
170 193 0
171 194 0
170 194 0
168 191 0
172 196 0
170 193 0
171 193 0
168 191 0
172 194 0
170 193 0
168 191 0
166 189 0
169 192 0
167 191 0
171 195 0
171 195 0
170 193 0
165 188 0
172 196 0
167 190 0
167 191 0
171 194 0
172 194 0
168 191 0
170 193 0
166 188 0
171 194 0
169 192 0
165 189 0
171 193 0
170 192 0
170 193 0
167 190 0
164 188 0
169 192 0
170 192 0
169 192 0
167 190 0
168 190 0
168 191 0
170 192 0
170 192 0
168 191 0
168 191 0
166 188 0
170 193 0
170 193 0
166 189 0
163 185 0
163 185 0
168 191 0
164 188 0
167 190 0
164 188 0
164 186 0
168 189 0
169 192 0
170 193 0
166 189 0
168 191 0
164 188 0
167 190 0
166 189 0
165 188 0
159 182 0
168 192 0
164 187 0
165 187 0
166 189 0
169 190 0
166 189 0
166 189 0
161 184 0
166 188 0
164 188 0
166 190 0
167 190 0
169 193 0
165 188 0
166 188 0
165 187 0
162 185 0
159 181 0
165 187 0
169 192 0
165 187 0
162 184 0
160 182 0
163 187 0
169 191 0
163 184 0
164 186 0
166 189 0
163 186 0
162 184 0
160 181 0
161 184 0
161 184 0
160 182 0
163 185 0
165 187 0
157 178 0
161 183 0
159 181 0
152 175 0
162 184 0
160 183 0
163 185 0
158 180 0
156 178 0
164 186 0
162 184 0
164 186 0
160 182 0
161 182 0
158 179 0
156 177 0
155 176 0
157 179 0
162 185 0
161 184 0
159 179 0
148 169 0
156 178 0
155 175 0
158 181 0
160 181 0
158 179 0
150 172 0
161 184 0
157 179 0
157 177 0
154 176 0
155 175 0
154 174 0
156 177 0
157 177 0
156 176 0
156 178 0
162 183 0
156 176 0
150 171 0
145 163 0
160 182 0
154 175 0
150 169 0
149 168 0
151 173 0
150 171 0
159 180 0
153 172 0
150 170 0
145 165 0
157 178 0
151 170 0
157 178 0
157 176 0
155 176 0
156 176 0
155 175 0
160 179 0
149 168 0
156 175 0
150 169 0
151 172 0
150 169 0
155 174 0
142 162 0
147 166 0
151 170 0
146 165 0
139 158 0
154 172 0
149 168 0
149 166 0
147 167 0
147 166 0
145 163 0
149 169 0
157 176 0
143 164 0
154 173 0
152 170 0
145 163 0
153 172 0
151 169 0
152 170 0
153 170 0
151 169 0
144 161 0
146 166 0
144 161 0
147 163 0
141 157 0
142 159 0
146 161 0
147 162 0
147 164 0
146 161 0
140 154 0
143 157 0
141 155 0
139 155 0
134 150 0
145 160 0
138 153 0
141 156 0
137 152 0
138 152 0
147 160 0
144 159 0
127 143 0
139 153 0
145 159 0
110 111 19
95 89 16
101 98 11
98 94 16
110 105 19
98 94 11
104 102 21
120 115 18
122 117 25
131 126 22
114 111 20
125 120 22
132 126 33
124 120 16
138 133 32
130 127 28
138 134 30
129 125 32
133 129 22
134 128 22
134 128 32
145 140 30
143 139 25
133 128 25
142 136 32
146 142 37
145 138 34
133 129 22
139 135 28
137 132 32
147 142 28
139 136 22
146 140 22
142 137 22
140 138 25
137 134 19
140 136 16
142 137 25
141 136 22
147 142 32
150 145 28
143 139 30
148 144 28
148 144 28
143 140 11
148 144 30
143 139 19
150 146 28
147 142 32
151 146 30
148 144 28
152 147 25
148 144 34
153 148 28
153 148 30
146 141 19
149 145 22
147 143 25
154 148 32
151 147 25
147 143 22
152 147 28
150 145 30
152 147 36
149 144 30
146 142 22
144 140 11
155 149 37
147 142 25
148 143 22
148 144 28
151 145 30
148 143 19
145 140 22
146 142 22
154 149 25
153 148 19
153 148 32
150 146 22
154 149 30
150 144 25
154 149 34
150 145 28
151 145 25
149 144 30
150 144 28
149 144 30
151 145 32
145 140 30
154 148 36
147 142 19
145 141 28
148 144 16
151 146 19
145 139 32
154 149 36
148 143 25
148 144 30
148 142 22
149 144 32
146 141 28
149 143 37
147 142 34
148 143 25
143 139 28
146 140 28
143 137 32
151 146 25
147 143 30
145 140 30
145 139 30
143 138 30
139 134 19
143 138 25
140 136 19
139 134 32
142 138 22
133 129 22
140 135 30
140 135 28
138 134 22
133 127 28
138 133 28
139 134 36
136 131 22
132 127 32
131 124 11
121 118 22
124 119 22
127 123 22
122 117 22
124 117 28
118 114 22
142 149 19
162 179 0
165 179 0
158 171 0
159 176 0
162 176 0
164 179 0
162 175 0
157 172 0
167 183 0
164 181 0
164 182 0
162 178 0
169 185 0
165 181 0
167 183 0
169 185 0
161 178 0
163 179 0
167 185 0
166 182 0
164 181 0
166 183 0
166 185 0
167 185 0
169 188 0
169 187 0
166 185 0
165 183 0
169 189 0
168 187 0
165 184 0
169 188 0
169 187 0
165 183 0
169 188 0
168 189 0
171 188 0
167 187 0
169 187 0
166 185 0
168 191 0
170 193 0
171 194 0
171 194 0
172 195 0
173 195 0
171 194 0
169 193 0
170 192 0
170 192 0
169 190 0
171 194 0
169 191 0
166 190 0
169 193 0
171 194 0
171 194 0
170 193 0
172 194 0
172 194 0
168 191 0
169 192 0
169 192 0
169 193 0
169 192 0
167 191 0
169 192 0
171 194 0
169 192 0
169 194 0
167 191 0
167 190 0
171 195 0
172 195 0
170 192 0
171 194 0
169 192 0
169 191 0
170 194 0
168 191 0
169 192 0
170 193 0
165 187 0
169 191 0
167 191 0
165 188 0
166 189 0
167 189 0
166 188 0
169 191 0
169 192 0
168 191 0
167 190 0
171 194 0
168 191 0
165 187 0
167 189 0
171 193 0
170 193 0
164 187 0
168 191 0
167 190 0
167 190 0
170 193 0
167 191 0
167 190 0
166 189 0
170 193 0
161 183 0
161 184 0
169 192 0
168 191 0
168 191 0
167 189 0
162 183 0
164 188 0
167 190 0
168 190 0
164 188 0
165 188 0
165 189 0
167 191 0
166 189 0
164 188 0
168 191 0
163 186 0
166 189 0
162 183 0
164 187 0
166 188 0
166 190 0
161 183 0
166 187 0
165 188 0
168 190 0
161 184 0
168 191 0
160 184 0
162 184 0
161 183 0
164 187 0
165 189 0
169 191 0
161 182 0
164 188 0
168 191 0
160 182 0
163 185 0
159 182 0
163 186 0
160 183 0
161 182 0
158 180 0
162 184 0
159 182 0
161 184 0
163 185 0
161 183 0
160 183 0
160 183 0
163 184 0
164 185 0
159 182 0
164 186 0
164 186 0
160 180 0
162 182 0
165 187 0
159 182 0
159 180 0
162 185 0
159 181 0
160 182 0
155 178 0
153 174 0
157 178 0
156 179 0
156 178 0
159 179 0
158 180 0
158 180 0
156 178 0
157 180 0
157 179 0
155 177 0
152 173 0
159 179 0
153 174 0
161 182 0
156 178 0
161 182 0
156 176 0
153 176 0
155 176 0
152 173 0
156 177 0
148 171 0
153 173 0
151 173 0
160 181 0
160 179 0
159 180 0
152 172 0
155 176 0
152 170 0
153 172 0
155 175 0
156 176 0
150 171 0
149 170 0
146 166 0
161 180 0
150 170 0
150 172 0
152 172 0
152 173 0
154 174 0
156 177 0
156 177 0
146 165 0
151 169 0
151 170 0
150 169 0
154 174 0
150 168 0
153 172 0
148 168 0
156 176 0
147 168 0
145 163 0
146 165 0
154 173 0
151 170 0
155 173 0
145 162 0
148 168 0
145 162 0
147 164 0
147 165 0
147 165 0
146 162 0
150 165 0
142 160 0
143 160 0
147 163 0
150 167 0
150 166 0
145 164 0
139 157 0
150 165 0
137 151 0
134 151 0
142 156 0
153 169 0
148 166 0
149 167 0
147 161 0
144 160 0
133 147 0
140 154 0
139 152 0
149 162 0
144 159 0
134 148 0
145 160 0
144 158 0
131 139 0
84 82 0
95 91 0
111 106 11
99 95 17
120 116 19
99 96 16
117 112 28
123 117 22
121 118 19
140 135 34
120 115 19
126 121 24
133 128 25
128 124 25
127 123 25
139 133 37
135 130 28
132 127 19
137 133 22
134 130 19
140 134 34
136 132 25
139 134 19
137 132 25
138 134 19
141 134 19
141 137 32
140 136 25
142 136 32
147 141 36
138 133 22
143 138 28
140 134 0
147 141 36
141 136 32
144 139 25
141 137 25
148 142 25
146 142 22
148 144 28
147 142 37
148 142 25
149 144 30
146 142 30
145 141 25
149 144 34
151 146 25
144 140 25
149 144 11
149 144 19
148 142 28
150 146 32
152 148 32
148 141 25
151 146 28
144 140 22
149 144 16
150 144 28
146 143 19
150 146 25
152 147 36
151 146 34
148 143 19
147 143 32
153 148 36
149 143 19
155 150 32
148 145 19
152 147 32
148 142 22
155 149 34
150 145 34
153 149 34
149 143 30
148 143 16
153 147 30
149 145 19
151 145 30
151 147 28
152 147 34
152 147 22
154 150 22
149 144 32
153 147 39
151 147 22
153 146 39
152 148 34
145 140 19
150 145 32
148 143 28
153 149 25
151 146 28
151 146 32
149 144 28
143 138 19
144 139 25
146 141 25
151 145 32
151 144 37
150 146 30
149 143 25
144 140 25
148 143 25
142 138 16
155 150 34
152 146 34
149 144 25
148 143 25
146 141 30
136 131 19
144 140 30
147 141 37
147 143 25
140 136 22
143 138 32
132 127 19
142 137 22
135 130 25
143 136 37
142 137 28
142 137 34
140 133 37
142 136 37
139 135 28
140 134 36
140 134 25
132 126 32
119 114 28
134 128 30
124 118 30
120 114 25
117 113 22
146 156 11
159 175 0
162 177 0
164 178 0
160 174 0
164 179 0
168 184 0
164 180 0
165 182 0
165 181 0
165 181 0
165 183 0
168 185 0
164 179 0
167 184 0
169 187 0
164 181 0
166 183 0
168 185 0
169 187 0
166 185 0
167 184 0
162 179 0
168 185 0
168 184 0
166 185 0
170 188 0
166 184 0
165 182 0
170 189 0
169 189 0
170 190 0
167 185 0
170 191 0
171 190 0
169 186 0
168 188 0
169 190 0
170 188 0
167 186 0
171 192 0
169 191 0
172 196 0
170 193 0
170 194 0
172 194 0
170 194 0
172 195 0
169 194 0
170 192 0
166 189 0
169 191 0
172 195 0
173 196 0
169 192 0
172 195 0
174 196 0
168 191 0
171 194 0
170 193 0
169 193 0
170 193 0
171 194 0
169 193 0
170 193 0
173 195 0
171 195 0
170 194 0
172 196 0
164 186 0
170 192 0
167 191 0
170 192 0
168 192 0
166 188 0
169 192 0
167 190 0
169 193 0
165 189 0
170 193 0
167 191 0
171 194 0
168 191 0
171 194 0
164 187 0
170 193 0
171 194 0
169 192 0
170 192 0
169 192 0
167 189 0
172 195 0
169 192 0
167 190 0
167 191 0
169 192 0
168 192 0
170 193 0
168 191 0
161 184 0
170 193 0
169 192 0
169 192 0
165 187 0
168 190 0
170 192 0
167 189 0
169 192 0
166 189 0
168 191 0
170 194 0
167 189 0
167 190 0
167 190 0
169 192 0
165 187 0
164 187 0
165 187 0
167 189 0
168 191 0
163 186 0
162 184 0
161 184 0
162 184 0
165 188 0
166 187 0
168 190 0
165 187 0
168 191 0
164 187 0
162 184 0
165 188 0
164 187 0
166 188 0
161 183 0
163 186 0
162 182 0
164 186 0
166 189 0
159 182 0
163 185 0
167 190 0
164 185 0
162 184 0
166 188 0
165 188 0
160 183 0
162 183 0
163 185 0
159 183 0
162 184 0
159 181 0
164 185 0
161 185 0
155 177 0
166 188 0
158 181 0
152 174 0
165 185 0
162 184 0
161 183 0
163 186 0
160 182 0
162 184 0
159 182 0
157 178 0
157 179 0
159 181 0
163 185 0
160 181 0
163 185 0
163 185 0
160 180 0
160 182 0
157 179 0
155 177 0
159 182 0
161 182 0
163 184 0
154 175 0
159 179 0
154 174 0
152 172 0
158 177 0
153 174 0
157 179 0
158 180 0
162 183 0
153 171 0
154 175 0
146 167 0
154 175 0
159 180 0
154 176 0
155 173 0
155 176 0
158 180 0
156 177 0
151 171 0
160 180 0
159 177 0
156 177 0
155 177 0
149 169 0
154 175 0
153 173 0
158 178 0
156 177 0
157 177 0
148 167 0
153 174 0
155 174 0
153 174 0
150 172 0
151 171 0
151 170 0
155 174 0
156 174 0
152 172 0
154 173 0
151 169 0
145 165 0
145 164 0
154 173 0
152 169 0
158 178 0
150 169 0
148 167 0
153 172 0
150 171 0
146 164 0
142 161 0
148 167 0
152 171 0
145 164 0
148 165 0
147 165 0
150 168 0
152 170 0
147 167 0
146 162 0
147 163 0
146 163 0
154 172 0
143 163 0
149 165 0
156 174 0
146 164 0
152 168 0
137 156 0
141 157 0
149 167 0
141 158 0
144 161 0
150 166 0
142 156 0
147 163 0
143 156 0
149 165 0
137 150 0
139 154 0
143 160 0
150 166 0
139 152 0
142 154 0
143 158 0
136 149 0
136 147 16
108 104 16
93 90 14
107 102 16
108 103 20
100 97 18
111 107 22
118 114 28
118 115 22
129 123 22
131 126 28
125 120 16
138 133 34
125 122 26
127 122 25
135 130 26
122 117 30
137 133 25
143 138 36
135 130 30
138 134 28
145 140 37
136 131 22
138 135 22
140 135 22
138 134 16
144 138 34
131 126 19
139 133 25
142 138 28
139 133 30
142 139 22
148 142 36
147 142 28
149 144 30
149 144 39
149 142 28
145 139 22
148 143 30
145 139 25
146 140 25
150 145 30
150 144 28
146 140 28
145 140 25
148 144 34
149 144 30
147 142 32
151 146 28
145 142 28
154 148 28
152 147 16
153 147 30
150 145 28
147 142 19
145 139 25
147 141 30
146 143 16
154 149 28
147 144 11
148 142 22
152 146 28
147 143 28
149 144 34
152 148 30
149 144 16
157 149 36
147 142 28
154 149 22
148 143 19
152 147 22
153 147 37
153 146 32
148 144 22
148 143 30
154 148 30
145 140 25
151 146 16
152 147 32
155 149 36
152 146 28
153 148 28
150 145 25
150 143 28
150 146 22
144 139 28
153 148 36
151 145 30
145 140 30
147 141 32
146 140 30
146 141 28
150 145 37
154 149 28
148 143 25
147 142 28
147 141 30
145 141 28
148 143 30
144 138 25
143 139 19
154 150 32
149 144 34
149 145 25
148 142 25
152 146 30
147 142 32
143 138 28
144 139 25
145 141 30
144 138 30
147 142 30
141 136 28
143 138 32
148 142 34
144 139 28
140 136 28
148 142 39
133 129 22
140 136 28
141 137 28
134 129 19
141 135 36
132 127 16
134 130 16
129 124 25
125 120 16
130 125 22
127 122 19
116 111 32
122 119 19
120 116 11
102 98 11
156 168 0
161 177 0
159 174 0
163 179 0
167 183 0
163 177 0
164 179 0
164 180 0
158 172 0
169 184 0
167 184 0
168 184 0
168 185 0
167 185 0
163 182 0
164 181 0
170 187 0
162 180 0
165 182 0
167 186 0
166 185 0
163 184 0
166 184 0
169 188 0
171 191 0
166 185 0
171 190 0
169 188 0
170 189 0
170 187 0
170 190 0
170 190 0
166 182 0
168 187 0
170 187 0
167 184 0
169 188 0
171 192 0
169 190 0
168 187 0
169 189 0
171 194 0
171 195 0
169 192 0
172 195 0
169 192 0
171 193 0
172 195 0
172 195 0
172 196 0
169 192 0
167 191 0
171 193 0
171 194 0
172 195 0
172 194 0
169 192 0
171 195 0
173 196 0
171 195 0
169 191 0
171 195 0
171 195 0
169 193 0
167 189 0
168 190 0
168 191 0
169 193 0
171 195 0
168 190 0
171 194 0
170 193 0
170 194 0
171 194 0
170 193 0
170 192 0
167 191 0
167 190 0
169 192 0
168 191 0
167 190 0
165 188 0
170 193 0
164 188 0
169 193 0
168 190 0
168 191 0
169 192 0
162 186 0
169 193 0
168 191 0
168 191 0
169 192 0
165 187 0
168 191 0
169 192 0
167 189 0
163 186 0
169 191 0
168 191 0
169 192 0
168 191 0
168 191 0
167 191 0
166 189 0
169 192 0
165 188 0
166 190 0
165 188 0
166 188 0
164 186 0
170 192 0
163 187 0
164 185 0
164 186 0
165 188 0
170 192 0
164 186 0
162 186 0
163 186 0
163 185 0
169 190 0
164 187 0
165 189 0
167 189 0
164 187 0
159 181 0
163 186 0
163 186 0
166 189 0
165 189 0
166 188 0
166 188 0
163 185 0
164 186 0
163 184 0
165 187 0
164 187 0
166 187 0
165 187 0
162 186 0
164 187 0
165 187 0
168 190 0
160 183 0
161 182 0
160 182 0
160 183 0
162 185 0
164 186 0
163 186 0
163 185 0
164 186 0
159 180 0
165 187 0
162 184 0
166 187 0
156 178 0
161 182 0
157 179 0
161 184 0
159 181 0
161 183 0
160 182 0
162 184 0
161 184 0
160 182 0
164 184 0
156 178 0
160 181 0
159 182 0
159 181 0
162 183 0
164 185 0
154 175 0
162 184 0
161 183 0
158 177 0
161 183 0
160 183 0
158 179 0
154 176 0
157 178 0
160 181 0
156 178 0
157 178 0
157 179 0
155 176 0
162 184 0
157 177 0
161 183 0
154 174 0
157 178 0
159 181 0
160 179 0
159 180 0
150 172 0
158 178 0
159 181 0
156 178 0
160 181 0
153 171 0
158 179 0
158 177 0
158 178 0
150 171 0
159 180 0
154 175 0
152 173 0
153 174 0
154 173 0
160 180 0
143 164 0
154 175 0
152 172 0
162 183 0
153 173 0
146 167 0
155 176 0
154 174 0
155 172 0
150 167 0
157 177 0
145 165 0
153 172 0
150 169 0
149 167 0
150 170 0
140 159 0
152 170 0
145 163 0
152 170 0
152 170 0
151 170 0
149 168 0
151 171 0
147 166 0
148 167 0
153 171 0
147 165 0
150 167 0
158 175 0
148 165 0
145 162 0
154 171 0
151 169 0
148 166 0
149 169 0
149 167 0
133 146 0
148 166 0
143 159 0
142 157 0
143 160 0
151 167 0
145 162 0
143 161 0
150 166 0
144 158 0
146 159 0
147 160 0
144 159 0
144 157 0
142 154 0
150 163 0
136 150 0
138 149 0
150 162 11
100 94 15
108 101 5
112 106 14
110 103 15
101 97 15
116 113 25
118 111 26
117 112 16
122 117 24
122 118 16
126 122 18
130 126 22
128 125 19
129 125 22
131 128 22
136 132 22
139 134 39
139 133 39
137 132 36
133 129 22
129 125 25
142 135 25
140 135 22
140 135 39
141 134 25
135 130 22
142 138 28
142 138 19
141 139 25
146 141 25
149 143 36
142 138 28
145 139 28
150 145 34
146 141 25
146 141 22
137 133 11
143 138 28
144 138 25
148 145 28
152 147 37
153 148 30
144 140 22
151 146 30
144 140 22
146 142 22
146 140 32
143 139 22
147 143 22
151 144 28
146 142 22
150 145 16
148 143 22
152 147 28
152 146 32
153 147 34
151 146 30
149 144 30
149 144 30
152 147 37
153 148 25
156 150 36
147 142 22
146 141 25
153 148 22
146 141 25
146 143 25
149 144 32
148 142 25
149 144 28
145 138 28
152 148 25
151 146 19
148 145 19
146 140 25
148 142 34
146 142 25
151 146 25
150 145 19
152 147 36
147 142 32
155 149 34
156 151 36
149 144 34
151 147 30
147 142 25
152 146 30
151 146 30
151 145 30
147 142 25
152 147 34
146 141 22
156 150 42
148 144 32
148 143 32
149 143 25
148 142 28
149 144 30
146 140 25
146 141 30
154 148 34
143 138 19
145 140 28
150 144 32
139 136 22
146 140 30
147 142 34
145 141 19
141 136 19
144 139 28
142 136 25
138 134 25
135 130 28
138 132 28
138 133 28
131 127 22
139 135 19
143 139 30
135 131 32
134 130 25
140 135 22
131 126 16
134 129 16
131 127 16
134 129 22
127 123 22
138 132 32
134 128 30
135 127 25
128 122 22
116 111 11
118 115 28
161 176 0
163 176 0
162 177 0
159 170 0
161 173 0
164 180 0
164 181 0
162 180 0
163 179 0
163 179 0
164 181 0
165 183 0
164 181 0
166 184 0
162 177 0
165 180 0
167 186 0
169 189 0
165 182 0
167 183 0
168 183 0
165 181 0
168 185 0
166 182 0
168 187 0
170 187 0
168 187 0
168 187 0
166 185 0
166 185 0
170 189 0
163 184 0
171 191 0
168 188 0
167 185 0
167 187 0
167 186 0
169 188 0
171 189 0
170 191 0
170 189 0
169 193 0
171 194 0
168 190 0
170 193 0
169 192 0
170 193 0
171 194 0
173 196 0
170 193 0
171 194 0
172 195 0
169 192 0
169 192 0
172 195 0
169 194 0
167 191 0
169 193 0
169 193 0
170 194 0
171 194 0
168 191 0
170 194 0
172 195 0
172 195 0
167 191 0
170 193 0
170 194 0
168 191 0
169 191 0
169 192 0
167 190 0
166 189 0
169 191 0
169 192 0
166 189 0
172 195 0
167 189 0
172 194 0
168 192 0
168 192 0
167 191 0
170 191 0
167 191 0
167 189 0
169 193 0
172 195 0
165 189 0
171 194 0
170 193 0
171 195 0
168 192 0
171 194 0
169 193 0
168 191 0
170 192 0
170 192 0
164 187 0
166 189 0
165 188 0
166 189 0
169 192 0
168 189 0
167 190 0
168 191 0
169 192 0
166 189 0
169 191 0
168 191 0
169 192 0
163 186 0
170 192 0
166 188 0
169 192 0
165 187 0
164 187 0
166 189 0
165 188 0
164 187 0
170 192 0
167 190 0
168 191 0
168 190 0
167 190 0
162 185 0
170 193 0
165 187 0
164 186 0
168 191 0
165 188 0
167 189 0
156 178 0
162 183 0
163 186 0
166 188 0
166 189 0
164 187 0
165 188 0
168 191 0
162 185 0
165 187 0
165 188 0
165 186 0
167 189 0
163 186 0
165 188 0
162 185 0
160 183 0
160 181 0
161 184 0
164 186 0
163 184 0
164 185 0
161 183 0
162 185 0
161 182 0
161 183 0
157 180 0
160 182 0
159 181 0
159 181 0
165 186 0
162 185 0
160 181 0
159 179 0
161 183 0
161 183 0
157 178 0
161 183 0
157 179 0
161 184 0
164 185 0
158 181 0
162 184 0
162 183 0
159 180 0
159 179 0
158 179 0
160 182 0
154 175 0
159 180 0
152 174 0
158 179 0
150 171 0
161 182 0
157 179 0
162 182 0
152 174 0
157 176 0
158 180 0
160 182 0
165 187 0
158 179 0
155 177 0
153 173 0
160 182 0
159 179 0
157 177 0
151 173 0
153 173 0
160 181 0
152 171 0
156 176 0
155 177 0
160 181 0
154 175 0
152 172 0
144 163 0
154 174 0
158 178 0
156 175 0
149 168 0
147 167 0
152 170 0
153 175 0
153 173 0
154 175 0
154 174 0
155 174 0
152 172 0
154 174 0
151 170 0
151 171 0
155 174 0
156 176 0
144 163 0
146 166 0
152 172 0
148 166 0
152 171 0
151 169 0
153 173 0
144 163 0
149 168 0
153 172 0
149 168 0
139 158 0
152 170 0
152 172 0
147 167 0
152 168 0
146 163 0
160 176 0
154 172 0
143 159 0
146 165 0
142 158 0
153 169 0
148 164 0
150 166 0
152 166 0
148 165 0
148 165 0
148 164 0
144 160 0
147 162 0
147 163 0
146 161 0
147 161 0
136 149 0
139 155 0
144 160 0
141 155 0
146 160 0
143 156 0
144 159 0
143 159 0
142 151 0
107 104 18
109 105 16
98 92 16
112 106 14
116 112 0
119 115 21
117 113 22
109 105 22
129 122 16
124 120 21
119 115 34
125 120 16
131 126 24
132 126 24
135 130 30
130 125 25
134 130 34
129 125 22
131 126 32
131 126 19
140 135 32
138 133 22
139 135 25
137 133 30
138 132 28
143 139 25
138 134 11
146 142 30
141 136 22
139 133 30
143 138 22
142 137 28
148 143 34
143 139 28
149 142 41
148 143 30
146 140 25
143 138 22
139 136 22
143 138 19
146 140 22
146 142 22
147 143 25
147 142 22
152 147 30
149 145 30
151 146 34
145 139 16
151 146 25
150 145 25
148 145 22
151 147 25
149 145 19
146 142 19
149 144 25
151 146 30
145 141 22
149 144 30
151 147 25
146 142 28
151 147 28
148 143 32
149 145 28
149 144 32
150 144 32
151 147 32
152 147 28
150 145 25
151 147 25
151 144 30
152 146 32
154 149 37
153 147 32
151 145 28
152 147 25
150 145 32
153 147 30
146 141 19
148 145 25
150 145 28
149 144 30
151 146 25
147 143 16
153 147 42
148 141 36
154 148 37
153 148 22
150 146 30
148 144 34
145 140 28
143 140 16
154 148 28
146 140 30
154 147 32
150 144 28
152 146 36
147 142 19
144 139 25
148 143 25
149 142 28
146 142 25
151 144 32
146 142 22
145 140 34
144 139 25
144 138 16
148 143 36
141 134 28
149 144 32
151 145 30
143 137 19
143 138 28
143 137 30
139 134 25
141 136 16
137 131 34
145 140 32
149 142 36
135 130 16
140 134 36
137 131 19
136 131 32
141 136 28
131 126 30
137 132 32
133 129 32
133 127 28
125 121 28
129 123 25
129 124 25
121 117 32
132 132 22
161 175 0
160 174 0
161 175 0
164 178 0
162 177 0
163 181 0
161 177 0
164 180 0
166 183 0
164 179 0
165 183 0
167 183 0
169 187 0
161 179 0
168 184 0
167 185 0
169 186 0
166 182 0
165 182 0
165 184 0
167 183 0
166 184 0
165 183 0
166 185 0
164 182 0
169 188 0
168 186 0
171 192 0
167 188 0
166 185 0
171 190 0
171 191 0
170 191 0
166 186 0
170 190 0
170 188 0
170 190 0
165 183 0
167 187 0
171 188 0
171 191 0
