P3
400 225
255
60 69 80
61 69 80
61 69 80
61 69 80
61 69 80
61 69 80
62 70 80
61 69 80
62 70 80
61 70 80
62 70 80
61 69 80
62 70 80
62 70 80
62 70 80
61 70 80
62 70 80
61 70 80
62 70 80
61 70 80
61 69 80
61 70 80
62 70 80
61 69 80
61 70 80
61 70 80
61 70 80
61 69 80
60 69 80
62 70 80
62 70 80
61 70 80
61 70 80
61 69 80
61 70 80
61 69 80
61 69 80
61 69 80
62 70 80
61 70 80
61 69 80
60 69 80
62 70 80
62 70 80
62 70 80
61 70 80
61 70 80
61 69 80
61 69 80
61 70 80
61 70 80
62 70 80
61 70 80
61 70 80
61 70 80
62 70 80
61 70 80
61 70 80
61 70 80
61 69 80
61 69 80
61 70 80
61 69 80
61 69 80
61 70 80
62 70 80
61 69 80
61 70 80
62 70 80
61 69 80
62 70 80
60 69 80
61 70 80
61 70 80
61 70 80
61 69 80
61 70 80
61 69 80
61 69 80
61 70 80
61 70 80
61 70 80
61 70 80
62 70 80
62 70 80
61 70 80
62 70 80
61 70 80
61 70 80
61 70 80
62 70 80
61 69 80
61 69 80
62 70 80
61 69 80
62 70 80
61 70 80
61 69 80
62 70 80
62 70 80
62 70 80
61 69 80
62 70 80
61 70 80
61 69 80
61 70 80
62 70 80
61 70 80
61 69 80
62 70 80
62 70 80
61 70 80
61 70 80
61 70 80
62 70 80
61 70 80
62 70 80
61 69 80
62 70 80
62 70 80
61 70 80
61 69 80
61 70 80
61 70 80
61 69 80
61 69 80
62 70 80
61 69 80
62 70 80
61 70 80
61 69 80
62 70 80
61 70 80
62 70 80
61 70 80
61 69 80
61 69 80
61 70 80
61 70 80
62 70 80
61 69 80
61 69 80
62 70 80
61 69 80
61 69 80
62 70 80
61 70 80
62 70 80
61 70 80
61 70 80
61 69 80
61 69 80
62 70 80
62 70 80
61 70 80
62 70 80
61 69 80
61 70 80
61 70 80
61 70 80
62 70 80
62 70 80
62 70 80
61 70 80
61 69 80
61 69 80
61 70 80
61 70 80
62 70 80
61 70 80
61 70 80
62 70 80
62 70 80
60 69 80
62 70 80
62 70 80
61 70 80
62 70 80
61 70 80
61 69 80
61 70 80
61 70 80
61 69 80
61 69 80
61 70 80
61 70 80
61 70 80
62 70 80
61 70 80
62 70 80
61 70 80
62 70 80
61 70 80
61 70 80
61 70 80
62 70 80
61 69 80
61 70 80
61 69 80
61 69 80
60 69 80
61 69 80
61 69 80
62 70 80
61 69 80
62 70 80
62 70 80
62 70 80
61 69 80
61 70 80
62 70 80
61 69 80
61 70 80
62 70 80
62 70 80
62 70 80
61 70 80
61 70 80
60 69 80
61 70 80
61 69 80
60 69 80
61 70 80
61 70 80
62 70 80
61 70 80
61 69 80
61 69 80
61 70 80
61 69 80
62 70 80
61 70 80
62 70 80
61 69 80
62 70 80
61 70 80
62 70 80
61 69 80
62 70 80
61 70 80
61 69 80
61 69 80
61 70 80
61 70 80
61 69 80
62 70 80
62 70 80
62 70 80
60 69 80
63 70 80
61 70 80
61 69 80
61 69 80
61 70 80
61 69 80
62 70 80
61 69 80
61 69 80
62 70 80
61 69 80
61 70 80
61 69 80
62 70 80
61 70 80
62 70 80
61 70 80
62 70 80
61 70 80
61 70 80
62 70 80
61 69 80
62 70 80
62 70 80
61 70 80
61 69 80
62 70 80
61 69 80
61 70 80
61 69 80
61 70 80
61 69 80
62 70 80
62 70 80
62 70 80
61 69 80
61 70 80
61 69 80
61 70 80
61 69 80
61 69 80
61 70 80
62 70 80
62 70 80
62 70 80
61 70 80
62 70 80
61 69 80
62 70 80
61 69 80
62 70 80
61 70 80
61 70 80
61 69 80
62 70 80
61 70 80
61 69 80
62 70 80
62 70 80
62 70 80
61 69 80
61 70 80
62 70 80
62 70 80
62 70 80
61 69 80
62 70 80
60 69 80
62 70 80
62 70 80
61 70 80
61 69 80
62 70 80
61 69 80
61 69 80
61 70 80
61 69 80
62 70 80
62 70 80
61 70 80
62 70 80
62 70 80
61 70 80
61 70 80
61 70 80
62 70 80
61 70 80
61 70 80
61 70 80
61 70 80
61 70 80
61 70 80
61 70 80
61 70 80
62 70 80
61 69 80
61 69 80
61 69 80
62 70 80
61 70 80
61 69 80
61 70 80
62 70 80
62 70 80
62 70 80
62 70 80
62 70 80
61 70 80
62 70 80
61 69 80
61 70 80
61 69 80
61 70 80
61 70 80
61 70 80
62 70 80
62 70 80
61 70 80
61 70 80
62 70 80
61 70 80
61 69 80
61 69 80
61 70 80
61 70 80
61 70 80
61 70 80
62 70 80
62 70 80
61 70 80
62 70 80
61 70 80
62 70 80
62 70 80
62 70 80
61 70 80
61 70 80
61 69 80
61 69 80
61 70 80
61 70 80
61 70 80
62 70 80
61 69 80
61 69 80
62 70 80
62 70 80
62 70 80
61 69 80
62 70 80
62 70 80
61 69 80
61 69 80
61 70 80
61 69 80
62 70 80
61 70 80
61 70 80
61 70 80
63 70 80
61 70 80
62 70 80
61 69 80
61 70 80
61 69 80
62 70 80
61 70 80
61 69 80
61 70 80
61 70 80
62 70 80
61 70 80
61 70 80
61 69 80
61 69 80
62 70 80
62 70 80
62 70 80
61 70 80
61 69 80
62 70 80
61 70 80
62 70 80
62 70 80
61 69 80
61 70 80
61 70 80
61 69 80
61 69 80
62 70 80
61 69 80
62 70 80
62 70 80
61 69 80
61 70 80
61 69 80
61 69 80
61 69 80
61 70 80
62 70 80
62 70 80
60 69 80
62 70 80
61 69 80
62 70 80
61 70 80
60 69 80
62 70 80
61 69 80
62 70 80
61 69 80
61 69 80
62 70 80
62 70 80
61 70 80
62 70 80
62 70 80
61 69 80
62 70 80
61 70 80
62 70 80
62 70 80
61 69 80
62 70 80
62 70 80
61 69 80
62 70 80
61 70 80
61 70 80
60 69 80
61 69 80
61 70 80
62 70 80
61 70 80
62 70 80
61 70 80
61 70 80
62 70 80
61 70 80
61 70 80
61 69 80
61 70 80
61 69 80
61 70 80
61 69 80
61 70 80
61 70 80
62 70 80
61 69 80
61 70 80
61 69 80
61 70 80
61 70 80
62 70 80
61 69 80
61 69 80
62 70 80
62 70 80
61 69 80
62 70 80
61 69 80
62 70 80
60 69 80
62 70 80
61 70 80
62 70 80
62 70 80
61 70 80
62 70 80
62 70 80
61 69 80
62 70 80
62 70 80
62 70 80
61 70 80
62 70 80
62 70 80
61 69 80
62 70 80
61 70 80
61 70 80
61 70 80
61 70 80
62 70 80
62 70 80
61 69 80
61 69 80
62 70 80
61 70 80
61 69 80
61 70 80
61 70 80
61 69 80
62 70 80
61 69 80
61 70 80
62 70 80
62 70 80
62 70 80
62 70 80
61 69 80
62 70 80
61 70 80
61 69 80
61 70 80
62 70 80
61 70 80
61 69 80
62 70 80
62 70 80
62 70 80
61 69 80
61 69 80
60 69 80
62 70 80
62 70 80
62 70 80
61 70 80
62 70 80
61 69 80
61 69 80
61 70 80
61 69 80
61 70 80
62 70 80
61 69 80
61 70 80
61 69 80
62 70 80
61 70 80
61 69 80
61 69 80
61 70 80
61 69 80
61 69 80
61 70 80
62 70 80
61 70 80
61 70 80
60 69 80
61 70 80
61 69 80
61 69 80
61 70 80
61 69 80
60 69 80
61 69 80
61 70 80
61 69 80
61 69 80
62 70 80
62 70 80
62 70 80
62 70 80
61 70 80
61 70 80
62 70 80
61 69 80
61 70 80
62 70 80
61 70 80
61 70 80
62 70 80
61 70 80
61 70 80
62 70 80
61 69 80
61 69 80
61 69 80
62 70 80
61 69 80
62 70 80
61 70 80
61 69 80
61 69 80
62 70 80
61 70 80
61 70 80
61 69 80
61 69 80
62 70 80
61 69 80
61 69 80
61 70 80
62 70 80
61 70 80
60 69 80
62 70 80
61 69 80
62 70 80
62 70 80
62 70 80
61 70 80
61 70 80
61 70 80
61 70 80
62 70 80
62 70 80
61 70 80
61 70 80
61 69 80
61 69 80
61 70 80
61 69 80
62 70 80
62 70 80
61 70 80
61 70 80
62 70 80
60 69 80
62 70 80
61 69 80
61 70 80
61 70 80
62 70 80
61 70 80
61 69 80
61 69 80
61 70 80
62 70 80
61 69 80
61 70 80
62 70 80
61 70 80
61 70 80
61 70 80
61 70 80
60 69 80
62 70 80
61 70 80
62 70 80
61 70 80
61 70 80
61 69 80
61 70 80
61 70 80
61 70 80
61 70 80
62 70 80
61 69 80
60 69 80
61 69 80
61 70 80
60 69 80
61 69 80
61 70 80
61 70 80
61 70 80
62 70 80
61 70 80
61 69 80
61 70 80
61 69 80
61 70 80
62 70 80
61 69 80
62 70 80
61 70 80
62 70 80
61 70 80
62 70 80
60 69 80
61 69 80
62 70 80
62 70 80
62 70 80
61 69 80
62 70 80
62 70 80
61 69 80
61 70 80
62 70 80
62 70 80
62 70 80
62 70 80
62 70 80
61 69 80
61 69 80
62 70 80
61 70 80
61 69 80
61 70 80
60 69 80
61 70 80
61 70 80
62 70 80
62 70 80
62 70 80
62 70 80
61 70 80
62 70 80
63 70 80
61 70 80
61 70 80
61 70 80
62 70 80
61 70 80
61 70 80
61 69 80
62 70 80
61 69 80
61 69 80
62 70 80
62 70 80
61 69 80
62 70 80
62 70 80
62 70 80
62 70 80
61 69 80
61 70 80
60 69 80
61 70 80
62 70 80
61 70 80
61 70 80
62 70 80
62 70 80
62 70 80
62 70 80
61 69 80
61 70 80
61 69 80
61 70 80
62 70 80
61 69 80
62 70 80
61 70 80
61 69 80
62 70 80
61 69 80
61 70 80
61 69 80
61 70 80
62 70 80
61 69 80
62 70 80
61 70 80
62 70 80
61 69 80
61 69 80
61 70 80
61 70 80
61 69 80
61 70 80
62 70 80
61 69 80
61 70 80
61 70 80
62 70 80
61 69 80
62 70 80
63 70 80
61 69 80
62 70 80
61 69 80
62 70 80
61 70 80
62 70 80
62 70 80
62 70 80
61 70 80
61 70 80
61 69 80
61 70 80
62 70 80
61 70 80
61 69 80
61 70 80
61 69 80
61 69 80
61 70 80
62 70 80
61 70 80
61 69 80
62 70 80
61 69 80
61 70 80
61 69 80
62 70 80
61 70 80
61 69 80
61 69 80
62 70 80
61 69 80
61 70 80
62 70 80
62 70 80
61 70 80
62 70 80
62 70 80
62 70 80
61 70 80
61 69 80
61 69 80
62 70 80
61 69 80
61 70 80
61 70 80
62 70 80
62 70 80
61 69 80
61 70 80
62 70 80
61 69 80
62 70 80
61 69 80
61 69 80
62 70 80
61 70 80
61 70 80
62 70 80
62 70 80
62 70 80
61 70 80
61 70 80
61 70 80
62 70 80
61 69 80
62 70 80
61 70 80
61 69 80
60 69 80
61 69 80
62 70 80
60 69 80
61 69 80
61 69 80
61 70 80
62 70 80
61 70 80
61 70 80
61 70 80
62 70 80
61 70 80
62 70 80
61 69 80
61 69 80
60 69 80
61 70 80
61 70 80
61 70 80
61 70 80
62 70 80
62 70 80
61 70 80
62 70 80
61 69 80
62 70 80
62 70 80
61 70 80
62 70 80
61 69 80
61 70 80
62 70 80
62 70 80
61 70 80
62 70 80
62 70 80
61 69 80
62 70 80
62 70 80
61 70 80
61 70 80
61 69 80
62 70 80
61 70 80
61 70 80
61 70 80
61 70 80
61 70 80
61 70 80
61 69 80
60 69 80
62 70 80
62 70 80
62 70 80
61 69 80
61 69 80
61 69 80
62 70 80
62 70 80
61 70 80
61 70 80
61 70 80
61 70 80
61 69 80
61 69 80
62 70 80
62 70 80
61 69 80
61 69 80
61 70 80
60 69 80
61 69 80
61 69 80
61 69 80
61 69 80
61 69 80
61 70 80
61 69 80
61 70 80
62 70 80
62 70 80
62 70 80
61 69 80
62 70 80
61 70 80
60 69 80
62 70 80
62 70 80
62 70 80
61 70 80
61 69 80
61 69 80
61 69 80
61 69 80
61 69 80
61 69 80
61 69 80
62 70 80
62 70 80
62 70 80
61 69 80
61 70 80
61 69 80
62 70 80
61 69 80
61 69 80
61 69 80
61 69 80
61 69 80
61 70 80
61 70 80
62 70 80
62 70 80
62 70 80
61 70 80
61 69 80
61 69 80
61 69 80
61 70 80
61 69 80
61 70 80
61 70 80
61 70 80
61 70 80
61 69 80
61 69 80
61 70 80
61 70 80
61 69 80
62 70 80
61 70 80
61 70 80
61 70 80
61 70 80
62 70 80
61 70 80
61 70 80
62 70 80
61 70 80
61 70 80
62 70 80
62 70 80
62 70 80
62 70 80
62 70 80
62 70 80
60 69 80
61 69 80
60 69 80
61 70 80
61 70 80
61 70 80
62 70 80
61 69 80
61 69 80
61 70 80
62 70 80
61 70 80
61 69 80
61 69 80
61 70 80
61 70 80
62 70 80
61 70 80
62 70 80
61 69 80
62 70 80
61 69 80
62 70 80
61 69 80
61 69 80
61 69 80
62 70 80
62 70 80
61 69 80
62 70 80
61 70 80
62 70 80
61 70 80
61 70 80
61 70 80
62 70 80
62 70 80
62 70 80
61 70 80
62 70 80
61 69 80
61 70 80
61 69 80
61 70 80
61 69 80
61 69 80
61 69 80
61 70 80
60 69 80
62 70 80
61 69 80
61 69 80
62 70 80
60 69 80
61 70 80
62 70 80
61 69 80
61 70 80
61 69 80
61 70 80
61 69 80
62 70 80
62 70 80
61 69 80
61 70 80
61 69 80
61 70 80
61 70 80
62 70 80
61 70 80
60 69 80
62 70 80
61 70 80
61 70 80
62 70 80
61 69 80
62 70 80
61 70 80
61 69 80
61 69 80
61 70 80
61 70 80
62 70 80
62 70 80
61 70 80
61 70 80
62 70 80
62 70 80
62 70 80
61 70 80
61 69 80
60 69 80
61 70 80
61 69 80
62 70 80
60 69 80
61 70 80
61 70 80
61 69 80
62 70 80
61 69 80
62 70 80
61 69 80
62 70 80
61 69 80
61 69 80
62 70 80
61 70 80
61 70 80
61 69 80
61 69 80
61 70 80
61 69 80
61 70 80
61 69 80
62 70 80
62 70 80
61 70 80
61 70 80
61 69 80
61 69 80
61 69 80
61 69 80
61 69 80
62 70 80
61 70 80
61 69 80
61 69 80
61 70 80
62 70 80
62 70 80
62 70 80
61 70 80
62 70 80
62 70 80
62 70 80
61 70 80
62 70 80
62 70 80
61 70 80
61 69 80
62 70 80
61 69 80
61 70 80
62 70 80
61 70 80
62 70 80
62 70 80
62 70 80
62 70 80
61 69 80
62 70 80
62 70 80
61 70 80
62 70 80
62 70 80
61 69 80
62 70 80
61 69 80
61 70 80
61 70 80
62 70 80
61 69 80
62 70 80
62 70 80
61 69 80
61 69 80
61 69 80
62 70 80
62 70 80
61 70 80
62 70 80
61 70 80
62 70 80
61 70 80
61 70 80
62 70 80
61 69 80
61 70 80
62 70 80
61 69 80
61 69 80
61 70 80
61 69 80
61 69 80
61 70 80
61 69 80
62 70 80
62 70 80
62 70 80
61 69 80
61 70 80
62 70 80
62 70 80
61 69 80
61 70 80
62 70 80
62 70 80
62 70 80
61 69 80
61 70 80
61 70 80
62 70 80
61 70 80
62 70 80
61 70 80
61 69 80
61 69 80
62 70 80
62 70 80
61 70 80
62 70 80
62 70 80
62 70 80
62 70 80
62 70 80
61 69 80
61 69 80
62 70 80
62 70 80
61 70 80
61 69 80
61 69 80
61 70 80
61 70 80
62 70 80
62 70 80
62 70 80
61 70 80
62 70 80
61 69 80
61 70 80
61 69 80
61 70 80
61 70 80
62 70 80
61 69 80
61 70 80
61 70 80
62 70 80
62 70 80
62 70 80
62 70 80
62 70 80
61 69 80
61 70 80
62 70 80
61 69 80
62 70 80
61 70 80
62 70 80
62 70 80
61 69 80
61 70 80
61 69 80
62 70 80
62 70 80
63 70 80
62 70 80
61 70 80
62 70 80
62 70 80
62 70 80
61 70 80
62 70 80
61 69 80
61 70 80
61 70 80
61 70 80
61 70 80
61 70 80
61 69 80
62 70 80
61 70 80
61 69 80
61 70 80
61 70 80
61 70 80
61 69 80
61 69 80
62 70 80
61 69 80
61 69 80
61 70 80
61 69 80
61 69 80
63 70 80
62 70 80
62 70 80
61 69 80
61 69 80
61 69 80
62 70 80
62 70 80
61 69 80
62 70 80
61 70 80
61 70 80
60 69 80
62 70 80
62 70 80
61 70 80
62 70 80
62 70 80
61 69 80
62 70 80
61 70 80
61 70 80
61 70 80
61 70 80
62 70 80
62 70 80
62 70 80
62 70 80
61 70 80
62 70 80
60 69 80
62 70 80
62 70 80
61 69 80
61 69 80
62 70 80
61 69 80
62 70 80
62 70 80
62 70 80
61 69 80
60 69 80
62 70 80
62 70 80
62 70 80
61 70 80
61 70 80
61 70 80
61 69 80
62 70 80
62 70 80
61 70 80
62 70 80
61 69 80
62 70 80
61 69 80
62 70 80
62 70 80
61 70 80
61 70 80
61 69 80
61 70 80
61 70 80
61 69 80
61 69 80
62 70 80
61 69 80
62 70 80
62 70 80
61 70 80
61 70 80
61 69 80
61 69 80
61 70 80
62 70 80
61 70 80
61 70 80
60 69 80
62 70 80
62 70 80
62 70 80
61 69 80
62 70 80
62 70 80
62 70 80
62 70 80
62 70 80
61 69 80
61 69 80
61 69 80
61 70 80
61 70 80
61 69 80
62 70 80
62 70 80
61 70 80
60 69 80
61 70 80
61 70 80
61 70 80
61 69 80
62 70 80
62 70 80
62 70 80
61 70 80
61 69 80
61 69 80
61 70 80
61 70 80
61 70 80
62 70 80
62 70 80
62 70 80
61 70 80
61 69 80
61 69 80
61 69 80
62 70 80
61 69 80
62 70 80
62 70 80
62 70 80
61 70 80
61 70 80
62 70 80
61 69 80
61 70 80
61 69 80
61 69 80
61 69 80
61 69 80
61 70 80
61 70 80
61 70 80
61 69 80
62 70 80
61 69 80
61 69 80
61 70 80
62 70 80
62 70 80
61 70 80
61 70 80
62 70 80
62 70 80
62 70 80
61 70 80
62 70 80
62 70 80
62 70 80
61 70 80
61 70 80
61 70 80
61 70 80
61 70 80
62 70 80
61 70 80
61 70 80
60 69 80
62 70 80
60 69 80
61 70 80
62 70 80
61 69 80
62 70 80
62 70 80
61 70 80
61 69 80
61 70 80
62 70 80
61 70 80
61 69 80
60 69 80
62 70 80
61 69 80
61 70 80
61 70 80
62 70 80
62 70 80
60 69 80
61 69 80
62 70 80
62 70 80
60 69 80
61 70 80
61 69 80
61 70 80
61 70 80
62 70 80
62 70 80
62 70 80
61 70 80
61 69 80
61 69 80
61 69 80
62 70 80
61 70 80
62 70 80
61 70 80
61 70 80
61 69 80
61 70 80
62 70 80
62 70 80
61 69 80
60 69 80
62 70 80
61 70 80
63 71 80
61 69 80
61 70 80
62 70 80
61 70 80
61 69 80
61 70 80
61 70 80
61 69 80
61 69 80
61 69 80
62 70 80
62 70 80
61 70 80
61 69 80
62 70 80
61 70 80
62 70 80
62 70 80
62 70 80
61 70 80
61 70 80
61 70 80
61 70 80
61 69 80
61 70 80
61 70 80
61 70 80
62 70 80
61 70 80
61 69 80
61 69 80
62 70 80
61 69 80
61 69 80
61 69 80
61 70 80
61 70 80
61 69 80
61 69 80
61 69 80
62 70 80
61 70 80
62 70 80
62 70 80
62 70 80
61 70 80
62 70 80
61 69 80
61 70 80
61 69 80
61 70 80
61 69 80
61 69 80
62 70 80
61 70 80
61 70 80
62 70 80
61 69 80
62 70 80
61 69 80
61 70 80
61 69 80
62 70 80
61 69 80
61 69 80
61 69 80
61 70 80
61 69 80
61 70 80
61 69 80
61 70 80
61 70 80
61 69 80
62 70 80
61 69 80
61 70 80
61 70 80
61 69 80
61 69 80
61 70 80
62 70 80
61 69 80
62 70 80
61 69 80
61 69 80
61 70 80
61 69 80
61 69 80
61 70 80
61 69 80
62 70 80
61 69 80
61 69 80
61 69 80
61 70 80
60 69 80
62 70 80
62 70 80
62 70 80
61 70 80
62 70 80
61 69 80
61 70 80
61 69 80
61 69 80
60 69 80
62 70 80
61 69 80
62 70 80
61 70 80
61 69 80
61 70 80
61 70 80
62 70 80
62 70 80
61 70 80
61 70 80
62 70 80
61 70 80
62 70 80
61 70 80
61 69 80
60 69 80
61 69 80
62 70 80
61 69 80
61 70 80
61 69 80
61 70 80
61 69 80
61 69 80
62 70 80
62 70 80
62 70 80
61 69 80
62 70 80
61 70 80
61 70 80
62 70 80
61 69 80
61 70 80
62 70 80
61 69 80
61 70 80
62 70 80
61 70 80
61 69 80
62 70 80
61 69 80
61 69 80
61 69 80
61 69 80
61 70 80
61 70 80
61 69 80
62 70 80
61 70 80
62 70 80
61 69 80
61 69 80
61 70 80
61 70 80
61 69 80
62 70 80
62 70 80
61 69 80
61 69 80
61 70 80
61 70 80
61 70 80
61 70 80
62 70 80
61 70 80
61 70 80
61 70 80
62 70 80
62 70 80
61 70 80
62 70 80
62 70 80
61 70 80
61 70 80
61 69 80
61 70 80
61 69 80
61 69 80
62 70 80
61 70 80
61 69 80
61 69 80
61 69 80
61 69 80
61 70 80
61 70 80
61 70 80
61 70 80
62 70 80
62 70 80
61 70 80
62 70 80
61 70 80
61 69 80
61 70 80
62 70 80
61 69 80
61 69 80
62 70 80
62 70 80
62 70 80
62 70 80
61 70 80
62 70 80
62 70 80
61 70 80
62 70 80
62 70 80
62 70 80
61 70 80
61 69 80
61 69 80
61 70 80
62 70 80
61 70 80
61 70 80
62 70 80
62 70 80
61 70 80
61 69 80
61 69 80
62 70 80
61 70 80
62 70 80
61 70 80
61 69 80
62 70 80
61 69 80
61 69 80
61 70 80
61 70 80
62 70 80
61 69 80
61 70 80
61 69 80
61 69 80
61 69 80
61 69 80
60 69 80
62 70 80
61 69 80
61 70 80
61 69 80
61 70 80
61 70 80
61 69 80
61 70 80
61 69 80
61 69 80
61 69 80
61 70 80
61 69 80
61 70 80
61 69 80
62 70 80
61 70 80
61 69 80
61 70 80
61 70 80
61 69 80
61 69 80
61 69 80
61 69 80
61 70 80
61 69 80
61 70 80
61 70 80
62 70 80
61 70 80
62 70 80
61 69 80
62 70 80
61 70 80
61 69 80
62 70 80
62 70 80
61 69 80
61 69 80
61 70 80
62 70 80
62 70 80
61 69 80
61 69 80
61 70 80
61 70 80
61 69 80
61 70 80
61 70 80
62 70 80
61 70 80
61 70 80
62 70 80
61 69 80
62 70 80
61 69 80
61 69 80
61 69 80
61 69 80
62 70 80
61 69 80
61 70 80
62 70 80
60 69 80
61 70 80
62 70 80
62 70 80
60 69 80
60 69 80
61 69 80
61 69 80
61 70 80
61 69 80
61 70 80
61 69 80
61 70 80
62 70 80
61 69 80
62 70 80
61 70 80
62 70 80
61 70 80
61 70 80
61 69 80
61 69 80
61 69 80
61 69 80
61 70 80
62 70 80
62 70 80
62 70 80
61 69 80
61 70 80
61 69 80
61 69 80
62 70 80
62 70 80
61 70 80
62 70 80
61 69 80
62 70 80
61 70 80
61 70 80
62 70 80
61 69 80
62 70 80
61 69 80
61 69 80
62 70 80
61 70 80
61 70 80
62 70 80
61 69 80
62 70 80
61 70 80
61 70 80
61 69 80
60 69 80
61 69 80
62 70 80
62 70 80
61 69 80
61 69 80
62 70 80
61 70 80
62 70 80
61 70 80
61 69 80
61 69 80
61 69 80
62 70 80
62 70 80
61 69 80
62 70 80
61 69 80
62 70 80
61 70 80
62 70 80
61 69 80
61 69 80
61 70 80
61 69 80
62 70 80
62 70 80
62 70 80
61 69 80
62 70 80
61 69 80
61 69 80
62 70 80
61 70 80
61 69 80
62 70 80
61 69 80
62 70 80
61 70 80
61 70 80
61 69 80
61 69 80
61 69 80
62 70 80
61 70 80
61 69 80
61 70 80
61 70 80
61 69 80
62 70 80
62 70 80
61 69 80
62 70 80
61 69 80
61 70 80
61 70 80
61 70 80
62 70 80
61 69 80
62 70 80
61 69 80
61 70 80
62 70 80
62 70 80
61 70 80
61 69 80
62 70 80
61 70 80
61 70 80
61 70 80
61 70 80
61 69 80
61 69 80
61 69 80
61 69 80
62 70 80
61 70 80
62 70 80
61 70 80
62 70 80
61 70 80
62 70 80
62 70 80
62 70 80
61 69 80
61 69 80
61 69 80
61 69 80
60 69 80
61 69 80
61 69 80
61 70 80
62 70 80
62 70 80
61 70 80
62 70 80
61 69 80
61 69 80
61 69 80
61 69 80
61 70 80
61 69 80
62 70 80
61 70 80
61 69 80
62 70 80
61 69 80
62 70 80
61 69 80
61 69 80
62 70 80
61 69 80
61 70 80
61 69 80
61 70 80
61 70 80
62 70 80
61 69 80
60 69 80
62 70 80
61 69 80
61 70 80
62 70 80
62 70 80
61 69 80
62 70 80
61 69 80
61 69 80
62 70 80
61 70 80
62 70 80
61 69 80
61 69 80
62 70 80
61 70 80
61 69 80
62 70 80
62 70 80
61 70 80
62 70 80
61 70 80
61 69 80
62 70 80
61 70 80
61 70 80
61 69 80
62 70 80
62 70 80
61 70 80
61 69 80
61 69 80
61 69 80
62 70 80
62 70 80
61 70 80
61 69 80
61 70 80
61 69 80
61 69 80
62 70 80
62 70 80
61 69 80
61 69 80
62 70 80
61 69 80
61 70 80
62 70 80
61 69 80
61 69 80
61 70 80
61 70 80
62 70 80
62 70 80
61 69 80
62 70 80
62 70 80
61 69 80
61 70 80
62 70 80
61 70 80
62 70 80
62 70 80
61 69 80
61 70 80
61 69 80
62 70 80
62 70 80
62 70 80
61 69 80
61 70 80
62 70 80
61 69 80
61 69 80
61 69 80
62 70 80
62 70 80
62 70 80
62 70 80
62 70 80
61 70 80
61 69 80
62 70 80
61 69 80
62 70 80
61 70 80
61 69 80
61 69 80
60 69 80
61 70 80
61 69 80
62 70 80
61 70 80
61 70 80
62 70 80
61 70 80
61 69 80
62 70 80
62 70 80
62 70 80
61 69 80
62 70 80
61 69 80
61 69 80
60 69 80
61 69 80
61 69 80
62 70 80
62 70 80
61 69 80
62 70 80
61 70 80
62 70 80
61 70 80
61 70 80
61 69 80
61 70 80
61 69 80
61 69 80
62 70 80
61 70 80
61 70 80
61 70 80
61 69 80
61 69 80
61 69 80
61 69 80
62 70 80
61 70 80
62 70 80
61 70 80
62 70 80
61 70 80
62 70 80
61 69 80
62 70 80
61 70 80
62 70 80
61 69 80
61 70 80
61 69 80
61 69 80
61 69 80
61 69 80
61 69 80
61 70 80
61 69 80
61 69 80
61 69 80
62 70 80
61 70 80
61 70 80
62 70 80
60 69 80
62 70 80
61 70 80
62 70 80
61 70 80
61 69 80
62 70 80
61 70 80
61 70 80
62 70 80
62 70 80
62 70 80
61 69 80
61 70 80
62 70 80
62 70 80
61 70 80
62 70 80
62 70 80
61 70 80
61 70 80
61 69 80
61 69 80
62 70 80
61 70 80
61 69 80
62 70 80
61 70 80
62 70 80
61 70 80
62 70 80
61 69 80
61 69 80
61 70 80
61 69 80
61 70 80
61 69 80
61 70 80
62 70 80
61 70 80
61 69 80
61 69 80
61 70 80
61 70 80
62 70 80
61 69 80
61 69 80
62 70 80
61 69 80
61 69 80
62 70 80
61 70 80
61 69 80
62 70 80
61 70 80
61 70 80
62 70 80
62 70 80
61 70 80
61 70 80
61 69 80
61 69 80
60 69 80
62 70 80
62 70 80
61 70 80
61 70 80
62 70 80
62 70 80
61 69 80
62 70 80
61 70 80
61 70 80
62 70 80
61 70 80
63 70 80
61 70 80
61 70 80
61 70 80
61 69 80
61 70 80
62 70 80
61 69 80
62 70 80
62 70 80
61 70 80
62 70 80
61 69 80
62 70 80
61 70 80
62 70 80
61 70 80
60 69 80
61 69 80
61 69 80
62 70 80
62 70 80
61 69 80
61 69 80
63 70 80
61 69 80
61 69 80
62 70 80
61 69 80
62 70 80
61 69 80
61 70 80
62 70 80
61 70 80
62 70 80
62 70 80
62 70 80
62 70 80
61 69 80
62 70 80
61 70 80
61 70 80
61 70 80
61 69 80
61 69 80
61 70 80
61 70 80
62 70 80
61 69 80
61 70 80
61 70 80
62 70 80
61 70 80
62 70 80
61 70 80
61 70 80
62 70 80
61 69 80
61 69 80
62 70 80
61 70 80
62 70 80
61 69 80
61 70 80
61 70 80
62 70 80
61 69 80
62 70 80
62 70 80
62 70 80
61 69 80
61 70 80
61 70 80
61 70 80
62 70 80
61 69 80
62 70 80
61 69 80
62 70 80
61 70 80
61 70 80
61 69 80
61 70 80
61 69 80
61 69 80
62 70 80
61 69 80
62 70 80
61 69 80
61 70 80
61 69 80
61 69 80
61 69 80
62 70 80
61 69 80
62 70 80
61 69 80
61 69 80
62 70 80
61 69 80
61 70 80
62 70 80
62 70 80
61 70 80
62 70 80
61 70 80
62 70 80
62 70 80
61 70 80
62 70 80
61 69 80
61 69 80
62 70 80
61 69 80
61 70 80
61 70 80
61 70 80
61 69 80
61 69 80
61 70 80
61 69 80
61 69 80
61 70 80
61 70 80
62 70 80
62 70 80
61 69 80
61 69 80
61 70 80
61 70 80
61 70 80
61 69 80
61 70 80
61 69 80
61 70 80
61 69 80
62 70 80
61 70 80
61 70 80
61 70 80
62 70 80
61 70 80
61 69 80
62 70 80
62 70 80
62 70 80
61 69 80
61 70 80
62 70 80
62 70 80
61 69 80
61 69 80
62 70 80
61 70 80
60 69 80
61 70 80
61 70 80
61 69 80
61 70 80
61 69 80
61 70 80
61 70 80
62 70 80
62 70 80
61 70 80
61 70 80
61 70 80
61 70 80
61 70 80
62 70 80
62 70 80
61 69 80
61 69 80
62 70 80
62 70 80
62 70 80
61 69 80
61 69 80
61 70 80
61 69 80
62 70 80
61 69 80
61 69 80
61 69 80
61 70 80
62 70 80
62 70 80
62 70 80
61 70 80
62 70 80
61 69 80
62 70 80
62 70 80
62 70 80
62 70 80
61 69 80
62 70 80
61 69 80
61 70 80
61 69 80
62 70 80
61 70 80
62 70 80
62 70 80
61 70 80
61 69 80
62 70 80
61 70 80
62 70 80
61 70 80
61 69 80
61 70 80
61 69 80
61 69 80
62 70 80
61 69 80
61 69 80
61 69 80
61 69 80
61 69 80
62 70 80
61 70 80
62 70 80
61 70 80
61 70 80
61 69 80
61 69 80
61 69 80
61 69 80
62 70 80
61 69 80
61 70 80
62 70 80
61 70 80
61 69 80
61 70 80
63 70 80
61 69 80
62 70 80
61 70 80
61 69 80
60 69 80
62 70 80
61 70 80
61 70 80
61 70 80
61 69 80
61 69 80
62 70 80
62 70 80
62 70 80
61 69 80
61 70 80
61 69 80
62 70 80
62 70 80
62 70 80
61 70 80
62 70 80
60 69 80
61 69 80
61 70 80
61 70 80
60 69 80
61 70 80
62 70 80
61 69 80
60 69 80
62 70 80
62 70 80
61 70 80
62 70 80
62 70 80
61 69 80
61 70 80
61 69 80
61 70 80
62 70 80
62 70 80
61 69 80
62 70 80
62 70 80
61 70 80
61 70 80
62 70 80
62 70 80
61 69 80
62 70 80
61 70 80
61 69 80
62 70 80
62 70 80
62 70 80
62 70 80
61 70 80
62 70 80
62 70 80
62 70 80
61 70 80
62 70 80
60 69 80
61 70 80
62 70 80
61 70 80
61 70 80
61 69 80
61 70 80
61 70 80
61 69 80
62 70 80
61 69 80
61 70 80
62 70 80
61 70 80
61 69 80
62 70 80
62 70 80
62 70 80
61 69 80
60 69 80
61 69 80
62 70 80
61 70 80
62 70 80
61 70 80
61 70 80
61 70 80
62 70 80
61 69 80
61 70 80
62 70 80
62 70 80
61 70 80
61 70 80
61 70 80
61 70 80
62 70 80
61 70 80
61 70 80
62 70 80
62 70 80
62 70 80
61 70 80
61 70 80
61 69 80
60 69 80
62 70 80
61 70 80
61 69 80
61 70 80
62 70 80
61 69 80
62 70 80
62 70 80
63 70 80
61 70 80
61 69 80
61 69 80
62 70 80
61 69 80
61 69 80
61 69 80
61 69 80
61 69 80
61 70 80
61 70 80
61 70 80
61 70 80
62 70 80
62 70 80
61 70 80
61 69 80
62 70 80
61 70 80
61 69 80
61 69 80
62 70 80
61 69 80
61 70 80
61 70 80
61 69 80
60 69 80
61 69 80
62 70 80
61 70 80
61 69 80
63 70 80
61 70 80
62 70 80
61 69 80
62 70 80
62 70 80
62 70 80
61 69 80
61 70 80
61 70 80
61 70 80
61 70 80
61 70 80
61 69 80
62 70 80
61 70 80
61 70 80
62 70 80
61 69 80
61 70 80
61 70 80
61 69 80
60 69 80
61 69 80
61 70 80
62 70 80
62 70 80
61 70 80
61 69 80
61 70 80
62 70 80
61 70 80
61 69 80
61 70 80
62 70 80
61 69 80
61 70 80
61 69 80
61 69 80
62 70 80
61 70 80
62 70 80
62 70 80
61 69 80
61 69 80
61 70 80
61 69 80
62 70 80
61 70 80
61 69 80
61 69 80
61 69 80
62 70 80
61 69 80
61 70 80
61 70 80
62 70 80
62 70 80
61 69 80
62 70 80
61 70 80
62 70 80
62 70 80
62 70 80
61 69 80
62 70 80
62 70 80
62 70 80
61 69 80
62 70 80
62 70 80
61 69 80
62 70 80
61 70 80
61 69 80
62 70 80
62 70 80
62 70 80
62 70 80
61 69 80
61 70 80
61 69 80
62 70 80
61 69 80
61 70 80
61 70 80
61 69 80
62 70 80
62 70 80
62 70 80
61 70 80
62 70 80
62 70 80
61 69 80
61 69 80
62 70 80
62 70 80
61 70 80
62 70 80
61 70 80
61 70 80
62 70 80
62 70 80
61 69 80
61 70 80
61 70 80
61 69 80
62 70 80
61 70 80
61 69 80
61 69 80
61 69 80
61 70 80
62 70 80
62 70 80
62 70 80
61 70 80
61 70 80
61 69 80
61 70 80
62 70 80
62 70 80
61 69 80
61 70 80
61 69 80
62 70 80
62 70 80
61 70 80
61 69 80
61 70 80
61 69 80
61 70 80
61 69 80
61 70 80
62 70 80
62 70 80
61 70 80
61 69 80
61 69 80
61 70 80
61 70 80
61 70 80
61 69 80
61 70 80
62 70 80
61 69 80
61 70 80
62 70 80
61 69 80
62 70 80
61 70 80
61 69 80
61 70 80
62 70 80
61 70 80
61 69 80
62 70 80
61 69 80
62 70 80
61 69 80
62 70 80
61 70 80
60 69 80
61 70 80
61 69 80
61 69 80
61 70 80
61 70 80
61 70 80
62 70 80
61 70 80
61 69 80
61 70 80
61 69 80
62 70 80
60 69 80
61 69 80
62 70 80
61 70 80
62 70 80
61 70 80
62 70 80
62 70 80
60 69 80
61 70 80
61 70 80
61 70 80
62 70 80
62 70 80
61 70 80
61 70 80
61 70 80
62 70 80
63 70 80
61 69 80
61 69 80
62 70 80
61 69 80
62 70 80
61 70 80
62 70 80
62 70 80
62 70 80
61 70 80
61 70 80
62 70 80
62 70 80
61 70 80
61 69 80
61 70 80
61 69 80
62 70 80
61 69 80
62 70 80
61 69 80
61 69 80
61 70 80
61 69 80
61 69 80
61 70 80
62 70 80
61 69 80
61 70 80
61 70 80
61 69 80
61 70 80
61 69 80
61 70 80
61 69 80
61 69 80
62 70 80
61 69 80
61 69 80
61 70 80
61 69 80
61 70 80
62 70 80
61 69 80
61 70 80
61 69 80
62 70 80
61 69 80
62 70 80
61 70 80
61 69 80
61 69 80
61 69 80
62 70 80
62 70 80
60 69 80
61 70 80
61 70 80
62 70 80
62 70 80
61 70 80
62 70 80
61 70 80
61 70 80
61 70 80
62 70 80
62 70 80
62 70 80
61 69 80
61 70 80
60 69 80
61 69 80
62 70 80
61 69 80
62 70 80
61 70 80
62 70 80
61 70 80
61 70 80
61 69 80
61 69 80
61 69 80
62 70 80
60 69 80
61 70 80
62 70 80
61 70 80
62 70 80
62 70 80
61 69 80
60 69 80
62 70 80
61 70 80
61 70 80
62 70 80
61 69 80
61 69 80
62 70 80
62 70 80
62 70 80
61 70 80
61 70 80
61 70 80
62 70 80
61 69 80
63 70 80
62 70 80
61 69 80
61 70 80
61 69 80
61 69 80
62 70 80
61 70 80
62 70 80
61 70 80
62 70 80
61 69 80
62 70 80
62 70 80
61 69 80
61 70 80
61 69 80
62 70 80
61 70 80
61 70 80
61 70 80
61 69 80
61 70 80
61 70 80
61 69 80
61 69 80
63 70 80
61 70 80
62 70 80
61 69 80
61 69 80
61 70 80
61 69 80
62 70 80
62 70 80
61 69 80
61 70 80
62 70 80
62 70 80
62 70 80
61 69 80
61 70 80
62 70 80
61 70 80
61 69 80
62 70 80
61 70 80
61 70 80
61 69 80
61 69 80
62 70 80
61 70 80
61 69 80
61 70 80
62 70 80
61 70 80
61 70 80
61 69 80
61 70 80
61 69 80
61 69 80
61 70 80
62 70 80
62 70 80
61 69 80
61 70 80
62 70 80
61 69 80
62 70 80
62 70 80
61 69 80
62 70 80
61 69 80
61 70 80
62 70 80
62 70 80
61 70 80
61 69 80
61 69 80
61 69 80
61 70 80
61 69 80
61 69 80
61 70 80
62 70 80
61 70 80
62 70 80
62 70 80
61 70 80
61 69 80
62 70 80
61 69 80
61 69 80
61 69 80
61 70 80
61 70 80
61 69 80
61 70 80
61 69 80
61 69 80
62 70 80
61 70 80
62 70 80
62 70 80
61 70 80
61 69 80
62 70 80
61 70 80
61 69 80
61 69 80
61 69 80
61 70 80
61 70 80
61 70 80
61 70 80
62 70 80
60 69 80
62 70 80
62 70 80
61 69 80
61 70 80
60 69 80
62 70 80
61 70 80
62 70 80
61 70 80
61 70 80
61 70 80
62 70 80
61 69 80
60 69 80
61 69 80
61 70 80
62 70 80
61 70 80
62 70 80
61 69 80
62 70 80
61 69 80
61 70 80
61 70 80
62 70 80
61 69 80
61 70 80
61 70 80
62 70 80
62 70 80
62 70 80
61 70 80
61 70 80
61 70 80
61 69 80
61 69 80
62 70 80
61 70 80
61 70 80
61 70 80
62 70 80
62 70 80
61 69 80
62 70 80
61 70 80
61 70 80
61 70 80
61 70 80
61 69 80
62 70 80
62 70 80
62 70 80
61 69 80
61 70 80
62 70 80
62 70 80
61 70 80
62 70 80
62 70 80
61 69 80
61 69 80
61 69 80
61 70 80
62 70 80
61 69 80
61 69 80
61 70 80
61 70 80
61 70 80
61 70 80
62 70 80
61 69 80
61 69 80
62 70 80
61 69 80
61 70 80
61 70 80
61 69 80
61 70 80
61 69 80
61 69 80
61 70 80
61 70 80
62 70 80
61 70 80
61 69 80
61 70 80
61 69 80
61 69 80
62 70 80
60 69 80
61 70 80
61 70 80
61 70 80
61 69 80
61 70 80
61 70 80
61 70 80
61 69 80
61 69 80
61 69 80
61 69 80
61 70 80
61 70 80
62 70 80
61 69 80
61 70 80
62 70 80
61 70 80
61 70 80
61 69 80
62 70 80
61 69 80
61 70 80
61 69 80
61 69 80
62 70 80
62 70 80
61 69 80
61 70 80
62 70 80
61 70 80
63 70 80
62 70 80
61 70 80
61 69 80
61 69 80
62 70 80
61 70 80
62 70 80
62 70 80
61 69 80
61 69 80
62 70 80
61 70 80
61 70 80
61 69 80
61 70 80
61 70 80
61 69 80
61 70 80
62 70 80
62 70 80
62 70 80
61 69 80
61 70 80
60 69 80
61 70 80
61 69 80
61 70 80
61 70 80
62 70 80
62 70 80
61 69 80
60 69 80
60 69 80
61 70 80
61 70 80
61 70 80
62 70 80
61 70 80
61 70 80
61 70 80
63 70 80
61 70 80
62 70 80
61 69 80
62 70 80
60 69 80
61 69 80
62 70 80
61 70 80
62 70 80
62 70 80
61 70 80
61 69 80
61 69 80
61 69 80
62 70 80
61 70 80
61 69 80
61 69 80
62 70 80
61 69 80
61 70 80
62 70 80
61 69 80
62 70 80
62 70 80
62 70 80
62 70 80
61 70 80
62 70 80
61 70 80
61 70 80
62 70 80
61 70 80
61 69 80
62 70 80
61 69 80
62 70 80
62 70 80
62 70 80
61 70 80
61 69 80
61 70 80
61 70 80
61 70 80
62 70 80
62 70 80
61 70 80
61 70 80
61 70 80
61 70 80
61 69 80
61 70 80
61 69 80
61 70 80
61 70 80
61 69 80
61 69 80
61 70 80
62 70 80
61 70 80
62 70 80
61 70 80
62 70 80
61 69 80
63 70 80
61 69 80
61 70 80
61 70 80
61 69 80
61 70 80
61 70 80
61 69 80
61 70 80
61 70 80
61 70 80
61 70 80
61 69 80
61 70 80
61 70 80
62 70 80
61 70 80
62 70 80
61 69 80
62 70 80
62 70 80
61 70 80
61 70 80
61 70 80
62 70 80
62 70 80
61 70 80
61 69 80
61 70 80
61 69 80
61 70 80
61 70 80
62 70 80
61 70 80
62 70 80
61 70 80
63 70 80
63 70 80
61 69 80
62 70 80
61 70 80
61 70 80
61 70 80
61 70 80
61 70 80
61 70 80
61 69 80
61 70 80
61 70 80
61 69 80
62 70 80
61 69 80
61 70 80
62 70 80
61 69 80
61 69 80
61 69 80
61 70 80
61 70 80
62 70 80
61 70 80
61 70 80
61 70 80
62 70 80
61 70 80
61 69 80
61 70 80
62 70 80
61 70 80
61 70 80
61 69 80
61 70 80
61 69 80
60 69 80
61 70 80
61 69 80
62 70 80
61 70 80
62 70 80
61 69 80
62 70 80
62 70 80
61 69 80
61 69 80
62 70 80
61 69 80
62 70 80
61 69 80
62 70 80
61 69 80
61 70 80
61 70 80
61 70 80
61 69 80
62 70 80
62 70 80
61 69 80
61 69 80
61 70 80
61 70 80
61 70 80
62 70 80
62 70 80
61 69 80
61 69 80
61 69 80
61 69 80
62 70 80
61 70 80
61 70 80
61 70 80
61 69 80
61 70 80
61 69 80
62 70 80
61 69 80
62 70 80
62 70 80
62 70 80
61 70 80
61 70 80
62 70 80
62 70 80
61 70 80
61 70 80
61 69 80
61 70 80
62 70 80
62 70 80
61 70 80
61 69 80
61 70 80
61 69 80
61 70 80
62 70 80
62 70 80
61 69 80
61 70 80
61 69 80
62 70 80
60 69 80
62 70 80
61 69 80
61 69 80
61 70 80
62 70 80
62 70 80
61 69 80
62 70 80
61 70 80
62 70 80
61 69 80
62 70 80
61 69 80
61 69 80
62 70 80
61 69 80
60 69 80
61 69 80
61 70 80
61 70 80
61 70 80
61 69 80
62 70 80
62 70 80
61 70 80
62 70 80
62 70 80
61 70 80
61 70 80
61 69 80
61 70 80
61 69 80
62 70 80
62 70 80
61 70 80
61 69 80
62 70 80
61 70 80
61 70 80
62 70 80
62 70 80
61 69 80
61 70 80
61 70 80
61 69 80
62 70 80
61 70 80
61 69 80
61 69 80
61 69 80
61 69 80
61 70 80
61 70 80
62 70 80
62 70 80
61 70 80
61 69 80
62 70 80
62 70 80
61 69 80
61 70 80
61 69 80
62 70 80
61 69 80
61 69 80
62 70 80
62 70 80
61 69 80
61 70 80
62 70 80
61 70 80
62 70 80
61 70 80
62 70 80
61 70 80
61 69 80
62 70 80
61 69 80
61 69 80
61 70 80
61 69 80
61 69 80
61 70 80
62 70 80
62 70 80
62 70 80
61 70 80
61 69 80
62 70 80
61 69 80
61 70 80
61 70 80
61 70 80
61 69 80
61 69 80
61 69 80
61 69 80
62 70 80
61 69 80
61 69 80
61 69 80
61 70 80
61 69 80
61 69 80
62 70 80
61 70 80
62 70 80
61 69 80
61 70 80
61 69 80
61 70 80
61 70 80
62 70 80
62 70 80
61 70 80
61 69 80
61 70 80
62 70 80
61 70 80
61 70 80
61 70 80
61 69 80
61 69 80
62 70 80
62 70 80
61 69 80
61 70 80
61 69 80
62 70 80
61 70 80
61 70 80
62 70 80
62 70 80
61 69 80
61 69 80
61 69 80
61 70 80
61 69 80
61 70 80
61 70 80
60 69 80
62 70 80
61 69 80
62 70 80
61 69 80
61 70 80
61 70 80
61 70 80
62 70 80
62 70 80
61 70 80
61 70 80
62 70 80
61 69 80
61 69 80
62 70 80
61 69 80
61 69 80
61 70 80
62 70 80
61 69 80
61 70 80
61 69 80
62 70 80
62 70 80
61 69 80
61 69 80
61 70 80
61 69 80
62 70 80
61 70 80
61 70 80
62 70 80
61 69 80
62 70 80
61 70 80
61 69 80
60 69 80
62 70 80
61 69 80
61 69 80
61 70 80
61 70 80
61 69 80
61 69 80
62 70 80
62 70 80
61 69 80
61 70 80
61 69 80
62 70 80
62 70 80
61 69 80
62 70 80
61 69 80
61 70 80
61 69 80
61 69 80
61 70 80
62 70 80
61 69 80
62 70 80
62 70 80
61 70 80
61 69 80
62 70 80
62 70 80
60 69 80
61 69 80
62 70 80
61 69 80
61 70 80
62 70 80
62 70 80
61 69 80
60 69 80
60 69 80
62 70 80
62 70 80
62 70 80
61 70 80
61 70 80
61 70 80
61 70 80
61 69 80
62 70 80
61 70 80
61 70 80
62 70 80
61 69 80
61 70 80
61 69 80
61 70 80
61 69 80
61 70 80
62 70 80
61 70 80
62 70 80
62 70 80
61 69 80
61 70 80
61 69 80
61 70 80
62 70 80
61 69 80
61 70 80
62 70 80
61 69 80
61 70 80
62 70 80
61 70 80
61 70 80
61 69 80
61 69 80
62 70 80
61 70 80
61 70 80
62 70 80
62 70 80
62 70 80
61 70 80
61 69 80
61 69 80
61 69 80
62 70 80
62 70 80
62 70 80
61 70 80
61 69 80
62 70 80
61 70 80
62 70 80
61 70 80
62 70 80
61 70 80
61 69 80
61 70 80
61 69 80
61 69 80
61 69 80
62 70 80
62 70 80
61 70 80
62 70 80
61 69 80
62 70 80
62 70 80
62 70 80
61 69 80
62 70 80
62 70 80
62 70 80
61 70 80
62 70 80
61 70 80
61 70 80
61 69 80
61 69 80
61 70 80
62 70 80
62 70 80
61 69 80
62 70 80
61 70 80
61 69 80
62 70 80
62 70 80
61 69 80
61 70 80
61 70 80
62 70 80
61 69 80
62 70 80
61 69 80
61 69 80
61 69 80
62 70 80
61 70 80
61 70 80
60 69 80
61 70 80
61 70 80
61 70 80
61 69 80
61 69 80
61 70 80
62 70 80
61 70 80
62 70 80
61 70 80
61 69 80
61 70 80
61 70 80
61 69 80
61 69 80
61 70 80
61 70 80
61 70 80
61 69 80
61 69 80
61 70 80
62 70 80
61 70 80
61 69 80
61 70 80
62 70 80
62 70 80
61 70 80
61 70 80
61 70 80
62 70 80
62 70 80
61 70 80
61 70 80
61 70 80
62 70 80
62 70 80
61 69 80
61 69 80
62 70 80
61 70 80
62 70 80
61 70 80
61 70 80
62 70 80
61 69 80
60 69 80
61 70 80
62 70 80
61 70 80
61 69 80
61 70 80
61 70 80
61 70 80
61 70 80
61 70 80
62 70 80
62 70 80
62 70 80
60 69 80
61 70 80
61 69 80
61 69 80
62 70 80
62 70 80
61 69 80
61 69 80
60 69 80
61 69 80
61 70 80
61 70 80
62 70 80
62 70 80
61 70 80
62 70 80
61 69 80
62 70 80
60 69 80
61 69 80
62 70 80
61 69 80
61 70 80
61 69 80
62 70 80
62 70 80
61 70 80
61 69 80
61 70 80
62 70 80
61 69 80
60 69 80
62 70 80
61 69 80
62 70 80
62 70 80
61 70 80
61 70 80
61 69 80
61 70 80
62 70 80
62 70 80
61 69 80
62 70 80
61 70 80
62 70 80
61 69 80
61 69 80
60 69 80
62 70 80
61 69 80
61 69 80
61 69 80
61 70 80
61 70 80
62 70 80
61 69 80
62 70 80
62 70 80
61 70 80
62 70 80
62 70 80
61 70 80
61 70 80
61 70 80
62 70 80
62 70 80
61 69 80
62 70 80
61 69 80
61 69 80
61 69 80
61 69 80
62 70 80
61 69 80
61 70 80
62 70 80
61 69 80
61 69 80
61 70 80
62 70 80
61 69 80
61 70 80
61 70 80
61 69 80
61 70 80
61 70 80
62 70 80
61 70 80
61 70 80
62 70 80
62 70 80
63 70 80
61 69 80
62 70 80
62 70 80
61 69 80
62 70 80
62 70 80
61 70 80
61 70 80
61 69 80
61 69 80
62 70 80
61 69 80
61 69 80
62 70 80
62 70 80
61 69 80
61 70 80
61 70 80
61 69 80
61 70 80
61 69 80
61 69 80
62 70 80
61 70 80
60 69 80
61 69 80
61 69 80
62 70 80
61 70 80
62 70 80
61 70 80
62 70 80
61 70 80
61 70 80
61 69 80
61 69 80
61 70 80
61 69 80
61 70 80
61 69 80
62 70 80
61 70 80
61 69 80
61 69 80
61 70 80
62 70 80
61 69 80
61 69 80
61 69 80
62 70 80
62 70 80
61 69 80
61 69 80
62 70 80
61 70 80
62 70 80
61 70 80
61 70 80
62 70 80
61 70 80
62 70 80
61 70 80
62 70 80
61 70 80
61 69 80
61 70 80
62 70 80
60 69 80
61 69 80
61 69 80
61 70 80
62 70 80
61 69 80
62 70 80
61 70 80
62 70 80
62 70 80
61 70 80
61 70 80
61 69 80
61 70 80
61 70 80
62 70 80
61 70 80
61 70 80
61 69 80
61 69 80
61 69 80
62 70 80
61 70 80
62 70 80
62 70 80
61 70 80
62 70 80
61 70 80
60 69 80
61 70 80
62 70 80
61 70 80
61 69 80
62 70 80
61 69 80
61 70 80
61 69 80
61 70 80
62 70 80
61 70 80
61 70 80
61 70 80
60 69 80
61 69 80
62 70 80
61 70 80
61 69 80
62 70 80
62 70 80
62 70 80
60 69 80
61 70 80
61 69 80
61 70 80
61 69 80
61 69 80
62 70 80
62 70 80
61 70 80
62 70 80
60 69 80
61 69 80
61 69 80
62 70 80
61 69 80
62 70 80
62 70 80
62 70 80
62 70 80
61 69 80
62 70 80
61 69 80
61 70 80
62 70 80
61 70 80
60 69 80
61 69 80
61 69 80
61 70 80
61 69 80
61 70 80
62 70 80
61 70 80
61 69 80
61 70 80
61 70 80
62 70 80
62 70 80
61 70 80
61 69 80
61 70 80
61 69 80
62 70 80
61 69 80
62 70 80
61 70 80
61 69 80
61 69 80
61 70 80
61 70 80
61 70 80
61 69 80
60 69 80
61 69 80
61 69 80
62 70 80
62 70 80
62 70 80
60 69 80
62 70 80
60 69 80
61 70 80
62 70 80
61 70 80
61 70 80
62 70 80
62 70 80
61 69 80
61 69 80
61 70 80
61 69 80
60 69 80
62 70 80
61 70 80
61 70 80
62 70 80
61 69 80
62 70 80
61 70 80
61 69 80
62 70 80
60 69 80
62 70 80
62 70 80
61 69 80
61 70 80
61 70 80
62 70 80
62 70 80
62 70 80
61 69 80
62 70 80
61 70 80
62 70 80
60 69 80
61 70 80
62 70 80
61 70 80
62 70 80
62 70 80
61 70 80
62 70 80
62 70 80
61 70 80
63 70 80
61 70 80
61 70 80
61 69 80
61 70 80
61 70 80
62 70 80
61 69 80
61 70 80
62 70 80
61 69 80
61 69 80
61 69 80
62 70 80
61 70 80
61 70 80
61 70 80
61 69 80
62 70 80
61 70 80
61 70 80
62 70 80
62 70 80
61 69 80
61 70 80
62 70 80
61 69 80
61 69 80
61 69 80
60 69 80
62 70 80
61 69 80
60 69 80
61 70 80
62 70 80
61 69 80
61 70 80
61 69 80
60 69 80
61 70 80
62 70 80
61 70 80
62 70 80
62 70 80
62 70 80
61 70 80
62 70 80
61 69 80
61 69 80
61 70 80
61 69 80
62 70 80
62 70 80
62 70 80
61 69 80
61 70 80
61 69 80
61 70 80
61 70 80
61 70 80
62 70 80
61 70 80
62 70 80
62 70 80
62 70 80
62 70 80
62 70 80
62 70 80
62 70 80
61 70 80
62 70 80
61 70 80
62 70 80
61 69 80
62 70 80
62 70 80
62 70 80
62 70 80
62 70 80
62 70 80
62 70 80
62 70 80
61 70 80
62 70 80
62 70 80
61 69 80
61 69 80
61 69 80
62 70 80
61 70 80
62 70 80
62 70 80
62 70 80
61 70 80
62 70 80
61 70 80
62 70 80
60 69 80
61 69 80
60 69 80
61 69 80
61 70 80
62 70 80
62 70 80
61 70 80
61 70 80
62 70 80
61 69 80
62 70 80
61 70 80
62 70 80
61 70 80
61 69 80
61 69 80
61 69 80
60 69 80
62 70 80
62 70 80
61 70 80
61 69 80
61 70 80
61 70 80
61 70 80
61 69 80
62 70 80
62 70 80
61 70 80
61 69 80
61 69 80
61 69 80
61 69 80
61 69 80
62 70 80
63 70 80
61 70 80
62 70 80
61 69 80
62 70 80
61 69 80
61 70 80
61 69 80
61 70 80
61 69 80
62 70 80
61 70 80
61 70 80
62 70 80
62 70 80
62 70 80
62 70 80
61 69 80
62 70 80
62 70 80
61 70 80
61 69 80
61 70 80
61 70 80
61 70 80
62 70 80
61 69 80
61 70 80
62 70 80
61 70 80
62 70 80
61 70 80
61 69 80
61 70 80
62 70 80
61 70 80
62 70 80
62 70 80
60 69 80
62 70 80
61 70 80
61 69 80
62 70 80
62 70 80
61 69 80
62 70 80
61 69 80
62 70 80
62 70 80
62 70 80
61 69 80
61 69 80
62 70 80
61 69 80
62 70 80
61 70 80
61 69 80
61 69 80
61 70 80
61 70 80
62 70 80
62 70 80
62 70 80
61 70 80
61 70 80
61 69 80
62 70 80
61 69 80
62 70 80
61 69 80
61 70 80
61 70 80
62 70 80
62 70 80
61 70 80
61 69 80
62 70 80
61 70 80
61 69 80
61 70 80
61 70 80
61 69 80
62 70 80
62 70 80
61 69 80
62 70 80
61 70 80
62 70 80
61 70 80
61 69 80
61 70 80
61 70 80
61 70 80
61 69 80
62 70 80
61 69 80
61 69 80
62 70 80
60 69 80
61 70 80
62 70 80
61 70 80
62 70 80
61 69 80
61 70 80
61 70 80
62 70 80
61 70 80
62 70 80
61 70 80
62 70 80
61 70 80
61 69 80
62 70 80
61 69 80
61 70 80
61 70 80
62 70 80
61 70 80
61 70 80
61 70 80
62 70 80
61 70 80
60 69 80
61 69 80
61 69 80
61 70 80
62 70 80
62 70 80
61 69 80
61 70 80
61 70 80
62 70 80
61 70 80
62 70 80
62 70 80
61 70 80
61 70 80
61 69 80
61 69 80
61 69 80
61 70 80
61 70 80
61 69 80
62 70 80
61 70 80
61 69 80
61 70 80
62 70 80
61 70 80
62 70 80
61 70 80
62 70 80
61 69 80
61 69 80
61 69 80
62 70 80
61 70 80
61 70 80
61 70 80
61 69 80
61 69 80
61 70 80
62 70 80
61 69 80
61 70 80
61 70 80
62 70 80
62 70 80
61 70 80
61 69 80
61 70 80
61 69 80
62 70 80
60 69 80
61 70 80
61 70 80
62 70 80
61 69 80
62 70 80
60 69 80
61 70 80
62 70 80
61 70 80
62 70 80
61 70 80
61 70 80
61 69 80
62 70 80
61 69 80
62 70 80
62 70 80
61 70 80
62 70 80
61 69 80
62 70 80
61 69 80
61 70 80
61 69 80
62 70 80
61 70 80
61 70 80
61 70 80
62 70 80
62 70 80
61 69 80
61 69 80
61 69 80
62 70 80
61 69 80
61 70 80
62 70 80
62 70 80
61 70 80
62 70 80
60 69 80
61 70 80
61 70 80
61 70 80
61 69 80
61 69 80
62 70 80
62 70 80
61 69 80
61 70 80
61 70 80
61 69 80
62 70 80
61 69 80
62 70 80
61 70 80
62 70 80
62 70 80
61 70 80
62 70 80
61 70 80
62 70 80
62 70 80
62 70 80
61 70 80
61 69 80
62 70 80
61 69 80
60 69 80
61 70 80
62 70 80
62 70 80
62 70 80
61 69 80
61 70 80
62 70 80
62 70 80
61 70 80
61 70 80
62 70 80
61 70 80
61 69 80
62 70 80
61 69 80
61 69 80
61 70 80
61 69 80
61 70 80
62 70 80
61 70 80
62 70 80
62 70 80
61 70 80
61 69 80
62 70 80
62 70 80
61 70 80
61 69 80
62 70 80
61 70 80
60 69 80
61 70 80
61 70 80
61 70 80
62 70 80
61 69 80
61 69 80
62 70 80
62 70 80
62 70 80
62 70 80
62 70 80
62 70 80
62 70 80
61 69 80
62 70 80
61 69 80
61 70 80
63 70 80
60 69 80
61 69 80
61 69 80
61 70 80
60 69 80
61 70 80
62 70 80
61 69 80
62 70 80
61 69 80
61 70 80
61 70 80
61 70 80
62 70 80
62 70 80
61 69 80
61 70 80
62 70 80
61 70 80
61 69 80
61 69 80
61 69 80
62 70 80
61 69 80
61 70 80
61 69 80
62 70 80
61 69 80
61 70 80
61 69 80
61 70 80
61 69 80
60 69 80
61 69 80
62 70 80
62 70 80
61 69 80
62 70 80
61 70 80
62 70 80
61 69 80
60 69 80
62 70 80
61 69 80
61 69 80
62 70 80
61 70 80
61 70 80
62 70 80
61 70 80
61 70 80
61 70 80
61 69 80
62 70 80
61 70 80
61 69 80
61 70 80
62 70 80
61 69 80
62 70 80
61 70 80
63 70 80
62 70 80
61 70 80
61 70 80
61 70 80
62 70 80
61 70 80
61 69 80
61 70 80
62 70 80
61 69 80
61 70 80
62 70 80
61 70 80
61 69 80
61 70 80
61 69 80
62 70 80
62 70 80
61 70 80
61 69 80
61 69 80
61 69 80
62 70 80
61 69 80
61 69 80
61 69 80
61 69 80
61 69 80
61 69 80
62 70 80
61 70 80
61 69 80
61 70 80
61 70 80
61 70 80
61 70 80
61 70 80
61 69 80
61 70 80
62 70 80
62 70 80
61 69 80
61 69 80
61 70 80
62 70 80
62 70 80
61 69 80
61 69 80
61 69 80
61 70 80
61 70 80
62 70 80
62 70 80
61 70 80
61 70 80
62 70 80
61 70 80
61 70 80
62 70 80
61 70 80
62 70 80
62 70 80
62 70 80
61 69 80
61 70 80
61 69 80
62 70 80
61 70 80
61 69 80
61 69 80
61 69 80
61 69 80
61 69 80
62 70 80
61 70 80
61 70 80
61 70 80
61 69 80
61 69 80
61 70 80
61 69 80
61 70 80
61 69 80
61 69 80
61 70 80
61 70 80
62 70 80
61 70 80
60 69 80
62 70 80
62 70 80
61 70 80
61 69 80
61 70 80
62 70 80
62 70 80
62 70 80
61 69 80
61 70 80
62 70 80
61 69 80
62 70 80
62 70 80
61 70 80
62 70 80
62 70 80
61 69 80
62 70 80
61 70 80
61 69 80
62 70 80
61 70 80
61 69 80
61 70 80
61 69 80
61 69 80
62 70 80
61 70 80
61 69 80
61 70 80
62 70 80
61 69 80
61 70 80
62 70 80
62 70 80
61 69 80
61 69 80
61 70 80
62 70 80
61 69 80
61 70 80
62 70 80
61 69 80
62 70 80
62 70 80
61 70 80
62 70 80
62 70 80
61 70 80
61 70 80
61 69 80
60 69 80
61 69 80
60 69 80
61 70 80
61 70 80
61 70 80
60 69 80
61 69 80
61 69 80
62 70 80
61 70 80
61 70 80
62 70 80
61 70 80
61 69 80
61 69 80
61 70 80
61 70 80
62 70 80
62 70 80
61 70 80
62 70 80
61 70 80
61 70 80
60 69 80
61 70 80
61 70 80
61 70 80
62 70 80
62 70 80
62 70 80
61 69 80
61 70 80
62 70 80
61 70 80
62 70 80
61 69 80
61 70 80
61 70 80
61 69 80
61 70 80
61 69 80
62 70 80
61 70 80
61 70 80
62 70 80
61 69 80
61 69 80
61 69 80
61 69 80
62 70 80
62 70 80
63 70 80
61 69 80
61 69 80
61 70 80
61 70 80
61 69 80
61 69 80
61 70 80
61 70 80
62 70 80
62 70 80
61 70 80
62 70 80
61 69 80
61 70 80
62 70 80
61 70 80
61 70 80
62 70 80
62 70 80
61 70 80
61 70 80
61 69 80
61 69 80
61 69 80
61 69 80
62 70 80
61 69 80
61 70 80
61 69 80
61 69 80
61 70 80
62 70 80
61 70 80
62 70 80
62 70 80
61 70 80
61 70 80
62 70 80
61 70 80
61 70 80
61 69 80
61 69 80
61 70 80
62 70 80
61 69 80
62 70 80
61 70 80
62 70 80
61 69 80
61 70 80
61 69 80
61 70 80
62 70 80
61 70 80
61 69 80
61 69 80
61 69 80
61 69 80
62 70 80
61 69 80
62 70 80
62 70 80
61 70 80
61 70 80
61 70 80
61 70 80
62 70 80
61 69 80
62 70 80
61 69 80
62 70 80
61 70 80
62 70 80
62 70 80
61 69 80
62 70 80
61 70 80
61 70 80
62 70 80
62 70 80
61 69 80
61 70 80
61 70 80
62 70 80
61 70 80
61 69 80
62 70 80
62 70 80
62 70 80
61 69 80
61 70 80
61 69 80
61 69 80
61 70 80
61 69 80
62 70 80
62 70 80
61 69 80
61 69 80
61 70 80
61 69 80
62 70 80
61 69 80
62 70 80
62 70 80
62 70 80
62 70 80
61 69 80
62 70 80
61 69 80
61 69 80
61 69 80
62 70 80
61 69 80
61 69 80
62 70 80
61 69 80
61 69 80
62 70 80
61 69 80
61 69 80
61 69 80
61 70 80
61 69 80
61 70 80
61 70 80
61 69 80
61 69 80
62 70 80
61 70 80
61 69 80
61 69 80
61 70 80
61 70 80
61 69 80
61 70 80
61 70 80
62 70 80
61 70 80
61 70 80
61 70 80
61 69 80
62 70 80
61 70 80
61 70 80
61 69 80
61 70 80
61 70 80
61 70 80
61 69 80
62 70 80
61 69 80
61 70 80
62 70 80
62 70 80
62 70 80
62 70 80
61 69 80
60 69 80
63 70 80
61 69 80
62 70 80
61 70 80
61 69 80
62 70 80
62 70 80
61 70 80
61 69 80
61 69 80
61 70 80
61 70 80
61 70 80
61 70 80
62 70 80
61 69 80
60 69 80
62 70 80
62 70 80
61 69 80
61 70 80
61 70 80
62 70 80
61 69 80
61 70 80
61 69 80
61 70 80
61 69 80
61 69 80
61 69 80
62 70 80
61 70 80
62 70 80
61 70 80
61 70 80
61 69 80
61 69 80
61 70 80
61 70 80
60 69 80
62 70 80
62 70 80
61 70 80
62 70 80
61 69 80
61 70 80
62 70 80
61 69 80
61 70 80
61 69 80
61 69 80
62 70 80
62 70 80
61 70 80
62 70 80
60 69 80
61 70 80
61 69 80
61 69 80
61 69 80
62 70 80
61 70 80
62 70 80
61 70 80
61 69 80
62 70 80
61 70 80
61 70 80
61 69 80
62 70 80
61 70 80
61 70 80
62 70 80
62 70 80
61 70 80
60 69 80
61 70 80
62 70 80
61 70 80
62 70 80
62 70 80
61 69 80
61 70 80
61 70 80
62 70 80
61 69 80
62 70 80
62 70 80
62 70 80
61 70 80
61 70 80
61 70 80
62 70 80
62 70 80
61 69 80
61 70 80
61 69 80
61 69 80
61 70 80
62 70 80
62 70 80
62 70 80
61 69 80
62 70 80
61 70 80
61 70 80
61 69 80
61 70 80
61 70 80
61 69 80
61 70 80
62 70 80
61 70 80
60 69 80
61 69 80
62 70 80
62 70 80
62 70 80
62 70 80
61 69 80
61 70 80
61 70 80
62 70 80
62 70 80
61 69 80
61 69 80
61 69 80
61 69 80
61 70 80
61 69 80
61 70 80
61 69 80
61 69 80
61 70 80
62 70 80
61 70 80
62 70 80
62 70 80
62 70 80
60 69 80
62 70 80
60 69 80
62 70 80
61 70 80
62 70 80
62 70 80
61 69 80
62 70 80
61 69 80
62 70 80
61 70 80
61 70 80
61 70 80
61 70 80
61 69 80
61 70 80
60 69 80
62 70 80
61 70 80
61 70 80
62 70 80
62 70 80
62 70 80
62 70 80
61 70 80
61 69 80
61 69 80
61 70 80
62 70 80
60 69 80
62 70 80
61 69 80
61 69 80
61 70 80
62 70 80
62 70 80
62 70 80
61 69 80
61 69 80
62 70 80
61 70 80
61 70 80
61 69 80
61 70 80
61 70 80
62 70 80
61 70 80
62 70 80
62 70 80
62 70 80
62 70 80
61 69 80
61 69 80
62 70 80
62 70 80
61 70 80
62 70 80
61 69 80
62 70 80
61 69 80
61 70 80
61 70 80
62 70 80
62 70 80
61 69 80
61 70 80
62 70 80
62 70 80
61 69 80
62 70 80
63 70 80
61 69 80
62 70 80
61 69 80
61 69 80
62 70 80
62 70 80
61 70 80
61 69 80
62 70 80
61 69 80
61 69 80
62 70 80
61 70 80
61 70 80
61 70 80
61 69 80
61 70 80
61 69 80
61 70 80
62 70 80
61 70 80
62 70 80
62 70 80
61 70 80
61 70 80
61 69 80
61 70 80
62 70 80
62 70 80
61 70 80
61 70 80
61 69 80
61 70 80
62 70 80
61 70 80
61 70 80
62 70 80
61 69 80
61 70 80
61 70 80
61 70 80
61 70 80
61 70 80
62 70 80
62 70 80
62 70 80
61 69 80
62 70 80
62 70 80
61 69 80
62 70 80
61 69 80
61 70 80
62 70 80
62 70 80
62 70 80
61 69 80
61 69 80
62 70 80
61 69 80
62 70 80
61 69 80
62 70 80
62 70 80
61 69 80
61 69 80
62 70 80
60 69 80
61 70 80
61 70 80
61 69 80
62 70 80
61 70 80
62 70 80
61 69 80
61 69 80
62 70 80
62 70 80
61 69 80
62 70 80
62 70 80
62 70 80
61 70 80
61 70 80
61 69 80
61 70 80
62 70 80
62 70 80
61 69 80
62 70 80
61 69 80
61 69 80
61 69 80
62 70 80
61 69 80
61 69 80
62 70 80
61 70 80
61 69 80
62 70 80
61 70 80
62 70 80
62 70 80
61 69 80
61 70 80
61 70 80
62 70 80
61 70 80
61 69 80
61 70 80
61 70 80
61 70 80
62 70 80
61 69 80
61 69 80
62 70 80
62 70 80
61 69 80
61 70 80
62 70 80
62 70 80
62 70 80
61 70 80
61 70 80
61 69 80
61 70 80
61 70 80
61 70 80
61 69 80
61 69 80
62 70 80
61 70 80
61 70 80
61 69 80
62 70 80
61 69 80
62 70 80
61 70 80
62 70 80
61 70 80
62 70 80
62 70 80
62 70 80
61 70 80
61 70 80
62 70 80
62 70 80
61 69 80
62 70 80
62 70 80
62 70 80
61 69 80
61 70 80
62 70 80
62 70 80
62 70 80
62 70 80
62 70 80
61 69 80
62 70 80
62 70 80
61 70 80
61 70 80
61 69 80
62 70 80
61 69 80
61 70 80
62 70 80
61 70 80
61 70 80
62 70 80
61 70 80
61 70 80
61 69 80
61 69 80
61 69 80
61 70 80
62 70 80
62 70 80
62 70 80
61 69 80
62 70 80
62 70 80
62 70 80
61 69 80
62 70 80
62 70 80
61 70 80
61 70 80
61 70 80
61 69 80
61 70 80
61 70 80
62 70 80
62 70 80
61 69 80
62 70 80
62 70 80
62 70 80
61 69 80
61 69 80
62 70 80
62 70 80
61 70 80
61 69 80
62 70 80
61 69 80
61 70 80
61 70 80
62 70 80
61 69 80
62 70 80
61 70 80
61 70 80
61 70 80
61 70 80
62 70 80
61 70 80
61 69 80
62 70 80
61 70 80
61 69 80
61 70 80
62 70 80
62 70 80
62 70 80
61 70 80
62 70 80
61 70 80
61 69 80
61 70 80
61 69 80
61 69 80
62 70 80
62 70 80
62 70 80
61 70 80
62 70 80
61 69 80
62 70 80
61 69 80
61 69 80
61 70 80
61 70 80
61 70 80
61 69 80
62 70 80
60 69 80
62 70 80
61 69 80
62 70 80
61 70 80
60 69 80
61 69 80
62 70 80
61 69 80
61 69 80
60 69 80
61 70 80
61 70 80
61 70 80
61 70 80
61 69 80
62 70 80
61 70 80
61 69 80
62 70 80
62 70 80
61 69 80
61 69 80
62 70 80
62 70 80
61 70 80
62 70 80
61 69 80
61 70 80
62 70 80
62 70 80
61 70 80
61 69 80
62 70 80
61 70 80
61 69 80
61 69 80
61 69 80
61 70 80
61 70 80
61 70 80
62 70 80
61 70 80
62 70 80
61 69 80
62 70 80
62 70 80
62 70 80
62 70 80
61 69 80
61 70 80
61 70 80
61 70 80
60 69 80
62 70 80
62 70 80
62 70 80
61 70 80
62 70 80
61 69 80
62 70 80
61 69 80
61 70 80
61 70 80
62 70 80
61 69 80
61 70 80
61 70 80
62 70 80
61 69 80
62 70 80
62 70 80
61 70 80
61 70 80
61 69 80
61 70 80
62 70 80
61 70 80
61 70 80
62 70 80
62 70 80
62 70 80
61 70 80
61 69 80
62 70 80
61 69 80
61 70 80
61 70 80
61 69 80
61 69 80
61 69 80
61 69 80
62 70 80
62 70 80
60 69 80
62 70 80
61 70 80
61 69 80
61 69 80
61 70 80
61 70 80
62 70 80
62 70 80
62 70 80
61 70 80
62 70 80
62 70 80
61 70 80
61 70 80
61 70 80
62 70 80
61 69 80
61 69 80
61 70 80
61 69 80
62 70 80
62 70 80
61 70 80
61 70 80
61 70 80
62 70 80
61 70 80
61 70 80
61 69 80
61 70 80
61 69 80
61 69 80
61 70 80
61 69 80
61 70 80
61 69 80
61 70 80
62 70 80
62 70 80
61 69 80
61 70 80
62 70 80
62 70 80
61 70 80
62 70 80
61 70 80
61 69 80
61 70 80
62 70 80
61 70 80
61 69 80
62 70 80
61 69 80
61 69 80
61 69 80
61 69 80
61 69 80
61 69 80
62 70 80
61 70 80
61 69 80
61 69 80
61 69 80
61 70 80
61 69 80
62 70 80
62 70 80
62 70 80
61 70 80
61 70 80
61 69 80
61 69 80
62 70 80
62 70 80
61 69 80
62 70 80
62 70 80
61 69 80
61 69 80
60 69 80
61 69 80
62 70 80
62 70 80
60 69 80
62 70 80
62 70 80
62 70 80
61 69 80
61 69 80
62 70 80
61 69 80
61 69 80
62 70 80
61 69 80
61 70 80
61 70 80
61 69 80
61 69 80
62 70 80
62 70 80
62 70 80
61 69 80
62 70 80
61 69 80
61 69 80
61 70 80
61 69 80
61 69 80
62 70 80
61 70 80
61 70 80
61 70 80
62 70 80
61 70 80
61 70 80
60 69 80
62 70 80
61 69 80
61 69 80
62 70 80
61 70 80
60 69 80
61 70 80
62 70 80
62 70 80
62 70 80
61 69 80
61 69 80
61 69 80
60 69 80
61 69 80
61 69 80
62 70 80
61 70 80
62 70 80
61 69 80
62 70 80
62 70 80
62 70 80
61 69 80
62 70 80
62 70 80
61 70 80
61 69 80
61 70 80
61 69 80
61 70 80
62 70 80
61 69 80
61 70 80
62 70 80
61 70 80
61 70 80
62 70 80
61 70 80
61 70 80
61 69 80
61 69 80
61 69 80
62 70 80
62 70 80
61 69 80
61 69 80
62 70 80
62 70 80
61 69 80
61 70 80
62 70 80
61 70 80
62 70 80
61 69 80
61 70 80
62 70 80
61 69 80
61 69 80
61 69 80
61 70 80
62 70 80
61 70 80
62 70 80
60 69 80
61 69 80
61 70 80
62 70 80
61 70 80
61 70 80
61 70 80
61 70 80
62 70 80
61 69 80
62 70 80
61 70 80
62 70 80
62 70 80
60 69 80
61 69 80
62 70 80
61 69 80
61 70 80
61 70 80
61 69 80
61 70 80
62 70 80
62 70 80
61 70 80
62 70 80
61 70 80
62 70 80
62 70 80
62 70 80
62 70 80
61 69 80
61 69 80
62 70 80
62 70 80
62 70 80
62 70 80
62 70 80
61 70 80
61 70 80
62 70 80
61 69 80
61 70 80
61 70 80
61 69 80
61 69 80
61 70 80
61 69 80
61 69 80
62 70 80
62 70 80
61 70 80
62 70 80
61 70 80
61 70 80
62 70 80
61 69 80
61 70 80
62 70 80
61 70 80
61 70 80
61 70 80
61 70 80
62 70 80
61 69 80
62 70 80
61 70 80
61 69 80
61 70 80
61 70 80
60 69 80
61 70 80
62 70 80
62 70 80
61 70 80
61 69 80
63 70 80
61 69 80
61 69 80
61 69 80
61 69 80
61 70 80
61 69 80
61 69 80
61 70 80
61 70 80
61 69 80
61 69 80
62 70 80
61 69 80
62 70 80
61 70 80
61 70 80
61 70 80
61 70 80
61 70 80
61 69 80
61 69 80
62 70 80
62 70 80
62 70 80
61 70 80
61 69 80
62 70 80
61 69 80
61 70 80
62 70 80
61 69 80
62 70 80
62 70 80
61 69 80
61 70 80
61 69 80
61 70 80
61 69 80
61 69 80
61 70 80
61 70 80
62 70 80
61 69 80
61 69 80
61 70 80
61 70 80
62 70 80
62 70 80
62 70 80
62 70 80
61 69 80
61 69 80
62 70 80
61 69 80
61 70 80
61 70 80
61 69 80
62 70 80
61 69 80
61 70 80
62 70 80
61 70 80
62 70 80
61 70 80
61 70 80
62 70 80
61 69 80
62 70 80
61 69 80
60 69 80
62 70 80
61 69 80
61 70 80
61 69 80
62 70 80
61 69 80
61 69 80
61 70 80
61 69 80
61 69 80
61 70 80
61 69 80
61 69 80
62 70 80
60 69 80
62 70 80
62 70 80
62 70 80
62 70 80
62 70 80
61 69 80
61 69 80
61 69 80
61 70 80
61 70 80
61 70 80
61 69 80
62 70 80
61 70 80
62 70 80
61 70 80
60 69 80
62 70 80
62 70 80
61 69 80
61 70 80
62 70 80
62 70 80
61 69 80
61 70 80
61 70 80
61 69 80
61 69 80
61 70 80
61 70 80
62 70 80
61 70 80
61 70 80
61 69 80
61 70 80
61 69 80
62 70 80
62 70 80
62 70 80
61 69 80
62 70 80
61 70 80
62 70 80
61 70 80
61 70 80
62 70 80
62 70 80
61 70 80
61 69 80
61 70 80
61 70 80
61 69 80
61 69 80
61 70 80
61 70 80
61 69 80
61 70 80
62 70 80
61 70 80
61 69 80
62 70 80
61 69 80
61 70 80
62 70 80
61 70 80
61 70 80
61 69 80
61 70 80
61 69 80
62 70 80
62 70 80
61 70 80
62 70 80
61 70 80
62 70 80
61 69 80
61 69 80
62 70 80
62 70 80
61 70 80
61 69 80
61 70 80
61 70 80
62 70 80
62 70 80
61 69 80
61 70 80
61 70 80
62 70 80
61 69 80
61 70 80
62 70 80
62 70 80
61 70 80
61 70 80
61 70 80
61 70 80
62 70 80
61 70 80
61 70 80
61 70 80
61 70 80
62 70 80
61 69 80
61 69 80
62 70 80
62 70 80
61 70 80
62 70 80
60 69 80
61 70 80
61 70 80
61 69 80
60 69 80
61 70 80
61 69 80
61 69 80
61 69 80
62 70 80
62 70 80
61 69 80
61 70 80
62 70 80
61 69 80
62 70 80
61 70 80
62 70 80
61 70 80
62 70 80
61 69 80
61 70 80
61 69 80
61 69 80
62 70 80
61 70 80
62 70 80
61 70 80
61 70 80
62 70 80
62 70 80
62 70 80
61 70 80
62 70 80
62 70 80
61 70 80
61 70 80
62 70 80
61 70 80
61 69 80
62 70 80
61 69 80
61 70 80
60 69 80
62 70 80
61 69 80
61 70 80
61 70 80
62 70 80
61 69 80
61 69 80
61 70 80
61 69 80
61 69 80
61 69 80
61 69 80
62 70 80
61 69 80
61 70 80
61 70 80
61 70 80
62 70 80
60 69 80
61 70 80
61 70 80
61 70 80
62 70 80
61 69 80
61 70 80
62 70 80
62 70 80
61 70 80
62 70 80
62 70 80
62 70 80
61 69 80
62 70 80
60 69 80
62 70 80
61 69 80
62 70 80
61 69 80
61 69 80
61 70 80
62 70 80
61 69 80
61 70 80
62 70 80
61 70 80
61 69 80
61 69 80
62 70 80
61 69 80
62 70 80
61 70 80
61 70 80
62 70 80
60 69 80
61 70 80
61 70 80
61 69 80
61 70 80
61 70 80
62 70 80
61 70 80
61 69 80
62 70 80
61 70 80
62 70 80
61 69 80
62 70 80
61 70 80
62 70 80
61 69 80
61 70 80
62 70 80
61 70 80
62 70 80
61 70 80
60 69 80
61 70 80
61 70 80
61 70 80
61 69 80
62 70 80
61 70 80
61 70 80
61 70 80
62 70 80
61 70 80
62 70 80
61 70 80
62 70 80
62 70 80
61 70 80
62 70 80
62 70 80
61 69 80
60 69 80
61 69 80
61 70 80
61 69 80
62 70 80
61 69 80
61 69 80
61 69 80
61 69 80
61 70 80
61 69 80
61 70 80
61 69 80
62 70 80
61 70 80
61 69 80
62 70 80
61 70 80
61 69 80
63 70 80
62 70 80
62 70 80
60 69 80
61 70 80
62 70 80
62 70 80
62 70 80
61 70 80
62 70 80
61 69 80
62 70 80
62 70 80
62 70 80
61 70 80
62 70 80
60 69 80
61 70 80
62 70 80
60 69 80
61 69 80
61 70 80
62 70 80
61 70 80
61 69 80
62 70 80
62 70 80
61 69 80
61 70 80
61 70 80
62 70 80
62 70 80
61 70 80
61 70 80
61 70 80
61 69 80
61 69 80
62 70 80
62 70 80
61 70 80
61 69 80
62 70 80
62 70 80
62 70 80
61 69 80
61 69 80
61 70 80
62 70 80
62 70 80
61 69 80
62 70 80
61 70 80
62 70 80
62 70 80
61 70 80
61 69 80
61 70 80
62 70 80
61 70 80
61 70 80
62 70 80
61 69 80
61 70 80
61 70 80
61 69 80
62 70 80
61 69 80
61 70 80
61 70 80
61 70 80
62 70 80
62 70 80
61 69 80
62 70 80
61 70 80
62 70 80
62 70 80
62 70 80
62 70 80
62 70 80
62 70 80
62 70 80
62 70 80
61 69 80
61 69 80
61 69 80
61 69 80
62 70 80
62 70 80
61 70 80
62 70 80
62 70 80
61 69 80
61 70 80
62 70 80
61 69 80
62 70 80
61 70 80
61 69 80
61 69 80
61 69 80
61 70 80
62 70 80
62 70 80
62 70 80
61 70 80
61 70 80
61 69 80
61 70 80
60 69 80
62 70 80
62 70 80
61 69 80
61 70 80
62 70 80
62 70 80
61 69 80
62 70 80
61 69 80
62 70 80
61 70 80
61 69 80
62 70 80
61 69 80
60 69 80
61 69 80
61 69 80
61 70 80
61 69 80
61 70 80
61 70 80
61 70 80
62 70 80
62 70 80
62 70 80
61 69 80
61 69 80
61 69 80
62 70 80
61 70 80
62 70 80
62 70 80
61 70 80
61 70 80
61 70 80
61 70 80
62 70 80
61 70 80
61 69 80
62 70 80
62 70 80
61 69 80
61 69 80
61 70 80
62 70 80
62 70 80
61 70 80
62 70 80
61 70 80
62 70 80
61 70 80
62 70 80
61 69 80
61 69 80
61 69 80
62 70 80
61 69 80
61 70 80
61 69 80
61 69 80
61 70 80
62 70 80
62 70 80
62 70 80
62 70 80
62 70 80
61 69 80
61 70 80
61 69 80
61 70 80
62 70 80
61 70 80
61 70 80
61 70 80
60 69 80
62 70 80
61 69 80
61 69 80
61 69 80
61 70 80
62 70 80
61 70 80
61 70 80
62 70 80
62 70 80
61 70 80
62 70 80
61 69 80
61 69 80
61 70 80
61 69 80
62 70 80
61 70 80
61 69 80
62 70 80
62 70 80
62 70 80
61 70 80
61 69 80
61 69 80
61 69 80
62 70 80
61 70 80
62 70 80
62 70 80
62 70 80
61 70 80
61 69 80
60 69 80
61 69 80
61 70 80
63 70 80
62 70 80
61 69 80
62 70 80
62 70 80
61 69 80
62 70 80
61 70 80
62 70 80
61 69 80
61 69 80
61 69 80
61 69 80
62 70 80
61 69 80
62 70 80
62 70 80
61 69 80
61 70 80
61 70 80
61 69 80
62 70 80
61 69 80
61 70 80
61 70 80
61 70 80
61 70 80
61 70 80
61 69 80
61 70 80
62 70 80
61 69 80
62 70 80
62 70 80
61 69 80
61 69 80
62 70 80
61 70 80
61 70 80
62 70 80
62 70 80
61 70 80
61 70 80
61 69 80
61 69 80
61 70 80
61 70 80
61 70 80
61 69 80
61 70 80
61 70 80
61 69 80
62 70 80
62 70 80
62 70 80
61 69 80
61 70 80
61 69 80
62 70 80
62 70 80
61 70 80
61 69 80
61 69 80
61 69 80
62 70 80
62 70 80
61 69 80
61 70 80
62 70 80
62 70 80
61 70 80
62 70 80
62 70 80
61 70 80
62 70 80
62 70 80
61 69 80
61 69 80
61 70 80
61 69 80
60 69 80
61 70 80
61 69 80
61 70 80
61 70 80
61 69 80
62 70 80
61 70 80
61 70 80
62 70 80
62 70 80
61 70 80
62 70 80
62 70 80
61 70 80
61 70 80
62 70 80
61 70 80
61 69 80
61 69 80
61 69 80
61 70 80
62 70 80
61 70 80
61 70 80
61 70 80
61 69 80
61 69 80
62 70 80
62 70 80
61 69 80
60 69 80
61 69 80
61 70 80
61 70 80
62 70 80
61 70 80
62 70 80
62 70 80
61 70 80
61 70 80
62 70 80
61 70 80
61 69 80
61 70 80
61 69 80
61 70 80
61 70 80
62 70 80
61 70 80
62 70 80
62 70 80
62 70 80
61 69 80
61 69 80
62 70 80
62 70 80
61 69 80
61 70 80
61 69 80
61 69 80
61 69 80
61 70 80
62 70 80
61 69 80
61 70 80
62 70 80
61 70 80
61 70 80
61 69 80
61 70 80
61 70 80
61 70 80
62 70 80
62 70 80
61 69 80
61 70 80
61 69 80
61 70 80
61 70 80
61 69 80
60 69 80
61 70 80
61 70 80
61 69 80
61 69 80
61 69 80
61 70 80
61 70 80
60 69 80
62 70 80
61 69 80
60 69 80
61 70 80
62 70 80
61 70 80
61 70 80
62 70 80
61 69 80
61 70 80
61 69 80
62 70 80
61 70 80
61 69 80
61 70 80
61 69 80
61 69 80
61 70 80
61 69 80
63 70 80
61 69 80
61 70 80
62 70 80
61 69 80
62 70 80
61 70 80
61 70 80
61 70 80
61 69 80
62 70 80
62 70 80
61 69 80
61 69 80
61 70 80
61 70 80
61 70 80
61 69 80
61 69 80
61 70 80
62 70 80
61 69 80
61 69 80
61 70 80
62 70 80
61 70 80
62 70 80
62 70 80
61 70 80
62 70 80
61 70 80
61 70 80
62 70 80
62 70 80
62 70 80
61 69 80
61 69 80
61 69 80
62 70 80
61 70 80
62 70 80
61 69 80
61 70 80
62 70 80
62 70 80
62 70 80
61 70 80
62 70 80
61 69 80
61 69 80
61 70 80
62 70 80
61 70 80
61 69 80
61 69 80
61 69 80
61 70 80
61 70 80
62 70 80
61 70 80
61 70 80
61 70 80
62 70 80
61 69 80
61 69 80
62 70 80
61 69 80
62 70 80
61 69 80
61 70 80
61 69 80
61 69 80
61 70 80
61 69 80
61 70 80
61 69 80
61 69 80
61 70 80
61 70 80
62 70 80
62 70 80
61 70 80
61 69 80
61 70 80
62 70 80
61 70 80
61 69 80
61 70 80
62 70 80
62 70 80
62 70 80
62 70 80
61 70 80
61 69 80
61 70 80
62 70 80
61 70 80
63 70 80
62 70 80
62 70 80
61 69 80
62 70 80
62 70 80
60 69 80
61 70 80
61 69 80
61 70 80
62 70 80
62 70 80
61 69 80
61 69 80
61 70 80
61 69 80
61 70 80
62 70 80
60 69 80
62 70 80
60 69 80
61 69 80
61 69 80
63 70 80
61 70 80
62 70 80
62 70 80
62 70 80
61 69 80
61 69 80
61 69 80
62 70 80
61 70 80
62 70 80
62 70 80
61 70 80
61 69 80
61 69 80
61 70 80
62 70 80
60 69 80
61 70 80
62 70 80
62 70 80
61 69 80
61 70 80
61 70 80
61 69 80
62 70 80
62 70 80
61 70 80
62 70 80
62 70 80
62 70 80
61 69 80
61 70 80
61 69 80
61 70 80
62 70 80
61 70 80
62 70 80
62 70 80
61 70 80
61 69 80
62 70 80
62 70 80
61 70 80
61 70 80
62 70 80
61 70 80
62 70 80
61 69 80
62 70 80
61 70 80
61 70 80
61 70 80
61 69 80
61 69 80
61 70 80
62 70 80
61 69 80
62 70 80
62 70 80
61 70 80
61 70 80
61 70 80
61 69 80
61 69 80
61 70 80
61 69 80
61 70 80
61 70 80
61 70 80
62 70 80
61 70 80
61 70 80
61 70 80
61 70 80
61 70 80
61 70 80
61 69 80
60 69 80
61 69 80
61 70 80
61 69 80
61 70 80
61 69 80
61 69 80
62 70 80
61 69 80
61 70 80
62 70 80
61 70 80
61 70 80
61 70 80
61 69 80
61 69 80
62 70 80
61 69 80
61 70 80
61 69 80
61 70 80
62 70 80
61 69 80
61 69 80
61 70 80
62 70 80
61 70 80
61 70 80
61 70 80
61 69 80
61 70 80
62 70 80
61 70 80
62 70 80
62 70 80
61 70 80
61 69 80
62 70 80
62 70 80
62 70 80
62 70 80
61 69 80
62 70 80
62 70 80
62 70 80
62 70 80
62 70 80
62 70 80
61 70 80
61 69 80
61 69 80
62 70 80
61 69 80
62 70 80
60 69 80
61 69 80
61 69 80
61 70 80
61 69 80
61 69 80
61 70 80
62 70 80
61 70 80
62 70 80
62 70 80
62 70 80
61 69 80
61 70 80
61 70 80
61 70 80
61 70 80
62 70 80
61 69 80
61 70 80
61 70 80
61 70 80
61 69 80
61 70 80
61 70 80
61 70 80
61 69 80
61 69 80
62 70 80
61 70 80
61 70 80
61 70 80
61 69 80
61 69 80
61 69 80
61 70 80
62 70 80
62 70 80
63 70 80
62 70 80
62 70 80
62 70 80
61 69 80
61 70 80
62 70 80
62 70 80
60 69 80
62 70 80
61 70 80
61 69 80
61 70 80
62 70 80
62 70 80
62 70 80
61 70 80
61 69 80
61 69 80
61 69 80
61 69 80
61 70 80
61 70 80
61 70 80
61 70 80
62 70 80
61 70 80
62 70 80
61 70 80
61 69 80
62 70 80
62 70 80
61 70 80
61 70 80
61 70 80
61 69 80
62 70 80
62 70 80
62 70 80
61 69 80
61 70 80
62 70 80
62 70 80
61 69 80
62 70 80
61 69 80
61 69 80
61 69 80
62 70 80
61 69 80
61 70 80
62 70 80
61 70 80
61 70 80
61 70 80
61 70 80
62 70 80
61 70 80
60 69 80
61 70 80
61 69 80
62 70 80
61 70 80
61 70 80
61 70 80
62 70 80
61 69 80
62 70 80
62 70 80
61 70 80
62 70 80
61 70 80
61 70 80
60 69 80
60 69 80
62 70 80
62 70 80
61 70 80
61 70 80
61 70 80
62 70 80
62 70 80
60 69 80
62 70 80
61 70 80
62 70 80
61 70 80
62 70 80
62 70 80
62 70 80
61 69 80
62 70 80
61 70 80
61 70 80
61 70 80
61 69 80
61 69 80
61 70 80
61 70 80
61 70 80
61 70 80
62 70 80
60 69 80
62 70 80
62 70 80
61 69 80
61 69 80
61 70 80
61 69 80
62 70 80
61 70 80
62 70 80
61 70 80
61 69 80
62 70 80
62 70 80
61 69 80
62 70 80
62 70 80
61 69 80
61 69 80
63 70 80
61 70 80
61 69 80
62 70 80
61 69 80
61 69 80
61 69 80
62 70 80
61 70 80
61 69 80
61 70 80
61 69 80
61 69 80
62 70 80
61 70 80
61 70 80
61 70 80
61 70 80
61 70 80
61 69 80
62 70 80
62 70 80
61 69 80
62 70 80
62 70 80
61 70 80
61 69 80
61 69 80
62 70 80
61 70 80
62 70 80
63 70 80
62 70 80
61 70 80
62 70 80
62 70 80
61 70 80
61 70 80
61 70 80
62 70 80
61 69 80
61 70 80
61 70 80
61 69 80
61 69 80
61 70 80
61 70 80
61 69 80
61 70 80
61 69 80
60 69 80
62 70 80
61 69 80
62 70 80
61 69 80
61 69 80
61 70 80
61 70 80
61 69 80
61 69 80
61 69 80
61 70 80
61 69 80
61 69 80
61 70 80
61 69 80
61 70 80
61 70 80
62 70 80
62 70 80
61 69 80
61 69 80
62 70 80
62 70 80
62 70 80
61 69 80
60 69 80
61 69 80
61 69 80
61 69 80
60 69 80
61 69 80
61 70 80
62 70 80
62 70 80
62 70 80
61 70 80
61 69 80
61 70 80
61 70 80
61 69 80
61 70 80
61 70 80
61 69 80
62 70 80
61 70 80
62 70 80
61 70 80
62 70 80
62 70 80
61 69 80
62 70 80
61 70 80
61 70 80
62 70 80
62 70 80
61 69 80
62 70 80
61 69 80
62 70 80
61 70 80
61 69 80
61 70 80
62 70 80
61 69 80
61 70 80
61 70 80
61 69 80
61 69 80
62 70 80
61 70 80
61 70 80
61 70 80
61 69 80
61 69 80
62 70 80
62 70 80
62 70 80
61 70 80
61 69 80
62 70 80
61 70 80
61 70 80
62 70 80
61 70 80
61 70 80
61 69 80
62 70 80
61 69 80
62 70 80
62 70 80
62 70 80
62 70 80
62 70 80
62 70 80
61 69 80
62 70 80
61 70 80
61 69 80
62 70 80
62 70 80
62 70 80
62 70 80
61 70 80
62 70 80
61 70 80
62 70 80
61 69 80
61 70 80
61 69 80
61 70 80
62 70 80
62 70 80
61 69 80
61 69 80
61 69 80
61 70 80
61 69 80
61 69 80
61 69 80
61 69 80
61 70 80
61 69 80
61 69 80
62 70 80
61 69 80
61 70 80
62 70 80
61 69 80
61 69 80
61 70 80
61 70 80
61 70 80
62 70 80
61 69 80
61 70 80
61 69 80
61 69 80
61 70 80
61 70 80
62 70 80
61 69 80
61 70 80
61 70 80
61 69 80
61 70 80
61 69 80
61 69 80
62 70 80
62 70 80
62 70 80
61 70 80
62 70 80
61 70 80
61 69 80
62 70 80
61 70 80
61 70 80
61 70 80
62 70 80
61 69 80
61 69 80
61 70 80
61 70 80
61 69 80
61 69 80
61 70 80
61 70 80
62 70 80
62 70 80
62 70 80
62 70 80
61 70 80
62 70 80
62 70 80
61 69 80
60 69 80
62 70 80
61 70 80
61 70 80
62 70 80
61 70 80
62 70 80
61 70 80
61 69 80
61 70 80
61 70 80
61 70 80
61 70 80
61 70 80
61 69 80
62 70 80
61 70 80
61 70 80
61 69 80
61 70 80
62 70 80
61 69 80
62 70 80
61 70 80
62 70 80
61 70 80
61 69 80
61 70 80
62 70 80
61 69 80
61 70 80
61 69 80
61 70 80
61 70 80
61 69 80
61 70 80
60 69 80
62 70 80
62 70 80
61 69 80
61 69 80
61 69 80
61 69 80
62 70 80
61 69 80
60 69 80
62 70 80
61 69 80
61 69 80
61 70 80
60 69 80
62 70 80
61 70 80
62 70 80
61 69 80
61 69 80
62 70 80
60 69 80
61 70 80
61 69 80
61 70 80
61 69 80
62 70 80
60 69 80
62 70 80
62 70 80
62 70 80
62 70 80
62 70 80
62 70 80
62 70 80
62 70 80
62 70 80
61 69 80
61 69 80
61 69 80
62 70 80
61 70 80
62 70 80
61 69 80
61 69 80
61 70 80
61 70 80
61 69 80
62 70 80
62 70 80
62 70 80
62 70 80
62 70 80
61 69 80
61 70 80
61 70 80
61 69 80
62 70 80
62 70 80
61 69 80
62 70 80
61 69 80
61 70 80
62 70 80
61 69 80
61 70 80
62 70 80
62 70 80
61 70 80
61 69 80
62 70 80
61 69 80
62 70 80
61 69 80
61 70 80
61 69 80
61 70 80
61 70 80
61 69 80
61 69 80
62 70 80
61 69 80
60 69 80
61 69 80
62 70 80
61 70 80
61 69 80
61 69 80
61 69 80
61 69 80
62 70 80
62 70 80
61 69 80
62 70 80
61 69 80
62 70 80
61 70 80
62 70 80
61 69 80
61 69 80
61 70 80
61 70 80
62 70 80
62 70 80
61 70 80
62 70 80
61 69 80
60 69 80
61 69 80
62 70 80
61 69 80
61 69 80
61 69 80
62 70 80
62 70 80
62 70 80
61 70 80
63 70 80
61 70 80
62 70 80
61 69 80
61 69 80
62 70 80
62 70 80
61 70 80
61 70 80
61 70 80
62 70 80
61 69 80
61 70 80
61 70 80
62 70 80
62 70 80
61 69 80
61 69 80
62 70 80
62 70 80
61 70 80
62 70 80
61 69 80
61 70 80
62 70 80
62 70 80
61 69 80
61 70 80
61 70 80
61 70 80
61 70 80
62 70 80
61 70 80
62 70 80
62 70 80
60 69 80
60 69 80
62 70 80
61 70 80
62 70 80
61 69 80
61 70 80
61 69 80
61 69 80
61 69 80
62 70 80
61 70 80
61 69 80
63 70 80
61 70 80
60 69 80
62 70 80
62 70 80
60 69 80
61 69 80
61 70 80
61 70 80
62 70 80
62 70 80
61 70 80
61 70 80
61 70 80
61 69 80
62 70 80
61 70 80
61 70 80
62 70 80
62 70 80
61 70 80
62 70 80
62 70 80
61 69 80
62 70 80
61 69 80
61 69 80
62 70 80
61 69 80
62 70 80
61 70 80
61 69 80
61 70 80
61 70 80
61 69 80
61 69 80
61 70 80
61 70 80
61 69 80
61 70 80
62 70 80
61 69 80
61 70 80
62 70 80
62 70 80
62 70 80
62 70 80
61 69 80
62 70 80
62 70 80
61 70 80
62 70 80
62 70 80
62 70 80
61 69 80
61 69 80
60 69 80
61 69 80
61 70 80
61 69 80
61 70 80
62 70 80
61 69 80
61 70 80
61 70 80
62 70 80
61 70 80
61 70 80
61 70 80
61 69 80
61 69 80
61 69 80
60 69 80
61 69 80
62 70 80
61 70 80
61 70 80
62 70 80
62 70 80
62 70 80
61 70 80
62 70 80
62 70 80
61 70 80
61 70 80
61 69 80
61 70 80
61 70 80
61 69 80
62 70 80
62 70 80
61 70 80
61 70 80
61 69 80
61 69 80
62 70 80
61 69 80
62 70 80
61 69 80
61 70 80
62 70 80
62 70 80
62 70 80
61 70 80
62 70 80
61 69 80
61 69 80
61 70 80
61 70 80
60 69 80
61 70 80
62 70 80
61 70 80
60 69 80
61 69 80
61 70 80
61 70 80
62 70 80
62 70 80
61 69 80
61 70 80
61 70 80
62 70 80
61 70 80
61 69 80
61 70 80
62 70 80
60 69 80
61 70 80
62 70 80
61 70 80
61 69 80
62 70 80
61 69 80
61 69 80
61 69 80
61 69 80
62 70 80
62 70 80
61 70 80
62 70 80
60 69 80
61 70 80
61 70 80
61 69 80
61 70 80
61 70 80
61 70 80
61 70 80
61 70 80
61 69 80
63 70 80
61 69 80
62 70 80
61 69 80
62 70 80
62 70 80
61 70 80
61 69 80
61 70 80
61 70 80
61 70 80
61 70 80
61 70 80
61 70 80
61 70 80
61 70 80
61 69 80
61 70 80
62 70 80
61 70 80
62 70 80
62 70 80
61 70 80
61 69 80
62 70 80
61 70 80
61 70 80
61 69 80
61 69 80
60 69 80
62 70 80
62 70 80
62 70 80
61 69 80
62 70 80
62 70 80
61 69 80
62 70 80
61 70 80
62 70 80
61 69 80
62 70 80
62 70 80
61 69 80
62 70 80
61 70 80
61 69 80
62 70 80
63 70 80
61 69 80
62 70 80
62 70 80
62 70 80
62 70 80
61 69 80
61 70 80
61 70 80
62 70 80
62 70 80
61 69 80
61 70 80
61 70 80
61 69 80
61 69 80
61 69 80
61 69 80
61 70 80
62 70 80
62 70 80
61 70 80
61 70 80
60 69 80
61 70 80
61 70 80
61 70 80
62 70 80
62 70 80
62 70 80
61 70 80
61 70 80
61 70 80
61 70 80
62 70 80
61 69 80
61 70 80
61 69 80
62 70 80
61 70 80
61 70 80
61 70 80
61 70 80
61 69 80
61 69 80
62 70 80
62 70 80
61 69 80
62 70 80
62 70 80
62 70 80
60 69 80
62 70 80
61 70 80
61 70 80
61 70 80
61 69 80
62 70 80
61 70 80
61 69 80
62 70 80
61 69 80
61 69 80
61 69 80
62 70 80
62 70 80
62 70 80
61 70 80
61 70 80
62 70 80
61 69 80
61 69 80
62 70 80
61 69 80
62 70 80
61 69 80
62 70 80
61 70 80
61 70 80
61 69 80
60 69 80
61 69 80
62 70 80
61 69 80
61 70 80
61 70 80
61 70 80
62 70 80
62 70 80
61 70 80
61 69 80
61 70 80
62 70 80
61 69 80
61 70 80
61 69 80
61 70 80
61 69 80
62 70 80
61 70 80
62 70 80
61 69 80
61 70 80
61 69 80
61 69 80
62 70 80
62 70 80
61 69 80
62 70 80
61 70 80
61 70 80
61 70 80
61 69 80
61 69 80
61 70 80
60 69 80
62 70 80
61 70 80
61 70 80
62 70 80
61 69 80
61 70 80
62 70 80
62 70 80
61 70 80
61 69 80
61 69 80
61 70 80
61 70 80
62 70 80
61 70 80
62 70 80
61 69 80
61 69 80
62 70 80
61 70 80
62 70 80
61 70 80
61 69 80
61 69 80
62 70 80
62 70 80
61 70 80
61 69 80
61 69 80
62 70 80
62 70 80
61 69 80
61 70 80
62 70 80
62 70 80
61 69 80
60 69 80
62 70 80
61 69 80
61 69 80
62 70 80
61 69 80
61 70 80
61 69 80
61 70 80
61 70 80
61 69 80
61 70 80
62 70 80
61 70 80
61 69 80
61 69 80
61 69 80
61 69 80
61 70 80
62 70 80
61 69 80
61 69 80
61 70 80
61 70 80
61 69 80
61 69 80
62 70 80
61 69 80
62 70 80
62 70 80
62 70 80
61 69 80
61 70 80
61 69 80
61 69 80
62 70 80
61 70 80
62 70 80
61 70 80
62 70 80
62 70 80
61 70 80
61 70 80
61 69 80
62 70 80
61 70 80
61 70 80
61 69 80
61 69 80
61 70 80
62 70 80
61 69 80
61 69 80
61 70 80
61 70 80
61 70 80
62 70 80
62 70 80
61 70 80
61 69 80
61 70 80
61 70 80
61 69 80
62 70 80
61 70 80
62 70 80
62 70 80
61 69 80
61 69 80
62 70 80
61 70 80
61 69 80
61 69 80
62 70 80
61 69 80
61 70 80
61 69 80
61 70 80
61 69 80
62 70 80
61 69 80
61 69 80
62 70 80
61 70 80
61 69 80
62 70 80
62 70 80
61 69 80
61 69 80
61 70 80
62 70 80
61 70 80
61 70 80
61 70 80
62 70 80
61 69 80
61 69 80
61 70 80
62 70 80
62 70 80
61 69 80
61 69 80
62 70 80
61 70 80
61 70 80
61 69 80
62 70 80
60 69 80
62 70 80
61 70 80
62 70 80
61 69 80
61 69 80
62 70 80
61 69 80
62 70 80
62 70 80
61 70 80
62 70 80
61 70 80
61 70 80
61 70 80
62 70 80
61 70 80
62 70 80
61 69 80
60 69 80
61 69 80
62 70 80
61 69 80
60 69 80
62 70 80
61 69 80
61 69 80
61 69 80
62 70 80
61 70 80
61 70 80
62 70 80
61 69 80
62 70 80
61 70 80
62 70 80
61 70 80
61 69 80
62 70 80
61 70 80
61 70 80
61 69 80
62 70 80
62 70 80
60 69 80
62 70 80
62 70 80
61 70 80
62 70 80
61 69 80
61 69 80
62 70 80
61 69 80
61 70 80
61 70 80
61 70 80
62 70 80
61 70 80
61 69 80
62 70 80
61 69 80
62 70 80
61 69 80
61 70 80
61 70 80
61 69 80
62 70 80
61 69 80
60 69 80
62 70 80
62 70 80
61 69 80
61 70 80
61 70 80
62 70 80
61 70 80
61 70 80
61 70 80
62 70 80
61 69 80
61 70 80
60 69 80
63 70 80
61 69 80
61 70 80
62 70 80
62 70 80
61 70 80
62 70 80
61 70 80
61 70 80
61 69 80
62 70 80
61 70 80
61 69 80
63 70 80
61 69 80
61 70 80
62 70 80
62 70 80
62 70 80
62 70 80
62 70 80
61 69 80
62 70 80
63 70 80
62 70 80
62 70 80
61 70 80
61 70 80
61 70 80
60 69 80
61 70 80
61 69 80
62 70 80
61 70 80
61 70 80
61 70 80
62 70 80
62 70 80
61 69 80
61 70 80
61 69 80
62 70 80
62 70 80
62 70 80
61 69 80
61 70 80
61 69 80
61 70 80
62 70 80
62 70 80
62 70 80
61 69 80
60 69 80
62 70 80
62 70 80
62 70 80
62 70 80
61 69 80
62 70 80
61 69 80
61 69 80
61 69 80
62 70 80
62 70 80
62 70 80
62 70 80
61 69 80
61 70 80
61 69 80
61 69 80
61 69 80
61 70 80
62 70 80
61 69 80
61 70 80
61 69 80
61 70 80
61 69 80
61 69 80
62 70 80
61 69 80
62 70 80
61 70 80
61 70 80
61 69 80
61 70 80
61 69 80
61 70 80
61 70 80
62 70 80
62 70 80
61 69 80
61 70 80
61 70 80
61 70 80
61 70 80
61 70 80
62 70 80
62 70 80
61 69 80
62 70 80
61 70 80
62 70 80
62 70 80
62 70 80
62 70 80
61 69 80
61 70 80
61 69 80
61 69 80
61 70 80
61 69 80
62 70 80
61 69 80
61 70 80
61 70 80
61 70 80
62 70 80
61 69 80
61 70 80
61 69 80
62 70 80
61 70 80
61 69 80
61 69 80
62 70 80
61 69 80
61 69 80
61 69 80
62 70 80
61 70 80
61 69 80
61 70 80
61 70 80
61 69 80
61 69 80
61 70 80
61 70 80
62 70 80
61 69 80
61 70 80
61 69 80
62 70 80
62 70 80
62 70 80
61 69 80
62 70 80
61 70 80
61 70 80
61 70 80
62 70 80
61 69 80
62 70 80
62 70 80
61 69 80
62 70 80
63 70 80
61 70 80
62 70 80
61 70 80
62 70 80
62 70 80
61 70 80
61 70 80
61 69 80
62 70 80
61 69 80
61 70 80
62 70 80
62 70 80
60 69 80
63 70 80
62 70 80
61 70 80
62 70 80
61 69 80
61 69 80
61 70 80
61 69 80
61 69 80
62 70 80
61 69 80
62 70 80
61 70 80
61 69 80
61 70 80
61 69 80
61 70 80
61 69 80
61 70 80
61 69 80
61 70 80
61 69 80
61 70 80
62 70 80
61 70 80
61 69 80
62 70 80
61 69 80
61 70 80
61 70 80
62 70 80
62 70 80
61 69 80
61 69 80
61 69 80
62 70 80
62 70 80
61 70 80
61 70 80
62 70 80
62 70 80
62 70 80
62 70 80
62 70 80
62 70 80
62 70 80
61 69 80
62 70 80
62 70 80
61 69 80
62 70 80
61 69 80
61 69 80
61 69 80
62 70 80
61 70 80
61 69 80
62 70 80
62 70 80
61 69 80
61 70 80
61 69 80
61 69 80
62 70 80
62 70 80
61 70 80
62 70 80
61 70 80
62 70 80
61 70 80
61 70 80
62 70 80
61 69 80
62 70 80
61 70 80
61 70 80
63 70 80
62 70 80
61 69 80
61 69 80
61 70 80
61 70 80
61 69 80
61 70 80
61 69 80
61 69 80
62 70 80
61 69 80
61 70 80
62 70 80
61 69 80
61 69 80
61 69 80
60 69 80
61 69 80
61 69 80
62 70 80
62 70 80
61 69 80
62 70 80
61 69 80
62 70 80
61 69 80
61 70 80
61 70 80
61 69 80
62 70 80
62 70 80
61 70 80
61 70 80
61 69 80
62 70 80
61 70 80
61 70 80
61 70 80
62 70 80
61 69 80
61 69 80
61 70 80
61 70 80
62 70 80
61 70 80
61 69 80
62 70 80
60 69 80
62 70 80
61 70 80
62 70 80
62 70 80
61 70 80
61 70 80
61 69 80
61 69 80
62 70 80
61 69 80
62 70 80
61 69 80
62 70 80
62 70 80
62 70 80
61 69 80
61 69 80
61 69 80
62 70 80
61 69 80
62 70 80
62 70 80
61 70 80
61 70 80
61 70 80
61 70 80
61 69 80
61 69 80
61 70 80
61 69 80
61 70 80
60 69 80
61 70 80
61 70 80
62 70 80
61 70 80
61 69 80
61 69 80
61 70 80
62 70 80
62 70 80
62 70 80
61 70 80
61 70 80
61 70 80
61 69 80
62 70 80
62 70 80
62 70 80
61 70 80
62 70 80
61 69 80
62 70 80
62 70 80
61 69 80
61 69 80
61 69 80
61 69 80
62 70 80
61 69 80
61 70 80
61 70 80
62 70 80
62 70 80
61 69 80
62 70 80
61 70 80
61 69 80
61 70 80
61 69 80
61 70 80
61 69 80
61 69 80
61 69 80
62 70 80
62 70 80
61 69 80
61 69 80
61 70 80
62 70 80
62 70 80
62 70 80
61 69 80
61 69 80
61 69 80
61 70 80
61 69 80
62 70 80
61 70 80
61 69 80
61 70 80
62 70 80
61 69 80
62 70 80
62 70 80
62 70 80
61 69 80
62 70 80
60 69 80
62 70 80
61 69 80
61 69 80
61 69 80
61 70 80
61 69 80
61 69 80
61 70 80
61 70 80
62 70 80
61 69 80
62 70 80
61 69 80
61 69 80
60 69 80
62 70 80
61 70 80
62 70 80
62 70 80
61 69 80
62 70 80
62 70 80
61 69 80
61 69 80
61 70 80
62 70 80
61 70 80
61 69 80
61 69 80
61 70 80
61 70 80
61 70 80
61 70 80
62 70 80
61 70 80
61 69 80
62 70 80
61 69 80
61 70 80
61 70 80
62 70 80
61 69 80
61 69 80
62 70 80
62 70 80
61 69 80
62 70 80
61 69 80
61 69 80
62 70 80
62 70 80
61 69 80
61 70 80
62 70 80
62 70 80
61 69 80
61 69 80
61 70 80
61 70 80
62 70 80
61 69 80
61 70 80
61 70 80
61 70 80
62 70 80
62 70 80
61 70 80
61 70 80
62 70 80
62 70 80
61 69 80
61 69 80
61 70 80
61 70 80
61 70 80
61 70 80
61 69 80
62 70 80
61 70 80
62 70 80
62 70 80
62 70 80
61 70 80
62 70 80
61 70 80
61 70 80
61 70 80
62 70 80
62 70 80
61 69 80
62 70 80
62 70 80
62 70 80
61 69 80
61 69 80
62 70 80
62 70 80
61 70 80
61 69 80
60 69 80
62 70 80
60 69 80
61 70 80
62 70 80
61 70 80
61 70 80
62 70 80
60 69 80
61 69 80
62 70 80
61 69 80
61 70 80
60 69 80
61 70 80
61 70 80
62 70 80
61 70 80
61 70 80
62 70 80
62 70 80
62 70 80
61 70 80
61 70 80
61 69 80
61 70 80
62 70 80
61 69 80
61 70 80
62 70 80
62 70 80
62 70 80
61 70 80
62 70 80
61 69 80
62 70 80
62 70 80
61 69 80
61 70 80
63 70 80
61 70 80
62 70 80
61 69 80
61 70 80
61 69 80
61 69 80
62 70 80
62 70 80
61 70 80
61 70 80
61 69 80
62 70 80
62 70 80
61 70 80
62 70 80
61 70 80
61 70 80
61 69 80
61 69 80
62 70 80
61 69 80
62 70 80
62 70 80
61 70 80
61 69 80
61 70 80
62 70 80
62 70 80
62 70 80
62 70 80
61 70 80
62 70 80
61 69 80
61 69 80
61 69 80
61 69 80
62 70 80
61 69 80
62 70 80
61 70 80
61 69 80
62 70 80
61 70 80
61 70 80
61 70 80
61 70 80
62 70 80
62 70 80
61 70 80
61 70 80
61 69 80
62 70 80
61 70 80
61 70 80
61 69 80
62 70 80
61 70 80
61 69 80
61 69 80
61 69 80
60 69 80
62 70 80
62 70 80
62 70 80
61 69 80
61 69 80
62 70 80
61 69 80
61 70 80
61 69 80
62 70 80
61 70 80
61 70 80
62 70 80
61 69 80
61 69 80
61 70 80
61 69 80
62 70 80
62 70 80
61 70 80
61 69 80
61 69 80
61 70 80
61 69 80
62 70 80
61 70 80
61 70 80
62 70 80
61 69 80
63 70 80
62 70 80
61 70 80
61 69 80
61 70 80
61 70 80
61 69 80
62 70 80
61 70 80
60 69 80
61 69 80
61 70 80
61 69 80
62 70 80
61 70 80
61 69 80
61 69 80
61 69 80
61 70 80
62 70 80
61 70 80
62 70 80
61 70 80
62 70 80
61 70 80
61 69 80
61 69 80
62 70 80
61 69 80
62 70 80
62 70 80
62 70 80
61 69 80
62 70 80
62 70 80
61 69 80
61 70 80
61 69 80
61 69 80
61 70 80
61 70 80
60 69 80
61 70 80
62 70 80
60 69 80
62 70 80
62 70 80
61 70 80
61 70 80
62 70 80
62 70 80
62 70 80
62 70 80
61 69 80
61 70 80
61 69 80
61 69 80
61 69 80
62 70 80
62 70 80
62 70 80
61 70 80
62 70 80
61 69 80
62 70 80
62 70 80
61 69 80
61 69 80
61 70 80
61 69 80
62 70 80
61 69 80
60 69 80
61 69 80
62 70 80
61 70 80
61 69 80
61 69 80
62 70 80
61 70 80
61 69 80
61 70 80
62 70 80
61 69 80
61 70 80
62 70 80
62 70 80
61 69 80
61 70 80
61 70 80
61 70 80
61 70 80
61 69 80
61 69 80
62 70 80
62 70 80
61 69 80
61 69 80
61 69 80
62 70 80
62 70 80
61 69 80
62 70 80
61 69 80
62 70 80
61 70 80
62 70 80
61 70 80
62 70 80
62 70 80
61 69 80
62 70 80
61 69 80
61 70 80
61 69 80
61 70 80
62 70 80
62 70 80
61 69 80
61 70 80
60 69 80
62 70 80
61 70 80
61 69 80
61 70 80
61 70 80
62 70 80
61 70 80
61 69 80
62 70 80
61 70 80
61 70 80
61 69 80
62 70 80
62 70 80
61 69 80
61 69 80
61 70 80
61 69 80
62 70 80
61 69 80
62 70 80
60 69 80
62 70 80
61 69 80
61 70 80
62 70 80
61 70 80
61 70 80
61 70 80
62 70 80
62 70 80
61 70 80
61 69 80
61 70 80
61 70 80
61 70 80
61 69 80
62 70 80
61 70 80
61 69 80
61 69 80
62 70 80
61 69 80
61 69 80
62 70 80
62 70 80
61 69 80
61 70 80
62 70 80
62 70 80
61 70 80
62 70 80
62 70 80
61 69 80
61 70 80
61 70 80
61 70 80
61 70 80
62 70 80
61 69 80
61 70 80
61 70 80
61 70 80
61 69 80
61 69 80
61 70 80
62 70 80
61 69 80
61 69 80
61 69 80
62 70 80
61 70 80
62 70 80
61 70 80
61 70 80
61 70 80
62 70 80
60 69 80
61 70 80
61 69 80
61 70 80
62 70 80
61 69 80
61 70 80
61 70 80
61 70 80
61 70 80
61 69 80
61 70 80
62 70 80
61 69 80
61 70 80
62 70 80
62 70 80
61 70 80
63 70 80
61 70 80
61 69 80
61 70 80
61 69 80
61 69 80
61 70 80
61 70 80
61 69 80
61 69 80
62 70 80
62 70 80
61 70 80
62 70 80
62 70 80
61 70 80
61 70 80
62 70 80
61 69 80
62 70 80
62 70 80
61 69 80
61 69 80
62 70 80
62 70 80
62 70 80
60 69 80
62 70 80
62 70 80
62 70 80
61 69 80
61 70 80
62 70 80
62 70 80
61 70 80
62 70 80
62 70 80
61 69 80
62 70 80
61 69 80
62 70 80
61 70 80
62 70 80
61 70 80
61 69 80
61 69 80
62 70 80
61 69 80
61 69 80
61 69 80
61 69 80
62 70 80
62 70 80
62 70 80
61 70 80
61 69 80
60 69 80
60 69 80
61 69 80
61 69 80
61 69 80
62 70 80
61 70 80
61 70 80
61 70 80
62 70 80
62 70 80
61 70 80
62 70 80
61 70 80
61 69 80
61 69 80
61 70 80
62 70 80
61 69 80
60 69 80
61 70 80
61 69 80
60 69 80
61 69 80
61 69 80
62 70 80
62 70 80
61 70 80
63 70 80
61 69 80
61 70 80
62 70 80
61 70 80
62 70 80
61 70 80
61 70 80
62 70 80
61 69 80
61 70 80
62 70 80
62 70 80
61 70 80
61 69 80
62 70 80
61 69 80
61 70 80
62 70 80
61 70 80
61 69 80
61 70 80
62 70 80
62 70 80
61 69 80
61 69 80
62 70 80
62 70 80
61 69 80
61 69 80
60 69 80
62 70 80
61 69 80
61 70 80
61 69 80
61 69 80
61 69 80
62 70 80
61 70 80
61 70 80
62 70 80
63 70 80
61 70 80
61 70 80
61 70 80
62 70 80
62 70 80
61 70 80
61 70 80
62 70 80
61 70 80
61 70 80
62 70 80
61 70 80
62 70 80
61 69 80
62 70 80
62 70 80
61 69 80
61 70 80
62 70 80
61 69 80
60 69 80
62 70 80
61 69 80
61 70 80
61 69 80
61 70 80
61 70 80
62 70 80
61 70 80
61 69 80
61 70 80
61 69 80
61 70 80
60 69 80
62 70 80
61 70 80
61 69 80
62 70 80
62 70 80
62 70 80
61 70 80
61 69 80
62 70 80
60 69 80
61 69 80
62 70 80
61 69 80
61 69 80
61 70 80
61 69 80
62 70 80
61 70 80
62 70 80
60 69 80
62 70 80
62 70 80
62 70 80
62 70 80
60 69 80
61 70 80
61 70 80
61 70 80
61 69 80
62 70 80
61 69 80
61 70 80
62 70 80
61 69 80
61 69 80
62 70 80
61 70 80
62 70 80
62 70 80
61 69 80
61 69 80
61 70 80
61 69 80
62 70 80
61 70 80
62 70 80
61 70 80
63 70 80
62 70 80
61 70 80
62 70 80
62 70 80
61 69 80
61 70 80
62 70 80
61 70 80
62 70 80
61 70 80
61 70 80
62 70 80
61 69 80
61 70 80
61 69 80
62 70 80
61 69 80
61 69 80
61 69 80
61 70 80
61 69 80
61 70 80
61 69 80
61 70 80
61 69 80
61 70 80
61 69 80
61 69 80
61 70 80
62 70 80
61 69 80
61 69 80
62 70 80
62 70 80
61 69 80
61 70 80
62 70 80
61 69 80
61 70 80
62 70 80
62 70 80
61 69 80
62 70 80
62 70 80
61 69 80
62 70 80
61 70 80
61 70 80
62 70 80
62 70 80
61 69 80
61 70 80
60 69 80
61 70 80
61 70 80
61 70 80
62 70 80
61 70 80
61 69 80
61 69 80
61 70 80
62 70 80
61 70 80
61 69 80
61 69 80
61 70 80
61 69 80
61 70 80
62 70 80
61 70 80
61 70 80
61 69 80
61 69 80
62 70 80
62 70 80
61 70 80
63 70 80
61 70 80
61 70 80
62 70 80
61 70 80
61 69 80
61 69 80
61 69 80
62 70 80
61 69 80
61 69 80
61 70 80
62 70 80
61 69 80
62 70 80
61 70 80
62 70 80
61 70 80
60 69 80
61 69 80
61 70 80
62 70 80
61 69 80
61 70 80
61 70 80
61 70 80
61 70 80
62 70 80
61 69 80
61 69 80
62 70 80
61 70 80
62 70 80
61 70 80
61 70 80
61 69 80
62 70 80
61 70 80
62 70 80
61 69 80
61 69 80
62 70 80
62 70 80
62 70 80
61 70 80
61 69 80
61 70 80
61 70 80
62 70 80
61 69 80
61 69 80
62 70 80
62 70 80
62 70 80
61 69 80
61 69 80
61 69 80
62 70 80
62 70 80
61 70 80
62 70 80
60 69 80
61 69 80
62 70 80
61 69 80
62 70 80
62 70 80
61 69 80
62 70 80
61 70 80
61 69 80
61 70 80
61 69 80
61 69 80
61 69 80
61 70 80
62 70 80
61 70 80
62 70 80
61 69 80
61 69 80
61 69 80
62 70 80
62 70 80
62 70 80
62 70 80
61 69 80
61 69 80
62 70 80
61 69 80
62 70 80
61 70 80
61 70 80
61 69 80
61 69 80
62 70 80
61 70 80
62 70 80
61 69 80
61 69 80
61 69 80
61 70 80
61 70 80
61 70 80
62 70 80
61 70 80
61 70 80
61 70 80
61 70 80
61 69 80
61 70 80
61 69 80
62 70 80
61 69 80
61 69 80
61 70 80
61 69 80
61 70 80
62 70 80
62 70 80
62 70 80
62 70 80
62 70 80
61 70 80
61 69 80
62 70 80
61 70 80
62 70 80
62 70 80
61 70 80
61 70 80
60 69 80
61 70 80
61 69 80
62 70 80
62 70 80
61 69 80
60 69 80
61 70 80
62 70 80
62 70 80
61 69 80
61 69 80
61 70 80
62 70 80
62 70 80
60 69 80
62 70 80
62 70 80
62 70 80
61 69 80
62 70 80
61 69 80
61 70 80
61 69 80
62 70 80
61 69 80
61 70 80
61 69 80
62 70 80
62 70 80
62 70 80
61 69 80
61 69 80
62 70 80
62 70 80
61 69 80
61 69 80
62 70 80
61 70 80
62 70 80
61 69 80
60 69 80
61 70 80
61 69 80
61 70 80
61 70 80
60 69 80
61 70 80
62 70 80
62 70 80
62 70 80
61 69 80
62 70 80
61 69 80
62 70 80
61 70 80
62 70 80
61 69 80
61 70 80
62 70 80
61 69 80
62 70 80
61 70 80
61 69 80
61 70 80
61 70 80
62 70 80
62 70 80
62 70 80
62 70 80
61 69 80
62 70 80
62 70 80
62 70 80
62 70 80
61 70 80
61 70 80
61 69 80
62 70 80
62 70 80
61 70 80
62 70 80
62 70 80
62 70 80
61 70 80
61 70 80
61 70 80
61 70 80
61 70 80
61 70 80
61 70 80
61 69 80
60 69 80
61 70 80
61 70 80
62 70 80
61 70 80
61 69 80
62 70 80
61 70 80
62 70 80
61 70 80
61 70 80
61 69 80
61 69 80
61 69 80
61 70 80
62 70 80
61 70 80
61 70 80
61 70 80
61 69 80
61 70 80
61 69 80
61 69 80
62 70 80
61 69 80
61 70 80
62 70 80
61 70 80
61 70 80
61 69 80
60 69 80
62 70 80
61 69 80
62 70 80
62 70 80
61 70 80
61 69 80
61 69 80
61 70 80
61 69 80
61 70 80
62 70 80
61 70 80
61 70 80
62 70 80
62 70 80
61 69 80
61 70 80
61 69 80
61 70 80
61 70 80
62 70 80
61 70 80
61 70 80
61 69 80
63 70 80
62 70 80
62 70 80
61 70 80
61 69 80
61 70 80
62 70 80
61 69 80
61 70 80
61 70 80
60 69 80
60 69 80
61 70 80
62 70 80
61 70 80
62 70 80
61 69 80
62 70 80
61 70 80
62 70 80
61 69 80
61 70 80
61 70 80
61 70 80
61 70 80
62 70 80
61 70 80
61 70 80
61 69 80
61 69 80
62 70 80
62 70 80
61 69 80
62 70 80
61 69 80
62 70 80
61 69 80
62 70 80
62 70 80
61 69 80
61 69 80
61 70 80
61 69 80
61 69 80
61 70 80
61 69 80
61 70 80
62 70 80
61 69 80
61 70 80
62 70 80
62 70 80
61 70 80
61 69 80
61 69 80
61 70 80
62 70 80
61 70 80
62 70 80
62 70 80
62 70 80
61 69 80
62 70 80
61 70 80
61 70 80
62 70 80
61 70 80
62 70 80
62 70 80
62 70 80
62 70 80
61 70 80
61 69 80
61 69 80
62 70 80
61 70 80
62 70 80
61 70 80
62 70 80
61 69 80
62 70 80
60 69 80
60 69 80
61 70 80
61 70 80
61 70 80
62 70 80
62 70 80
62 70 80
61 70 80
61 70 80
61 69 80
62 70 80
61 69 80
61 69 80
62 70 80
61 70 80
61 70 80
61 69 80
62 70 80
61 70 80
61 70 80
62 70 80
62 70 80
61 69 80
61 70 80
61 69 80
61 70 80
61 70 80
62 70 80
61 69 80
61 70 80
61 69 80
61 69 80
61 69 80
62 70 80
61 69 80
61 69 80
61 69 80
61 70 80
62 70 80
61 69 80
62 70 80
61 69 80
60 69 80
62 70 80
61 69 80
61 69 80
61 70 80
61 69 80
61 70 80
62 70 80
61 69 80
62 70 80
62 70 80
61 70 80
61 69 80
61 70 80
61 69 80
61 70 80
61 70 80
61 70 80
61 70 80
61 69 80
61 69 80
62 70 80
61 70 80
61 69 80
61 69 80
61 69 80
61 70 80
62 70 80
61 69 80
61 70 80
61 69 80
61 69 80
61 70 80
61 69 80
61 70 80
62 70 80
61 70 80
61 69 80
62 70 80
61 70 80
62 70 80
61 69 80
61 70 80
61 69 80
62 70 80
62 70 80
61 69 80
62 70 80
62 70 80
62 70 80
62 70 80
61 70 80
61 70 80
62 70 80
61 69 80
62 70 80
61 70 80
61 69 80
62 70 80
61 69 80
61 69 80
61 69 80
61 70 80
61 69 80
62 70 80
62 70 80
61 70 80
61 70 80
62 70 80
61 70 80
60 69 80
61 70 80
61 69 80
62 70 80
61 69 80
61 70 80
61 69 80
61 69 80
61 70 80
61 70 80
62 70 80
61 69 80
61 70 80
61 69 80
62 70 80
62 70 80
61 69 80
60 69 80
62 70 80
61 69 80
62 70 80
61 70 80
62 70 80
62 70 80
62 70 80
61 70 80
62 70 80
61 70 80
62 70 80
61 69 80
61 69 80
61 70 80
61 70 80
61 70 80
61 70 80
62 70 80
61 70 80
62 70 80
62 70 80
62 70 80
61 70 80
61 69 80
62 70 80
61 70 80
61 69 80
61 70 80
61 70 80
61 69 80
61 70 80
61 70 80
61 70 80
61 69 80
61 70 80
61 70 80
61 69 80
61 70 80
61 70 80
62 70 80
62 70 80
61 69 80
60 69 80
61 70 80
61 70 80
62 70 80
61 69 80
61 69 80
61 70 80
61 69 80
61 69 80
61 70 80
61 69 80
61 69 80
61 69 80
61 70 80
61 69 80
62 70 80
61 69 80
61 69 80
61 70 80
62 70 80
61 70 80
62 70 80
61 69 80
62 70 80
61 69 80
62 70 80
61 69 80
61 69 80
61 70 80
61 69 80
62 70 80
62 70 80
61 69 80
61 69 80
62 70 80
62 70 80
61 69 80
62 70 80
62 70 80
62 70 80
62 70 80
62 70 80
61 70 80
62 70 80
61 69 80
61 70 80
61 70 80
60 69 80
61 70 80
62 70 80
61 69 80
61 69 80
62 70 80
61 69 80
62 70 80
61 70 80
61 70 80
61 69 80
62 70 80
62 70 80
61 70 80
62 70 80
60 69 80
62 70 80
61 70 80
62 70 80
61 70 80
62 70 80
61 70 80
62 70 80
61 70 80
61 70 80
61 70 80
62 70 80
62 70 80
61 70 80
61 69 80
62 70 80
62 70 80
61 70 80
61 70 80
62 70 80
62 70 80
61 70 80
62 70 80
62 70 80
61 69 80
61 70 80
62 70 80
61 70 80
62 70 80
61 69 80
61 69 80
62 70 80
61 70 80
62 70 80
61 69 80
61 69 80
61 69 80
62 70 80
61 69 80
61 69 80
61 70 80
61 69 80
62 70 80
62 70 80
61 69 80
61 69 80
61 69 80
61 70 80
62 70 80
62 70 80
61 70 80
61 70 80
61 69 80
61 69 80
62 70 80
61 70 80
61 69 80
62 70 80
61 70 80
61 70 80
61 69 80
61 69 80
62 70 80
62 70 80
61 69 80
61 70 80
61 70 80
61 70 80
62 70 80
61 70 80
62 70 80
62 70 80
61 70 80
61 69 80
61 70 80
62 70 80
62 70 80
61 69 80
62 70 80
61 70 80
61 70 80
61 69 80
61 70 80
62 70 80
61 70 80
61 70 80
61 69 80
62 70 80
62 70 80
61 70 80
61 69 80
61 69 80
62 70 80
62 70 80
62 70 80
62 70 80
61 70 80
62 70 80
62 70 80
61 70 80
61 70 80
61 69 80
61 70 80
62 70 80
60 69 80
62 70 80
61 70 80
61 69 80
63 70 80
61 69 80
61 69 80
62 70 80
61 70 80
61 69 80
61 69 80
61 70 80
62 70 80
61 70 80
61 69 80
62 70 80
61 69 80
62 70 80
62 70 80
62 70 80
61 70 80
62 70 80
62 70 80
62 70 80
61 70 80
61 69 80
61 70 80
61 70 80
61 70 80
61 69 80
61 70 80
61 69 80
62 70 80
60 69 80
62 70 80
62 70 80
61 69 80
61 69 80
61 70 80
61 70 80
61 70 80
62 70 80
61 69 80
61 70 80
60 69 80
62 70 80
62 70 80
62 70 80
61 69 80
61 70 80
62 70 80
61 69 80
61 70 80
61 69 80
62 70 80
61 70 80
61 70 80
61 69 80
61 69 80
60 69 80
61 69 80
62 70 80
60 69 80
61 69 80
61 69 80
62 70 80
61 69 80
61 69 80
61 69 80
61 70 80
61 70 80
61 70 80
61 69 80
61 69 80
61 70 80
61 70 80
61 70 80
61 69 80
61 70 80
62 70 80
61 70 80
61 70 80
62 70 80
61 70 80
61 69 80
62 70 80
61 70 80
61 69 80
61 69 80
61 70 80
61 70 80
61 70 80
62 70 80
62 70 80
61 70 80
61 69 80
61 69 80
62 70 80
61 69 80
62 70 80
61 70 80
62 70 80
61 69 80
61 69 80
61 70 80
62 70 80
62 70 80
62 70 80
61 70 80
61 70 80
61 70 80
61 69 80
62 70 80
62 70 80
60 69 80
61 69 80
62 70 80
62 70 80
61 69 80
63 70 80
62 70 80
61 69 80
61 70 80
62 70 80
61 69 80
61 70 80
61 69 80
61 70 80
61 69 80
62 70 80
61 70 80
61 69 80
62 70 80
62 70 80
63 70 80
61 70 80
61 69 80
61 69 80
61 69 80
61 69 80
62 70 80
61 70 80
61 69 80
61 70 80
62 70 80
61 69 80
62 70 80
61 70 80
61 70 80
61 69 80
61 70 80
61 69 80
61 69 80
60 69 80
61 70 80
62 70 80
61 69 80
62 70 80
61 70 80
62 70 80
61 70 80
61 69 80
61 70 80
61 69 80
61 70 80
61 70 80
62 70 80
61 70 80
61 69 80
61 70 80
62 70 80
62 70 80
61 70 80
62 70 80
62 70 80
61 69 80
61 69 80
61 70 80
60 69 80
62 70 80
61 69 80
61 70 80
61 69 80
61 70 80
61 70 80
61 70 80
62 70 80
61 70 80
61 69 80
62 70 80
60 69 80
61 69 80
60 69 80
60 69 80
61 69 80
61 70 80
61 69 80
61 69 80
61 69 80
61 69 80
61 70 80
61 69 80
62 70 80
61 70 80
62 70 80
61 70 80
61 69 80
62 70 80
62 70 80
62 70 80
61 69 80
61 70 80
62 70 80
62 70 80
62 70 80
60 69 80
62 70 80
62 70 80
62 70 80
62 70 80
62 70 80
61 69 80
61 69 80
61 69 80
61 69 80
61 70 80
61 70 80
61 70 80
62 70 80
61 70 80
61 70 80
61 70 80
61 70 80
61 70 80
61 69 80
61 70 80
62 70 80
61 70 80
61 70 80
62 70 80
61 70 80
62 70 80
61 69 80
61 70 80
61 70 80
61 70 80
62 70 80
61 69 80
62 70 80
61 69 80
61 70 80
61 69 80
61 70 80
62 70 80
62 70 80
61 70 80
62 70 80
62 70 80
61 70 80
61 70 80
63 70 80
62 70 80
61 70 80
61 69 80
61 70 80
61 70 80
61 69 80
62 70 80
61 69 80
61 70 80
62 70 80
61 70 80
62 70 80
62 70 80
61 69 80
62 70 80
62 70 80
61 69 80
61 70 80
62 70 80
62 70 80
62 70 80
61 69 80
61 69 80
61 69 80
61 69 80
61 69 80
62 70 80
62 70 80
62 70 80
61 70 80
61 70 80
61 69 80
61 70 80
61 69 80
61 70 80
61 69 80
61 70 80
62 70 80
61 69 80
62 70 80
61 69 80
62 70 80
62 70 80
61 69 80
62 70 80
62 70 80
61 69 80
61 70 80
62 70 80
61 70 80
61 70 80
60 69 80
61 70 80
62 70 80
61 69 80
60 69 80
61 70 80
61 69 80
62 70 80
62 70 80
61 70 80
62 70 80
62 70 80
62 70 80
62 70 80
62 70 80
61 70 80
61 70 80
61 70 80
62 70 80
61 69 80
61 70 80
61 70 80
61 69 80
61 70 80
61 70 80
62 70 80
62 70 80
60 69 80
61 69 80
61 70 80
61 70 80
60 69 80
61 69 80
61 70 80
62 70 80
62 70 80
61 69 80
61 69 80
61 70 80
61 69 80
61 70 80
61 70 80
61 70 80
60 69 80
61 69 80
62 70 80
61 69 80
62 70 80
62 70 80
61 69 80
62 70 80
61 69 80
61 70 80
62 70 80
61 70 80
61 70 80
61 70 80
61 69 80
61 70 80
61 70 80
62 70 80
61 70 80
61 69 80
62 70 80
61 70 80
62 70 80
61 70 80
61 69 80
62 70 80
62 70 80
62 70 80
61 69 80
60 69 80
61 70 80
61 70 80
61 70 80
61 69 80
61 70 80
61 69 80
62 70 80
61 69 80
62 70 80
62 70 80
62 70 80
61 69 80
62 70 80
62 70 80
61 70 80
62 70 80
62 70 80
61 69 80
62 70 80
60 69 80
61 69 80
62 70 80
61 70 80
61 70 80
61 70 80
61 69 80
61 69 80
61 69 80
61 70 80
61 70 80
61 70 80
61 70 80
61 70 80
62 70 80
61 70 80
63 70 80
61 69 80
61 69 80
61 70 80
61 70 80
61 70 80
62 70 80
62 70 80
61 70 80
62 70 80
61 70 80
61 70 80
62 70 80
62 70 80
61 70 80
62 70 80
61 70 80
61 69 80
62 70 80
62 70 80
61 70 80
61 70 80
61 69 80
61 70 80
61 70 80
63 70 80
61 69 80
62 70 80
61 69 80
60 69 80
61 69 80
61 69 80
61 69 80
61 69 80
62 70 80
61 69 80
62 70 80
61 70 80
61 69 80
61 69 80
61 70 80
61 69 80
61 70 80
61 70 80
61 70 80
61 69 80
61 70 80
61 70 80
61 70 80
61 70 80
62 70 80
61 70 80
61 69 80
61 70 80
61 70 80
62 70 80
60 69 80
61 70 80
61 69 80
61 69 80
62 70 80
61 69 80
61 69 80
61 69 80
61 70 80
61 70 80
61 70 80
61 69 80
61 70 80
62 70 80
61 69 80
62 70 80
61 69 80
61 69 80
62 70 80
61 69 80
61 69 80
61 70 80
61 69 80
61 70 80
61 69 80
61 69 80
61 70 80
62 70 80
61 70 80
62 70 80
60 69 80
61 70 80
62 70 80
62 70 80
61 70 80
61 70 80
62 70 80
62 70 80
62 70 80
61 70 80
62 70 80
61 70 80
61 69 80
61 69 80
61 69 80
61 70 80
61 69 80
62 70 80
61 69 80
61 70 80
62 70 80
61 69 80
61 69 80
61 70 80
61 69 80
62 70 80
61 69 80
61 70 80
61 69 80
62 70 80
62 70 80
62 70 80
62 70 80
62 70 80
61 70 80
62 70 80
61 69 80
61 69 80
61 69 80
62 70 80
61 70 80
61 69 80
61 69 80
61 70 80
61 69 80
62 70 80
62 70 80
61 69 80
61 69 80
61 70 80
61 70 80
61 70 80
62 70 80
61 70 80
61 69 80
61 69 80
62 70 80
61 70 80
62 70 80
61 70 80
61 69 80
61 69 80
61 70 80
62 70 80
61 69 80
61 70 80
61 70 80
61 70 80
62 70 80
62 70 80
61 69 80
61 69 80
62 70 80
61 69 80
61 69 80
62 70 80
62 70 80
62 70 80
61 69 80
61 70 80
61 69 80
62 70 80
61 70 80
61 70 80
62 70 80
61 70 80
62 70 80
61 70 80
61 69 80
61 70 80
61 69 80
62 70 80
61 70 80
61 70 80
61 69 80
61 69 80
62 70 80
61 69 80
61 70 80
62 70 80
62 70 80
61 70 80
62 70 80
62 70 80
61 69 80
61 70 80
61 70 80
61 69 80
61 70 80
61 70 80
62 70 80
62 70 80
61 69 80
61 70 80
62 70 80
61 70 80
61 69 80
61 69 80
61 70 80
62 70 80
61 69 80
61 70 80
62 70 80
62 70 80
61 70 80
61 70 80
62 70 80
61 70 80
62 70 80
61 70 80
61 70 80
62 70 80
61 70 80
61 70 80
61 70 80
62 70 80
61 70 80
61 70 80
62 70 80
61 70 80
61 69 80
61 69 80
61 69 80
61 69 80
61 70 80
61 70 80
61 70 80
62 70 80
61 70 80
61 69 80
62 70 80
62 70 80
61 69 80
62 70 80
61 70 80
62 70 80
61 70 80
61 70 80
62 70 80
61 70 80
61 70 80
61 70 80
62 70 80
61 70 80
60 69 80
61 69 80
62 70 80
62 70 80
61 70 80
61 69 80
62 70 80
60 69 80
62 70 80
62 70 80
61 70 80
61 69 80
61 69 80
61 69 80
62 70 80
61 70 80
62 70 80
62 70 80
62 70 80
62 70 80
61 69 80
62 70 80
62 70 80
61 69 80
61 70 80
62 70 80
61 70 80
61 70 80
62 70 80
62 70 80
61 69 80
61 70 80
62 70 80
61 70 80
61 70 80
62 70 80
61 70 80
61 70 80
62 70 80
61 70 80
61 69 80
61 69 80
60 69 80
61 70 80
61 70 80
61 69 80
61 69 80
62 70 80
61 70 80
62 70 80
61 70 80
61 70 80
61 70 80
62 70 80
61 69 80
61 70 80
62 70 80
61 69 80
61 70 80
61 70 80
61 69 80
61 69 80
62 70 80
62 70 80
62 70 80
60 69 80
61 70 80
61 70 80
62 70 80
62 70 80
61 69 80
61 70 80
61 69 80
62 70 80
61 70 80
61 70 80
61 70 80
61 69 80
61 70 80
62 70 80
61 70 80
62 70 80
62 70 80
61 69 80
62 70 80
61 69 80
62 70 80
61 70 80
61 69 80
61 69 80
61 69 80
61 70 80
61 69 80
62 70 80
61 69 80
61 69 80
62 70 80
61 70 80
61 70 80
61 70 80
61 69 80
62 70 80
61 69 80
62 70 80
61 70 80
62 70 80
62 70 80
62 70 80
62 70 80
62 70 80
61 69 80
62 70 80
62 70 80
61 69 80
62 70 80
61 69 80
62 70 80
61 69 80
62 70 80
61 69 80
61 69 80
61 70 80
62 70 80
61 69 80
61 70 80
61 70 80
62 70 80
61 69 80
61 69 80
62 70 80
61 69 80
61 70 80
61 70 80
60 69 80
61 70 80
61 70 80
61 69 80
60 69 80
61 70 80
61 69 80
62 70 80
61 70 80
61 70 80
61 69 80
61 70 80
62 70 80
62 70 80
61 69 80
62 70 80
62 70 80
62 70 80
61 70 80
62 70 80
62 70 80
61 70 80
61 70 80
62 70 80
61 70 80
61 69 80
61 69 80
61 69 80
61 69 80
61 69 80
62 70 80
62 70 80
61 69 80
62 70 80
62 70 80
61 69 80
62 70 80
62 70 80
62 70 80
61 70 80
61 70 80
62 70 80
62 70 80
61 70 80
61 70 80
62 70 80
61 69 80
61 69 80
61 70 80
61 70 80
62 70 80
61 69 80
61 69 80
61 70 80
61 69 80
62 70 80
62 70 80
62 70 80
62 70 80
62 70 80
61 69 80
62 70 80
61 70 80
61 69 80
61 69 80
61 70 80
61 70 80
61 69 80
62 70 80
62 70 80
61 70 80
61 69 80
62 70 80
61 70 80
61 70 80
62 70 80
61 69 80
62 70 80
61 70 80
61 70 80
61 70 80
62 70 80
62 70 80
61 70 80
61 69 80
62 70 80
61 69 80
61 70 80
62 70 80
61 70 80
61 70 80
62 70 80
62 70 80
62 70 80
61 70 80
62 70 80
61 69 80
62 70 80
61 70 80
61 69 80
62 70 80
62 70 80
62 70 80
62 70 80
62 70 80
61 69 80
61 69 80
61 70 80
62 70 80
62 70 80
62 70 80
62 70 80
61 70 80
61 70 80
62 70 80
61 69 80
61 69 80
62 70 80
61 69 80
62 70 80
61 69 80
61 69 80
62 70 80
61 70 80
61 70 80
61 69 80
61 69 80
61 69 80
61 70 80
61 70 80
61 70 80
61 69 80
61 69 80
61 69 80
61 70 80
62 70 80
62 70 80
62 70 80
62 70 80
61 69 80
61 70 80
62 70 80
62 70 80
61 69 80
61 70 80
61 69 80
62 70 80
61 69 80
61 70 80
61 70 80
62 70 80
61 70 80
62 70 80
61 70 80
61 69 80
61 69 80
61 70 80
62 70 80
61 70 80
62 70 80
61 70 80
61 70 80
60 69 80
61 69 80
61 69 80
62 70 80
62 70 80
61 70 80
62 70 80
62 70 80
61 70 80
61 70 80
61 69 80
61 70 80
61 69 80
62 70 80
61 70 80
62 70 80
60 69 80
61 70 80
61 69 80
61 69 80
61 70 80
61 69 80
62 70 80
61 69 80
61 70 80
62 70 80
62 70 80
61 70 80
62 70 80
62 70 80
62 70 80
61 69 80
62 70 80
61 70 80
62 70 80
61 70 80
61 69 80
62 70 80
60 69 80
62 70 80
62 70 80
62 70 80
61 70 80
61 69 80
62 70 80
62 70 80
61 70 80
62 70 80
61 69 80
61 70 80
61 70 80
61 70 80
61 70 80
61 69 80
61 70 80
61 69 80
61 70 80
61 69 80
62 70 80
61 69 80
62 70 80
62 70 80
62 70 80
62 70 80
61 70 80
61 70 80
61 69 80
61 70 80
61 70 80
61 70 80
62 70 80
61 69 80
61 70 80
61 70 80
61 70 80
61 69 80
61 69 80
61 70 80
61 69 80
61 70 80
61 69 80
61 70 80
62 70 80
61 69 80
61 70 80
61 70 80
61 70 80
61 70 80
61 69 80
61 70 80
61 70 80
62 70 80
61 70 80
61 69 80
61 70 80
61 70 80
61 69 80
61 69 80
62 70 80
62 70 80
61 70 80
63 70 80
61 70 80
61 69 80
61 70 80
62 70 80
61 70 80
61 70 80
61 69 80
61 69 80
61 69 80
62 70 80
61 70 80
61 69 80
62 70 80
63 70 80
61 70 80
61 69 80
62 70 80
61 69 80
62 70 80
62 70 80
61 69 80
62 70 80
62 70 80
61 69 80
62 70 80
62 70 80
61 69 80
61 69 80
61 70 80
61 70 80
61 69 80
62 70 80
61 70 80
62 70 80
62 70 80
62 70 80
61 70 80
61 69 80
60 69 80
62 70 80
61 69 80
61 69 80
61 70 80
61 70 80
61 70 80
61 69 80
61 70 80
62 70 80
62 70 80
62 70 80
61 69 80
61 70 80
62 70 80
62 70 80
61 70 80
61 69 80
61 69 80
61 70 80
61 70 80
61 70 80
62 70 80
62 70 80
61 70 80
61 69 80
62 70 80
61 69 80
61 70 80
61 69 80
61 70 80
61 69 80
61 70 80
61 70 80
62 70 80
62 70 80
61 70 80
61 70 80
62 70 80
61 70 80
62 70 80
61 69 80
62 70 80
62 70 80
61 70 80
62 70 80
61 70 80
61 69 80
61 70 80
61 70 80
61 70 80
61 69 80
61 69 80
61 70 80
61 70 80
61 69 80
60 69 80
62 70 80
61 69 80
61 69 80
61 69 80
62 70 80
61 70 80
62 70 80
62 70 80
61 70 80
61 70 80
61 70 80
61 70 80
61 70 80
61 70 80
62 70 80
62 70 80
61 69 80
62 70 80
61 70 80
61 70 80
61 70 80
60 69 80
62 70 80
62 70 80
62 70 80
61 69 80
61 70 80
62 70 80
61 70 80
61 70 80
62 70 80
62 70 80
62 70 80
61 69 80
61 69 80
61 70 80
61 70 80
61 69 80
62 70 80
61 69 80
61 69 80
62 70 80
61 69 80
61 69 80
62 70 80
62 70 80
62 70 80
61 69 80
61 69 80
62 70 80
62 70 80
61 69 80
61 70 80
61 70 80
62 70 80
62 70 80
62 70 80
61 69 80
61 70 80
61 70 80
62 70 80
62 70 80
62 70 80
62 70 80
61 69 80
61 69 80
62 70 80
61 70 80
61 70 80
61 69 80
61 70 80
61 70 80
61 70 80
62 70 80
61 69 80
62 70 80
61 70 80
61 69 80
61 70 80
62 70 80
61 70 80
61 69 80
61 69 80
61 69 80
62 70 80
62 70 80
62 70 80
61 69 80
61 69 80
62 70 80
61 70 80
61 69 80
61 70 80
62 70 80
62 70 80
60 69 80
61 70 80
62 70 80
61 70 80
62 70 80
61 69 80
61 70 80
61 69 80
61 69 80
61 70 80
61 69 80
60 69 80
62 70 80
61 70 80
61 70 80
61 69 80
62 70 80
61 70 80
61 69 80
61 70 80
62 70 80
61 70 80
62 70 80
62 70 80
62 70 80
61 70 80
62 70 80
62 70 80
62 70 80
61 70 80
61 70 80
62 70 80
61 70 80
61 69 80
62 70 80
62 70 80
62 70 80
62 70 80
62 70 80
62 70 80
61 69 80
60 69 80
62 70 80
62 70 80
61 69 80
62 70 80
61 70 80
62 70 80
61 69 80
62 70 80
62 70 80
61 69 80
61 70 80
61 69 80
60 69 80
61 69 80
62 70 80
61 69 80
61 69 80
61 70 80
61 69 80
62 70 80
61 70 80
61 69 80
61 69 80
60 69 80
61 69 80
61 69 80
63 70 80
61 69 80
62 70 80
62 70 80
61 69 80
61 69 80
61 69 80
61 69 80
61 69 80
62 70 80
62 70 80
61 70 80
61 69 80
62 70 80
61 70 80
62 70 80
62 70 80
60 69 80
61 70 80
62 70 80
61 70 80
61 69 80
61 70 80
62 70 80
61 70 80
61 70 80
62 70 80
62 70 80
61 70 80
61 70 80
61 69 80
62 70 80
61 70 80
62 70 80
61 70 80
61 69 80
60 69 80
61 69 80
61 70 80
61 69 80
61 70 80
62 70 80
61 70 80
62 70 80
61 69 80
61 70 80
61 69 80
61 69 80
61 70 80
61 70 80
61 69 80
62 70 80
61 69 80
62 70 80
61 69 80
61 69 80
61 70 80
61 69 80
62 70 80
61 69 80
61 69 80
62 70 80
61 70 80
61 70 80
62 70 80
61 70 80
62 70 80
61 70 80
61 69 80
62 70 80
61 69 80
61 70 80
61 69 80
60 69 80
61 69 80
62 70 80
61 70 80
61 70 80
61 70 80
61 70 80
61 69 80
61 70 80
61 69 80
62 70 80
61 70 80
61 69 80
60 69 80
61 70 80
61 69 80
61 69 80
61 70 80
62 70 80
61 70 80
61 70 80
61 69 80
61 69 80
61 69 80
62 70 80
62 70 80
61 69 80
61 70 80
61 69 80
61 69 80
61 70 80
62 70 80
61 70 80
61 70 80
62 70 80
61 69 80
62 70 80
62 70 80
60 69 80
61 69 80
62 70 80
62 70 80
60 69 80
61 69 80
61 70 80
61 69 80
61 69 80
61 69 80
62 70 80
61 69 80
60 69 80
62 70 80
62 70 80
61 70 80
61 70 80
62 70 80
61 69 80
61 69 80
61 70 80
61 69 80
62 70 80
61 70 80
61 69 80
62 70 80
61 70 80
62 70 80
61 69 80
62 70 80
62 70 80
62 70 80
62 70 80
62 70 80
61 70 80
62 70 80
62 70 80
61 69 80
62 70 80
62 70 80
61 69 80
61 69 80
62 70 80
61 70 80
61 69 80
62 70 80
62 70 80
61 69 80
61 69 80
62 70 80
61 69 80
61 70 80
61 70 80
61 70 80
60 69 80
61 69 80
62 70 80
61 69 80
61 69 80
61 70 80
61 69 80
61 70 80
62 70 80
62 70 80
61 69 80
62 70 80
61 69 80
61 69 80
61 70 80
60 69 80
61 70 80
61 69 80
61 69 80
61 69 80
62 70 80
61 69 80
62 70 80
62 70 80
61 69 80
62 70 80
61 69 80
62 70 80
61 70 80
61 70 80
62 70 80
62 70 80
62 70 80
62 70 80
62 70 80
61 70 80
61 70 80
60 69 80
62 70 80
61 69 80
62 70 80
61 70 80
61 70 80
61 70 80
62 70 80
61 70 80
61 70 80
61 70 80
61 70 80
61 69 80
61 70 80
60 69 80
61 70 80
61 69 80
61 70 80
61 70 80
62 70 80
62 70 80
61 69 80
61 69 80
62 70 80
61 70 80
61 69 80
61 69 80
61 69 80
62 70 80
61 70 80
61 69 80
61 70 80
62 70 80
62 70 80
62 70 80
60 69 80
61 70 80
62 70 80
62 70 80
61 70 80
61 70 80
61 69 80
62 70 80
61 70 80
61 70 80
61 70 80
62 70 80
63 70 80
61 69 80
62 70 80
61 70 80
61 70 80
61 69 80
61 70 80
61 70 80
61 70 80
62 70 80
62 70 80
60 69 80
62 70 80
62 70 80
61 69 80
61 69 80
61 70 80
61 69 80
62 70 80
61 70 80
61 69 80
62 70 80
61 70 80
60 69 80
61 70 80
61 70 80
61 69 80
61 70 80
61 69 80
61 70 80
61 70 80
62 70 80
61 70 80
62 70 80
62 70 80
61 70 80
61 69 80
61 70 80
62 70 80
62 70 80
61 70 80
62 70 80
61 69 80
61 69 80
61 70 80
62 70 80
61 70 80
61 70 80
62 70 80
62 70 80
61 69 80
61 69 80
61 70 80
60 69 80
61 69 80
62 70 80
61 69 80
62 70 80
61 69 80
62 70 80
62 70 80
61 70 80
62 70 80
61 70 80
62 70 80
61 69 80
61 70 80
61 70 80
61 69 80
62 70 80
61 70 80
61 70 80
61 70 80
61 70 80
61 70 80
61 70 80
62 70 80
61 69 80
61 70 80
61 69 80
62 70 80
61 69 80
63 70 80
61 69 80
61 70 80
61 70 80
61 70 80
62 70 80
61 70 80
61 69 80
61 69 80
62 70 80
61 70 80
62 70 80
61 69 80
61 69 80
61 70 80
61 70 80
61 70 80
62 70 80
62 70 80
62 70 80
61 70 80
62 70 80
61 70 80
61 70 80
61 70 80
61 70 80
61 69 80
61 70 80
61 70 80
62 70 80
61 69 80
62 70 80
61 70 80
62 70 80
61 70 80
61 69 80
62 70 80
61 70 80
61 69 80
61 69 80
61 69 80
61 70 80
61 70 80
62 70 80
62 70 80
61 70 80
61 69 80
61 70 80
61 69 80
61 70 80
61 70 80
61 70 80
61 69 80
61 70 80
61 70 80
62 70 80
60 69 80
62 70 80
61 70 80
62 70 80
61 69 80
62 70 80
61 70 80
61 70 80
61 70 80
61 69 80
61 70 80
62 70 80
61 69 80
62 70 80
61 69 80
61 70 80
61 69 80
61 70 80
61 70 80
61 70 80
61 69 80
61 69 80
61 69 80
61 69 80
62 70 80
62 70 80
62 70 80
61 69 80
60 69 80
61 70 80
61 70 80
61 69 80
61 70 80
62 70 80
62 70 80
61 70 80
61 70 80
61 69 80
61 70 80
61 69 80
61 69 80
61 70 80
61 69 80
60 69 80
61 70 80
61 69 80
62 70 80
61 69 80
61 70 80
61 69 80
61 70 80
61 70 80
61 70 80
61 70 80
62 70 80
62 70 80
61 70 80
61 69 80
61 70 80
61 70 80
61 69 80
61 69 80
61 69 80
61 70 80
62 70 80
61 70 80
62 70 80
62 70 80
62 70 80
62 70 80
62 70 80
61 69 80
61 69 80
61 70 80
61 69 80
61 70 80
61 69 80
61 70 80
62 70 80
61 70 80
62 70 80
61 69 80
61 70 80
61 70 80
62 70 80
60 69 80
61 69 80
61 69 80
61 70 80
62 70 80
61 69 80
61 69 80
62 70 80
61 70 80
61 69 80
62 70 80
61 70 80
61 70 80
62 70 80
61 70 80
61 70 80
62 70 80
62 70 80
62 70 80
62 70 80
62 70 80
61 70 80
61 69 80
62 70 80
61 69 80
61 70 80
61 69 80
62 70 80
61 69 80
62 70 80
61 69 80
61 70 80
61 70 80
61 69 80
61 69 80
62 70 80
62 70 80
61 70 80
61 70 80
62 70 80
62 70 80
61 69 80
61 70 80
61 70 80
61 70 80
62 70 80
61 69 80
61 69 80
61 69 80
62 70 80
60 69 80
61 69 80
61 69 80
61 70 80
62 70 80
61 69 80
61 69 80
61 70 80
62 70 80
61 69 80
62 70 80
62 70 80
61 69 80
62 70 80
61 70 80
61 70 80
61 70 80
61 69 80
61 70 80
61 70 80
61 70 80
61 69 80
62 70 80
62 70 80
61 70 80
61 70 80
61 69 80
62 70 80
61 70 80
62 70 80
61 69 80
61 70 80
61 69 80
61 69 80
61 70 80
61 70 80
61 69 80
61 69 80
61 69 80
62 70 80
61 70 80
61 70 80
61 70 80
61 69 80
62 70 80
61 70 80
61 69 80
61 70 80
61 70 80
61 70 80
61 69 80
61 70 80
61 70 80
63 70 80
61 70 80
61 70 80
62 70 80
62 70 80
61 70 80
62 70 80
62 70 80
62 70 80
61 69 80
62 70 80
62 70 80
62 70 80
61 70 80
61 69 80
62 70 80
62 70 80
61 70 80
62 70 80
61 69 80
61 70 80
61 69 80
62 70 80
61 69 80
62 70 80
62 70 80
61 69 80
61 70 80
61 69 80
61 70 80
62 70 80
62 70 80
62 70 80
61 70 80
61 69 80
61 69 80
61 69 80
62 70 80
61 69 80
62 70 80
62 70 80
61 69 80
61 69 80
61 69 80
61 69 80
62 70 80
62 70 80
60 69 80
62 70 80
62 70 80
61 69 80
62 70 80
61 70 80
62 70 80
60 69 80
61 70 80
61 70 80
62 70 80
61 69 80
61 70 80
61 69 80
62 70 80
62 70 80
61 70 80
62 70 80
62 70 80
61 69 80
62 70 80
61 70 80
61 69 80
61 70 80
61 69 80
61 70 80
61 70 80
61 70 80
62 70 80
61 70 80
61 69 80
61 70 80
62 70 80
61 69 80
61 69 80
62 70 80
61 70 80
61 70 80
61 69 80
61 69 80
61 70 80
62 70 80
61 70 80
61 69 80
61 69 80
61 70 80
61 70 80
61 70 80
61 70 80
62 70 80
61 69 80
62 70 80
62 70 80
62 70 80
61 70 80
61 70 80
61 69 80
61 70 80
61 70 80
61 69 80
61 69 80
61 69 80
61 70 80
61 69 80
61 69 80
61 69 80
61 70 80
62 70 80
62 70 80
61 70 80
62 70 80
61 70 80
61 70 80
62 70 80
60 69 80
61 70 80
62 70 80
61 70 80
62 70 80
62 70 80
61 69 80
62 70 80
61 70 80
62 70 80
62 70 80
62 70 80
62 70 80
61 70 80
61 70 80
62 70 80
61 70 80
62 70 80
61 70 80
61 70 80
61 70 80
61 70 80
61 70 80
61 69 80
61 70 80
61 69 80
61 69 80
61 70 80
61 69 80
61 69 80
61 70 80
61 69 80
62 70 80
61 70 80
61 69 80
61 70 80
61 70 80
61 70 80
62 70 80
61 70 80
60 69 80
61 69 80
62 70 80
62 70 80
61 69 80
62 70 80
62 70 80
61 69 80
62 70 80
61 69 80
61 69 80
61 69 80
61 69 80
61 69 80
61 69 80
61 70 80
61 70 80
62 70 80
62 70 80
61 70 80
61 69 80
61 69 80
62 70 80
61 69 80
61 70 80
61 70 80
62 70 80
62 70 80
61 70 80
61 70 80
61 69 80
61 70 80
61 69 80
62 70 80
62 70 80
62 70 80
61 69 80
60 69 80
61 69 80
62 70 80
62 70 80
61 69 80
61 69 80
61 70 80
61 69 80
62 70 80
61 70 80
62 70 80
62 70 80
61 70 80
61 70 80
62 70 80
60 69 80
62 70 80
61 70 80
61 69 80
61 70 80
62 70 80
61 70 80
61 69 80
61 70 80
61 70 80
62 70 80
61 69 80
61 69 80
61 70 80
61 69 80
61 69 80
61 69 80
61 69 80
62 70 80
61 70 80
61 69 80
61 69 80
61 69 80
62 70 80
62 70 80
62 70 80
61 69 80
62 70 80
61 70 80
61 69 80
61 70 80
61 70 80
62 70 80
62 70 80
61 70 80
61 70 80
61 69 80
61 70 80
62 70 80
61 70 80
62 70 80
61 70 80
62 70 80
61 69 80
62 70 80
61 69 80
61 70 80
62 70 80
61 70 80
61 70 80
61 69 80
61 69 80
62 70 80
62 70 80
61 70 80
62 70 80
62 70 80
60 69 80
62 70 80
61 69 80
61 70 80
62 70 80
61 70 80
61 69 80
62 70 80
61 69 80
60 69 80
61 70 80
62 70 80
61 70 80
61 70 80
61 70 80
62 70 80
61 70 80
62 70 80
61 70 80
62 70 80
61 70 80
61 69 80
62 70 80
61 70 80
61 70 80
61 70 80
61 69 80
61 69 80
62 70 80
61 69 80
62 70 80
61 70 80
62 70 80
62 70 80
61 69 80
62 70 80
61 70 80
62 70 80
61 70 80
62 70 80
62 70 80
61 70 80
62 70 80
61 70 80
62 70 80
62 70 80
62 70 80
61 70 80
62 70 80
61 70 80
61 69 80
61 70 80
62 70 80
61 69 80
61 70 80
61 69 80
61 70 80
61 70 80
62 70 80
61 69 80
61 70 80
61 70 80
62 70 80
61 69 80
61 70 80
62 70 80
61 70 80
61 69 80
61 69 80
61 69 80
61 69 80
62 70 80
61 70 80
61 69 80
61 69 80
61 69 80
63 70 80
62 70 80
62 70 80
62 70 80
61 69 80
61 70 80
61 69 80
61 69 80
62 70 80
61 69 80
61 69 80
61 69 80
61 69 80
62 70 80
61 70 80
62 70 80
61 69 80
62 70 80
62 70 80
61 70 80
60 69 80
62 70 80
61 70 80
60 69 80
61 70 80
61 69 80
62 70 80
61 70 80
61 69 80
61 70 80
61 70 80
61 70 80
61 70 80
61 69 80
62 70 80
61 70 80
61 69 80
61 69 80
61 70 80
60 69 80
61 70 80
62 70 80
61 70 80
62 70 80
61 69 80
61 70 80
62 70 80
61 70 80
61 69 80
61 70 80
61 69 80
61 69 80
61 70 80
62 70 80
62 70 80
61 69 80
61 70 80
62 70 80
61 70 80
62 70 80
61 70 80
61 70 80
61 70 80
61 69 80
62 70 80
62 70 80
61 69 80
61 70 80
62 70 80
61 69 80
61 70 80
61 69 80
62 70 80
61 70 80
61 70 80
60 69 80
62 70 80
62 70 80
61 70 80
61 69 80
61 69 80
62 70 80
61 70 80
62 70 80
61 69 80
61 70 80
61 69 80
62 70 80
61 69 80
61 69 80
62 70 80
61 70 80
61 69 80
62 70 80
62 70 80
61 70 80
61 70 80
60 69 80
61 70 80
62 70 80
61 70 80
62 70 80
61 70 80
61 69 80
61 69 80
61 69 80
61 70 80
61 69 80
63 70 80
61 69 80
61 70 80
62 70 80
60 69 80
62 70 80
62 70 80
61 70 80
61 69 80
61 70 80
62 70 80
61 69 80
61 69 80
62 70 80
61 69 80
62 70 80
61 70 80
61 70 80
62 70 80
61 69 80
61 70 80
62 70 80
62 70 80
62 70 80
61 70 80
61 69 80
62 70 80
61 69 80
61 69 80
62 70 80
61 69 80
61 70 80
61 69 80
61 70 80
61 69 80
61 70 80
61 70 80
61 70 80
61 69 80
61 69 80
61 69 80
61 69 80
62 70 80
61 70 80
62 70 80
61 70 80
61 69 80
62 70 80
62 70 80
62 70 80
62 70 80
61 69 80
61 69 80
61 69 80
61 69 80
61 69 80
62 70 80
61 69 80
61 70 80
61 69 80
62 70 80
61 70 80
61 70 80
62 70 80
60 69 80
62 70 80
61 69 80
62 70 80
62 70 80
61 70 80
61 69 80
62 70 80
62 70 80
61 70 80
62 70 80
62 70 80
61 70 80
61 69 80
62 70 80
60 69 80
61 69 80
61 70 80
61 70 80
62 70 80
61 70 80
61 70 80
61 69 80
61 69 80
60 69 80
62 70 80
60 69 80
61 70 80
62 70 80
62 70 80
62 70 80
61 69 80
61 69 80
61 69 80
61 70 80
61 70 80
61 69 80
62 70 80
61 70 80
61 70 80
62 70 80
61 70 80
61 70 80
62 70 80
61 69 80
62 70 80
61 70 80
61 69 80
61 69 80
61 69 80
62 70 80
62 70 80
62 70 80
61 70 80
61 70 80
61 69 80
61 70 80
61 70 80
62 70 80
62 70 80
61 70 80
62 70 80
61 69 80
61 69 80
61 69 80
60 69 80
62 70 80
61 70 80
61 70 80
62 70 80
61 69 80
61 69 80
62 70 80
62 70 80
61 70 80
62 70 80
61 70 80
62 70 80
61 69 80
61 70 80
61 69 80
61 70 80
61 70 80
61 69 80
61 70 80
61 70 80
61 69 80
62 70 80
61 70 80
62 70 80
61 70 80
61 70 80
61 69 80
61 69 80
62 70 80
62 70 80
60 69 80
61 69 80
61 70 80
62 70 80
62 70 80
61 70 80
62 70 80
62 70 80
61 69 80
61 70 80
62 70 80
61 70 80
61 69 80
62 70 80
61 70 80
61 70 80
61 69 80
61 70 80
61 70 80
61 69 80
62 70 80
60 69 80
61 69 80
62 70 80
62 70 80
61 69 80
62 70 80
63 70 80
61 69 80
62 70 80
61 69 80
61 69 80
62 70 80
62 70 80
61 70 80
61 70 80
61 69 80
62 70 80
61 69 80
61 70 80
61 69 80
61 69 80
61 70 80
61 70 80
61 70 80
61 70 80
61 70 80
61 70 80
61 69 80
61 70 80
62 70 80
62 70 80
62 70 80
61 69 80
62 70 80
61 70 80
61 69 80
60 69 80
61 69 80
62 70 80
61 70 80
62 70 80
62 70 80
62 70 80
61 69 80
62 70 80
61 70 80
61 70 80
61 69 80
62 70 80
61 69 80
61 69 80
61 69 80
61 69 80
61 69 80
61 69 80
61 69 80
60 69 80
61 69 80
61 69 80
62 70 80
61 70 80
61 69 80
62 70 80
62 70 80
61 70 80
61 70 80
61 70 80
60 69 80
62 70 80
62 70 80
61 70 80
61 70 80
62 70 80
61 70 80
61 70 80
62 70 80
61 69 80
61 70 80
62 70 80
61 70 80
61 70 80
61 70 80
61 70 80
62 70 80
61 70 80
61 70 80
61 70 80
62 70 80
62 70 80
61 69 80
61 70 80
61 70 80
61 69 80
61 69 80
62 70 80
62 70 80
61 69 80
61 69 80
62 70 80
62 70 80
61 70 80
61 70 80
61 69 80
62 70 80
61 69 80
62 70 80
61 70 80
62 70 80
62 70 80
61 70 80
60 69 80
61 69 80
60 69 80
62 70 80
61 69 80
61 69 80
61 69 80
61 69 80
61 69 80
61 69 80
61 69 80
62 70 80
61 70 80
62 70 80
61 70 80
62 70 80
62 70 80
62 70 80
61 70 80
61 69 80
61 69 80
62 70 80
60 69 80
62 70 80
60 69 80
60 69 80
61 70 80
61 70 80
61 69 80
61 70 80
62 70 80
60 69 80
61 70 80
61 70 80
61 70 80
61 69 80
62 70 80
61 69 80
61 70 80
62 70 80
62 70 80
60 69 80
61 70 80
61 69 80
61 70 80
62 70 80
61 69 80
61 69 80
61 70 80
61 69 80
61 69 80
60 69 80
62 70 80
61 70 80
62 70 80
61 70 80
61 69 80
62 70 80
62 70 80
62 70 80
62 70 80
62 70 80
62 70 80
61 70 80
61 70 80
61 69 80
60 69 80
62 70 80
61 70 80
60 69 80
61 70 80
61 70 80
61 70 80
61 70 80
61 70 80
62 70 80
61 69 80
61 70 80
63 70 80
61 70 80
61 70 80
61 70 80
61 70 80
60 69 80
61 69 80
61 70 80
62 70 80
61 70 80
62 70 80
62 70 80
61 70 80
62 70 80
61 69 80
61 69 80
61 69 80
61 70 80
61 70 80
61 70 80
60 69 80
62 70 80
61 70 80
62 70 80
60 69 80
62 70 80
61 70 80
62 70 80
61 70 80
61 69 80
62 70 80
62 70 80
62 70 80
61 69 80
62 70 80
62 70 80
62 70 80
61 69 80
61 69 80
61 70 80
61 70 80
61 69 80
61 70 80
61 69 80
62 70 80
61 70 80
61 69 80
61 69 80
61 69 80
61 69 80
61 70 80
62 70 80
61 69 80
62 70 80
62 70 80
61 69 80
61 69 80
61 69 80
62 70 80
61 69 80
61 69 80
61 70 80
61 70 80
62 70 80
62 70 80
62 70 80
62 70 80
62 70 80
61 69 80
62 70 80
61 69 80
61 70 80
61 70 80
61 69 80
61 70 80
62 70 80
60 69 80
61 69 80
62 70 80
62 70 80
62 70 80
62 70 80
62 70 80
61 69 80
61 69 80
61 70 80
61 69 80
61 70 80
61 69 80
61 69 80
61 69 80
61 70 80
62 70 80
61 69 80
61 70 80
61 69 80
61 69 80
61 69 80
61 69 80
62 70 80
61 70 80
61 69 80
61 69 80
61 70 80
62 70 80
61 69 80
61 70 80
61 70 80
61 70 80
61 69 80
62 70 80
62 70 80
62 70 80
61 70 80
61 69 80
62 70 80
62 70 80
61 70 80
61 70 80
62 70 80
60 69 80
61 70 80
61 70 80
60 69 80
63 70 80
61 70 80
61 69 80
60 69 80
62 70 80
62 70 80
61 70 80
62 70 80
61 70 80
61 69 80
61 70 80
61 70 80
62 70 80
62 70 80
61 70 80
61 70 80
61 70 80
62 70 80
62 70 80
62 70 80
61 70 80
61 70 80
61 70 80
62 70 80
61 70 80
62 70 80
62 70 80
61 69 80
62 70 80
62 70 80
62 70 80
62 70 80
61 69 80
61 69 80
61 69 80
61 70 80
62 70 80
61 69 80
62 70 80
61 70 80
61 70 80
62 70 80
61 70 80
62 70 80
61 70 80
62 70 80
62 70 80
61 70 80
61 70 80
61 70 80
61 70 80
61 70 80
62 70 80
61 70 80
62 70 80
61 70 80
61 70 80
62 70 80
62 70 80
61 70 80
61 70 80
61 69 80
61 70 80
61 70 80
61 69 80
62 70 80
61 70 80
61 69 80
61 70 80
62 70 80
61 69 80
61 70 80
62 70 80
62 70 80
62 70 80
61 69 80
61 69 80
61 70 80
61 69 80
62 70 80
60 69 80
61 70 80
61 70 80
61 70 80
61 69 80
62 70 80
62 70 80
61 69 80
61 69 80
61 70 80
61 69 80
61 70 80
62 70 80
61 70 80
61 70 80
62 70 80
62 70 80
61 70 80
62 70 80
61 70 80
62 70 80
62 70 80
61 70 80
62 70 80
62 70 80
62 70 80
62 70 80
62 70 80
62 70 80
61 70 80
62 70 80
62 70 80
61 69 80
60 69 80
62 70 80
62 70 80
61 69 80
61 69 80
61 70 80
61 70 80
61 70 80
61 69 80
61 69 80
61 70 80
61 69 80
62 70 80
61 70 80
61 69 80
61 70 80
61 69 80
61 69 80
61 69 80
62 70 80
62 70 80
62 70 80
61 69 80
61 69 80
61 69 80
61 69 80
61 69 80
62 70 80
61 70 80
61 69 80
61 69 80
62 70 80
62 70 80
61 70 80
61 70 80
61 70 80
62 70 80
62 70 80
61 69 80
61 69 80
61 69 80
61 69 80
61 70 80
61 70 80
60 69 80
62 70 80
61 70 80
61 70 80
62 70 80
62 70 80
61 69 80
62 70 80
62 70 80
62 70 80
62 70 80
61 70 80
62 70 80
60 69 80
61 70 80
61 69 80
61 69 80
62 70 80
61 70 80
61 69 80
61 69 80
61 70 80
61 69 80
61 69 80
62 70 80
62 70 80
62 70 80
61 69 80
62 70 80
62 70 80
62 70 80
60 69 80
61 69 80
62 70 80
62 70 80
61 70 80
62 70 80
61 70 80
62 70 80
62 70 80
61 69 80
62 70 80
60 69 80
61 70 80
61 70 80
61 70 80
61 69 80
61 69 80
61 69 80
61 70 80
61 69 80
61 70 80
61 69 80
61 69 80
62 70 80
61 69 80
61 70 80
62 70 80
61 69 80
61 70 80
61 69 80
62 70 80
61 69 80
61 69 80
62 70 80
61 70 80
61 69 80
61 70 80
61 70 80
61 69 80
61 70 80
61 69 80
62 70 80
61 70 80
62 70 80
61 70 80
61 69 80
61 69 80
61 69 80
62 70 80
62 70 80
61 70 80
61 70 80
61 69 80
61 69 80
61 69 80
62 70 80
61 69 80
62 70 80
62 70 80
61 70 80
61 70 80
61 69 80
62 70 80
61 69 80
61 69 80
61 70 80
61 69 80
62 70 80
62 70 80
61 69 80
62 70 80
62 70 80
63 70 80
61 70 80
61 69 80
62 70 80
61 70 80
62 70 80
61 69 80
62 70 80
62 70 80
62 70 80
61 69 80
61 70 80
61 69 80
61 70 80
62 70 80
61 69 80
62 70 80
62 70 80
61 70 80
61 69 80
61 69 80
61 70 80
61 69 80
62 70 80
62 70 80
61 70 80
62 70 80
62 70 80
61 69 80
61 69 80
61 70 80
62 70 80
61 69 80
62 70 80
61 69 80
61 70 80
61 69 80
62 70 80
61 69 80
61 69 80
61 69 80
62 70 80
61 70 80
62 70 80
61 69 80
61 70 80
60 69 80
62 70 80
61 70 80
62 70 80
62 70 80
62 70 80
62 70 80
61 69 80
61 70 80
61 70 80
62 70 80
61 70 80
62 70 80
61 70 80
61 70 80
61 69 80
62 70 80
62 70 80
62 70 80
61 69 80
61 69 80
61 69 80
61 69 80
61 69 80
60 69 80
61 70 80
61 69 80
61 69 80
61 69 80
61 70 80
61 70 80
61 69 80
62 70 80
61 70 80
62 70 80
61 70 80
61 70 80
61 69 80
61 70 80
61 70 80
61 69 80
61 70 80
62 70 80
61 70 80
62 70 80
62 70 80
61 69 80
61 70 80
61 69 80
61 70 80
62 70 80
61 70 80
61 70 80
62 70 80
61 69 80
61 70 80
61 69 80
61 70 80
61 70 80
62 70 80
61 70 80
61 69 80
61 69 80
62 70 80
62 70 80
60 69 80
62 70 80
61 69 80
61 70 80
61 70 80
61 70 80
61 69 80
62 70 80
62 70 80
62 70 80
61 69 80
62 70 80
61 70 80
62 70 80
62 70 80
60 69 80
60 69 80
61 70 80
61 69 80
61 70 80
62 70 80
61 69 80
62 70 80
61 69 80
60 69 80
61 70 80
61 69 80
62 70 80
60 69 80
62 70 80
62 70 80
62 70 80
61 70 80
62 70 80
61 69 80
61 69 80
61 70 80
61 69 80
62 70 80
62 70 80
61 70 80
62 70 80
61 69 80
61 70 80
61 69 80
62 70 80
62 70 80
62 70 80
61 70 80
61 70 80
62 70 80
62 70 80
61 70 80
61 70 80
61 69 80
62 70 80
61 69 80
62 70 80
61 70 80
61 69 80
62 70 80
60 69 80
62 70 80
61 70 80
61 70 80
61 70 80
62 70 80
61 70 80
62 70 80
62 70 80
61 69 80
61 70 80
60 69 80
62 70 80
61 69 80
61 69 80
62 70 80
62 70 80
62 70 80
61 70 80
61 69 80
62 70 80
61 69 80
62 70 80
62 70 80
61 70 80
62 70 80
62 70 80
62 70 80
61 70 80
62 70 80
60 69 80
62 70 80
62 70 80
61 70 80
62 70 80
61 70 80
61 69 80
62 70 80
62 70 80
61 69 80
61 69 80
61 69 80
61 70 80
62 70 80
61 70 80
61 70 80
62 70 80
61 69 80
61 70 80
61 69 80
61 70 80
61 70 80
62 70 80
60 69 80
61 69 80
60 69 80
61 70 80
61 69 80
61 69 80
61 70 80
61 69 80
61 70 80
62 70 80
61 70 80
61 69 80
62 70 80
62 70 80
61 70 80
61 70 80
62 70 80
61 70 80
62 70 80
61 69 80
61 70 80
61 70 80
62 70 80
61 70 80
61 70 80
61 70 80
61 70 80
61 70 80
62 70 80
61 70 80
62 70 80
62 70 80
62 70 80
62 70 80
61 70 80
61 69 80
62 70 80
62 70 80
61 69 80
61 70 80
61 70 80
61 70 80
61 70 80
61 70 80
62 70 80
61 70 80
62 70 80
62 70 80
62 70 80
62 70 80
61 69 80
61 70 80
61 70 80
61 70 80
61 70 80
61 69 80
61 69 80
62 70 80
61 69 80
61 69 80
60 69 80
62 70 80
62 70 80
62 70 80
61 70 80
61 70 80
62 70 80
61 69 80
61 70 80
61 70 80
61 70 80
61 70 80
61 70 80
62 70 80
62 70 80
61 70 80
62 70 80
60 69 80
61 69 80
61 70 80
60 69 80
61 70 80
62 70 80
61 70 80
61 69 80
62 70 80
61 70 80
61 69 80
62 70 80
62 70 80
61 69 80
62 70 80
61 69 80
61 70 80
61 69 80
61 69 80
62 70 80
61 70 80
61 69 80
61 69 80
61 69 80
61 70 80
61 70 80
61 70 80
61 69 80
61 69 80
61 70 80
62 70 80
62 70 80
62 70 80
61 69 80
62 70 80
62 70 80
61 69 80
62 70 80
61 69 80
62 70 80
61 70 80
61 70 80
62 70 80
61 70 80
62 70 80
61 70 80
61 69 80
61 70 80
62 70 80
61 70 80
62 70 80
60 69 80
61 70 80
62 70 80
62 70 80
62 70 80
62 70 80
61 69 80
62 70 80
61 69 80
62 70 80
62 70 80
61 69 80
62 70 80
62 70 80
62 70 80
61 70 80
61 69 80
62 70 80
62 70 80
61 70 80
61 70 80
61 70 80
62 70 80
60 69 80
61 69 80
61 69 80
61 70 80
61 70 80
61 70 80
62 70 80
62 70 80
61 70 80
60 69 80
61 69 80
61 69 80
61 69 80
61 69 80
61 69 80
61 69 80
61 69 80
62 70 80
62 70 80
61 69 80
61 70 80
62 70 80
61 69 80
61 70 80
62 70 80
61 70 80
62 70 80
61 70 80
62 70 80
61 69 80
61 69 80
62 70 80
61 69 80
62 70 80
61 70 80
62 70 80
61 69 80
61 69 80
62 70 80
61 70 80
60 69 80
62 70 80
60 69 80
62 70 80
61 70 80
61 70 80
62 70 80
61 70 80
62 70 80
61 70 80
62 70 80
61 70 80
61 69 80
61 70 80
61 70 80
61 70 80
61 70 80
62 70 80
61 70 80
61 70 80
61 70 80
62 70 80
61 69 80
62 70 80
61 69 80
61 69 80
61 70 80
61 70 80
61 69 80
61 70 80
61 70 80
62 70 80
61 69 80
62 70 80
61 70 80
61 69 80
61 69 80
61 69 80
61 69 80
61 70 80
62 70 80
61 69 80
60 69 80
62 70 80
62 70 80
61 69 80
62 70 80
61 70 80
61 69 80
62 70 80
61 69 80
61 70 80
61 70 80
61 69 80
62 70 80
61 69 80
61 69 80
61 70 80
61 69 80
60 69 80
61 70 80
61 69 80
61 69 80
62 70 80
61 70 80
61 69 80
61 69 80
61 69 80
62 70 80
61 70 80
61 69 80
61 70 80
62 70 80
62 70 80
61 69 80
61 69 80
61 69 80
61 69 80
61 69 80
61 70 80
61 70 80
61 69 80
62 70 80
61 70 80
61 70 80
62 70 80
61 69 80
61 70 80
62 70 80
61 69 80
62 70 80
62 70 80
61 70 80
61 70 80
62 70 80
61 69 80
61 70 80
61 70 80
61 69 80
62 70 80
62 70 80
61 70 80
62 70 80
61 70 80
61 70 80
62 70 80
61 69 80
61 69 80
61 69 80
61 70 80
61 69 80
61 70 80
61 70 80
62 70 80
61 70 80
61 69 80
61 69 80
61 70 80
62 70 80
62 70 80
61 69 80
62 70 80
62 70 80
62 70 80
61 69 80
60 69 80
61 69 80
61 70 80
61 70 80
61 69 80
61 69 80
61 69 80
62 70 80
61 70 80
61 69 80
62 70 80
61 70 80
61 69 80
62 70 80
61 70 80
61 69 80
61 70 80
61 69 80
61 69 80
61 70 80
61 69 80
61 69 80
61 70 80
61 69 80
62 70 80
61 69 80
61 70 80
62 70 80
61 70 80
62 70 80
62 70 80
61 70 80
62 70 80
62 70 80
61 70 80
61 70 80
61 70 80
61 70 80
61 69 80
61 70 80
62 70 80
61 69 80
61 69 80
62 70 80
61 70 80
62 70 80
61 69 80
62 70 80
61 70 80
61 69 80
61 69 80
61 70 80
61 69 80
62 70 80
61 69 80
61 70 80
61 69 80
62 70 80
62 70 80
62 70 80
62 70 80
61 69 80
61 70 80
62 70 80
61 70 80
62 70 80
61 69 80
61 70 80
61 69 80
61 69 80
61 70 80
61 70 80
61 70 80
62 70 80
61 69 80
61 69 80
62 70 80
61 70 80
61 70 80
62 70 80
61 70 80
61 69 80
61 70 80
62 70 80
61 69 80
61 70 80
61 70 80
62 70 80
61 70 80
61 69 80
61 70 80
61 69 80
62 70 80
62 70 80
62 70 80
61 70 80
62 70 80
61 70 80
61 70 80
61 70 80
61 69 80
61 69 80
61 70 80
62 70 80
61 69 80
61 69 80
61 69 80
62 70 80
62 70 80
61 70 80
61 69 80
62 70 80
61 70 80
62 70 80
61 69 80
61 70 80
62 70 80
61 69 80
61 69 80
61 70 80
61 69 80
61 69 80
61 70 80
61 69 80
61 69 80
61 69 80
62 70 80
62 70 80
61 70 80
61 69 80
61 69 80
61 69 80
61 69 80
62 70 80
61 70 80
62 70 80
61 69 80
62 70 80
62 70 80
61 69 80
61 70 80
62 70 80
61 69 80
62 70 80
62 70 80
61 70 80
62 70 80
61 70 80
61 70 80
61 70 80
62 70 80
62 70 80
61 70 80
62 70 80
61 70 80
61 70 80
61 70 80
61 70 80
61 70 80
61 70 80
62 70 80
61 70 80
62 70 80
62 70 80
62 70 80
62 70 80
61 70 80
61 69 80
62 70 80
62 70 80
61 70 80
62 70 80
61 70 80
62 70 80
61 70 80
62 70 80
61 70 80
61 69 80
62 70 80
61 70 80
61 69 80
62 70 80
61 70 80
62 70 80
62 70 80
62 70 80
62 70 80
61 69 80
61 70 80
61 69 80
60 69 80
61 70 80
61 69 80
61 70 80
61 70 80
61 70 80
61 69 80
62 70 80
61 70 80
62 70 80
61 69 80
61 69 80
60 69 80
61 70 80
62 70 80
62 70 80
62 70 80
60 69 80
62 70 80
61 70 80
62 70 80
61 70 80
61 70 80
61 70 80
61 70 80
62 70 80
62 70 80
62 70 80
61 70 80
61 69 80
61 70 80
62 70 80
61 69 80
62 70 80
62 70 80
62 70 80
62 70 80
61 69 80
61 69 80
61 69 80
61 70 80
61 69 80
61 69 80
61 70 80
61 69 80
62 70 80
61 70 80
62 70 80
61 69 80
61 69 80
62 70 80
61 69 80
61 69 80
61 70 80
62 70 80
61 70 80
62 70 80
61 70 80
61 69 80
61 69 80
61 70 80
62 70 80
61 70 80
62 70 80
62 70 80
62 70 80
61 69 80
60 69 80
61 69 80
61 70 80
62 70 80
61 69 80
61 70 80
61 70 80
61 69 80
61 70 80
61 69 80
62 70 80
62 70 80
61 70 80
61 69 80
61 69 80
61 70 80
62 70 80
61 69 80
62 70 80
62 70 80
61 70 80
61 69 80
61 70 80
61 70 80
62 70 80
62 70 80
61 70 80
62 70 80
61 69 80
61 70 80
61 70 80
61 70 80
61 70 80
62 70 80
61 69 80
60 69 80
61 70 80
61 69 80
61 70 80
61 70 80
61 70 80
61 70 80
62 70 80
61 70 80
61 70 80
62 70 80
61 69 80
62 70 80
61 70 80
61 70 80
62 70 80
61 70 80
61 69 80
62 70 80
61 69 80
61 70 80
62 70 80
61 69 80
61 70 80
61 70 80
62 70 80
62 70 80
61 70 80
62 70 80
61 70 80
61 69 80
61 69 80
61 70 80
61 70 80
61 70 80
61 69 80
62 70 80
61 69 80
61 69 80
61 69 80
60 69 80
61 70 80
62 70 80
62 70 80
60 69 80
62 70 80
62 70 80
62 70 80
61 70 80
61 70 80
61 70 80
61 69 80
62 70 80
62 70 80
61 69 80
62 70 80
61 70 80
61 69 80
62 70 80
62 70 80
62 70 80
62 70 80
61 70 80
62 70 80
61 70 80
62 70 80
62 70 80
61 69 80
62 70 80
62 70 80
61 69 80
62 70 80
62 70 80
62 70 80
61 70 80
62 70 80
61 69 80
62 70 80
60 69 80
61 70 80
62 70 80
62 70 80
61 70 80
61 70 80
61 70 80
61 70 80
62 70 80
62 70 80
62 70 80
62 70 80
62 70 80
61 69 80
61 69 80
61 70 80
61 69 80
62 70 80
61 69 80
62 70 80
61 69 80
62 70 80
62 70 80
62 70 80
62 70 80
61 70 80
60 69 80
61 69 80
61 70 80
61 69 80
60 69 80
61 70 80
61 70 80
62 70 80
61 69 80
62 70 80
62 70 80
61 70 80
61 70 80
61 70 80
61 70 80
60 69 80
61 70 80
61 70 80
61 70 80
61 70 80
61 70 80
62 70 80
61 70 80
62 70 80
62 70 80
61 69 80
61 69 80
60 69 80
61 69 80
62 70 80
61 69 80
61 69 80
61 70 80
61 69 80
61 70 80
61 69 80
61 70 80
61 70 80
61 70 80
61 70 80
60 69 80
61 69 80
62 70 80
61 70 80
61 69 80
61 70 80
62 70 80
60 69 80
61 70 80
62 70 80
62 70 80
61 70 80
62 70 80
60 69 80
61 70 80
61 70 80
61 70 80
61 69 80
61 70 80
62 70 80
61 70 80
61 69 80
61 69 80
62 70 80
61 70 80
61 69 80
61 70 80
61 70 80
61 69 80
61 69 80
61 69 80
62 70 80
61 70 80
61 69 80
62 70 80
61 69 80
61 70 80
61 70 80
60 69 80
61 70 80
60 69 80
63 70 80
61 70 80
62 70 80
61 69 80
61 70 80
62 70 80
61 69 80
61 70 80
63 70 80
62 70 80
61 70 80
61 69 80
61 69 80
61 70 80
61 70 80
62 70 80
61 70 80
61 70 80
61 70 80
62 70 80
61 69 80
61 69 80
61 69 80
61 70 80
61 69 80
61 69 80
62 70 80
62 70 80
61 69 80
61 69 80
62 70 80
61 70 80
62 70 80
62 70 80
62 70 80
61 70 80
61 70 80
61 69 80
61 69 80
62 70 80
61 70 80
62 70 80
61 70 80
62 70 80
61 69 80
62 70 80
62 70 80
61 69 80
62 70 80
61 70 80
62 70 80
61 69 80
61 69 80
61 69 80
61 69 80
61 69 80
61 69 80
62 70 80
61 70 80
62 70 80
61 70 80
61 69 80
61 69 80
61 70 80
62 70 80
61 70 80
62 70 80
62 70 80
61 69 80
61 70 80
61 70 80
61 70 80
62 70 80
62 70 80
61 70 80
61 70 80
62 70 80
61 69 80
62 70 80
61 69 80
62 70 80
62 70 80
61 69 80
61 69 80
61 69 80
61 69 80
61 70 80
62 70 80
61 70 80
61 70 80
61 69 80
62 70 80
61 69 80
62 70 80
61 69 80
61 69 80
61 69 80
61 69 80
62 70 80
62 70 80
61 70 80
62 70 80
61 69 80
62 70 80
62 70 80
61 70 80
61 70 80
61 69 80
61 69 80
62 70 80
61 69 80
62 70 80
61 70 80
62 70 80
61 69 80
61 69 80
63 70 80
61 69 80
61 70 80
62 70 80
60 69 80
61 70 80
61 69 80
61 70 80
61 70 80
61 70 80
61 69 80
62 70 80
61 70 80
61 69 80
61 70 80
62 70 80
61 70 80
61 70 80
61 70 80
61 69 80
61 70 80
61 70 80
62 70 80
61 69 80
61 70 80
61 69 80
61 70 80
61 69 80
61 69 80
62 70 80
61 70 80
61 70 80
61 69 80
60 69 80
62 70 80
62 70 80
62 70 80
62 70 80
62 70 80
60 69 80
61 69 80
61 69 80
61 69 80
62 70 80
62 70 80
62 70 80
61 69 80
62 70 80
61 69 80
61 69 80
61 69 80
61 70 80
61 70 80
62 70 80
61 69 80
61 70 80
61 70 80
61 70 80
61 69 80
62 70 80
61 69 80
61 70 80
62 70 80
61 70 80
60 69 80
61 70 80
62 70 80
62 70 80
61 69 80
61 70 80
62 70 80
61 69 80
61 70 80
62 70 80
62 70 80
61 70 80
61 69 80
62 70 80
62 70 80
61 70 80
62 70 80
61 69 80
61 69 80
61 69 80
62 70 80
61 70 80
61 70 80
61 69 80
62 70 80
61 69 80
61 69 80
61 70 80
61 70 80
61 70 80
61 70 80
61 70 80
61 70 80
61 70 80
62 70 80
61 69 80
61 70 80
61 69 80
61 70 80
61 69 80
61 69 80
61 69 80
61 70 80
61 69 80
61 69 80
62 70 80
61 70 80
61 69 80
61 69 80
61 69 80
61 69 80
62 70 80
62 70 80
62 70 80
61 70 80
61 70 80
62 70 80
62 70 80
61 70 80
61 70 80
62 70 80
61 69 80
60 69 80
61 69 80
61 69 80
61 69 80
61 70 80
62 70 80
62 70 80
61 69 80
61 69 80
61 70 80
61 70 80
61 69 80
62 70 80
62 70 80
62 70 80
62 70 80
62 70 80
62 70 80
62 70 80
61 70 80
61 70 80
61 70 80
61 70 80
61 70 80
61 69 80
61 70 80
62 70 80
60 69 80
61 70 80
62 70 80
61 70 80
61 70 80
61 70 80
61 70 80
62 70 80
61 70 80
62 70 80
61 70 80
61 70 80
62 70 80
61 70 80
62 70 80
61 70 80
61 70 80
61 69 80
61 70 80
61 69 80
62 70 80
62 70 80
62 70 80
61 69 80
61 70 80
61 70 80
62 70 80
60 69 80
62 70 80
61 69 80
62 70 80
62 70 80
61 70 80
62 70 80
61 70 80
61 69 80
62 70 80
62 70 80
61 69 80
62 70 80
61 69 80
62 70 80
62 70 80
62 70 80
62 70 80
61 69 80
61 69 80
61 70 80
61 70 80
61 70 80
61 69 80
61 70 80
62 70 80
61 69 80
61 69 80
62 70 80
61 70 80
61 69 80
61 70 80
61 69 80
61 69 80
61 69 80
61 70 80
61 70 80
62 70 80
61 69 80
62 70 80
61 70 80
62 70 80
60 69 80
61 69 80
61 70 80
61 69 80
61 70 80
61 69 80
60 69 80
61 70 80
61 70 80
62 70 80
62 70 80
61 70 80
61 69 80
61 70 80
61 69 80
61 69 80
62 70 80
62 70 80
61 70 80
62 70 80
62 70 80
61 70 80
61 69 80
61 69 80
61 69 80
61 70 80
61 69 80
61 70 80
62 70 80
61 70 80
61 69 80
62 70 80
61 70 80
62 70 80
61 70 80
62 70 80
61 69 80
61 70 80
62 70 80
61 70 80
61 69 80
62 70 80
61 69 80
62 70 80
61 70 80
61 70 80
62 70 80
61 70 80
62 70 80
62 70 80
63 70 80
61 69 80
61 69 80
61 69 80
61 70 80
61 70 80
61 69 80
62 70 80
61 69 80
61 70 80
61 70 80
62 70 80
62 70 80
62 70 80
62 70 80
61 70 80
61 70 80
61 69 80
62 70 80
62 70 80
61 69 80
61 70 80
61 69 80
61 70 80
61 70 80
61 69 80
61 69 80
60 69 80
61 70 80
62 70 80
60 69 80
61 70 80
63 70 80
61 70 80
61 70 80
62 70 80
61 69 80
61 70 80
61 70 80
61 70 80
61 70 80
62 70 80
61 69 80
62 70 80
61 70 80
61 69 80
62 70 80
61 70 80
61 69 80
61 69 80
61 70 80
61 70 80
62 70 80
62 70 80
61 69 80
61 69 80
61 70 80
62 70 80
62 70 80
61 70 80
61 70 80
61 69 80
62 70 80
61 69 80
62 70 80
61 70 80
61 70 80
61 70 80
61 69 80
62 70 80
61 69 80
61 70 80
62 70 80
62 70 80
62 70 80
61 69 80
61 69 80
61 70 80
61 70 80
61 69 80
61 70 80
62 70 80
61 70 80
61 69 80
60 69 80
60 69 80
61 70 80
62 70 80
61 70 80
61 69 80
61 70 80
61 70 80
61 69 80
61 70 80
62 70 80
61 70 80
61 69 80
62 70 80
61 69 80
61 69 80
62 70 80
62 70 80
62 70 80
61 69 80
61 69 80
61 69 80
61 69 80
62 70 80
62 70 80
61 70 80
61 69 80
61 70 80
61 70 80
62 70 80
61 70 80
61 70 80
61 70 80
61 69 80
61 69 80
62 70 80
61 69 80
62 70 80
61 70 80
62 70 80
62 70 80
62 70 80
61 70 80
61 70 80
62 70 80
61 70 80
61 69 80
61 70 80
61 70 80
62 70 80
61 70 80
61 70 80
61 70 80
61 70 80
61 70 80
62 70 80
61 70 80
62 70 80
61 70 80
61 70 80
61 70 80
61 70 80
61 70 80
62 70 80
61 70 80
62 70 80
62 70 80
61 69 80
61 70 80
60 69 80
61 69 80
61 69 80
62 70 80
62 70 80
61 70 80
62 70 80
61 69 80
61 70 80
61 70 80
61 70 80
62 70 80
62 70 80
61 69 80
61 69 80
61 69 80
61 70 80
61 70 80
62 70 80
62 70 80
62 70 80
62 70 80
62 70 80
62 70 80
62 70 80
61 69 80
62 70 80
60 69 80
61 70 80
61 69 80
62 70 80
61 69 80
61 70 80
62 70 80
61 70 80
61 69 80
61 70 80
61 70 80
61 70 80
62 70 80
61 69 80
60 69 80
61 70 80
62 70 80
61 69 80
61 70 80
62 70 80
62 70 80
61 70 80
62 70 80
61 69 80
60 69 80
62 70 80
62 70 80
61 70 80
62 70 80
61 70 80
61 69 80
61 69 80
61 69 80
62 70 80
62 70 80
61 69 80
61 70 80
61 69 80
61 70 80
60 69 80
61 70 80
61 70 80
62 70 80
60 69 80
61 69 80
61 70 80
62 70 80
62 70 80
61 70 80
62 70 80
62 70 80
62 70 80
62 70 80
61 70 80
61 70 80
61 70 80
62 70 80
61 69 80
61 70 80
61 70 80
61 69 80
61 70 80
62 70 80
60 69 80
61 69 80
61 69 80
61 70 80
61 69 80
61 70 80
61 70 80
62 70 80
61 69 80
61 70 80
61 70 80
61 69 80
61 69 80
61 70 80
62 70 80
62 70 80
61 69 80
61 70 80
61 69 80
61 70 80
61 70 80
61 69 80
61 69 80
61 69 80
61 69 80
61 70 80
62 70 80
61 69 80
61 70 80
61 70 80
61 70 80
60 69 80
61 69 80
61 70 80
62 70 80
61 70 80
61 70 80
61 70 80
61 69 80
61 69 80
61 70 80
62 70 80
61 70 80
61 69 80
62 70 80
62 70 80
61 70 80
61 70 80
62 70 80
62 70 80
61 70 80
60 69 80
62 70 80
61 69 80
62 70 80
61 70 80
61 70 80
61 69 80
61 69 80
61 70 80
61 70 80
61 69 80
61 70 80
62 70 80
62 70 80
62 70 80
61 70 80
62 70 80
62 70 80
62 70 80
62 70 80
62 70 80
61 70 80
62 70 80
61 70 80
61 70 80
61 69 80
62 70 80
61 70 80
61 69 80
62 70 80
61 70 80
61 69 80
62 70 80
61 70 80
61 69 80
61 69 80
61 69 80
61 70 80
61 70 80
62 70 80
61 70 80
61 70 80
61 70 80
62 70 80
61 69 80
61 69 80
60 69 80
61 70 80
61 69 80
62 70 80
62 70 80
61 69 80
61 69 80
61 70 80
61 70 80
61 69 80
61 70 80
61 69 80
62 70 80
62 70 80
61 69 80
61 70 80
61 70 80
61 70 80
62 70 80
61 70 80
62 70 80
62 70 80
61 70 80
61 69 80
61 70 80
61 70 80
61 69 80
61 69 80
61 70 80
61 70 80
61 69 80
61 69 80
60 69 80
61 69 80
61 69 80
61 70 80
61 69 80
61 69 80
61 69 80
61 70 80
61 69 80
61 69 80
62 70 80
62 70 80
62 70 80
62 70 80
62 70 80
62 70 80
62 70 80
62 70 80
60 69 80
61 69 80
62 70 80
62 70 80
61 70 80
61 70 80
61 70 80
61 69 80
62 70 80
61 69 80
61 69 80
62 70 80
61 70 80
62 70 80
61 69 80
61 69 80
62 70 80
62 70 80
62 70 80
62 70 80
61 70 80
61 70 80
61 70 80
62 70 80
62 70 80
61 69 80
61 69 80
62 70 80
62 70 80
61 69 80
61 70 80
61 69 80
61 70 80
61 69 80
62 70 80
61 70 80
62 70 80
61 70 80
61 70 80
61 69 80
61 69 80
61 69 80
61 69 80
61 70 80
61 69 80
62 70 80
61 69 80
62 70 80
62 70 80
61 70 80
61 70 80
62 70 80
61 70 80
61 70 80
61 69 80
61 70 80
61 69 80
61 70 80
61 70 80
62 70 80
61 70 80
61 69 80
61 70 80
62 70 80
61 69 80
62 70 80
61 69 80
61 70 80
61 69 80
61 70 80
62 70 80
61 70 80
62 70 80
62 70 80
62 70 80
61 70 80
61 69 80
63 70 80
61 70 80
61 70 80
61 70 80
62 70 80
62 70 80
61 70 80
61 69 80
61 70 80
61 70 80
61 69 80
62 70 80
62 70 80
61 70 80
62 70 80
61 69 80
61 69 80
61 69 80
61 70 80
61 70 80
61 70 80
62 70 80
61 70 80
61 70 80
61 69 80
61 69 80
62 70 80
61 70 80
62 70 80
61 70 80
61 69 80
61 69 80
62 70 80
61 69 80
62 70 80
62 70 80
60 69 80
62 70 80
62 70 80
61 70 80
61 70 80
61 70 80
62 70 80
61 70 80
61 69 80
61 70 80
61 69 80
61 69 80
61 69 80
62 70 80
62 70 80
62 70 80
61 69 80
61 69 80
61 69 80
62 70 80
62 70 80
61 69 80
62 70 80
61 69 80
61 69 80
61 69 80
60 69 80
62 70 80
61 69 80
61 69 80
61 70 80
62 70 80
62 70 80
62 70 80
62 70 80
62 70 80
62 70 80
61 69 80
61 69 80
61 70 80
61 69 80
61 70 80
62 70 80
61 70 80
61 69 80
61 69 80
61 70 80
61 69 80
62 70 80
62 70 80
62 70 80
61 69 80
61 70 80
62 70 80
61 69 80
62 70 80
61 69 80
61 69 80
62 70 80
61 69 80
61 70 80
61 70 80
62 70 80
62 70 80
62 70 80
62 70 80
60 69 80
62 70 80
61 69 80
61 70 80
61 70 80
62 70 80
61 69 80
61 70 80
62 70 80
61 69 80
61 70 80
62 70 80
62 70 80
62 70 80
62 70 80
62 70 80
62 70 80
61 70 80
61 70 80
61 69 80
61 69 80
61 69 80
61 69 80
62 70 80
62 70 80
61 70 80
61 70 80
61 69 80
61 70 80
61 70 80
61 70 80
62 70 80
61 69 80
60 69 80
61 69 80
61 69 80
61 69 80
61 70 80
61 70 80
61 69 80
61 70 80
61 70 80
62 70 80
62 70 80
61 69 80
61 69 80
62 70 80
61 69 80
61 70 80
61 69 80
61 69 80
62 70 80
62 70 80
62 70 80
61 70 80
60 69 80
60 69 80
62 70 80
62 70 80
62 70 80
61 70 80
61 69 80
61 69 80
61 70 80
61 70 80
61 69 80
61 69 80
61 70 80
62 70 80
61 70 80
62 70 80
62 70 80
61 70 80
61 70 80
61 70 80
61 70 80
61 70 80
61 69 80
61 69 80
61 69 80
62 70 80
61 70 80
62 70 80
61 70 80
61 70 80
62 70 80
62 70 80
62 70 80
61 69 80
61 70 80
60 69 80
62 70 80
62 70 80
61 70 80
61 69 80
62 70 80
61 69 80
61 69 80
61 70 80
61 69 80
61 69 80
61 70 80
61 70 80
61 69 80
62 70 80
62 70 80
61 70 80
61 69 80
62 70 80
62 70 80
62 70 80
62 70 80
61 70 80
62 70 80
62 70 80
61 70 80
62 70 80
61 70 80
61 70 80
61 69 80
61 69 80
62 70 80
61 70 80
61 70 80
62 70 80
62 70 80
61 69 80
62 70 80
61 69 80
61 70 80
61 70 80
61 69 80
62 70 80
62 70 80
62 70 80
62 70 80
62 70 80
62 70 80
61 70 80
61 70 80
61 69 80
61 69 80
61 69 80
62 70 80
62 70 80
61 69 80
61 69 80
61 70 80
62 70 80
62 70 80
61 70 80
61 70 80
61 69 80
61 69 80
61 70 80
61 70 80
61 70 80
61 69 80
61 70 80
61 70 80
61 69 80
61 69 80
62 70 80
61 70 80
62 70 80
62 70 80
62 70 80
60 69 80
62 70 80
61 69 80
62 70 80
61 70 80
61 70 80
61 70 80
62 70 80
62 70 80
62 70 80
61 69 80
61 70 80
62 70 80
61 69 80
61 69 80
62 70 80
61 70 80
62 70 80
61 70 80
61 70 80
62 70 80
62 70 80
62 70 80
62 70 80
61 69 80
62 70 80
61 69 80
60 69 80
62 70 80
61 69 80
62 70 80
61 70 80
61 70 80
61 69 80
62 70 80
61 69 80
62 70 80
61 69 80
61 69 80
61 69 80
62 70 80
61 69 80
61 69 80
62 70 80
60 69 80
62 70 80
61 69 80
61 69 80
62 70 80
62 70 80
61 70 80
62 70 80
61 69 80
61 70 80
61 70 80
61 69 80
61 70 80
61 70 80
61 70 80
61 70 80
61 70 80
61 70 80
62 70 80
61 69 80
61 69 80
62 70 80
61 69 80
62 70 80
61 69 80
62 70 80
61 70 80
62 70 80
61 70 80
61 69 80
61 69 80
61 70 80
62 70 80
62 70 80
62 70 80
62 70 80
61 69 80
61 69 80
61 70 80
61 70 80
61 69 80
61 69 80
62 70 80
61 70 80
61 69 80
61 70 80
61 70 80
61 70 80
61 70 80
62 70 80
61 69 80
62 70 80
62 70 80
62 70 80
62 70 80
61 70 80
62 70 80
62 70 80
62 70 80
61 70 80
62 70 80
61 70 80
62 70 80
61 69 80
61 69 80
61 70 80
61 70 80
61 70 80
62 70 80
62 70 80
61 70 80
62 70 80
61 70 80
60 69 80
61 69 80
61 69 80
62 70 80
62 70 80
61 70 80
61 69 80
61 69 80
62 70 80
61 69 80
62 70 80
61 69 80
61 70 80
62 70 80
61 69 80
62 70 80
61 70 80
61 69 80
62 70 80
62 70 80
61 69 80
62 70 80
61 70 80
61 70 80
61 70 80
62 70 80
61 70 80
61 69 80
62 70 80
62 70 80
62 70 80
62 70 80
62 70 80
61 70 80
61 70 80
61 69 80
62 70 80
61 69 80
61 69 80
61 70 80
62 70 80
62 70 80
61 70 80
61 69 80
61 70 80
61 69 80
61 70 80
61 70 80
62 70 80
62 70 80
61 69 80
62 70 80
61 69 80
61 70 80
62 70 80
61 70 80
60 69 80
61 70 80
61 69 80
61 69 80
61 70 80
61 70 80
61 69 80
61 70 80
61 70 80
60 69 80
61 69 80
61 70 80
61 70 80
62 70 80
61 69 80
62 70 80
61 70 80
62 70 80
61 70 80
61 70 80
61 69 80
61 70 80
61 70 80
62 70 80
61 69 80
62 70 80
62 70 80
61 70 80
61 69 80
61 70 80
61 69 80
62 70 80
62 70 80
61 70 80
62 70 80
62 70 80
61 70 80
61 69 80
62 70 80
61 69 80
62 70 80
61 69 80
61 69 80
61 70 80
61 69 80
61 69 80
62 70 80
61 70 80
61 69 80
61 69 80
62 70 80
61 69 80
61 70 80
61 70 80
61 70 80
61 70 80
61 70 80
62 70 80
61 69 80
62 70 80
60 69 80
61 69 80
61 69 80
62 70 80
61 69 80
61 69 80
61 70 80
61 70 80
62 70 80
61 69 80
61 70 80
61 70 80
61 69 80
61 69 80
62 70 80
62 70 80
62 70 80
62 70 80
61 70 80
61 70 80
61 70 80
62 70 80
62 70 80
62 70 80
61 69 80
61 69 80
61 70 80
61 69 80
62 70 80
61 69 80
61 70 80
61 70 80
61 69 80
62 70 80
62 70 80
61 70 80
60 69 80
61 69 80
61 70 80
61 70 80
62 70 80
62 70 80
61 70 80
62 70 80
61 70 80
62 70 80
61 70 80
62 70 80
62 70 80
61 70 80
62 70 80
61 70 80
61 69 80
61 69 80
61 69 80
61 69 80
61 70 80
61 70 80
61 70 80
61 70 80
61 70 80
61 70 80
62 70 80
62 70 80
61 70 80
61 69 80
61 70 80
61 69 80
61 70 80
61 69 80
62 70 80
61 70 80
61 70 80
61 70 80
62 70 80
62 70 80
61 69 80
62 70 80
62 70 80
61 69 80
62 70 80
61 70 80
61 70 80
63 70 80
62 70 80
62 70 80
60 69 80
61 70 80
61 69 80
62 70 80
62 70 80
61 70 80
60 69 80
62 70 80
62 70 80
61 69 80
61 70 80
61 69 80
62 70 80
61 69 80
62 70 80
62 70 80
61 70 80
61 69 80
61 69 80
62 70 80
62 70 80
61 69 80
61 69 80
61 69 80
61 70 80
61 70 80
61 69 80
62 70 80
61 69 80
61 69 80
62 70 80
62 70 80
62 70 80
62 70 80
61 70 80
61 69 80
61 70 80
61 70 80
62 70 80
62 70 80
61 70 80
61 70 80
61 69 80
61 69 80
61 69 80
62 70 80
62 70 80
62 70 80
61 70 80
62 70 80
62 70 80
61 69 80
62 70 80
61 69 80
61 69 80
61 69 80
61 69 80
61 69 80
62 70 80
62 70 80
61 69 80
62 70 80
62 70 80
62 70 80
61 69 80
61 69 80
61 70 80
61 69 80
62 70 80
61 70 80
61 70 80
62 70 80
62 70 80
62 70 80
61 70 80
61 69 80
62 70 80
61 70 80
62 70 80
62 70 80
61 70 80
61 70 80
62 70 80
62 70 80
61 69 80
61 70 80
62 70 80
61 70 80
61 69 80
62 70 80
62 70 80
61 69 80
61 70 80
61 70 80
62 70 80
61 70 80
61 69 80
61 70 80
62 70 80
61 70 80
61 70 80
62 70 80
61 70 80
61 70 80
61 70 80
61 69 80
61 69 80
61 70 80
62 70 80
61 70 80
61 70 80
62 70 80
61 69 80
61 69 80
61 70 80
62 70 80
61 69 80
61 69 80
62 70 80
60 69 80
62 70 80
61 70 80
62 70 80
61 70 80
62 70 80
61 70 80
61 69 80
61 69 80
61 69 80
62 70 80
61 70 80
61 69 80
61 70 80
62 70 80
61 70 80
61 70 80
61 69 80
61 70 80
62 70 80
61 70 80
62 70 80
62 70 80
61 69 80
61 69 80
62 70 80
62 70 80
60 69 80
61 69 80
61 70 80
62 70 80
61 70 80
61 69 80
61 69 80
61 70 80
62 70 80
62 70 80
61 69 80
61 70 80
60 69 80
62 70 80
62 70 80
62 70 80
62 70 80
61 70 80
62 70 80
61 70 80
61 69 80
61 69 80
62 70 80
61 70 80
62 70 80
61 70 80
61 69 80
61 69 80
62 70 80
62 70 80
62 70 80
62 70 80
62 70 80
60 69 80
60 69 80
62 70 80
62 70 80
61 69 80
62 70 80
61 70 80
61 69 80
61 69 80
61 70 80
61 70 80
61 69 80
61 70 80
62 70 80
61 70 80
61 69 80
61 70 80
62 70 80
61 69 80
61 69 80
62 70 80
62 70 80
61 69 80
62 70 80
61 70 80
61 69 80
62 70 80
61 70 80
61 69 80
61 69 80
62 70 80
61 70 80
62 70 80
62 70 80
61 70 80
61 69 80
61 69 80
61 69 80
61 69 80
62 70 80
61 70 80
61 69 80
61 70 80
62 70 80
62 70 80
61 70 80
62 70 80
61 70 80
61 70 80
61 69 80
60 69 80
61 69 80
60 69 80
62 70 80
61 69 80
61 70 80
61 69 80
62 70 80
62 70 80
61 70 80
61 69 80
61 70 80
62 70 80
61 70 80
62 70 80
61 70 80
62 70 80
61 69 80
61 70 80
61 69 80
62 70 80
61 69 80
61 70 80
61 69 80
61 70 80
61 69 80
61 69 80
61 69 80
61 70 80
62 70 80
61 70 80
61 69 80
61 70 80
61 70 80
62 70 80
61 69 80
61 70 80
62 70 80
61 69 80
61 69 80
61 70 80
61 69 80
61 70 80
62 70 80
61 69 80
61 70 80
61 70 80
61 70 80
61 70 80
62 70 80
62 70 80
61 69 80
62 70 80
62 70 80
61 70 80
62 70 80
62 70 80
61 70 80
62 70 80
62 70 80
62 70 80
61 69 80
61 70 80
61 69 80
61 70 80
60 69 80
62 70 80
61 69 80
60 69 80
62 70 80
61 69 80
62 70 80
62 70 80
61 69 80
61 69 80
61 69 80
61 69 80
61 70 80
61 70 80
61 69 80
61 69 80
62 70 80
61 69 80
61 69 80
61 70 80
62 70 80
62 70 80
61 69 80
61 70 80
61 70 80
61 69 80
61 70 80
62 70 80
61 70 80
62 70 80
61 69 80
62 70 80
62 70 80
61 70 80
61 69 80
61 70 80
61 69 80
61 69 80
62 70 80
61 70 80
62 70 80
62 70 80
61 69 80
61 69 80
61 70 80
62 70 80
61 70 80
60 69 80
60 69 80
61 69 80
61 70 80
61 70 80
62 70 80
61 70 80
61 69 80
61 70 80
61 69 80
62 70 80
61 70 80
61 69 80
62 70 80
62 70 80
62 70 80
62 70 80
61 69 80
61 70 80
61 69 80
62 70 80
61 69 80
61 70 80
62 70 80
62 70 80
61 69 80
61 69 80
62 70 80
62 70 80
61 69 80
61 69 80
61 69 80
61 69 80
61 70 80
62 70 80
61 69 80
61 69 80
61 70 80
61 70 80
61 69 80
62 70 80
62 70 80
61 69 80
61 69 80
61 70 80
62 70 80
62 70 80
61 70 80
62 70 80
62 70 80
61 69 80
61 69 80
62 70 80
61 70 80
61 69 80
61 70 80
60 69 80
62 70 80
62 70 80
61 70 80
61 69 80
61 69 80
61 70 80
62 70 80
62 70 80
61 70 80
62 70 80
61 69 80
62 70 80
61 70 80
61 69 80
62 70 80
62 70 80
61 69 80
62 70 80
61 69 80
61 69 80
61 70 80
61 69 80
61 70 80
61 69 80
61 70 80
61 69 80
61 70 80
62 70 80
62 70 80
61 70 80
60 69 80
61 69 80
61 70 80
62 70 80
61 70 80
61 70 80
62 70 80
63 70 80
61 70 80
61 69 80
61 70 80
61 69 80
62 70 80
61 70 80
62 70 80
62 70 80
61 69 80
61 70 80
61 69 80
61 69 80
61 69 80
61 69 80
62 70 80
62 70 80
61 69 80
61 69 80
61 70 80
61 69 80
61 70 80
61 70 80
62 70 80
62 70 80
61 69 80
61 69 80
62 70 80
61 69 80
61 70 80
62 70 80
61 69 80
61 69 80
61 69 80
61 69 80
62 70 80
61 70 80
61 70 80
61 69 80
61 69 80
61 69 80
61 69 80
61 69 80
62 70 80
62 70 80
61 69 80
60 69 80
61 70 80
62 70 80
62 70 80
61 69 80
61 70 80
62 70 80
61 70 80
61 70 80
61 69 80
62 70 80
61 70 80
61 69 80
61 69 80
62 70 80
61 70 80
62 70 80
62 70 80
61 69 80
61 70 80
61 69 80
61 69 80
61 70 80
61 69 80
62 70 80
62 70 80
61 69 80
61 69 80
61 70 80
61 70 80
62 70 80
62 70 80
61 69 80
62 70 80
62 70 80
61 69 80
61 70 80
62 70 80
62 70 80
62 70 80
62 70 80
61 70 80
61 70 80
61 69 80
61 70 80
61 69 80
61 70 80
61 70 80
62 70 80
60 69 80
61 70 80
61 70 80
61 70 80
61 70 80
62 70 80
61 69 80
62 70 80
61 69 80
61 69 80
61 70 80
62 70 80
61 70 80
62 70 80
61 69 80
61 69 80
61 70 80
62 70 80
61 69 80
61 69 80
61 70 80
62 70 80
61 69 80
60 69 80
61 70 80
61 69 80
61 70 80
62 70 80
62 70 80
61 69 80
61 69 80
61 70 80
62 70 80
61 69 80
61 69 80
61 70 80
62 70 80
61 70 80
62 70 80
61 70 80
62 70 80
61 69 80
61 69 80
61 69 80
61 69 80
62 70 80
62 70 80
61 70 80
62 70 80
61 69 80
61 69 80
61 69 80
61 70 80
61 69 80
62 70 80
61 69 80
62 70 80
61 69 80
61 70 80
62 70 80
61 69 80
62 70 80
62 70 80
61 69 80
62 70 80
61 70 80
62 70 80
61 70 80
61 69 80
61 69 80
61 69 80
61 70 80
61 70 80
62 70 80
61 69 80
61 69 80
61 69 80
61 70 80
61 69 80
61 69 80
62 70 80
61 69 80
61 70 80
62 70 80
61 70 80
61 70 80
61 69 80
62 70 80
61 69 80
61 70 80
61 70 80
61 69 80
60 69 80
62 70 80
61 69 80
62 70 80
61 69 80
61 70 80
62 70 80
61 69 80
61 70 80
61 70 80
61 69 80
62 70 80
61 69 80
62 70 80
62 70 80
62 70 80
62 70 80
61 69 80
61 69 80
62 70 80
61 69 80
61 69 80
62 70 80
62 70 80
62 70 80
61 69 80
62 70 80
60 69 80
61 70 80
61 70 80
62 70 80
61 70 80
62 70 80
61 70 80
62 70 80
61 69 80
61 70 80
61 69 80
62 70 80
62 70 80
62 70 80
61 70 80
61 69 80
62 70 80
62 70 80
61 69 80
61 69 80
61 70 80
61 70 80
62 70 80
61 70 80
61 70 80
62 70 80
61 69 80
61 69 80
61 69 80
62 70 80
61 69 80
61 70 80
61 69 80
62 70 80
61 69 80
61 70 80
61 70 80
62 70 80
62 70 80
61 69 80
61 70 80
61 69 80
62 70 80
62 70 80
61 70 80
61 69 80
61 70 80
61 70 80
62 70 80
61 70 80
61 70 80
61 69 80
61 70 80
61 69 80
61 70 80
61 70 80
61 70 80
62 70 80
61 69 80
61 69 80
62 70 80
61 70 80
61 70 80
61 69 80
61 69 80
61 69 80
61 69 80
61 69 80
61 70 80
61 70 80
61 69 80
61 69 80
61 69 80
61 70 80
62 70 80
62 70 80
62 70 80
61 70 80
62 70 80
61 69 80
61 70 80
61 69 80
61 69 80
61 70 80
61 70 80
61 69 80
61 69 80
61 69 80
61 69 80
62 70 80
61 69 80
61 70 80
62 70 80
61 69 80
61 70 80
62 70 80
61 70 80
61 69 80
61 69 80
61 69 80
62 70 80
61 70 80
60 69 80
62 70 80
61 70 80
62 70 80
61 70 80
61 70 80
62 70 80
61 70 80
60 69 80
62 70 80
61 70 80
61 70 80
62 70 80
62 70 80
61 70 80
62 70 80
61 70 80
61 69 80
62 70 80
61 70 80
61 70 80
61 69 80
61 70 80
61 70 80
61 70 80
62 70 80
62 70 80
62 70 80
61 69 80
61 69 80
61 70 80
62 70 80
62 70 80
62 70 80
61 70 80
61 69 80
62 70 80
61 70 80
61 70 80
61 70 80
62 70 80
61 69 80
61 70 80
61 70 80
61 70 80
62 70 80
62 70 80
61 69 80
62 70 80
61 69 80
61 69 80
62 70 80
62 70 80
61 70 80
61 70 80
62 70 80
62 70 80
61 69 80
62 70 80
61 70 80
62 70 80
61 70 80
61 70 80
61 70 80
61 70 80
61 70 80
62 70 80
62 70 80
61 70 80
62 70 80
61 69 80
62 70 80
61 69 80
61 69 80
61 70 80
61 69 80
61 70 80
61 70 80
61 70 80
61 70 80
61 70 80
61 70 80
61 69 80
61 70 80
62 70 80
62 70 80
61 69 80
61 70 80
62 70 80
61 69 80
62 70 80
62 70 80
61 69 80
62 70 80
61 70 80
61 70 80
61 69 80
62 70 80
61 69 80
62 70 80
61 70 80
61 69 80
61 69 80
61 70 80
61 69 80
61 70 80
61 69 80
61 69 80
62 70 80
61 70 80
62 70 80
62 70 80
61 70 80
61 70 80
61 69 80
61 69 80
61 70 80
62 70 80
61 70 80
62 70 80
62 70 80
62 70 80
61 69 80
61 69 80
61 70 80
61 70 80
62 70 80
61 69 80
61 69 80
61 69 80
62 70 80
62 70 80
61 70 80
62 70 80
61 70 80
61 69 80
61 69 80
61 69 80
61 69 80
61 69 80
61 70 80
62 70 80
62 70 80
61 70 80
61 70 80
62 70 80
62 70 80
61 70 80
61 70 80
61 70 80
62 70 80
62 70 80
61 69 80
62 70 80
61 69 80
61 70 80
61 69 80
61 69 80
61 69 80
61 69 80
62 70 80
62 70 80
61 69 80
62 70 80
61 70 80
60 69 80
61 69 80
61 70 80
62 70 80
61 69 80
61 69 80
61 69 80
61 69 80
61 69 80
62 70 80
62 70 80
60 69 80
62 70 80
61 70 80
61 69 80
61 70 80
61 70 80
62 70 80
62 70 80
62 70 80
63 70 80
61 70 80
62 70 80
61 70 80
62 70 80
61 69 80
62 70 80
61 69 80
62 70 80
61 69 80
62 70 80
62 70 80
61 70 80
61 69 80
62 70 80
61 70 80
61 70 80
61 70 80
62 70 80
62 70 80
61 70 80
61 69 80
61 69 80
61 69 80
62 70 80
61 70 80
61 69 80
61 69 80
62 70 80
61 69 80
61 70 80
61 69 80
62 70 80
62 70 80
61 70 80
61 70 80
62 70 80
61 69 80
61 69 80
61 69 80
62 70 80
61 69 80
61 69 80
62 70 80
61 70 80
61 69 80
62 70 80
62 70 80
62 70 80
62 70 80
62 70 80
61 69 80
61 70 80
61 70 80
61 69 80
62 70 80
61 69 80
62 70 80
61 69 80
62 70 80
62 70 80
62 70 80
62 70 80
61 70 80
61 69 80
62 70 80
62 70 80
61 70 80
61 69 80
61 70 80
60 69 80
62 70 80
61 70 80
61 69 80
62 70 80
61 69 80
61 69 80
62 70 80
62 70 80
60 69 80
61 69 80
61 70 80
61 69 80
62 70 80
61 70 80
62 70 80
62 70 80
62 70 80
61 70 80
61 70 80
61 70 80
61 70 80
61 69 80
60 69 80
62 70 80
61 70 80
61 70 80
61 70 80
61 69 80
61 70 80
61 69 80
61 70 80
61 69 80
61 69 80
61 69 80
61 70 80
62 70 80
62 70 80
61 69 80
62 70 80
61 70 80
60 69 80
61 69 80
62 70 80
61 69 80
61 69 80
61 69 80
62 70 80
61 69 80
61 69 80
61 69 80
61 69 80
61 69 80
61 69 80
61 70 80
62 70 80
62 70 80
61 70 80
61 69 80
61 69 80
61 70 80
61 69 80
62 70 80
61 70 80
62 70 80
61 70 80
61 69 80
61 70 80
62 70 80
61 70 80
61 69 80
62 70 80
61 69 80
61 69 80
61 69 80
62 70 80
62 70 80
61 70 80
62 70 80
61 69 80
63 70 80
61 70 80
61 69 80
61 70 80
62 70 80
62 70 80
61 69 80
61 70 80
62 70 80
61 70 80
61 69 80
62 70 80
62 70 80
62 70 80
61 70 80
61 69 80
61 70 80
61 70 80
62 70 80
60 69 80
61 70 80
62 70 80
61 70 80
61 69 80
61 70 80
61 69 80
62 70 80
61 69 80
61 70 80
61 70 80
61 69 80
61 70 80
60 69 80
61 70 80
62 70 80
62 70 80
61 69 80
60 69 80
61 70 80
61 69 80
61 70 80
61 69 80
61 70 80
61 70 80
61 69 80
61 70 80
61 69 80
61 69 80
61 70 80
62 70 80
63 70 80
61 70 80
62 70 80
62 70 80
61 70 80
61 70 80
62 70 80
62 70 80
61 70 80
61 70 80
61 70 80
61 69 80
61 69 80
61 70 80
62 70 80
61 69 80
62 70 80
61 70 80
61 69 80
61 69 80
61 69 80
61 69 80
61 69 80
61 69 80
62 70 80
62 70 80
61 69 80
61 69 80
61 70 80
62 70 80
60 69 80
62 70 80
61 69 80
61 70 80
61 69 80
61 70 80
61 70 80
62 70 80
61 70 80
61 70 80
61 70 80
61 69 80
61 70 80
61 70 80
61 69 80
61 70 80
61 70 80
62 70 80
62 70 80
61 70 80
61 70 80
61 69 80
62 70 80
61 69 80
61 69 80
61 69 80
61 69 80
62 70 80
61 70 80
61 69 80
61 69 80
62 70 80
61 69 80
61 70 80
61 69 80
61 70 80
62 70 80
61 69 80
62 70 80
62 70 80
62 70 80
60 69 80
62 70 80
61 70 80
61 69 80
61 69 80
61 70 80
61 70 80
61 70 80
62 70 80
61 70 80
62 70 80
61 69 80
60 69 80
61 69 80
61 69 80
61 69 80
61 69 80
61 70 80
61 70 80
61 70 80
61 70 80
62 70 80
61 69 80
61 70 80
62 70 80
61 70 80
61 69 80
61 70 80
61 69 80
61 70 80
61 70 80
62 70 80
62 70 80
61 70 80
61 70 80
61 70 80
61 69 80
61 70 80
60 69 80
61 70 80
61 70 80
61 70 80
61 69 80
61 70 80
61 70 80
61 69 80
61 69 80
61 70 80
61 69 80
61 70 80
61 70 80
61 69 80
61 69 80
61 69 80
61 70 80
62 70 80
61 70 80
61 70 80
61 70 80
61 69 80
61 69 80
60 69 80
61 70 80
62 70 80
61 69 80
61 69 80
61 70 80
62 70 80
61 69 80
62 70 80
61 70 80
62 70 80
61 70 80
61 70 80
62 70 80
62 70 80
61 69 80
62 70 80
61 69 80
62 70 80
61 69 80
61 70 80
61 69 80
61 69 80
62 70 80
62 70 80
61 70 80
61 69 80
61 69 80
61 69 80
62 70 80
61 69 80
61 70 80
61 70 80
62 70 80
62 70 80
61 70 80
61 69 80
62 70 80
61 69 80
62 70 80
61 70 80
62 70 80
61 69 80
61 70 80
61 70 80
61 70 80
62 70 80
61 70 80
61 70 80
62 70 80
61 69 80
62 70 80
61 69 80
62 70 80
61 70 80
62 70 80
62 70 80
61 70 80
61 70 80
61 70 80
62 70 80
62 70 80
61 70 80
61 70 80
61 69 80
62 70 80
62 70 80
62 70 80
61 69 80
61 69 80
62 70 80
61 69 80
61 69 80
62 70 80
61 70 80
61 70 80
62 70 80
61 70 80
61 70 80
61 70 80
61 69 80
62 70 80
62 70 80
62 70 80
61 70 80
61 70 80
61 70 80
62 70 80
61 70 80
62 70 80
61 69 80
61 69 80
61 69 80
62 70 80
60 69 80
62 70 80
62 70 80
61 69 80
61 69 80
61 70 80
61 69 80
61 69 80
61 69 80
61 70 80
62 70 80
61 70 80
62 70 80
61 70 80
62 70 80
61 69 80
61 69 80
61 69 80
61 69 80
62 70 80
62 70 80
61 70 80
61 69 80
62 70 80
61 69 80
61 70 80
61 70 80
62 70 80
61 69 80
61 69 80
61 70 80
61 70 80
61 69 80
62 70 80
61 69 80
62 70 80
62 70 80
62 70 80
60 69 80
60 69 80
62 70 80
61 70 80
61 70 80
61 69 80
61 69 80
61 69 80
61 69 80
61 70 80
61 69 80
61 70 80
62 70 80
61 69 80
62 70 80
61 70 80
61 69 80
62 70 80
61 70 80
62 70 80
62 70 80
62 70 80
61 69 80
62 70 80
62 70 80
62 70 80
61 70 80
61 69 80
61 69 80
62 70 80
61 70 80
61 70 80
60 69 80
62 70 80
62 70 80
62 70 80
62 70 80
62 70 80
61 70 80
61 70 80
62 70 80
61 69 80
61 69 80
61 70 80
61 70 80
62 70 80
61 70 80
62 70 80
62 70 80
61 69 80
61 70 80
62 70 80
62 70 80
62 70 80
62 70 80
61 69 80
61 69 80
62 70 80
62 70 80
61 69 80
62 70 80
61 70 80
61 69 80
62 70 80
61 70 80
61 70 80
61 70 80
61 69 80
61 70 80
61 70 80
61 70 80
60 69 80
61 70 80
61 70 80
62 70 80
61 70 80
61 70 80
61 70 80
61 69 80
62 70 80
62 70 80
62 70 80
62 70 80
62 70 80
62 70 80
61 70 80
61 70 80
61 70 80
61 70 80
62 70 80
61 70 80
61 69 80
61 69 80
61 70 80
61 69 80
61 69 80
62 70 80
61 69 80
61 69 80
61 70 80
61 69 80
61 70 80
62 70 80
62 70 80
62 70 80
62 70 80
62 70 80
61 69 80
61 69 80
61 69 80
61 69 80
61 70 80
61 69 80
61 70 80
61 70 80
61 69 80
61 69 80
61 69 80
62 70 80
61 69 80
62 70 80
61 69 80
61 69 80
61 69 80
62 70 80
62 70 80
62 70 80
62 70 80
61 69 80
62 70 80
61 69 80
61 69 80
61 69 80
61 70 80
61 70 80
61 69 80
62 70 80
61 70 80
62 70 80
61 69 80
62 70 80
62 70 80
62 70 80
62 70 80
61 69 80
62 70 80
61 70 80
62 70 80
62 70 80
61 70 80
61 69 80
62 70 80
62 70 80
61 69 80
62 70 80
61 70 80
62 70 80
62 70 80
61 69 80
62 70 80
61 69 80
61 69 80
61 69 80
61 70 80
61 69 80
62 70 80
62 70 80
62 70 80
61 69 80
61 70 80
62 70 80
62 70 80
61 70 80
61 69 80
61 70 80
61 70 80
62 70 80
61 69 80
61 70 80
61 69 80
62 70 80
61 69 80
62 70 80
61 69 80
62 70 80
62 70 80
62 70 80
61 69 80
61 70 80
61 70 80
61 70 80
61 69 80
61 70 80
61 69 80
61 69 80
61 69 80
62 70 80
61 70 80
62 70 80
61 69 80
61 70 80
61 70 80
61 70 80
61 69 80
61 70 80
62 70 80
62 70 80
61 70 80
62 70 80
61 70 80
61 70 80
62 70 80
61 70 80
61 70 80
61 70 80
61 70 80
62 70 80
62 70 80
61 69 80
61 69 80
61 70 80
62 70 80
62 70 80
62 70 80
61 69 80
61 69 80
61 70 80
62 70 80
61 69 80
62 70 80
61 69 80
62 70 80
61 70 80
61 70 80
61 70 80
62 70 80
61 70 80
61 70 80
61 69 80
61 69 80
61 70 80
62 70 80
61 69 80
62 70 80
62 70 80
62 70 80
62 70 80
61 69 80
62 70 80
62 70 80
61 70 80
62 70 80
63 70 80
61 69 80
61 70 80
62 70 80
61 69 80
62 70 80
61 69 80
61 69 80
61 70 80
61 69 80
62 70 80
61 69 80
62 70 80
61 70 80
62 70 80
61 69 80
61 69 80
61 70 80
62 70 80
62 70 80
61 69 80
61 69 80
62 70 80
62 70 80
61 69 80
61 69 80
61 69 80
61 70 80
61 70 80
62 70 80
61 70 80
60 69 80
61 69 80
62 70 80
61 70 80
62 70 80
60 69 80
61 70 80
62 70 80
61 70 80
61 70 80
61 69 80
61 69 80
61 70 80
61 70 80
60 69 80
61 70 80
62 70 80
61 70 80
61 70 80
61 70 80
61 70 80
61 70 80
61 69 80
61 70 80
61 69 80
61 70 80
61 70 80
61 70 80
62 70 80
61 69 80
61 70 80
61 70 80
62 70 80
62 70 80
61 69 80
61 69 80
61 69 80
61 69 80
61 69 80
61 70 80
61 70 80
61 70 80
62 70 80
61 70 80
62 70 80
61 69 80
61 70 80
60 69 80
62 70 80
60 69 80
62 70 80
61 69 80
60 69 80
61 69 80
62 70 80
61 70 80
62 70 80
61 70 80
62 70 80
61 70 80
61 69 80
61 69 80
61 70 80
61 70 80
61 69 80
61 70 80
62 70 80
61 70 80
62 70 80
62 70 80
62 70 80
61 69 80
61 69 80
61 70 80
62 70 80
61 70 80
61 70 80
61 69 80
61 69 80
62 70 80
62 70 80
61 69 80
62 70 80
61 70 80
62 70 80
61 69 80
60 69 80
61 69 80
61 70 80
61 70 80
61 70 80
62 70 80
61 70 80
61 69 80
62 70 80
61 69 80
62 70 80
62 70 80
62 70 80
61 70 80
61 69 80
62 70 80
61 70 80
61 70 80
62 70 80
62 70 80
61 70 80
62 70 80
61 70 80
62 70 80
61 69 80
62 70 80
62 70 80
62 70 80
62 70 80
61 70 80
61 69 80
61 69 80
61 70 80
61 69 80
61 70 80
62 70 80
61 69 80
61 69 80
61 70 80
61 69 80
61 69 80
62 70 80
62 70 80
61 70 80
62 70 80
61 70 80
61 69 80
62 70 80
61 69 80
61 70 80
62 70 80
62 70 80
62 70 80
61 70 80
61 69 80
62 70 80
61 70 80
62 70 80
62 70 80
62 70 80
61 70 80
61 69 80
62 70 80
62 70 80
61 69 80
61 70 80
62 70 80
61 69 80
60 69 80
61 69 80
62 70 80
62 70 80
61 69 80
62 70 80
61 70 80
62 70 80
62 70 80
61 69 80
60 69 80
62 70 80
62 70 80
61 70 80
62 70 80
62 70 80
61 69 80
61 69 80
61 69 80
61 70 80
61 69 80
61 70 80
62 70 80
61 69 80
62 70 80
61 70 80
62 70 80
61 70 80
61 69 80
62 70 80
61 69 80
61 70 80
62 70 80
61 70 80
61 69 80
61 69 80
62 70 80
61 70 80
61 70 80
61 70 80
62 70 80
61 69 80
62 70 80
61 69 80
61 69 80
61 70 80
61 70 80
60 69 80
61 69 80
62 70 80
61 69 80
61 70 80
61 70 80
62 70 80
61 69 80
62 70 80
61 70 80
61 69 80
61 69 80
62 70 80
61 69 80
61 70 80
62 70 80
62 70 80
61 70 80
61 69 80
62 70 80
62 70 80
61 70 80
61 70 80
62 70 80
62 70 80
62 70 80
61 69 80
61 69 80
62 70 80
61 69 80
61 70 80
61 69 80
61 69 80
61 70 80
61 70 80
61 69 80
62 70 80
62 70 80
61 69 80
61 69 80
60 69 80
61 70 80
61 70 80
62 70 80
61 69 80
61 70 80
61 69 80
61 69 80
62 70 80
62 70 80
61 70 80
61 70 80
61 70 80
61 70 80
61 69 80
62 70 80
62 70 80
61 70 80
61 70 80
61 69 80
61 69 80
61 70 80
62 70 80
61 70 80
61 69 80
61 70 80
61 70 80
61 69 80
61 69 80
61 70 80
61 70 80
62 70 80
61 69 80
61 70 80
61 69 80
61 70 80
61 69 80
61 70 80
61 70 80
61 69 80
61 69 80
62 70 80
61 70 80
60 69 80
61 70 80
61 70 80
62 70 80
62 70 80
60 69 80
61 69 80
61 69 80
62 70 80
62 70 80
61 70 80
61 69 80
62 70 80
62 70 80
60 69 80
62 70 80
62 70 80
62 70 80
61 70 80
63 70 80
61 70 80
61 70 80
61 70 80
61 70 80
62 70 80
61 70 80
61 69 80
61 69 80
61 70 80
61 69 80
61 69 80
61 70 80
62 70 80
61 70 80
61 69 80
62 70 80
61 69 80
61 69 80
61 70 80
61 69 80
61 70 80
62 70 80
61 70 80
61 70 80
61 69 80
62 70 80
61 70 80
61 69 80
62 70 80
61 69 80
61 69 80
61 69 80
62 70 80
61 69 80
61 70 80
62 70 80
61 70 80
61 70 80
61 70 80
62 70 80
61 69 80
62 70 80
61 70 80
61 69 80
60 69 80
61 70 80
62 70 80
61 69 80
62 70 80
61 70 80
62 70 80
61 69 80
61 69 80
61 70 80
61 69 80
61 70 80
61 69 80
61 70 80
61 70 80
61 69 80
62 70 80
60 69 80
61 70 80
61 70 80
61 69 80
61 70 80
61 70 80
61 69 80
61 69 80
61 69 80
62 70 80
62 70 80
61 69 80
62 70 80
61 69 80
62 70 80
62 70 80
61 69 80
60 69 80
62 70 80
62 70 80
62 70 80
62 70 80
62 70 80
61 70 80
61 70 80
61 70 80
61 69 80
61 70 80
61 70 80
61 69 80
62 70 80
61 69 80
61 70 80
62 70 80
61 69 80
62 70 80
62 70 80
62 70 80
62 70 80
62 70 80
61 70 80
61 70 80
62 70 80
61 70 80
62 70 80
61 69 80
62 70 80
61 69 80
60 69 80
61 69 80
62 70 80
61 69 80
61 69 80
61 69 80
61 70 80
62 70 80
61 69 80
62 70 80
61 70 80
61 69 80
61 70 80
61 70 80
62 70 80
61 70 80
60 69 80
61 70 80
61 69 80
62 70 80
61 70 80
61 69 80
61 69 80
62 70 80
61 70 80
62 70 80
62 70 80
61 69 80
62 70 80
62 69 80
61 69 80
61 70 80
61 70 80
61 70 80
61 69 80
60 69 80
61 70 80
61 70 80
61 70 80
61 69 80
60 68 80
63 70 80
62 70 80
62 70 80
62 70 80
62 70 80
61 70 80
61 69 80
61 70 80
62 70 80
61 69 80
61 69 80
62 70 80
60 69 80
61 69 80
61 69 80
61 70 80
61 69 80
62 70 80
61 70 80
61 69 80
61 69 80
61 70 80
62 70 80
62 70 80
61 69 80
61 69 80
61 70 80
61 69 80
61 69 80
61 70 80
61 69 80
61 70 80
61 69 80
62 70 80
62 70 80
61 70 80
61 69 80
60 69 80
62 70 80
61 70 80
61 70 80
61 69 80
61 69 80
62 70 80
61 70 80
61 70 80
62 70 80
61 69 80
61 69 80
61 70 80
61 70 80
61 70 80
62 70 80
60 69 80
61 70 80
62 70 80
61 70 80
61 70 80
61 70 80
61 69 80
61 70 80
61 70 80
61 69 80
62 70 80
61 69 80
61 69 80
61 69 80
62 70 80
61 69 80
61 70 80
62 70 80
61 70 80
61 69 80
61 70 80
62 70 80
61 69 80
61 69 80
62 70 80
62 70 80
61 70 80
62 70 80
61 70 80
61 69 80
62 70 80
62 70 80
62 70 80
61 70 80
61 69 80
62 70 80
61 69 80
62 70 80
62 70 80
62 70 80
61 69 80
61 70 80
61 70 80
61 69 80
61 70 80
62 70 80
61 69 80
62 70 80
61 69 80
62 70 80
62 70 80
61 70 80
62 70 80
61 70 80
61 69 80
61 69 80
62 70 80
61 69 80
61 70 80
61 70 80
62 70 80
61 70 80
61 69 80
61 69 80
61 69 80
62 70 80
62 70 80
62 70 80
61 70 80
62 70 80
62 70 80
62 70 80
62 70 80
61 69 80
61 69 80
61 69 80
62 70 80
62 70 80
61 69 80
62 70 80
61 70 80
61 69 80
62 70 80
61 70 80
61 69 80
61 69 80
61 70 80
61 70 80
61 69 80
62 70 80
62 70 80
61 69 80
62 70 80
61 70 80
62 70 80
61 69 80
61 70 80
61 69 80
62 70 80
62 70 80
61 69 80
61 69 80
62 70 80
62 70 80
61 69 80
61 70 80
61 70 80
61 69 80
61 70 80
61 69 80
61 69 80
62 70 80
62 70 80
61 69 80
62 70 80
61 70 80
61 70 80
62 70 80
62 70 80
61 70 80
62 70 80
61 70 80
61 69 80
61 69 80
62 70 80
61 70 80
62 70 80
62 70 80
61 70 80
61 69 80
61 70 80
62 70 80
61 69 80
62 70 80
61 70 80
61 70 80
61 69 80
62 70 80
61 70 80
62 70 80
61 70 80
60 69 80
62 70 80
61 70 80
61 69 80
62 70 80
61 69 80
61 70 80
61 70 80
61 70 80
60 69 80
61 70 80
60 69 80
62 70 80
62 70 80
61 70 80
61 69 80
61 69 80
62 70 80
61 69 80
61 70 80
61 70 80
61 69 80
61 69 80
61 69 80
61 69 80
61 69 80
61 69 80
61 70 80
61 70 80
61 69 80
61 70 80
61 70 80
62 70 80
61 70 80
61 70 80
61 69 80
61 69 80
61 70 80
61 69 80
62 70 80
62 70 80
61 69 80
61 70 80
61 69 80
61 69 80
62 70 80
61 70 80
60 69 80
62 70 80
62 70 80
62 70 80
61 70 80
61 69 80
61 70 80
61 70 80
61 69 80
61 69 80
62 70 80
61 69 80
61 70 80
61 70 80
61 69 80
62 70 80
61 69 80
62 70 80
61 69 80
61 70 80
62 70 80
61 69 80
62 70 80
61 69 80
61 70 80
61 70 80
61 69 80
61 70 80
62 70 80
61 69 80
61 70 80
61 69 80
61 70 80
61 70 80
61 70 80
61 70 80
61 70 80
61 70 80
62 70 80
61 69 80
61 69 80
61 69 80
61 69 80
61 69 80
62 70 80
61 70 80
61 70 80
62 70 80
61 70 80
62 70 80
61 70 80
62 70 80
61 70 80
62 70 80
61 69 80
62 70 80
62 70 80
62 70 80
61 69 80
61 70 80
62 70 80
62 70 80
61 70 80
61 69 80
61 69 80
61 69 80
61 70 80
61 70 80
61 69 80
61 70 80
61 69 80
61 70 80
61 69 80
61 70 80
62 70 80
61 70 80
62 70 80
61 70 80
61 69 80
61 69 80
62 70 80
61 70 80
61 70 80
61 70 80
61 70 80
61 69 80
61 69 80
62 70 80
61 70 80
62 70 80
62 70 80
61 69 80
62 70 80
62 70 80
62 70 80
62 70 80
61 69 80
61 70 80
61 69 80
62 70 80
61 69 80
61 69 80
62 70 80
62 70 80
61 69 80
61 70 80
62 70 80
62 70 80
62 70 80
62 70 80
61 70 80
62 70 80
62 70 80
62 70 80
61 69 80
61 69 80
61 70 80
61 70 80
61 70 80
62 70 80
61 69 80
62 70 80
62 70 80
61 69 80
62 70 80
62 70 80
61 70 80
62 70 80
61 70 80
62 70 80
61 69 80
61 70 80
62 70 80
61 69 80
61 69 80
61 69 80
61 70 80
61 69 80
61 70 80
61 70 80
61 70 80
61 70 80
62 70 80
61 69 80
61 70 80
62 70 80
61 69 80
61 69 80
61 70 80
61 70 80
61 70 80
61 70 80
61 69 80
61 70 80
62 70 80
62 70 80
62 70 80
61 70 80
62 70 80
62 70 80
61 70 80
61 69 80
62 70 80
61 70 80
61 70 80
61 69 80
61 69 80
61 70 80
62 70 80
61 69 80
61 69 80
62 70 80
61 70 80
62 70 80
61 70 80
61 69 80
61 70 80
62 70 80
62 70 80
61 70 80
61 70 80
62 70 80
61 70 80
62 70 80
62 70 80
61 69 80
61 69 80
62 70 80
61 70 80
61 69 80
61 70 80
62 70 80
62 70 80
61 69 80
61 69 80
61 69 80
62 70 80
62 70 80
61 69 80
61 70 80
61 69 80
61 69 80
62 70 80
61 69 80
62 70 80
61 70 80
61 69 80
62 70 80
61 70 80
61 69 80
62 70 80
61 70 80
61 70 80
61 70 80
61 69 80
62 70 80
62 70 80
62 70 80
61 69 80
62 70 80
61 70 80
62 70 80
61 69 80
62 70 80
60 69 80
61 69 80
62 70 80
62 70 80
62 70 80
61 70 80
61 69 80
62 70 80
61 70 80
61 69 80
61 70 80
61 70 80
62 70 80
61 69 80
61 69 80
61 69 80
62 70 80
61 69 80
61 70 80
62 70 80
61 69 80
61 69 80
62 70 80
61 69 80
61 70 80
61 70 80
61 69 80
62 70 80
61 70 80
61 70 80
61 70 80
61 70 80
61 70 80
61 70 80
61 69 80
61 70 80
61 69 80
61 69 80
61 70 80
61 69 80
62 70 80
61 70 80
62 70 80
61 70 80
61 69 80
61 69 80
61 70 80
61 70 80
61 70 80
62 70 80
62 70 80
62 70 80
61 70 80
61 70 80
62 70 80
61 69 80
61 69 80
61 70 80
61 70 80
61 69 80
61 70 80
61 70 80
62 70 80
61 70 80
62 70 80
61 70 80
62 70 80
62 70 80
61 69 80
61 70 80
61 69 80
61 69 80
62 70 80
62 70 80
62 70 80
62 70 80
62 70 80
61 70 80
61 69 80
61 69 80
61 70 80
61 70 80
62 70 80
61 70 80
61 69 80
61 69 80
61 70 80
62 70 80
62 70 80
62 70 80
61 70 80
61 69 80
62 70 80
61 69 80
61 70 80
62 70 80
61 70 80
61 70 80
61 69 80
61 69 80
61 69 80
62 70 80
61 70 80
61 70 80
61 70 80
61 69 80
61 70 80
61 69 80
61 70 80
62 70 80
62 70 80
60 69 80
61 70 80
62 70 80
62 70 80
61 69 80
62 70 80
61 69 80
61 70 80
61 69 80
62 70 80
62 70 80
62 70 80
62 70 80
61 69 80
61 69 80
61 69 80
61 69 80
62 70 80
61 70 80
62 70 80
61 70 80
61 69 80
61 70 80
62 70 80
61 70 80
61 69 80
61 69 80
63 70 80
62 70 80
61 69 80
61 70 80
62 70 80
62 70 80
62 70 80
62 70 80
62 70 80
62 70 80
61 69 80
61 69 80
61 69 80
62 70 80
61 69 80
61 70 80
61 69 80
62 70 80
62 70 80
61 70 80
61 70 80
62 70 80
62 70 80
62 70 80
62 70 80
62 70 80
61 69 80
61 69 80
61 70 80
62 70 80
61 69 80
61 70 80
61 70 80
61 69 80
61 70 80
61 69 80
61 69 80
61 69 80
62 70 80
62 70 80
62 70 80
61 70 80
62 70 80
61 70 80
62 70 80
62 70 80
61 70 80
61 70 80
62 70 80
61 70 80
61 70 80
62 70 80
61 69 80
61 70 80
61 70 80
61 69 80
61 70 80
61 70 80
60 69 80
61 69 80
62 70 80
62 70 80
62 70 80
61 70 80
61 70 80
61 70 80
61 69 80
61 69 80
62 70 80
62 70 80
62 70 80
60 69 80
62 70 80
62 70 80
61 69 80
61 69 80
61 70 80
61 70 80
62 70 80
61 69 80
61 69 80
61 69 80
62 70 80
61 70 80
61 69 80
61 69 80
61 70 80
61 70 80
62 70 80
61 69 80
62 70 80
62 70 80
62 70 80
62 70 80
61 69 80
62 70 80
62 70 80
61 69 80
61 70 80
61 69 80
61 69 80
61 69 80
61 69 80
62 70 80
61 70 80
61 69 80
61 70 80
62 70 80
61 70 80
61 70 80
62 70 80
61 69 80
62 70 80
62 70 80
60 69 80
61 70 80
61 69 80
62 70 80
61 69 80
62 70 80
61 69 80
62 70 80
61 69 80
61 69 80
62 70 80
61 70 80
61 69 80
61 70 80
61 70 80
61 70 80
62 70 80
61 70 80
62 70 80
62 70 80
61 69 80
62 70 80
62 70 80
62 70 80
62 70 80
61 69 80
62 70 80
61 70 80
61 69 80
62 70 80
62 70 80
61 69 80
61 70 80
61 70 80
62 70 80
62 70 80
61 70 80
62 70 80
62 70 80
61 70 80
61 70 80
61 70 80
61 70 80
61 70 80
61 69 80
61 70 80
61 69 80
61 70 80
62 70 80
61 69 80
62 70 80
62 70 80
61 69 80
61 70 80
61 69 80
61 70 80
61 69 80
62 70 80
61 69 80
62 70 80
62 70 80
61 69 80
62 70 80
61 70 80
62 70 80
61 70 80
61 69 80
61 70 80
61 69 80
62 70 80
61 69 80
61 70 80
61 69 80
61 69 80
61 69 80
61 69 80
62 70 80
61 69 80
61 69 80
61 70 80
61 70 80
61 69 80
61 69 80
61 70 80
62 70 80
61 70 80
61 69 80
61 70 80
61 70 80
60 69 80
62 70 80
60 69 80
62 70 80
61 69 80
62 70 80
61 69 80
62 70 80
61 70 80
61 70 80
61 69 80
61 70 80
62 70 80
62 70 80
61 69 80
61 69 80
61 69 80
61 70 80
61 70 80
61 69 80
61 70 80
61 69 80
60 69 80
60 69 80
62 70 80
62 70 80
61 69 80
61 69 80
62 70 80
61 70 80
61 70 80
62 70 80
62 70 80
62 70 80
61 70 80
62 70 80
62 70 80
61 69 80
62 70 80
61 70 80
61 70 80
61 70 80
62 70 80
62 70 80
61 70 80
61 69 80
61 70 80
61 69 80
61 69 80
61 69 80
61 69 80
61 69 80
62 70 80
61 70 80
61 70 80
61 70 80
62 70 80
61 70 80
61 70 80
61 69 80
61 69 80
62 70 80
62 70 80
60 69 80
62 70 80
61 69 80
61 70 80
61 70 80
61 69 80
61 69 80
62 70 80
61 69 80
61 70 80
62 70 80
61 70 80
62 70 80
61 69 80
61 70 80
61 70 80
62 70 80
61 70 80
62 70 80
61 69 80
61 70 80
62 70 80
62 70 80
61 69 80
61 69 80
61 69 80
62 70 80
62 70 80
62 70 80
61 70 80
61 70 80
61 70 80
61 69 80
61 69 80
61 70 80
61 69 80
62 70 80
61 70 80
61 70 80
62 70 80
62 70 80
61 69 80
61 69 80
61 69 80
61 69 80
61 69 80
61 69 80
61 69 80
61 70 80
61 70 80
62 70 80
61 70 80
62 70 80
62 70 80
61 69 80
62 70 80
61 70 80
62 70 80
62 70 80
62 70 80
61 70 80
61 70 80
61 70 80
62 70 80
61 69 80
61 70 80
62 70 80
61 70 80
61 70 80
61 69 80
61 69 80
62 70 80
62 70 80
61 70 80
61 70 80
62 70 80
62 70 80
62 70 80
62 70 80
62 70 80
62 70 80
61 70 80
61 69 80
61 70 80
61 69 80
61 69 80
61 69 80
62 70 80
61 70 80
61 69 80
61 69 80
61 70 80
61 69 80
61 69 80
61 69 80
62 70 80
61 69 80
62 70 80
61 69 80
62 70 80
61 70 80
61 69 80
61 70 80
61 69 80
62 70 80
61 70 80
60 69 80
61 70 80
61 70 80
61 69 80
62 70 80
61 69 80
62 70 80
60 69 80
61 69 80
61 70 80
62 70 80
61 69 80
61 70 80
61 69 80
61 69 80
61 69 80
62 70 80
62 70 80
61 69 80
61 69 80
61 69 80
61 69 80
61 69 80
61 69 80
61 70 80
61 70 80
61 69 80
61 69 80
61 70 80
62 70 80
61 70 80
61 69 80
61 69 80
61 70 80
61 69 80
61 69 80
62 70 80
61 70 80
62 70 80
61 69 80
62 70 80
62 70 80
61 69 80
61 70 80
61 69 80
61 69 80
61 69 80
62 70 80
62 70 80
61 69 80
62 70 80
61 69 80
62 70 80
61 69 80
61 70 80
61 69 80
62 70 80
61 70 80
62 70 80
62 70 80
61 69 80
62 70 80
61 70 80
62 70 80
62 70 80
61 70 80
62 70 80
61 69 80
61 70 80
61 69 80
61 69 80
61 69 80
61 70 80
61 70 80
62 70 80
61 70 80
61 70 80
62 70 80
61 70 80
61 69 80
62 70 80
61 69 80
62 70 80
62 70 80
62 70 80
61 70 80
62 70 80
61 70 80
61 70 80
61 70 80
62 70 80
61 69 80
61 70 80
61 69 80
62 70 80
61 70 80
61 70 80
60 69 80
62 70 80
62 70 80
62 70 80
61 69 80
61 69 80
61 69 80
62 70 80
61 70 80
61 70 80
61 70 80
61 69 80
62 70 80
61 70 80
61 69 80
60 69 80
62 70 80
61 69 80
61 69 80
62 70 80
61 70 80
61 70 80
61 69 80
61 69 80
61 69 80
61 69 80
62 70 80
61 69 80
61 69 80
62 70 80
62 70 80
61 70 80
62 70 80
61 70 80
62 70 80
61 69 80
62 70 80
61 69 80
61 70 80
61 69 80
62 70 80
61 69 80
61 70 80
61 70 80
62 70 80
61 70 80
62 70 80
61 69 80
62 70 80
62 70 80
61 69 80
62 70 80
61 70 80
61 69 80
61 70 80
62 70 80
61 70 80
61 69 80
61 70 80
62 70 80
61 69 80
62 70 80
61 69 80
61 69 80
61 69 80
61 69 80
61 69 80
61 70 80
62 70 80
61 69 80
61 69 80
61 70 80
61 70 80
62 70 80
60 69 80
62 70 80
61 70 80
61 69 80
62 70 80
62 70 80
61 69 80
63 70 80
62 70 80
62 70 80
61 69 80
60 69 80
61 69 80
61 69 80
61 70 80
62 70 80
61 69 80
61 70 80
61 70 80
61 70 80
61 70 80
62 70 80
61 70 80
61 69 80
62 70 80
62 70 80
61 69 80
61 69 80
62 70 80
61 69 80
62 70 80
61 69 80
62 70 80
61 70 80
61 69 80
61 69 80
62 70 80
61 70 80
61 69 80
61 69 80
61 69 80
61 69 80
61 70 80
61 70 80
61 70 80
61 70 80
62 70 80
61 70 80
62 70 80
62 70 80
61 69 80
61 70 80
61 70 80
61 70 80
61 69 80
61 70 80
61 70 80
61 70 80
61 69 80
61 69 80
61 69 80
61 69 80
61 70 80
61 69 80
62 70 80
62 70 80
62 70 80
61 70 80
62 70 80
62 70 80
61 70 80
61 69 80
62 70 80
62 70 80
61 70 80
61 69 80
62 70 80
62 70 80
61 69 80
61 69 80
61 69 80
62 70 80
61 69 80
61 70 80
61 70 80
61 69 80
61 69 80
62 70 80
61 70 80
62 70 80
62 70 80
61 70 80
61 69 80
61 69 80
61 70 80
61 70 80
61 70 80
61 70 80
62 70 80
62 70 80
61 69 80
62 70 80
61 70 80
62 70 80
62 70 80
61 70 80
62 70 80
61 70 80
61 70 80
61 70 80
62 70 80
61 70 80
61 70 80
62 70 80
62 70 80
62 70 80
61 69 80
62 70 80
61 69 80
62 70 80
62 70 80
61 70 80
61 69 80
61 69 80
61 70 80
61 70 80
61 70 80
61 70 80
61 69 80
61 69 80
61 69 80
61 70 80
61 70 80
61 69 80
62 70 80
61 70 80
62 70 80
61 70 80
61 69 80
61 69 80
62 70 80
61 69 80
62 70 80
61 70 80
61 69 80
61 70 80
62 70 80
62 70 80
61 69 80
62 70 80
61 69 80
61 70 80
61 70 80
61 69 80
62 70 80
62 70 80
61 70 80
62 70 80
61 69 80
61 69 80
62 70 80
61 70 80
61 69 80
61 69 80
61 70 80
61 70 80
61 70 80
61 69 80
61 70 80
61 69 80
61 69 80
60 69 80
62 70 80
61 69 80
62 70 80
62 70 80
62 70 80
61 69 80
62 70 80
61 69 80
60 69 80
61 69 80
62 70 80
61 69 80
61 69 80
62 70 80
61 70 80
61 69 80
62 70 80
61 70 80
61 70 80
61 70 80
61 69 80
62 70 80
61 69 80
62 70 80
62 70 80
62 70 80
62 70 80
61 70 80
61 69 80
62 70 80
60 69 80
61 70 80
61 70 80
62 70 80
61 70 80
61 70 80
61 70 80
62 70 80
62 70 80
62 70 80
61 70 80
62 70 80
61 70 80
61 70 80
62 70 80
61 70 80
61 69 80
61 69 80
61 69 80
61 69 80
62 70 80
61 70 80
62 70 80
61 69 80
61 70 80
61 69 80
62 70 80
61 69 80
61 69 80
61 70 80
61 69 80
61 69 80
61 69 80
61 69 80
62 70 80
62 70 80
62 70 80
61 70 80
62 70 80
61 69 80
61 70 80
61 70 80
61 70 80
62 70 80
61 69 80
61 70 80
62 70 80
61 70 80
62 70 80
62 70 80
61 70 80
61 70 80
62 70 80
62 70 80
61 70 80
62 70 80
62 70 80
61 69 80
61 69 80
62 70 80
62 70 80
62 70 80
62 70 80
61 69 80
62 70 80
61 69 80
61 69 80
61 69 80
62 70 80
61 69 80
61 69 80
62 70 80
62 70 80
62 70 80
61 70 80
62 70 80
62 70 80
62 70 80
62 70 80
61 69 80
61 69 80
61 69 80
61 69 80
61 69 80
61 70 80
61 70 80
62 70 80
62 70 80
61 70 80
61 70 80
61 69 80
61 69 80
62 70 80
61 70 80
62 70 80
61 69 80
62 70 80
62 70 80
61 69 80
61 70 80
61 69 80
61 70 80
61 70 80
62 70 80
61 69 80
62 70 80
62 70 80
61 70 80
62 70 80
62 70 80
61 70 80
62 70 80
62 70 80
61 70 80
62 70 80
61 70 80
61 70 80
61 70 80
62 70 80
62 70 80
62 70 80
61 69 80
62 70 80
61 70 80
62 70 80
61 70 80
61 69 80
62 70 80
61 70 80
61 69 80
61 69 80
61 70 80
61 69 80
61 69 80
61 69 80
61 70 80
61 70 80
61 69 80
61 70 80
61 70 80
61 69 80
62 70 80
61 70 80
60 69 80
62 70 80
61 69 80
61 70 80
61 70 80
61 69 80
61 70 80
61 70 80
61 70 80
62 70 80
62 70 80
61 69 80
62 70 80
61 70 80
61 69 80
61 70 80
61 70 80
61 69 80
62 70 80
61 69 80
62 70 80
62 70 80
62 70 80
61 70 80
61 69 80
62 70 80
62 70 80
62 70 80
62 70 80
61 70 80
61 70 80
62 70 80
62 70 80
61 70 80
61 70 80
61 70 80
62 70 80
62 70 80
62 70 80
61 69 80
61 69 80
62 70 80
61 70 80
61 70 80
62 70 80
61 70 80
62 70 80
61 69 80
61 69 80
61 70 80
61 70 80
62 70 80
61 69 80
61 70 80
62 70 80
61 69 80
60 69 80
61 69 80
61 70 80
61 70 80
61 69 80
62 70 80
62 70 80
61 70 80
61 69 80
62 70 80
61 69 80
61 70 80
61 70 80
61 69 80
61 70 80
61 70 80
62 70 80
61 69 80
62 70 80
61 69 80
61 69 80
62 70 80
61 69 80
61 69 80
62 70 80
61 70 80
62 70 80
61 69 80
62 70 80
61 69 80
62 70 80
62 70 80
61 70 80
61 70 80
61 70 80
61 70 80
61 69 80
62 70 80
61 69 80
62 70 80
61 70 80
62 70 80
61 70 80
62 70 80
62 70 80
61 69 80
61 70 80
61 70 80
61 69 80
61 69 80
61 70 80
62 70 80
61 70 80
61 69 80
61 69 80
61 70 80
61 70 80
61 69 80
61 70 80
62 70 80
62 70 80
61 69 80
62 70 80
61 70 80
61 70 80
61 69 80
61 69 80
61 70 80
61 70 80
61 69 80
61 69 80
61 70 80
62 70 80
61 69 80
61 69 80
61 70 80
61 70 80
61 69 80
61 70 80
61 70 80
61 69 80
62 70 80
62 70 80
62 70 80
61 70 80
62 70 80
61 69 80
61 70 80
62 70 80
62 70 80
61 69 80
62 70 80
61 70 80
62 70 80
61 70 80
61 70 80
61 70 80
61 70 80
61 70 80
60 69 80
61 69 80
61 70 80
61 70 80
61 70 80
62 70 80
61 70 80
61 70 80
61 70 80
61 70 80
62 70 80
62 70 80
61 70 80
61 69 80
61 70 80
62 70 80
62 70 80
62 70 80
61 70 80
61 70 80
61 70 80
61 70 80
61 70 80
61 70 80
62 70 80
61 69 80
61 69 80
63 70 80
61 70 80
61 69 80
61 69 80
61 70 80
62 70 80
62 70 80
61 69 80
62 70 80
61 70 80
61 69 80
62 70 80
61 70 80
61 70 80
61 70 80
61 70 80
61 69 80
61 70 80
61 69 80
62 70 80
62 70 80
62 70 80
61 70 80
62 70 80
61 69 80
61 69 80
62 70 80
61 70 80
61 69 80
61 69 80
61 70 80
61 69 80
61 69 80
61 70 80
62 70 80
62 70 80
61 70 80
62 70 80
61 69 80
61 70 80
61 70 80
61 70 80
61 69 80
62 70 80
61 70 80
62 70 80
61 69 80
62 70 80
61 70 80
62 70 80
62 70 80
61 69 80
61 70 80
61 69 80
62 70 80
62 70 80
61 70 80
62 70 80
61 70 80
60 69 80
61 70 80
62 70 80
62 70 80
61 70 80
62 70 80
62 70 80
62 70 80
62 70 80
62 70 80
62 70 80
62 70 80
61 69 80
61 70 80
61 70 80
62 70 80
61 69 80
61 69 80
61 70 80
62 70 80
61 70 80
61 70 80
61 70 80
61 70 80
61 70 80
62 70 80
61 69 80
61 70 80
62 70 80
62 70 80
62 70 80
61 70 80
60 69 80
61 70 80
61 69 80
62 70 80
62 70 80
61 69 80
61 69 80
63 70 80
62 70 80
61 70 80
62 70 80
62 70 80
61 70 80
61 70 80
62 70 80
60 69 80
61 69 80
61 69 80
62 70 80
61 70 80
62 70 80
62 70 80
61 70 80
62 70 80
61 70 80
61 70 80
61 69 80
61 70 80
62 70 80
62 70 80
61 70 80
61 70 80
62 70 80
62 70 80
61 70 80
62 70 80
62 70 80
61 69 80
61 70 80
61 70 80
61 70 80
61 69 80
62 70 80
61 69 80
61 70 80
60 69 80
62 70 80
62 70 80
62 70 80
62 70 80
62 70 80
62 70 80
61 69 80
62 70 80
61 69 80
61 69 80
61 69 80
60 69 80
61 69 80
61 70 80
62 70 80
61 70 80
62 70 80
61 69 80
62 70 80
62 70 80
62 70 80
61 70 80
61 69 80
62 70 80
62 70 80
61 70 80
61 70 80
62 70 80
60 69 80
62 70 80
61 70 80
62 70 80
61 69 80
61 70 80
62 70 80
61 70 80
61 69 80
61 69 80
61 70 80
61 69 80
62 70 80
61 69 80
61 70 80
61 70 80
61 69 80
60 69 80
62 70 80
61 70 80
61 69 80
61 70 80
61 69 80
61 69 80
61 69 80
61 70 80
61 69 80
62 70 80
62 70 80
60 69 80
61 69 80
61 69 80
61 70 80
62 70 80
61 70 80
61 69 80
61 70 80
61 69 80
61 69 80
62 70 80
61 70 80
61 70 80
62 70 80
61 70 80
61 70 80
61 69 80
61 69 80
61 70 80
61 70 80
61 70 80
61 69 80
61 69 80
62 70 80
61 69 80
61 70 80
62 70 80
62 70 80
61 69 80
62 70 80
61 70 80
61 70 80
62 70 80
61 69 80
61 69 80
61 70 80
61 69 80
61 69 80
61 70 80
61 69 80
61 70 80
62 70 80
61 70 80
61 70 80
60 69 80
61 70 80
61 69 80
62 70 80
61 70 80
61 69 80
61 70 80
61 69 80
62 70 80
61 70 80
62 70 80
62 70 80
62 70 80
62 70 80
62 70 80
61 69 80
61 69 80
61 69 80
61 70 80
62 70 80
61 70 80
61 70 80
62 70 80
61 69 80
61 70 80
61 70 80
62 70 80
61 70 80
62 70 80
61 69 80
61 69 80
62 70 80
62 70 80
61 69 80
62 70 80
61 69 80
61 69 80
62 70 80
61 70 80
61 70 80
61 70 80
62 70 80
61 69 80
62 70 80
61 69 80
61 70 80
62 70 80
62 70 80
61 70 80
61 70 80
61 70 80
61 69 80
61 70 80
61 70 80
61 69 80
60 69 80
61 69 80
61 69 80
62 70 80
61 69 80
61 69 80
61 69 80
61 69 80
61 70 80
62 70 80
61 69 80
61 69 80
61 70 80
62 70 80
62 70 80
62 70 80
62 70 80
62 70 80
61 70 80
61 70 80
61 69 80
60 69 80
61 69 80
62 70 80
62 70 80
61 69 80
60 69 80
62 70 80
61 70 80
62 70 80
61 69 80
60 69 80
61 69 80
62 70 80
61 69 80
61 69 80
61 69 80
62 70 80
62 70 80
62 70 80
62 70 80
62 70 80
61 70 80
62 70 80
62 70 80
62 70 80
61 69 80
61 69 80
61 69 80
61 69 80
62 70 80
62 70 80
61 70 80
62 70 80
62 70 80
62 70 80
61 70 80
62 70 80
61 70 80
62 70 80
62 70 80
61 69 80
61 69 80
61 69 80
61 69 80
62 70 80
61 69 80
61 69 80
62 70 80
61 70 80
62 70 80
61 69 80
61 69 80
62 70 80
61 69 80
61 70 80
62 70 80
61 70 80
61 69 80
62 70 80
62 70 80
61 70 80
61 69 80
62 70 80
61 69 80
61 70 80
62 70 80
61 69 80
61 69 80
61 70 80
62 70 80
62 70 80
61 69 80
61 70 80
60 69 80
60 69 80
61 70 80
61 69 80
61 70 80
62 70 80
62 70 80
61 69 80
61 69 80
62 70 80
61 70 80
62 70 80
62 70 80
62 70 80
61 70 80
61 69 80
60 69 80
63 70 80
61 69 80
61 69 80
61 70 80
61 70 80
61 69 80
61 70 80
61 70 80
61 69 80
61 70 80
62 70 80
62 70 80
61 69 80
61 69 80
61 69 80
62 70 80
62 70 80
62 70 80
61 70 80
61 69 80
61 69 80
61 69 80
63 70 80
61 70 80
61 70 80
61 69 80
61 69 80
62 70 80
61 69 80
61 70 80
61 69 80
61 70 80
61 70 80
61 70 80
62 70 80
61 70 80
61 69 80
61 70 80
62 70 80
61 70 80
61 70 80
61 70 80
62 70 80
62 70 80
61 69 80
61 70 80
62 70 80
61 69 80
61 70 80
61 69 80
61 69 80
61 69 80
61 70 80
61 69 80
62 70 80
61 69 80
61 69 80
61 69 80
61 70 80
62 70 80
60 69 80
61 70 80
61 69 80
62 70 80
61 69 80
62 70 80
62 70 80
62 70 80
61 69 80
61 70 80
61 70 80
60 69 80
61 69 80
62 70 80
61 70 80
61 70 80
61 70 80
62 70 80
61 70 80
62 70 80
62 70 80
61 70 80
63 70 80
61 69 80
61 69 80
61 70 80
62 70 80
62 70 80
61 70 80
61 70 80
60 69 80
61 69 80
61 70 80
61 70 80
61 69 80
61 70 80
61 69 80
61 70 80
61 69 80
62 70 80
61 69 80
62 70 80
61 69 80
61 69 80
61 70 80
62 70 80
61 69 80
62 70 80
61 69 80
62 70 80
61 70 80
61 69 80
61 69 80
61 69 80
62 70 80
62 70 80
61 70 80
61 70 80
61 69 80
61 70 80
61 69 80
62 70 80
61 69 80
62 70 80
61 70 80
62 70 80
61 70 80
62 70 80
62 70 80
61 70 80
61 69 80
62 70 80
61 70 80
61 69 80
62 70 80
62 70 80
61 70 80
61 69 80
62 70 80
62 70 80
61 69 80
62 70 80
61 70 80
61 69 80
61 69 80
61 70 80
62 70 80
62 70 80
62 70 80
61 70 80
61 70 80
61 70 80
61 70 80
61 69 80
62 70 80
61 70 80
61 69 80
61 70 80
61 70 80
62 70 80
61 69 80
61 69 80
62 70 80
61 70 80
61 70 80
61 69 80
62 70 80
61 70 80
62 70 80
62 70 80
62 70 80
61 70 80
61 69 80
61 70 80
61 70 80
61 69 80
62 70 80
61 70 80
62 70 80
61 69 80
61 70 80
61 70 80
62 70 80
62 70 80
61 70 80
62 70 80
61 70 80
62 70 80
61 69 80
61 69 80
61 69 80
61 70 80
61 70 80
61 70 80
61 70 80
60 69 80
61 70 80
62 70 80
61 69 80
62 70 80
61 69 80
61 69 80
62 70 80
62 70 80
62 70 80
62 70 80
61 70 80
62 70 80
61 69 80
62 70 80
61 69 80
61 69 80
62 70 80
61 69 80
61 70 80
60 69 80
61 70 80
62 70 80
62 70 80
62 70 80
62 70 80
61 69 80
62 70 80
61 70 80
61 69 80
61 69 80
61 69 80
61 69 80
61 70 80
62 70 80
60 69 80
61 70 80
62 70 80
62 70 80
62 70 80
61 69 80
61 70 80
61 70 80
61 69 80
61 69 80
62 70 80
61 69 80
62 70 80
62 70 80
61 69 80
62 70 80
62 70 80
61 70 80
61 70 80
62 70 80
61 69 80
62 70 80
61 69 80
61 70 80
62 70 80
60 69 80
61 70 80
61 69 80
61 69 80
61 70 80
62 70 80
61 70 80
61 70 80
60 69 80
62 70 80
62 70 80
61 69 80
62 70 80
62 70 80
61 69 80
60 69 80
61 69 80
61 69 80
61 70 80
61 70 80
62 70 80
61 69 80
61 69 80
63 70 80
61 70 80
61 69 80
61 69 80
61 70 80
61 70 80
62 70 80
62 70 80
61 70 80
61 70 80
62 70 80
62 70 80
61 69 80
62 70 80
61 70 80
61 70 80
61 69 80
61 70 80
62 70 80
62 70 80
61 70 80
62 70 80
61 70 80
61 70 80
62 70 80
61 70 80
61 69 80
61 70 80
61 70 80
61 69 80
61 69 80
63 70 80
62 70 80
62 70 80
60 69 80
61 69 80
62 70 80
62 70 80
61 70 80
61 69 80
61 69 80
61 69 80
61 69 80
61 70 80
61 69 80
61 70 80
61 70 80
61 69 80
61 70 80
61 69 80
61 70 80
62 70 80
62 70 80
62 70 80
62 70 80
61 70 80
61 70 80
62 70 80
62 70 80
61 69 80
62 70 80
61 70 80
60 69 80
62 70 80
62 70 80
60 69 80
61 69 80
61 70 80
62 70 80
62 70 80
62 70 80
61 70 80
62 70 80
61 69 80
61 69 80
62 70 80
61 69 80
62 70 80
62 70 80
61 70 80
61 69 80
62 70 80
61 69 80
60 69 80
62 70 80
60 69 80
61 70 80
62 70 80
61 69 80
61 69 80
61 69 80
61 70 80
61 70 80
62 70 80
61 70 80
62 70 80
61 70 80
62 70 80
61 69 80
61 69 80
61 69 80
61 70 80
61 70 80
61 69 80
62 70 80
61 69 80
62 70 80
61 70 80
61 70 80
60 69 80
61 70 80
61 69 80
62 70 80
61 70 80
61 69 80
61 70 80
61 70 80
62 70 80
62 70 80
61 70 80
61 70 80
62 70 80
61 70 80
62 70 80
61 70 80
62 70 80
62 70 80
61 70 80
61 69 80
62 70 80
62 70 80
61 69 80
61 70 80
62 70 80
61 70 80
60 69 80
61 70 80
61 69 80
61 70 80
61 69 80
62 70 80
62 70 80
62 70 80
61 70 80
62 70 80
62 70 80
61 69 80
61 70 80
62 70 80
61 69 80
62 70 80
61 69 80
61 70 80
61 70 80
61 69 80
62 70 80
60 69 80
62 70 80
62 70 80
60 69 80
62 70 80
61 70 80
62 70 80
61 70 80
61 70 80
61 69 80
61 69 80
62 70 80
61 69 80
61 70 80
62 70 80
61 69 80
61 70 80
61 69 80
61 70 80
63 70 80
61 70 80
61 69 80
62 70 80
61 70 80
61 69 80
61 69 80
61 69 80
62 70 80
61 69 80
61 69 80
61 70 80
61 70 80
61 70 80
62 70 80
62 70 80
62 70 80
62 70 80
62 70 80
62 70 80
61 69 80
62 70 80
61 70 80
61 69 80
61 69 80
61 70 80
62 70 80
62 70 80
62 70 80
62 70 80
61 70 80
61 69 80
62 70 80
61 70 80
61 70 80
61 69 80
63 70 80
61 69 80
61 70 80
61 70 80
62 70 80
61 70 80
61 69 80
61 69 80
61 70 80
62 70 80
61 70 80
61 70 80
62 70 80
63 70 80
61 70 80
62 70 80
62 70 80
62 70 80
61 70 80
61 70 80
62 70 80
62 70 80
62 70 80
61 69 80
61 70 80
62 70 80
61 69 80
61 69 80
61 70 80
61 70 80
61 69 80
61 69 80
61 70 80
62 70 80
61 69 80
62 70 80
61 69 80
62 70 80
61 69 80
62 70 80
62 70 80
61 70 80
61 70 80
61 70 80
60 69 80
61 69 80
61 69 80
61 69 80
61 69 80
62 70 80
62 70 80
62 70 80
61 69 80
61 70 80
61 69 80
61 69 80
61 69 80
61 70 80
61 69 80
62 70 80
61 70 80
61 70 80
61 69 80
61 70 80
61 70 80
61 70 80
61 69 80
61 69 80
62 70 80
62 70 80
62 70 80
62 70 80
60 69 80
61 70 80
61 70 80
62 70 80
62 70 80
62 70 80
61 69 80
62 70 80
62 70 80
61 69 80
61 69 80
61 70 80
60 69 80
61 69 80
63 70 80
61 69 80
61 69 80
61 69 80
62 70 80
62 70 80
62 70 80
61 69 80
61 70 80
61 70 80
61 69 80
61 70 80
61 70 80
61 70 80
61 69 80
61 69 80
61 69 80
62 70 80
61 70 80
61 70 80
61 70 80
61 70 80
61 70 80
61 69 80
62 70 80
61 70 80
61 70 80
62 70 80
61 70 80
61 70 80
61 70 80
62 70 80
61 70 80
62 70 80
61 70 80
62 70 80
61 69 80
61 70 80
61 70 80
62 70 80
61 69 80
62 70 80
62 70 80
61 70 80
62 70 80
61 70 80
61 69 80
62 70 80
61 69 80
61 69 80
61 70 80
61 70 80
61 70 80
62 70 80
61 70 80
61 69 80
62 70 80
61 70 80
62 70 80
61 70 80
61 70 80
61 69 80
61 70 80
61 69 80
61 69 80
62 70 80
61 69 80
61 69 80
61 70 80
61 69 80
62 70 80
62 70 80
61 70 80
61 69 80
62 70 80
61 69 80
62 70 80
62 70 80
62 70 80
61 70 80
61 70 80
61 69 80
62 70 80
61 69 80
61 69 80
60 69 80
61 70 80
61 70 80
62 70 80
62 70 80
61 69 80
61 70 80
62 70 80
61 70 80
62 70 80
62 70 80
61 69 80
61 69 80
61 70 80
62 70 80
61 70 80
63 70 80
61 69 80
61 69 80
61 70 80
62 70 80
62 70 80
61 70 80
63 70 80
61 70 80
61 69 80
61 70 80
61 70 80
61 69 80
62 70 80
62 70 80
62 70 80
62 70 80
61 70 80
62 70 80
61 70 80
61 69 80
61 69 80
61 70 80
62 70 80
62 70 80
62 70 80
62 70 80
62 70 80
60 69 80
61 69 80
61 70 80
61 69 80
61 69 80
62 70 80
61 70 80
61 70 80
61 70 80
62 70 80
62 70 80
61 69 80
61 69 80
61 69 80
61 69 80
61 69 80
62 70 80
61 69 80
61 69 80
61 70 80
60 69 80
61 69 80
61 69 80
61 69 80
61 70 80
62 70 80
62 70 80
61 69 80
62 70 80
61 69 80
61 70 80
61 70 80
62 70 80
61 69 80
61 70 80
62 70 80
61 70 80
61 70 80
61 70 80
61 70 80
61 70 80
61 70 80
62 70 80
61 70 80
61 69 80
61 70 80
62 70 80
61 69 80
61 70 80
62 70 80
61 69 80
63 70 80
61 69 80
61 70 80
62 70 80
61 69 80
61 70 80
62 70 80
61 70 80
61 69 80
61 69 80
62 70 80
61 70 80
61 69 80
61 69 80
60 69 80
61 69 80
61 70 80
62 70 80
62 69 80
61 70 80
61 69 80
60 69 80
62 70 80
62 70 80
60 69 80
62 70 80
62 70 80
62 70 80
60 69 80
62 70 80
62 70 80
61 70 80
61 70 80
62 70 80
61 70 80
62 70 80
62 70 80
61 69 80
61 70 80
62 70 80
60 69 80
62 70 80
61 70 80
61 69 80
61 69 80
61 69 80
61 69 80
61 70 80
61 69 80
61 69 80
61 69 80
61 69 80
61 69 80
60 69 80
61 70 80
61 69 80
62 70 80
61 69 80
62 70 80
62 70 80
61 70 80
60 69 80
61 70 80
61 70 80
62 70 80
62 70 80
61 70 80
61 70 80
61 70 80
62 70 80
61 70 80
61 69 80
62 70 80
61 69 80
62 70 80
61 70 80
61 70 80
61 69 80
62 70 80
61 70 80
61 69 80
62 70 80
62 70 80
62 70 80
61 70 80
62 70 80
62 70 80
62 70 80
62 70 80
61 70 80
62 70 80
62 70 80
61 70 80
61 69 80
62 70 80
61 69 80
61 69 80
61 70 80
61 70 80
61 69 80
61 70 80
62 70 80
62 70 80
61 70 80
61 70 80
61 70 80
61 69 80
61 69 80
61 69 80
62 70 80
62 70 80
62 70 80
62 70 80
62 70 80
61 69 80
61 69 80
62 70 80
62 70 80
62 70 80
62 70 80
61 70 80
61 69 80
61 69 80
61 69 80
62 70 80
61 70 80
61 70 80
61 69 80
61 70 80
62 70 80
61 70 80
61 70 80
62 70 80
61 69 80
61 69 80
62 70 80
61 70 80
61 69 80
61 69 80
63 70 80
61 69 80
62 70 80
62 70 80
61 69 80
61 70 80
62 70 80
61 69 80
62 70 80
61 69 80
62 70 80
61 69 80
61 70 80
62 70 80
62 70 80
61 69 80
61 69 80
61 70 80
61 69 80
61 70 80
62 70 80
61 69 80
62 70 80
61 69 80
62 70 80
61 69 80
61 70 80
62 70 80
61 69 80
61 70 80
61 69 80
61 69 80
62 70 80
61 70 80
61 70 80
61 69 80
61 69 80
62 70 80
61 70 80
61 69 80
62 70 80
62 70 80
61 69 80
62 70 80
61 69 80
61 70 80
61 70 80
61 69 80
61 69 80
61 69 80
62 70 80
61 70 80
61 70 80
61 69 80
61 69 80
61 69 80
61 69 80
61 70 80
61 69 80
61 69 80
62 70 80
61 70 80
61 69 80
61 69 80
62 70 80
61 69 80
60 69 80
61 70 80
61 69 80
60 69 80
61 69 80
61 69 80
61 70 80
61 69 80
62 70 80
61 70 80
61 69 80
61 69 80
61 69 80
61 69 80
61 70 80
62 70 80
61 69 80
62 70 80
61 70 80
62 70 80
61 69 80
62 70 80
61 70 80
61 70 80
61 70 80
62 70 80
61 70 80
62 70 80
61 69 80
62 70 80
62 70 80
60 69 80
61 70 80
61 69 80
61 70 80
62 70 80
62 70 80
62 70 80
62 70 80
61 69 80
61 69 80
61 70 80
61 70 80
61 69 80
61 70 80
61 70 80
61 69 80
62 70 80
61 69 80
61 69 80
61 70 80
61 70 80
61 70 80
62 70 80
62 70 80
61 70 80
61 69 80
61 69 80
61 70 80
61 70 80
61 70 80
61 69 80
62 70 80
61 69 80
61 70 80
61 70 80
61 69 80
61 69 80
61 69 80
61 69 80
60 69 80
61 69 80
61 69 80
61 69 80
61 69 80
62 70 80
60 69 80
61 69 80
61 69 80
61 70 80
61 69 80
61 70 80
60 69 80
61 69 80
61 70 80
61 70 80
61 70 80
61 69 80
61 70 80
62 70 80
62 70 80
62 70 80
62 70 80
61 70 80
62 70 80
61 69 80
61 70 80
60 69 80
61 70 80
61 70 80
61 69 80
61 69 80
61 69 80
62 70 80
61 70 80
62 70 80
62 70 80
62 70 80
60 69 80
61 69 80
61 70 80
61 70 80
62 70 80
61 69 80
61 70 80
61 70 80
62 70 80
61 69 80
63 70 80
61 69 80
61 70 80
61 70 80
61 69 80
62 70 80
62 70 80
61 70 80
61 69 80
61 70 80
61 69 80
62 70 80
61 69 80
62 70 80
61 69 80
61 70 80
62 70 80
61 70 80
61 70 80
61 70 80
61 70 80
62 70 80
62 70 80
62 70 80
61 70 80
61 70 80
62 70 80
61 69 80
61 70 80
61 69 80
61 70 80
61 70 80
62 70 80
60 69 80
62 70 80
62 70 80
61 70 80
61 70 80
61 69 80
61 69 80
62 70 80
61 69 80
61 69 80
60 69 80
61 70 80
62 70 80
61 69 80
61 70 80
61 70 80
61 70 80
62 70 80
61 70 80
62 70 80
61 70 80
61 69 80
62 70 80
61 70 80
61 70 80
61 70 80
61 70 80
61 69 80
62 70 80
61 69 80
61 69 80
61 69 80
61 69 80
61 70 80
61 69 80
61 69 80
62 70 80
61 69 80
62 70 80
61 70 80
61 70 80
61 70 80
61 69 80
62 70 80
61 69 80
61 69 80
62 70 80
62 70 80
61 69 80
62 70 80
61 69 80
62 70 80
61 69 80
61 69 80
61 70 80
61 70 80
61 69 80
61 69 80
61 70 80
61 69 80
62 70 80
61 70 80
61 70 80
60 69 80
61 70 80
62 70 80
61 69 80
62 70 80
61 69 80
61 69 80
61 69 80
61 69 80
61 70 80
61 69 80
61 69 80
61 70 80
61 69 80
61 70 80
61 69 80
61 70 80
61 70 80
62 70 80
62 70 80
62 70 80
61 69 80
61 70 80
62 70 80
61 70 80
61 70 80
62 70 80
61 70 80
61 70 80
61 70 80
61 69 80
62 70 80
61 70 80
61 70 80
62 70 80
61 69 80
61 70 80
61 69 80
61 69 80
62 70 80
61 70 80
61 69 80
61 69 80
61 69 80
61 69 80
62 70 80
61 69 80
62 70 80
61 70 80
61 69 80
61 70 80
61 69 80
61 69 80
61 70 80
61 70 80
61 70 80
61 69 80
61 69 80
61 69 80
62 70 80
61 69 80
62 70 80
61 70 80
62 70 80
62 70 80
61 70 80
61 70 80
61 69 80
61 69 80
61 69 80
61 70 80
61 69 80
62 70 80
61 70 80
61 70 80
62 70 80
61 69 80
62 70 80
61 70 80
62 70 80
61 70 80
61 70 80
62 70 80
61 70 80
61 70 80
62 70 80
62 70 80
62 70 80
61 70 80
61 70 80
61 70 80
61 70 80
61 70 80
61 70 80
61 70 80
63 70 80
61 70 80
62 70 80
61 70 80
61 69 80
60 69 80
62 70 80
62 70 80
61 69 80
61 70 80
62 70 80
61 70 80
62 70 80
62 70 80
61 69 80
62 70 80
61 70 80
60 69 80
61 70 80
61 69 80
62 70 80
62 70 80
60 69 80
62 70 80
62 70 80
61 69 80
62 70 80
62 70 80
61 69 80
62 70 80
61 70 80
61 69 80
62 70 80
61 69 80
61 69 80
61 70 80
61 69 80
61 69 80
61 69 80
61 69 80
61 69 80
62 70 80
61 69 80
62 70 80
61 69 80
61 70 80
62 70 80
61 70 80
62 70 80
61 70 80
61 70 80
61 70 80
62 70 80
61 70 80
62 70 80
62 70 80
60 69 80
62 70 80
61 70 80
61 69 80
61 69 80
61 70 80
61 70 80
61 69 80
62 70 80
61 70 80
61 69 80
62 70 80
62 70 80
61 69 80
61 69 80
61 69 80
62 70 80
61 69 80
61 69 80
62 70 80
61 70 80
61 69 80
62 70 80
61 69 80
61 70 80
61 70 80
61 69 80
61 70 80
62 70 80
61 70 80
61 69 80
62 70 80
61 69 80
61 69 80
61 69 80
61 69 80
61 70 80
61 70 80
62 70 80
61 70 80
61 69 80
61 70 80
61 69 80
62 70 80
62 70 80
61 70 80
62 70 80
61 70 80
61 69 80
62 70 80
61 69 80
62 70 80
61 70 80
61 69 80
62 70 80
62 70 80
62 70 80
61 70 80
61 69 80
61 70 80
61 69 80
61 70 80
61 70 80
62 70 80
61 70 80
61 70 80
61 70 80
62 70 80
62 70 80
61 70 80
61 70 80
61 70 80
61 69 80
61 69 80
61 69 80
61 70 80
61 70 80
62 70 80
61 69 80
61 69 80
62 70 80
61 69 80
61 69 80
61 70 80
61 70 80
62 70 80
61 70 80
61 70 80
61 69 80
61 70 80
61 70 80
62 70 80
62 70 80
61 70 80
61 70 80
61 70 80
61 70 80
62 70 80
62 70 80
61 70 80
62 70 80
61 70 80
62 70 80
61 69 80
61 69 80
62 70 80
61 70 80
61 69 80
62 70 80
61 69 80
61 69 80
62 70 80
62 70 80
61 69 80
61 69 80
62 70 80
62 70 80
62 70 80
61 69 80
61 70 80
61 70 80
61 69 80
62 70 80
61 69 80
61 70 80
62 70 80
61 70 80
61 70 80
61 69 80
61 69 80
61 69 80
61 69 80
62 70 80
61 70 80
62 70 80
61 70 80
62 70 80
62 70 80
62 70 80
62 70 80
61 70 80
62 70 80
62 70 80
61 69 80
62 70 80
61 70 80
61 69 80
61 69 80
61 69 80
61 70 80
61 70 80
61 70 80
62 70 80
60 69 80
61 69 80
61 70 80
61 69 80
61 69 80
62 70 80
61 70 80
62 70 80
61 69 80
62 70 80
61 70 80
61 69 80
61 70 80
61 69 80
61 69 80
61 70 80
61 70 80
61 70 80
62 70 80
62 70 80
61 69 80
61 69 80
62 70 80
62 70 80
62 70 80
61 69 80
61 69 80
61 69 80
61 70 80
61 69 80
61 69 80
60 69 80
61 69 80
60 69 80
61 70 80
62 70 80
62 70 80
61 69 80
61 70 80
61 69 80
62 70 80
61 69 80
61 69 80
61 70 80
62 70 80
61 70 80
62 70 80
62 70 80
63 70 80
61 70 80
61 70 80
61 70 80
61 69 80
61 69 80
61 70 80
61 69 80
62 70 80
61 70 80
61 70 80
61 69 80
61 70 80
62 70 80
60 69 80
62 70 80
61 70 80
61 70 80
61 70 80
61 70 80
62 70 80
62 70 80
62 70 80
62 70 80
62 70 80
61 70 80
62 70 80
62 70 80
61 70 80
60 69 80
62 70 80
61 69 80
61 70 80
61 70 80
61 70 80
62 70 80
61 70 80
61 70 80
61 70 80
61 69 80
62 70 80
61 69 80
62 70 80
60 69 80
61 70 80
60 69 80
62 70 80
61 70 80
62 70 80
62 70 80
61 70 80
61 70 80
60 69 80
61 70 80
61 70 80
60 69 80
62 70 80
62 70 80
61 69 80
61 69 80
61 69 80
61 69 80
61 70 80
61 69 80
60 69 80
62 70 80
61 69 80
62 70 80
61 70 80
61 69 80
62 70 80
61 70 80
62 70 80
62 70 80
61 70 80
61 70 80
62 70 80
62 70 80
60 69 80
61 69 80
62 70 80
61 69 80
62 70 80
62 70 80
61 69 80
61 69 80
62 69 80
61 69 80
61 69 80
61 70 80
62 70 80
62 70 80
61 69 80
62 70 80
62 70 80
62 70 80
61 69 80
62 70 80
61 69 80
62 70 80
62 70 80
61 70 80
62 70 80
61 69 80
61 69 80
61 69 80
61 69 80
61 70 80
62 70 80
62 70 80
61 69 80
62 70 80
62 70 80
61 70 80
61 69 80
62 70 80
61 70 80
61 69 80
61 69 80
61 69 80
61 69 80
61 69 80
61 69 80
61 70 80
61 70 80
62 70 80
62 70 80
61 69 80
61 70 80
61 69 80
61 70 80
60 69 80
61 69 80
61 69 80
61 69 80
61 70 80
62 70 80
61 70 80
61 70 80
61 69 80
61 69 80
61 70 80
62 70 80
61 70 80
61 69 80
62 70 80
61 70 80
61 70 80
62 70 80
61 69 80
61 70 80
62 70 80
61 70 80
61 69 80
61 70 80
62 70 80
61 69 80
62 70 80
61 70 80
61 70 80
61 69 80
61 70 80
61 69 80
62 70 80
61 70 80
62 70 80
61 69 80
60 69 80
61 69 80
61 69 80
61 69 80
61 69 80
61 69 80
62 70 80
61 70 80
61 69 80
61 70 80
61 69 80
62 70 80
61 69 80
61 70 80
61 70 80
61 70 80
61 69 80
61 69 80
62 70 80
61 69 80
61 70 80
61 69 80
61 70 80
62 70 80
61 69 80
61 70 80
61 70 80
61 69 80
61 70 80
62 70 80
63 70 80
61 69 80
62 70 80
61 69 80
61 70 80
62 70 80
61 70 80
60 69 80
62 70 80
61 69 80
61 69 80
61 70 80
62 70 80
62 70 80
61 70 80
61 70 80
61 70 80
61 70 80
62 70 80
61 69 80
61 70 80
62 70 80
61 70 80
62 70 80
62 70 80
62 70 80
61 69 80
61 70 80
61 70 80
61 69 80
61 70 80
62 70 80
61 70 80
62 70 80
61 70 80
62 70 80
62 70 80
61 69 80
61 69 80
61 70 80
61 69 80
61 69 80
61 69 80
61 70 80
62 70 80
61 70 80
62 70 80
62 70 80
61 69 80
60 69 80
61 70 80
61 70 80
61 70 80
62 70 80
61 70 80
61 69 80
61 69 80
62 70 80
61 70 80
61 70 80
61 70 80
61 70 80
61 70 80
61 69 80
61 69 80
61 69 80
62 70 80
62 70 80
61 69 80
61 69 80
61 70 80
61 69 80
61 69 80
61 70 80
61 69 80
61 70 80
61 69 80
61 70 80
62 70 80
61 69 80
61 69 80
61 69 80
62 70 80
61 70 80
62 70 80
61 69 80
62 70 80
61 69 80
62 70 80
61 70 80
61 70 80
61 70 80
62 70 80
61 70 80
61 70 80
62 70 80
61 69 80
62 70 80
61 69 80
62 70 80
62 70 80
61 70 80
62 70 80
61 70 80
62 70 80
60 69 80
61 69 80
61 70 80
61 69 80
61 69 80
61 69 80
61 69 80
61 69 80
61 70 80
62 70 80
61 70 80
60 69 80
62 70 80
62 70 80
61 69 80
62 70 80
61 70 80
61 69 80
61 70 80
62 70 80
62 70 80
62 70 80
62 70 80
61 70 80
61 70 80
61 70 80
62 70 80
61 70 80
62 70 80
61 70 80
61 70 80
61 70 80
62 70 80
61 69 80
62 70 80
61 70 80
61 69 80
62 70 80
62 70 80
61 70 80
61 69 80
61 70 80
61 70 80
61 69 80
62 70 80
61 70 80
61 69 80
61 70 80
61 70 80
61 69 80
61 69 80
61 69 80
60 69 80
61 69 80
62 70 80
61 69 80
62 70 80
62 70 80
60 69 80
61 69 80
61 70 80
61 69 80
62 70 80
62 70 80
61 70 80
61 70 80
61 69 80
61 70 80
60 69 80
62 70 80
61 69 80
61 69 80
62 70 80
61 69 80
61 69 80
62 70 80
61 70 80
61 70 80
62 70 80
62 70 80
62 70 80
62 70 80
61 69 80
61 70 80
60 69 80
61 69 80
61 70 80
61 69 80
62 70 80
61 69 80
61 69 80
62 70 80
62 70 80
62 70 80
61 70 80
62 70 80
61 70 80
61 69 80
61 69 80
61 69 80
61 69 80
62 70 80
61 69 80
61 69 80
61 70 80
62 70 80
61 69 80
61 69 80
62 70 80
62 70 80
61 69 80
60 69 80
61 69 80
62 70 80
61 69 80
61 69 80
61 70 80
62 70 80
60 69 80
62 70 80
62 70 80
61 70 80
61 69 80
61 69 80
61 69 80
61 70 80
61 69 80
61 69 80
62 70 80
62 70 80
61 69 80
61 70 80
61 70 80
62 70 80
62 70 80
61 69 80
61 70 80
62 70 80
61 70 80
61 70 80
61 69 80
62 70 80
61 69 80
61 70 80
61 69 80
61 70 80
62 70 80
61 70 80
62 70 80
61 70 80
62 70 80
62 70 80
62 70 80
61 70 80
61 70 80
62 70 80
62 70 80
62 70 80
61 69 80
61 69 80
61 70 80
60 69 80
61 69 80
61 69 80
62 70 80
61 70 80
61 69 80
62 70 80
62 70 80
61 69 80
61 70 80
61 70 80
61 70 80
61 69 80
61 69 80
62 70 80
61 70 80
62 70 80
61 70 80
61 70 80
61 69 80
61 69 80
61 69 80
61 69 80
61 70 80
61 69 80
61 69 80
61 69 80
62 70 80
61 69 80
61 70 80
61 69 80
62 70 80
61 69 80
61 69 80
61 70 80
62 70 80
62 70 80
61 69 80
61 69 80
61 69 80
61 69 80
61 69 80
61 70 80
61 70 80
61 69 80
62 70 80
61 69 80
61 70 80
62 70 80
61 70 80
61 69 80
61 69 80
61 70 80
62 70 80
61 69 80
61 69 80
61 70 80
61 69 80
61 69 80
62 70 80
62 70 80
61 69 80
61 69 80
61 69 80
61 69 80
61 70 80
61 70 80
60 69 80
62 70 80
61 69 80
61 69 80
61 70 80
62 70 80
61 69 80
61 69 80
61 69 80
61 69 80
61 69 80
62 70 80
62 70 80
61 69 80
61 70 80
61 69 80
62 70 80
61 69 80
61 70 80
61 70 80
61 70 80
62 70 80
61 70 80
61 69 80
62 70 80
61 69 80
61 70 80
62 70 80
61 70 80
61 69 80
61 70 80
61 70 80
61 69 80
62 70 80
61 70 80
62 70 80
61 70 80
61 70 80
62 70 80
61 70 80
62 70 80
61 70 80
61 70 80
62 70 80
61 70 80
62 70 80
61 70 80
61 69 80
61 69 80
61 69 80
61 70 80
62 70 80
61 70 80
61 70 80
61 70 80
61 69 80
62 70 80
61 70 80
62 70 80
61 70 80
62 70 80
61 70 80
62 70 80
62 70 80
61 69 80
62 70 80
61 70 80
61 70 80
61 70 80
61 69 80
61 70 80
62 70 80
61 69 80
61 70 80
61 70 80
61 70 80
62 70 80
61 70 80
62 70 80
61 70 80
61 70 80
61 70 80
62 70 80
62 70 80
61 70 80
61 69 80
61 70 80
61 69 80
61 70 80
61 69 80
61 69 80
61 70 80
61 70 80
62 70 80
61 70 80
61 70 80
62 70 80
62 70 80
61 69 80
62 70 80
61 69 80
60 69 80
61 70 80
62 70 80
61 70 80
61 70 80
62 70 80
61 70 80
62 70 80
61 70 80
61 70 80
61 69 80
61 70 80
62 70 80
61 69 80
62 70 80
62 70 80
62 70 80
62 70 80
61 69 80
61 70 80
61 69 80
61 69 80
61 69 80
61 69 80
62 70 80
61 69 80
62 70 80
61 69 80
61 70 80
62 70 80
61 70 80
62 70 80
62 70 80
61 69 80
62 70 80
61 69 80
61 70 80
62 70 80
62 70 80
61 70 80
61 69 80
61 69 80
61 70 80
62 70 80
62 70 80
61 69 80
61 70 80
62 70 80
62 70 80
61 69 80
61 69 80
62 70 80
61 70 80
61 69 80
61 70 80
61 69 80
62 70 80
61 69 80
61 69 80
61 70 80
62 70 80
61 69 80
62 70 80
63 70 80
61 69 80
61 69 80
61 70 80
61 69 80
61 69 80
62 70 80
62 70 80
61 69 80
61 69 80
61 69 80
61 69 80
61 69 80
61 69 80
61 69 80
62 70 80
61 70 80
61 69 80
62 70 80
62 70 80
62 70 80
62 70 80
61 70 80
61 69 80
61 69 80
60 69 80
62 70 80
62 70 80
61 70 80
62 70 80
61 69 80
62 70 80
63 70 80
62 70 80
62 70 80
62 70 80
62 70 80
62 70 80
61 70 80
61 70 80
62 70 80
61 70 80
61 69 80
60 69 80
61 70 80
61 69 80
60 69 80
62 70 80
61 69 80
62 70 80
62 70 80
61 69 80
62 70 80
61 69 80
61 70 80
62 70 80
61 70 80
61 70 80
61 69 80
61 69 80
62 70 80
61 70 80
61 69 80
61 69 80
61 70 80
61 70 80
62 70 80
61 70 80
61 69 80
62 70 80
61 69 80
62 70 80
60 69 80
62 70 80
61 69 80
60 69 80
62 70 80
61 69 80
61 69 80
60 69 80
62 70 80
61 69 80
61 70 80
61 69 80
61 69 80
61 69 80
62 70 80
61 70 80
62 70 80
62 70 80
61 70 80
61 70 80
61 69 80
61 70 80
61 70 80
62 70 80
61 69 80
61 70 80
61 69 80
61 69 80
61 69 80
62 70 80
62 70 80
62 70 80
61 70 80
61 69 80
60 69 80
62 70 80
61 70 80
61 69 80
61 70 80
62 70 80
61 69 80
62 70 80
61 70 80
62 70 80
61 69 80
61 70 80
61 69 80
61 69 80
61 69 80
61 70 80
61 70 80
61 70 80
61 69 80
62 70 80
61 69 80
62 70 80
62 70 80
61 69 80
61 69 80
61 69 80
62 70 80
61 70 80
61 70 80
61 70 80
61 69 80
61 70 80
61 70 80
62 70 80
61 70 80
61 69 80
61 69 80
61 69 80
62 70 80
61 69 80
62 70 80
62 70 80
61 69 80
61 69 80
62 70 80
61 69 80
61 69 80
62 70 80
61 70 80
62 70 80
62 70 80
61 70 80
61 69 80
62 70 80
62 70 80
61 69 80
63 70 80
61 70 80
62 70 80
61 70 80
61 69 80
61 69 80
62 70 80
61 70 80
62 70 80
61 70 80
60 69 80
61 70 80
61 69 80
61 70 80
62 70 80
61 69 80
61 70 80
62 70 80
61 69 80
61 70 80
61 69 80
62 70 80
61 70 80
61 69 80
62 70 80
61 69 80
61 69 80
61 69 80
61 69 80
61 69 80
61 69 80
62 70 80
61 70 80
62 70 80
61 69 80
61 70 80
61 70 80
62 70 80
61 69 80
61 69 80
61 69 80
62 70 80
62 70 80
61 69 80
61 70 80
61 70 80
61 70 80
61 70 80
62 70 80
62 70 80
61 69 80
62 70 80
61 70 80
62 70 80
61 69 80
61 70 80
61 70 80
60 69 80
62 70 80
62 70 80
62 70 80
61 69 80
61 70 80
61 70 80
61 70 80
62 70 80
61 70 80
62 70 80
61 70 80
61 69 80
61 70 80
62 70 80
61 70 80
62 70 80
62 70 80
61 69 80
61 70 80
62 70 80
62 70 80
61 69 80
61 69 80
61 70 80
61 69 80
60 69 80
61 69 80
61 69 80
61 69 80
61 70 80
62 70 80
61 69 80
61 70 80
61 69 80
62 70 80
61 69 80
62 70 80
61 69 80
61 70 80
62 70 80
62 70 80
62 70 80
62 70 80
61 69 80
61 70 80
62 70 80
61 69 80
61 70 80
61 69 80
62 70 80
61 70 80
61 69 80
62 70 80
61 70 80
62 70 80
60 69 80
61 69 80
61 70 80
60 69 80
61 70 80
61 70 80
61 70 80
61 69 80
61 69 80
61 69 80
61 70 80
61 69 80
61 70 80
61 70 80
61 69 80
62 70 80
62 70 80
61 69 80
61 70 80
61 70 80
61 70 80
61 70 80
61 70 80
60 69 80
62 70 80
62 70 80
61 70 80
62 70 80
61 70 80
62 70 80
61 69 80
61 70 80
62 70 80
62 70 80
61 70 80
62 70 80
62 70 80
61 70 80
61 69 80
61 70 80
62 70 80
61 70 80
61 69 80
62 70 80
62 70 80
62 70 80
62 70 80
61 69 80
61 69 80
62 70 80
61 69 80
62 70 80
62 70 80
61 69 80
61 69 80
61 69 80
61 69 80
62 70 80
62 70 80
62 70 80
62 70 80
61 70 80
62 70 80
62 70 80
61 70 80
62 70 80
61 69 80
61 70 80
62 70 80
62 70 80
63 70 80
62 70 80
60 69 80
61 69 80
61 70 80
62 70 80
61 69 80
61 69 80
61 69 80
61 70 80
62 70 80
62 70 80
61 70 80
61 69 80
61 70 80
61 69 80
61 70 80
62 70 80
62 70 80
61 69 80
60 69 80
62 70 80
61 69 80
62 70 80
61 70 80
61 70 80
61 69 80
62 70 80
62 70 80
61 70 80
61 69 80
61 70 80
61 69 80
62 70 80
61 69 80
62 70 80
60 69 80
62 70 80
62 70 80
62 70 80
61 69 80
62 70 80
62 70 80
61 70 80
61 69 80
61 70 80
61 70 80
61 70 80
61 69 80
61 69 80
62 70 80
62 70 80
61 70 80
62 70 80
62 70 80
60 69 80
62 70 80
61 69 80
61 70 80
61 69 80
62 70 80
61 70 80
61 70 80
61 70 80
61 69 80
60 69 80
61 69 80
61 70 80
61 70 80
62 70 80
62 70 80
62 70 80
61 69 80
61 69 80
61 69 80
61 69 80
61 70 80
61 70 80
61 69 80
60 69 80
61 69 80
62 70 80
61 70 80
61 70 80
62 70 80
62 70 80
62 70 80
61 69 80
61 70 80
61 70 80
62 70 80
62 70 80
61 70 80
61 69 80
61 70 80
61 69 80
61 69 80
61 70 80
62 70 80
62 70 80
61 70 80
62 70 80
61 70 80
61 70 80
62 70 80
61 70 80
62 70 80
61 69 80
62 70 80
61 69 80
62 70 80
61 70 80
61 70 80
62 70 80
62 70 80
61 70 80
61 69 80
61 70 80
61 70 80
61 69 80
61 70 80
62 70 80
61 69 80
61 70 80
62 70 80
61 69 80
62 70 80
61 69 80
61 69 80
61 69 80
61 70 80
62 70 80
61 70 80
61 70 80
62 70 80
62 70 80
62 70 80
61 70 80
61 69 80
61 69 80
60 69 80
61 69 80
61 69 80
61 69 80
62 70 80
61 70 80
61 70 80
62 70 80
61 69 80
60 69 80
61 70 80
61 70 80
61 70 80
62 70 80
61 70 80
62 70 80
61 69 80
62 70 80
62 70 80
61 69 80
61 69 80
61 69 80
61 70 80
62 70 80
61 70 80
62 70 80
61 70 80
61 70 80
61 70 80
62 70 80
61 69 80
61 69 80
61 69 80
62 70 80
61 70 80
61 70 80
61 69 80
61 70 80
61 69 80
61 70 80
62 70 80
62 70 80
61 70 80
62 70 80
61 70 80
61 70 80
62 70 80
62 70 80
61 70 80
62 70 80
63 70 80
62 70 80
61 70 80
61 69 80
61 69 80
61 69 80
61 69 80
61 70 80
62 70 80
61 70 80
61 69 80
62 70 80
61 69 80
61 69 80
61 70 80
61 69 80
61 70 80
61 69 80
61 69 80
60 69 80
62 70 80
62 70 80
61 69 80
61 70 80
61 70 80
61 69 80
61 69 80
61 69 80
62 70 80
62 70 80
62 70 80
62 70 80
62 70 80
61 69 80
61 70 80
62 70 80
61 70 80
61 69 80
62 70 80
62 70 80
61 69 80
62 70 80
62 70 80
61 69 80
61 70 80
61 69 80
62 70 80
62 70 80
61 70 80
61 69 80
62 70 80
61 70 80
62 70 80
61 70 80
62 70 80
61 70 80
62 70 80
61 70 80
62 70 80
61 69 80
61 70 80
61 69 80
61 70 80
61 69 80
61 70 80
62 70 80
61 70 80
61 70 80
61 69 80
61 70 80
60 69 80
61 70 80
61 70 80
61 70 80
62 70 80
62 70 80
62 70 80
61 70 80
61 69 80
62 70 80
61 69 80
62 70 80
61 70 80
62 70 80
61 70 80
61 69 80
62 70 80
62 70 80
61 69 80
61 69 80
62 70 80
62 70 80
61 69 80
60 69 80
62 70 80
61 69 80
61 70 80
62 70 80
62 70 80
62 70 80
61 70 80
61 69 80
62 70 80
61 70 80
61 69 80
61 70 80
62 70 80
61 69 80
61 69 80
61 70 80
61 70 80
61 69 80
61 70 80
61 70 80
61 69 80
61 69 80
62 70 80
62 70 80
62 70 80
61 69 80
61 70 80
61 69 80
61 70 80
61 70 80
60 69 80
61 69 80
60 69 80
61 69 80
62 70 80
61 70 80
61 70 80
62 70 80
61 70 80
61 69 80
62 70 80
62 70 80
61 70 80
62 70 80
61 69 80
62 70 80
61 69 80
61 70 80
61 70 80
61 70 80
62 70 80
61 69 80
61 69 80
62 70 80
61 69 80
61 70 80
61 70 80
61 70 80
62 70 80
62 70 80
61 69 80
62 70 80
61 70 80
62 70 80
62 70 80
62 70 80
62 70 80
61 70 80
62 70 80
62 70 80
61 69 80
61 69 80
62 70 80
62 70 80
61 70 80
61 69 80
62 70 80
61 69 80
62 70 80
62 70 80
61 69 80
61 70 80
61 69 80
61 69 80
62 70 80
61 70 80
62 70 80
61 69 80
61 69 80
61 69 80
62 70 80
61 69 80
61 70 80
61 69 80
61 70 80
61 70 80
61 70 80
61 69 80
61 70 80
62 70 80
62 70 80
61 70 80
61 69 80
62 70 80
63 70 80
61 70 80
61 70 80
62 70 80
61 69 80
61 70 80
62 70 80
61 69 80
61 69 80
62 70 80
61 70 80
62 70 80
61 69 80
61 70 80
61 69 80
61 69 80
61 70 80
61 69 80
61 70 80
61 69 80
61 69 80
61 70 80
62 70 80
61 70 80
61 70 80
61 70 80
61 69 80
61 70 80
62 70 80
61 70 80
61 70 80
60 69 80
61 69 80
61 69 80
61 69 80
61 69 80
61 69 80
62 70 80
61 69 80
62 70 80
61 69 80
62 70 80
62 70 80
62 70 80
62 70 80
61 69 80
61 70 80
62 70 80
61 70 80
62 70 80
62 70 80
61 70 80
61 70 80
61 69 80
61 69 80
61 70 80
62 70 80
61 69 80
61 69 80
61 70 80
61 70 80
61 69 80
61 69 80
61 70 80
61 70 80
61 70 80
61 69 80
61 69 80
62 70 80
61 69 80
62 70 80
61 69 80
61 69 80
60 69 80
61 70 80
61 70 80
61 70 80
61 69 80
61 70 80
61 69 80
61 69 80
61 69 80
62 70 80
61 70 80
61 70 80
61 69 80
61 69 80
61 69 80
62 70 80
62 70 80
62 70 80
62 70 80
61 70 80
61 69 80
61 70 80
61 70 80
61 69 80
62 70 80
61 70 80
61 69 80
61 69 80
61 69 80
61 70 80
62 70 80
61 70 80
62 70 80
62 70 80
62 70 80
62 70 80
61 69 80
61 70 80
61 69 80
61 70 80
61 70 80
61 69 80
62 70 80
61 70 80
61 70 80
60 69 80
61 70 80
61 69 80
61 69 80
61 70 80
62 70 80
61 70 80
62 70 80
61 70 80
61 70 80
62 70 80
61 70 80
61 69 80
61 70 80
61 69 80
62 70 80
61 70 80
61 69 80
61 70 80
61 69 80
61 69 80
61 70 80
61 70 80
61 70 80
62 70 80
61 70 80
61 70 80
62 70 80
62 70 80
61 69 80
62 70 80
61 70 80
62 70 80
61 70 80
61 70 80
61 70 80
61 69 80
61 70 80
61 69 80
61 69 80
61 70 80
61 69 80
61 70 80
61 69 80
61 69 80
62 70 80
61 70 80
61 69 80
61 69 80
62 70 80
61 69 80
61 69 80
62 70 80
62 70 80
62 70 80
62 70 80
61 70 80
61 69 80
61 70 80
61 70 80
61 70 80
61 70 80
62 70 80
61 69 80
61 69 80
61 70 80
61 69 80
61 69 80
62 70 80
61 69 80
61 69 80
62 70 80
61 69 80
62 70 80
62 70 80
62 70 80
62 70 80
61 69 80
62 70 80
61 69 80
60 69 80
61 69 80
61 69 80
61 70 80
61 69 80
62 70 80
62 70 80
61 70 80
61 69 80
61 70 80
62 70 80
61 70 80
61 70 80
62 70 80
61 70 80
62 70 80
60 69 80
62 70 80
61 69 80
61 69 80
61 69 80
61 70 80
61 69 80
62 70 80
61 69 80
61 70 80
62 70 80
62 70 80
62 70 80
61 70 80
62 70 80
61 70 80
61 69 80
61 70 80
61 69 80
62 70 80
61 69 80
61 70 80
61 69 80
62 70 80
60 69 80
61 70 80
62 70 80
61 70 80
62 70 80
61 70 80
61 69 80
61 70 80
62 70 80
62 70 80
61 70 80
62 70 80
61 70 80
62 70 80
60 69 80
61 69 80
61 69 80
61 70 80
62 70 80
61 70 80
62 70 80
61 70 80
61 69 80
61 70 80
61 70 80
62 70 80
62 70 80
61 70 80
62 70 80
62 70 80
61 70 80
61 69 80
61 69 80
60 69 80
62 70 80
62 70 80
62 70 80
61 69 80
61 70 80
61 69 80
61 69 80
61 70 80
62 70 80
62 70 80
61 70 80
61 70 80
62 70 80
61 70 80
62 70 80
61 69 80
61 69 80
62 70 80
61 69 80
61 69 80
61 69 80
62 70 80
61 69 80
61 70 80
61 70 80
62 70 80
62 70 80
62 70 80
62 70 80
61 69 80
61 70 80
61 70 80
62 70 80
62 70 80
62 70 80
61 70 80
61 70 80
62 70 80
61 69 80
61 69 80
61 69 80
61 69 80
61 69 80
62 70 80
61 70 80
61 69 80
61 70 80
61 70 80
61 70 80
61 69 80
61 70 80
61 70 80
61 69 80
61 69 80
61 70 80
61 69 80
61 70 80
61 70 80
62 70 80
62 70 80
61 70 80
61 70 80
61 70 80
62 70 80
61 70 80
61 70 80
61 70 80
62 70 80
61 70 80
62 70 80
61 70 80
62 70 80
62 70 80
61 70 80
61 69 80
62 70 80
61 69 80
61 70 80
61 69 80
61 70 80
61 70 80
62 70 80
61 70 80
61 70 80
62 70 80
61 70 80
61 69 80
61 70 80
61 70 80
61 70 80
61 69 80
61 70 80
61 69 80
60 69 80
61 70 80
62 70 80
62 70 80
61 69 80
61 69 80
61 70 80
61 70 80
62 70 80
62 70 80
62 70 80
62 70 80
62 70 80
62 70 80
61 70 80
61 69 80
61 70 80
62 70 80
61 69 80
61 70 80
61 69 80
60 69 80
62 70 80
62 70 80
61 69 80
62 70 80
61 69 80
62 70 80
61 69 80
61 70 80
60 69 80
61 70 80
61 70 80
62 70 80
62 70 80
61 69 80
61 70 80
61 69 80
62 70 80
61 69 80
61 69 80
60 69 80
61 70 80
61 69 80
62 70 80
62 70 80
61 69 80
62 70 80
62 70 80
61 69 80
61 69 80
62 70 80
62 70 80
61 69 80
61 70 80
61 70 80
62 70 80
62 70 80
62 70 80
61 70 80
61 70 80
61 70 80
61 69 80
62 70 80
61 69 80
61 69 80
61 69 80
61 70 80
61 69 80
62 70 80
61 70 80
62 70 80
61 70 80
62 70 80
62 70 80
61 70 80
61 70 80
62 70 80
61 69 80
61 69 80
61 70 80
61 69 80
61 70 80
61 69 80
62 70 80
62 70 80
61 70 80
62 70 80
61 70 80
61 70 80
62 70 80
61 70 80
61 69 80
60 69 80
61 69 80
61 69 80
61 70 80
61 69 80
61 69 80
61 70 80
62 70 80
62 70 80
61 70 80
61 69 80
63 70 80
60 69 80
61 70 80
62 70 80
62 70 80
61 69 80
61 69 80
61 70 80
62 70 80
62 70 80
62 70 80
62 70 80
61 70 80
61 70 80
61 70 80
61 70 80
62 70 80
61 70 80
62 70 80
62 70 80
62 70 80
61 70 80
61 70 80
60 69 80
61 69 80
62 70 80
61 69 80
61 70 80
61 69 80
61 69 80
61 70 80
61 69 80
62 70 80
61 69 80
62 70 80
61 69 80
62 70 80
61 69 80
61 70 80
60 69 80
61 70 80
62 70 80
61 70 80
62 70 80
62 70 80
61 69 80
61 70 80
61 69 80
61 69 80
61 70 80
60 69 80
61 70 80
61 70 80
61 69 80
62 70 80
60 69 80
62 70 80
61 69 80
61 70 80
61 70 80
62 70 80
62 70 80
61 70 80
62 70 80
61 70 80
61 69 80
61 69 80
62 70 80
62 70 80
61 70 80
61 70 80
61 70 80
62 70 80
61 69 80
62 70 80
61 70 80
62 70 80
61 69 80
61 70 80
62 70 80
62 70 80
61 70 80
61 69 80
61 69 80
61 69 80
61 69 80
62 70 80
61 69 80
61 70 80
61 69 80
60 69 80
63 70 80
62 70 80
62 70 80
61 69 80
61 69 80
62 70 80
61 70 80
61 69 80
61 70 80
61 70 80
62 70 80
61 70 80
62 70 80
60 69 80
62 70 80
61 69 80
62 70 80
62 70 80
61 70 80
62 70 80
62 70 80
61 69 80
61 70 80
62 70 80
61 69 80
62 70 80
61 70 80
61 70 80
61 70 80
61 69 80
61 70 80
61 69 80
62 70 80
62 70 80
62 70 80
62 70 80
61 70 80
61 69 80
61 69 80
62 70 80
61 69 80
62 70 80
61 70 80
61 69 80
61 70 80
61 69 80
61 69 80
61 70 80
61 70 80
61 69 80
61 69 80
62 70 80
61 70 80
61 70 80
61 70 80
61 69 80
62 70 80
61 70 80
61 69 80
61 69 80
62 70 80
62 70 80
62 70 80
61 70 80
62 70 80
60 69 80
61 69 80
61 70 80
60 69 80
61 69 80
62 70 80
61 70 80
61 69 80
62 70 80
62 70 80
60 69 80
61 70 80
61 69 80
61 69 80
61 70 80
60 69 80
62 70 80
62 70 80
61 69 80
61 69 80
61 69 80
61 70 80
61 69 80
61 69 80
61 70 80
61 69 80
61 69 80
62 70 80
61 70 80
62 70 80
61 69 80
61 70 80
61 69 80
60 68 80
62 70 80
61 70 80
61 70 80
62 70 80
62 70 80
61 70 80
61 69 80
61 69 80
61 69 80
61 70 80
61 69 80
62 70 80
61 70 80
61 70 80
61 70 80
62 70 80
62 70 80
61 69 80
60 69 80
62 70 80
61 69 80
61 70 80
62 70 80
61 69 80
62 70 80
62 70 80
60 69 80
61 70 80
61 69 80
61 70 80
61 69 80
61 70 80
61 70 80
62 70 80
61 70 80
60 69 80
61 69 80
61 69 80
61 70 80
61 70 80
61 70 80
61 70 80
61 69 80
62 70 80
62 70 80
61 69 80
61 69 80
61 69 80
62 70 80
61 70 80
61 69 80
61 70 80
61 70 80
62 70 80
62 70 80
61 70 80
62 70 80
62 70 80
62 70 80
61 69 80
61 70 80
60 69 80
61 69 80
61 70 80
61 69 80
62 70 80
61 70 80
62 70 80
61 70 80
62 70 80
61 69 80
62 70 80
62 70 80
61 70 80
61 69 80
62 70 80
62 70 80
62 70 80
62 70 80
61 70 80
61 70 80
61 69 80
61 70 80
62 70 80
61 69 80
60 69 80
61 70 80
61 69 80
61 69 80
61 70 80
61 70 80
62 70 80
62 70 80
61 69 80
61 70 80
62 70 80
61 70 80
61 70 80
61 69 80
61 69 80
61 69 80
61 69 80
61 69 80
62 70 80
61 70 80
62 70 80
62 70 80
61 70 80
62 70 80
62 70 80
61 70 80
62 70 80
62 70 80
61 70 80
62 70 80
61 70 80
61 70 80
61 70 80
62 70 80
62 70 80
62 70 80
61 69 80
62 70 80
62 70 80
61 69 80
62 70 80
62 70 80
61 70 80
62 70 80
62 70 80
62 70 80
62 70 80
61 70 80
62 70 80
62 70 80
61 70 80
62 70 80
62 70 80
62 70 80
61 69 80
60 69 80
61 70 80
61 70 80
61 69 80
62 70 80
61 69 80
61 69 80
62 70 80
61 70 80
62 70 80
61 69 80
62 70 80
62 70 80
61 70 80
61 70 80
61 69 80
61 70 80
61 69 80
61 70 80
62 70 80
62 70 80
62 70 80
61 70 80
61 69 80
61 70 80
62 70 80
62 70 80
62 70 80
61 70 80
62 70 80
62 70 80
61 69 80
62 70 80
61 70 80
61 69 80
61 69 80
61 70 80
61 70 80
61 70 80
61 70 80
61 70 80
62 70 80
61 70 80
62 70 80
62 70 80
61 70 80
62 70 80
61 69 80
61 70 80
61 70 80
61 69 80
61 69 80
61 70 80
62 70 80
61 69 80
61 70 80
61 69 80
61 70 80
62 70 80
62 70 80
61 69 80
61 70 80
61 69 80
61 69 80
61 69 80
61 69 80
62 70 80
61 69 80
61 70 80
62 70 80
61 69 80
62 70 80
61 70 80
62 70 80
61 69 80
61 69 80
61 70 80
60 69 80
61 69 80
61 70 80
61 69 80
61 69 80
61 70 80
62 70 80
62 70 80
61 70 80
61 69 80
62 70 80
61 69 80
60 69 80
61 69 80
61 70 80
61 69 80
61 70 80
61 69 80
62 70 80
61 70 80
61 69 80
61 69 80
61 70 80
61 70 80
62 70 80
61 70 80
61 69 80
61 69 80
62 70 80
61 69 80
61 69 80
61 69 80
61 69 80
62 70 80
61 69 80
61 70 80
61 70 80
61 69 80
61 69 80
61 70 80
61 69 80
62 70 80
61 70 80
62 70 80
61 69 80
61 69 80
61 69 80
62 70 80
61 69 80
61 70 80
61 70 80
61 70 80
61 70 80
61 69 80
61 70 80
61 69 80
61 70 80
62 70 80
62 70 80
61 70 80
61 70 80
62 70 80
60 69 80
62 70 80
61 70 80
62 70 80
61 69 80
62 70 80
62 70 80
61 69 80
62 70 80
60 69 80
62 70 80
61 70 80
61 70 80
61 69 80
62 70 80
61 69 80
62 70 80
61 70 80
62 70 80
61 70 80
61 70 80
62 70 80
61 69 80
61 69 80
61 69 80
61 70 80
62 70 80
61 69 80
62 70 80
62 70 80
61 70 80
62 70 80
61 69 80
62 70 80
62 70 80
61 69 80
61 70 80
60 69 80
62 70 80
62 70 80
61 69 80
61 69 80
61 69 80
62 70 80
62 70 80
61 70 80
61 69 80
61 69 80
61 70 80
62 70 80
61 70 80
62 70 80
61 70 80
61 69 80
62 70 80
61 70 80
61 70 80
61 70 80
62 70 80
61 70 80
60 69 80
62 70 80
61 70 80
61 70 80
61 69 80
61 69 80
61 70 80
62 70 80
61 69 80
61 69 80
61 69 80
62 70 80
61 69 80
61 69 80
60 69 80
61 69 80
61 69 80
61 69 80
61 69 80
61 70 80
61 69 80
62 70 80
61 69 80
62 70 80
61 69 80
61 69 80
61 69 80
61 69 80
61 69 80
62 70 80
62 70 80
61 69 80
61 70 80
62 70 80
61 69 80
61 69 80
61 70 80
61 70 80
62 70 80
61 69 80
61 70 80
62 70 80
61 69 80
61 69 80
61 70 80
61 69 80
62 70 80
61 70 80
62 70 80
61 69 80
61 70 80
61 70 80
62 70 80
61 69 80
61 69 80
61 70 80
61 70 80
61 69 80
62 70 80
61 70 80
61 70 80
61 70 80
62 70 80
62 70 80
61 70 80
61 70 80
62 70 80
61 69 80
61 69 80
61 69 80
60 69 80
62 70 80
62 70 80
61 70 80
61 69 80
62 70 80
62 70 80
61 69 80
62 70 80
61 70 80
62 70 80
62 70 80
61 69 80
61 69 80
61 69 80
60 69 80
62 70 80
62 70 80
61 69 80
62 70 80
61 69 80
61 70 80
62 70 80
61 69 80
62 70 80
61 70 80
61 69 80
61 69 80
61 69 80
61 69 80
61 69 80
61 69 80
61 70 80
62 70 80
62 70 80
61 69 80
62 70 80
61 70 80
61 70 80
61 69 80
61 69 80
62 70 80
62 70 80
61 69 80
63 70 80
61 69 80
61 69 80
60 69 80
62 70 80
62 70 80
61 70 80
62 70 80
61 69 80
61 69 80
62 70 80
61 70 80
61 70 80
60 69 80
61 70 80
61 70 80
62 70 80
61 69 80
61 70 80
62 70 80
62 70 80
61 70 80
61 70 80
61 70 80
61 70 80
61 69 80
62 70 80
61 69 80
61 69 80
62 70 80
61 69 80
61 70 80
62 70 80
61 70 80
61 70 80
62 70 80
61 69 80
61 70 80
61 69 80
62 70 80
61 70 80
60 69 80
61 70 80
61 69 80
62 70 80
62 70 80
61 70 80
62 70 80
60 69 80
61 69 80
61 69 80
61 70 80
61 70 80
61 69 80
60 69 80
61 70 80
61 69 80
61 69 80
60 69 80
62 70 80
61 69 80
61 69 80
62 70 80
61 70 80
61 70 80
62 70 80
60 69 80
62 70 80
61 70 80
61 70 80
62 70 80
61 70 80
61 70 80
61 70 80
61 70 80
62 70 80
62 70 80
62 70 80
61 69 80
61 70 80
61 70 80
62 70 80
61 69 80
61 70 80
62 70 80
62 70 80
61 70 80
61 69 80
61 70 80
62 70 80
61 70 80
62 70 80
61 70 80
61 70 80
61 69 80
61 69 80
61 69 80
62 70 80
61 69 80
62 70 80
62 70 80
62 70 80
61 69 80
61 70 80
61 69 80
61 70 80
62 70 80
61 69 80
61 69 80
62 70 80
62 70 80
61 69 80
61 70 80
62 70 80
61 70 80
62 70 80
61 69 80
61 69 80
61 69 80
62 70 80
62 70 80
61 69 80
61 70 80
61 69 80
61 69 80
61 70 80
61 70 80
61 69 80
61 69 80
61 70 80
62 70 80
60 69 80
62 70 80
62 70 80
61 70 80
61 69 80
61 69 80
62 70 80
61 69 80
62 70 80
62 70 80
62 70 80
62 70 80
61 70 80
62 70 80
61 70 80
61 69 80
61 69 80
61 69 80
61 69 80
62 70 80
61 69 80
62 70 80
61 70 80
60 69 80
61 70 80
61 69 80
61 70 80
61 70 80
61 69 80
61 69 80
61 70 80
61 69 80
61 69 80
62 70 80
61 69 80
61 69 80
61 70 80
62 70 80
61 69 80
62 70 80
62 70 80
61 70 80
61 69 80
61 69 80
61 70 80
61 69 80
61 69 80
62 70 80
61 69 80
61 69 80
61 69 80
62 70 80
61 70 80
62 70 80
62 70 80
61 70 80
62 70 80
61 69 80
61 70 80
61 70 80
62 70 80
61 70 80
62 70 80
61 70 80
61 69 80
61 70 80
61 69 80
62 70 80
61 69 80
61 70 80
62 70 80
62 70 80
61 69 80
61 70 80
63 70 80
61 69 80
62 70 80
62 70 80
62 70 80
62 70 80
61 69 80
62 70 80
61 70 80
62 70 80
61 70 80
62 70 80
62 70 80
62 70 80
62 70 80
62 70 80
62 70 80
61 69 80
61 70 80
61 70 80
61 69 80
61 69 80
61 69 80
61 70 80
61 69 80
61 69 80
61 70 80
61 70 80
61 69 80
61 70 80
61 70 80
61 70 80
62 70 80
62 70 80
61 70 80
61 69 80
61 70 80
61 70 80
61 70 80
62 70 80
62 70 80
62 70 80
61 70 80
61 69 80
61 70 80
61 70 80
61 70 80
61 69 80
61 69 80
61 69 80
62 70 80
62 70 80
62 70 80
61 69 80
62 70 80
61 69 80
61 69 80
61 70 80
61 69 80
62 70 80
62 70 80
60 69 80
61 69 80
60 69 80
61 70 80
62 70 80
61 69 80
61 69 80
61 69 80
61 70 80
61 70 80
62 70 80
61 70 80
62 70 80
61 70 80
61 69 80
61 69 80
61 70 80
61 69 80
61 70 80
61 70 80
61 69 80
61 70 80
62 70 80
62 70 80
61 69 80
62 70 80
61 70 80
61 69 80
61 69 80
62 70 80
61 70 80
61 70 80
61 70 80
62 70 80
61 69 80
61 69 80
60 69 80
61 69 80
62 70 80
61 69 80
61 70 80
62 70 80
61 70 80
61 69 80
61 70 80
62 70 80
62 70 80
62 70 80
61 69 80
61 70 80
61 70 80
61 70 80
62 70 80
60 69 80
61 70 80
62 70 80
60 69 80
62 70 80
61 70 80
61 70 80
61 70 80
62 70 80
61 70 80
61 69 80
62 70 80
61 70 80
62 70 80
61 69 80
62 70 80
62 70 80
62 70 80
62 70 80
61 70 80
61 70 80
62 70 80
61 70 80
61 69 80
61 69 80
61 69 80
61 70 80
61 70 80
62 70 80
62 70 80
62 70 80
61 70 80
62 70 80
61 69 80
62 70 80
61 70 80
62 70 80
61 70 80
61 70 80
62 70 80
61 70 80
61 70 80
62 70 80
62 70 80
61 70 80
62 70 80
61 70 80
60 69 80
61 70 80
61 69 80
61 70 80
60 69 80
61 69 80
62 70 80
61 69 80
62 70 80
61 70 80
61 70 80
62 70 80
61 70 80
62 70 80
61 70 80
61 70 80
61 70 80
62 70 80
62 70 80
61 70 80
62 70 80
62 70 80
61 70 80
61 69 80
61 69 80
61 70 80
61 69 80
61 69 80
62 70 80
62 70 80
61 70 80
62 70 80
61 69 80
61 70 80
61 69 80
61 70 80
61 70 80
61 69 80
61 70 80
62 70 80
61 69 80
61 69 80
61 69 80
62 70 80
61 70 80
61 70 80
62 70 80
61 70 80
62 70 80
62 70 80
62 70 80
61 70 80
61 69 80
61 70 80
62 70 80
60 69 80
62 70 80
62 70 80
61 70 80
62 70 80
62 70 80
61 70 80
61 70 80
61 69 80
61 70 80
61 70 80
62 70 80
61 69 80
62 70 80
62 70 80
61 70 80
61 70 80
61 69 80
62 70 80
61 70 80
62 70 80
61 70 80
61 70 80
62 70 80
62 70 80
60 69 80
61 70 80
62 70 80
61 69 80
61 70 80
61 69 80
61 70 80
60 69 80
62 70 80
62 70 80
61 69 80
62 70 80
61 69 80
61 69 80
61 69 80
61 69 80
62 70 80
61 69 80
62 70 80
61 69 80
62 70 80
61 69 80
61 69 80
60 69 80
61 69 80
61 69 80
61 70 80
61 70 80
61 70 80
61 69 80
61 70 80
62 70 80
61 69 80
61 69 80
61 70 80
61 70 80
60 69 80
62 70 80
61 69 80
61 70 80
62 70 80
61 70 80
61 69 80
61 70 80
62 70 80
61 69 80
62 70 80
62 70 80
61 69 80
61 69 80
62 70 80
61 69 80
62 70 80
62 70 80
61 69 80
62 70 80
62 70 80
62 70 80
61 69 80
61 70 80
62 70 80
61 70 80
62 70 80
62 70 80
61 70 80
61 70 80
61 69 80
61 69 80
61 69 80
62 70 80
60 69 80
62 70 80
61 70 80
62 70 80
61 70 80
62 70 80
61 70 80
61 69 80
61 69 80
62 70 80
61 69 80
61 70 80
61 69 80
61 70 80
61 70 80
61 70 80
60 69 80
61 70 80
61 70 80
61 69 80
61 70 80
61 69 80
61 70 80
62 70 80
62 70 80
62 70 80
61 69 80
62 70 80
62 70 80
62 70 80
61 70 80
61 70 80
60 69 80
61 70 80
61 69 80
61 69 80
61 70 80
62 70 80
61 69 80
62 70 80
61 69 80
61 70 80
61 69 80
61 70 80
62 70 80
62 70 80
61 69 80
61 69 80
61 70 80
61 70 80
61 69 80
61 70 80
61 70 80
61 70 80
61 70 80
61 70 80
60 69 80
62 70 80
62 70 80
61 70 80
61 70 80
62 70 80
61 70 80
61 69 80
61 70 80
61 69 80
61 69 80
62 70 80
61 69 80
61 70 80
61 70 80
61 70 80
61 69 80
62 70 80
62 70 80
61 69 80
61 70 80
61 70 80
61 69 80
61 69 80
61 69 80
61 70 80
62 70 80
62 70 80
62 70 80
62 70 80
61 69 80
61 70 80
61 70 80
62 70 80
62 70 80
61 70 80
61 70 80
62 70 80
62 70 80
62 70 80
61 70 80
61 70 80
62 70 80
61 69 80
61 69 80
61 70 80
61 70 80
61 70 80
61 69 80
60 69 80
61 69 80
61 69 80
61 70 80
62 70 80
62 70 80
62 70 80
61 70 80
62 70 80
61 70 80
62 70 80
62 70 80
61 69 80
62 70 80
61 70 80
61 70 80
61 69 80
61 70 80
62 70 80
61 70 80
62 70 80
62 70 80
62 70 80
61 69 80
61 70 80
61 69 80
61 69 80
61 69 80
62 69 80
62 70 80
62 70 80
61 70 80
61 69 80
61 69 80
62 70 80
61 69 80
62 70 80
61 69 80
61 69 80
62 70 80
62 70 80
61 69 80
62 70 80
62 70 80
61 70 80
61 70 80
61 70 80
61 69 80
61 69 80
61 69 80
61 69 80
61 69 80
61 69 80
62 70 80
62 70 80
62 70 80
62 70 80
62 70 80
61 69 80
61 69 80
61 70 80
62 69 80
62 70 80
61 69 80
61 70 80
62 70 80
61 70 80
61 69 80
61 70 80
62 70 80
62 70 80
62 70 80
61 69 80
60 69 80
62 70 80
61 69 80
61 69 80
61 69 80
61 69 80
61 69 80
61 70 80
62 70 80
62 70 80
61 69 80
61 70 80
61 69 80
62 70 80
62 70 80
61 70 80
61 70 80
60 69 80
61 70 80
61 70 80
62 70 80
60 69 80
61 70 80
62 70 80
61 69 80
61 70 80
61 69 80
61 69 80
61 70 80
62 70 80
60 69 80
61 69 80
60 69 80
61 70 80
60 69 80
62 70 80
62 69 80
61 70 80
61 70 80
61 70 80
61 69 80
61 70 80
61 70 80
61 70 80
61 69 80
61 69 80
61 70 80
61 70 80
61 69 80
62 70 80
61 69 80
61 69 80
61 69 80
62 70 80
62 70 80
60 69 80
61 69 80
61 70 80
61 69 80
61 69 80
62 70 80
61 69 80
61 69 80
61 70 80
62 70 80
61 69 80
61 70 80
61 69 80
61 70 80
62 70 80
61 70 80
61 69 80
62 70 80
62 70 80
61 70 80
61 69 80
61 69 80
61 70 80
62 70 80
62 70 80
61 69 80
61 69 80
61 69 80
61 70 80
61 69 80
61 70 80
61 70 80
61 70 80
61 69 80
61 69 80
61 69 80
62 70 80
61 69 80
61 70 80
61 69 80
61 69 80
61 69 80
61 69 80
62 70 80
61 70 80
61 69 80
61 69 80
61 70 80
61 69 80
61 70 80
62 70 80
62 70 80
61 69 80
62 70 80
61 70 80
62 70 80
61 70 80
62 70 80
62 70 80
62 70 80
61 70 80
61 69 80
62 70 80
61 70 80
60 69 80
62 70 80
61 69 80
61 70 80
61 70 80
61 70 80
61 69 80
62 70 80
61 70 80
62 70 80
61 69 80
61 69 80
61 70 80
62 70 80
61 69 80
61 69 80
61 69 80
61 70 80
62 70 80
62 70 80
61 70 80
61 70 80
61 69 80
61 69 80
62 70 80
61 69 80
61 69 80
62 70 80
61 69 80
61 69 80
61 70 80
61 70 80
61 70 80
61 70 80
61 69 80
62 70 80
61 69 80
61 70 80
61 70 80
60 69 80
61 70 80
62 70 80
61 70 80
62 70 80
62 70 80
61 70 80
62 70 80
62 70 80
61 70 80
61 70 80
60 69 80
61 70 80
62 70 80
61 69 80
62 70 80
62 70 80
62 70 80
63 70 80
61 70 80
61 69 80
61 69 80
61 70 80
62 70 80
61 69 80
61 69 80
61 69 80
61 70 80
61 69 80
61 70 80
61 70 80
61 69 80
62 70 80
62 70 80
61 70 80
62 70 80
62 70 80
61 70 80
61 69 80
62 70 80
62 70 80
61 69 80
62 70 80
61 69 80
62 70 80
61 69 80
62 70 80
62 70 80
62 70 80
60 69 80
61 69 80
62 70 80
61 69 80
62 70 80
61 69 80
61 70 80
62 70 80
63 70 80
61 70 80
61 69 80
61 69 80
62 70 80
62 70 80
61 70 80
62 70 80
61 70 80
61 69 80
61 69 80
61 70 80
61 69 80
62 70 80
61 70 80
61 70 80
62 70 80
61 69 80
61 69 80
60 69 80
61 69 80
62 70 80
62 70 80
62 70 80
61 69 80
61 70 80
62 70 80
61 70 80
61 69 80
62 70 80
61 69 80
61 69 80
63 70 80
60 69 80
60 69 80
62 70 80
61 70 80
61 69 80
61 69 80
62 70 80
62 70 80
61 69 80
61 69 80
61 70 80
61 69 80
61 70 80
62 70 80
61 69 80
61 70 80
61 70 80
61 70 80
61 69 80
62 70 80
61 69 80
61 69 80
61 69 80
61 70 80
62 70 80
61 70 80
61 69 80
61 70 80
62 70 80
61 70 80
61 69 80
62 70 80
62 70 80
61 69 80
60 69 80
61 70 80
61 70 80
62 70 80
62 70 80
61 69 80
61 70 80
61 69 80
61 69 80
61 69 80
61 69 80
62 70 80
62 70 80
61 69 80
61 69 80
61 69 80
62 70 80
62 70 80
61 70 80
61 70 80
61 69 80
61 70 80
61 70 80
61 70 80
61 69 80
62 70 80
60 68 79
61 69 80
62 70 80
61 69 80
60 69 80
61 70 80
62 70 80
62 70 80
61 69 80
61 70 80
62 70 80
61 70 80
61 70 80
61 69 80
61 70 80
61 70 80
62 70 80
62 70 80
61 70 80
61 70 80
61 70 80
62 70 80
61 70 80
62 70 80
61 69 80
62 70 80
61 69 80
61 69 80
61 70 80
62 70 80
61 70 80
61 70 80
61 70 80
62 70 80
61 69 80
61 69 80
61 69 80
61 70 80
62 70 80
60 69 80
60 69 80
61 70 80
62 70 80
62 70 80
61 70 80
60 69 80
61 69 80
61 70 80
60 69 80
62 70 80
60 69 80
62 70 80
62 70 80
61 69 80
62 70 80
60 68 79
61 70 80
63 70 80
61 70 80
62 70 80
61 69 80
61 69 80
61 70 80
62 70 80
61 69 80
62 70 80
61 69 80
61 69 80
61 70 80
61 69 80
61 69 80
61 70 80
60 69 80
61 69 80
62 70 80
61 70 80
61 70 80
62 70 80
62 70 80
62 70 80
62 70 80
61 69 80
62 70 80
61 70 80
61 69 80
62 70 80
62 70 80
62 70 80
61 69 80
61 69 80
61 69 80
62 70 80
61 70 80
61 69 80
61 70 80
62 70 80
61 69 80
62 70 80
61 70 80
62 70 80
62 70 80
61 69 80
61 69 80
61 70 80
60 69 80
61 70 80
61 70 80
61 69 80
61 69 80
62 70 80
62 70 80
61 70 80
60 69 80
62 70 80
61 70 80
61 70 80
61 69 80
61 69 80
61 69 80
61 70 80
61 70 80
62 70 80
62 70 80
61 69 80
61 69 80
61 70 80
62 70 80
62 70 80
61 69 80
60 69 80
62 70 80
61 69 80
61 69 80
61 69 80
61 69 80
62 70 80
62 70 80
61 69 80
61 69 80
61 70 80
61 69 80
61 70 80
61 69 80
62 70 80
61 69 80
61 69 80
62 70 80
62 70 80
62 70 80
61 69 80
61 69 80
61 69 80
61 69 80
61 69 80
61 70 80
61 70 80
62 70 80
61 69 80
61 70 80
61 70 80
62 70 80
62 70 80
61 69 80
61 69 80
62 70 80
60 69 80
61 70 80
61 70 80
61 70 80
61 69 80
62 70 80
62 70 80
61 70 80
61 70 80
62 70 80
62 70 80
60 69 80
62 70 80
61 70 80
62 70 80
62 70 80
61 70 80
61 70 80
61 69 80
61 70 80
60 69 80
61 70 80
61 69 80
61 70 80
61 70 80
62 70 80
61 69 80
61 69 80
61 70 80
62 70 80
61 69 80
62 70 80
61 69 80
61 70 80
61 70 80
61 70 80
62 70 80
61 70 80
61 69 80
61 69 80
61 70 80
61 70 80
62 70 80
61 70 80
61 70 80
61 69 80
61 69 80
60 69 80
61 70 80
62 70 80
61 70 80
61 70 80
62 70 80
61 70 80
62 70 80
61 69 80
61 70 80
61 70 80
61 70 80
61 69 80
61 70 80
62 70 80
61 70 80
61 69 80
61 70 80
61 69 80
61 69 80
61 70 80
61 69 80
61 70 80
61 70 80
61 69 80
61 70 80
61 70 80
61 69 80
61 69 80
61 70 80
60 69 80
63 70 80
62 70 80
62 70 80
61 70 80
62 70 80
61 69 80
62 70 80
61 70 80
61 69 80
62 70 80
61 70 80
62 70 80
61 70 80
61 70 80
61 69 80
61 69 80
61 69 80
61 69 80
62 70 80
62 70 80
62 70 80
62 70 80
61 70 80
61 69 80
62 70 80
62 70 80
61 70 80
60 69 80
62 70 80
61 69 80
62 70 80
61 70 80
60 69 80
62 70 80
61 69 80
62 70 80
61 70 80
61 70 80
61 69 80
62 70 80
61 69 80
61 70 80
62 70 80
61 70 80
61 69 80
61 70 80
61 70 80
62 70 80
61 70 80
61 69 80
62 70 80
61 69 80
61 70 80
61 69 80
61 69 80
61 70 80
61 69 80
61 70 80
61 70 80
62 70 80
62 70 80
61 69 80
61 70 80
62 70 80
62 70 80
62 70 80
61 69 80
61 70 80
61 69 80
61 70 80
61 69 80
62 70 80
61 69 80
62 70 80
61 69 80
61 70 80
61 69 80
61 69 80
62 70 80
61 69 80
61 69 80
61 69 80
61 70 80
61 70 80
61 70 80
61 69 80
62 70 80
61 69 80
61 69 80
62 70 80
61 69 80
61 69 80
61 70 80
61 69 80
61 69 80
61 69 80
61 70 80
61 70 80
61 70 80
62 70 80
61 69 80
61 70 80
62 70 80
61 69 80
61 70 80
61 69 80
61 69 80
61 70 80
61 70 80
61 70 80
60 69 80
62 70 80
62 70 80
61 70 80
62 70 80
62 70 80
62 70 80
61 69 80
61 69 80
61 70 80
62 70 80
61 69 80
62 70 80
61 69 80
61 70 80
62 70 80
61 69 80
61 70 80
61 70 80
61 70 80
61 70 80
61 69 80
61 70 80
61 70 80
61 70 80
61 70 80
61 70 80
62 70 80
61 69 80
61 70 80
61 69 80
61 70 80
61 69 80
61 70 80
61 69 80
61 70 80
61 69 80
61 69 80
61 69 80
61 69 80
61 69 80
61 70 80
62 70 80
61 69 80
62 70 80
62 70 80
62 70 80
62 70 80
62 70 80
61 70 80
61 70 80
61 69 80
61 70 80
61 69 80
61 69 80
61 69 80
61 69 80
61 69 80
62 70 80
61 69 80
62 70 80
61 69 80
61 70 80
62 70 80
61 69 80
61 69 80
61 70 80
61 69 80
62 70 80
62 70 80
61 70 80
61 69 80
61 69 80
62 70 80
61 70 80
61 69 80
61 69 80
61 69 80
61 69 80
62 70 80
61 70 80
62 70 80
61 69 80
61 70 80
61 70 80
61 69 80
60 69 80
62 70 80
61 70 80
61 69 80
61 69 80
62 70 80
62 70 80
61 70 80
61 70 80
61 70 80
62 70 80
61 70 80
62 70 80
62 70 80
62 70 80
61 69 80
61 70 80
61 69 80
62 70 80
60 69 80
62 70 80
61 70 80
62 70 80
60 69 80
61 69 80
62 70 80
61 70 80
61 70 80
62 70 80
61 70 80
62 70 80
61 69 80
60 69 80
61 69 80
62 70 80
62 70 80
61 69 80
61 69 80
61 70 80
61 69 80
62 70 80
60 69 80
61 69 80
61 69 80
62 70 80
62 70 80
62 70 80
61 70 80
60 69 80
61 70 80
61 70 80
61 69 80
61 69 80
62 70 80
61 70 80
61 69 80
61 69 80
61 70 80
61 70 80
62 70 80
61 70 80
61 69 80
61 70 80
61 69 80
61 70 80
61 69 80
61 69 80
62 70 80
61 70 80
61 70 80
61 70 80
61 69 80
61 70 80
61 70 80
62 70 80
62 70 80
61 70 80
61 69 80
61 69 80
61 69 80
61 69 80
62 70 80
61 70 80
61 70 80
62 70 80
62 70 80
62 70 80
61 69 80
61 69 80
61 69 80
61 69 80
61 70 80
61 69 80
61 70 80
61 69 80
62 70 80
61 70 80
61 70 80
63 70 80
61 69 80
61 70 80
61 70 80
62 70 80
62 70 80
61 70 80
61 70 80
61 70 80
61 69 80
61 70 80
61 70 80
61 69 80
62 70 80
61 69 80
61 70 80
61 70 80
61 70 80
61 70 80
62 70 80
62 70 80
61 70 80
62 70 80
60 69 80
61 70 80
61 70 80
61 69 80
61 69 80
61 69 80
61 69 80
61 70 80
61 70 80
61 69 80
61 70 80
62 70 80
61 69 80
62 70 80
62 70 80
61 69 80
62 70 80
62 70 80
60 69 80
60 69 80
61 69 80
61 70 80
61 70 80
62 70 80
61 70 80
60 69 80
61 69 80
61 70 80
61 70 80
61 70 80
61 70 80
62 70 80
61 69 80
61 69 80
62 70 80
62 70 80
61 69 80
61 69 80
61 70 80
60 69 80
62 70 80
61 70 80
61 70 80
60 69 80
61 69 80
61 70 80
61 70 80
61 69 80
60 69 80
61 70 80
61 70 80
61 69 80
61 70 80
62 70 80
62 70 80
62 70 80
61 69 80
61 69 80
61 69 80
60 69 80
61 69 80
61 70 80
62 70 80
61 69 80
61 70 80
62 70 80
61 70 80
60 69 80
61 70 80
61 69 80
62 70 80
62 70 80
62 70 80
62 70 80
61 69 80
62 70 80
61 69 80
61 70 80
60 69 80
62 70 80
62 70 80
61 69 80
62 70 80
61 69 80
61 70 80
60 69 80
61 70 80
61 69 80
62 70 80
62 70 80
61 69 80
61 69 80
61 69 80
61 70 80
61 69 80
62 70 80
61 69 80
61 70 80
62 70 80
61 69 80
61 69 80
62 70 80
61 69 80
62 70 80
61 69 80
61 70 80
62 70 80
61 69 80
61 70 80
61 70 80
62 70 80
61 69 80
61 70 80
62 70 80
61 69 80
61 70 80
61 70 80
62 70 80
61 69 80
62 70 80
62 70 80
61 70 80
62 70 80
62 70 80
61 69 80
61 69 80
61 70 80
61 70 80
61 69 80
61 70 80
61 70 80
61 70 80
62 70 80
61 69 80
61 70 80
61 69 80
62 70 80
61 69 80
61 69 80
61 69 80
62 70 80
61 70 80
61 70 80
61 70 80
61 69 80
62 70 80
62 70 80
61 69 80
61 70 80
61 70 80
61 70 80
61 69 80
61 70 80
62 70 80
61 70 80
62 70 80
61 69 80
61 70 80
62 70 80
61 69 80
61 70 80
62 70 80
62 70 80
61 70 80
62 70 80
61 70 80
62 70 80
62 70 80
61 69 80
61 69 80
62 70 80
61 69 80
61 69 80
61 70 80
62 70 80
61 69 80
62 70 80
62 70 80
62 70 80
61 69 80
62 70 80
61 69 80
61 69 80
60 69 80
61 69 80
61 69 80
62 70 80
62 70 80
62 70 80
61 70 80
62 70 80
61 70 80
61 69 80
62 70 80
61 70 80
61 70 80
62 70 80
61 70 80
61 70 80
61 69 80
62 70 80
61 69 80
61 70 80
61 69 80
61 69 80
61 70 80
61 69 80
62 70 80
61 70 80
61 69 80
62 70 80
61 70 80
61 70 80
62 70 80
61 69 80
61 69 80
61 69 80
61 69 80
61 70 80
61 70 80
61 70 80
61 70 80
61 69 80
61 70 80
61 70 80
62 70 80
61 69 80
62 70 80
61 70 80
61 69 80
61 69 80
61 70 80
62 70 80
61 69 80
61 69 80
62 70 80
61 69 80
61 69 80
61 70 80
61 70 80
61 69 80
62 70 80
61 69 80
63 70 80
61 69 80
61 70 80
61 69 80
62 70 80
61 69 80
61 69 80
62 70 80
61 70 80
61 70 80
61 70 80
62 70 80
61 70 80
61 70 80
62 70 80
62 70 80
62 70 80
61 70 80
61 70 80
61 69 80
61 70 80
61 69 80
60 69 80
61 70 80
62 70 80
61 70 80
60 69 80
62 70 80
62 70 80
62 70 80
61 69 80
61 69 80
61 69 80
62 70 80
61 70 80
61 69 80
62 70 80
62 70 80
61 69 80
61 70 80
60 69 80
61 69 80
61 70 80
61 70 80
62 70 80
62 70 80
61 70 80
61 69 80
62 70 80
61 69 80
61 70 80
61 69 80
60 69 80
61 70 80
61 70 80
61 70 80
61 69 80
61 70 80
60 69 80
61 70 80
62 70 80
62 70 80
61 69 80
61 70 80
62 70 80
61 69 80
61 70 80
61 69 80
62 70 80
61 70 80
61 70 80
61 69 80
60 69 80
61 70 80
61 70 80
61 69 80
61 69 80
61 69 80
61 69 80
61 70 80
62 70 80
61 70 80
61 70 80
62 70 80
61 70 80
62 70 80
62 70 80
61 70 80
62 70 80
62 69 80
61 69 80
61 69 80
61 70 80
61 70 80
61 70 80
62 70 80
60 69 80
61 70 80
61 70 80
62 70 80
62 70 80
62 70 80
61 70 80
61 69 80
61 69 80
61 70 80
62 70 80
61 69 80
61 70 80
62 70 80
61 69 80
62 70 80
62 70 80
62 70 80
62 70 80
61 70 80
61 69 80
61 70 80
60 69 80
61 70 80
62 70 80
61 69 80
62 70 80
62 70 80
62 70 80
62 70 80
61 70 80
62 70 80
61 69 80
62 70 80
61 70 80
60 69 80
61 70 80
62 70 80
62 70 80
62 70 80
61 69 80
61 69 80
61 69 80
61 69 80
61 70 80
61 69 80
62 70 80
61 69 80
62 70 80
61 69 80
61 70 80
61 69 80
61 70 80
62 70 80
61 69 80
61 70 80
62 70 80
61 70 80
62 70 80
62 70 80
61 70 80
61 70 80
61 70 80
61 70 80
61 70 80
61 69 80
62 70 80
61 69 80
62 70 80
61 69 80
61 70 80
62 70 80
62 70 80
61 70 80
61 69 80
62 70 80
62 70 80
61 69 80
61 69 80
61 69 80
62 70 80
62 70 80
61 70 80
61 69 80
61 69 80
62 70 80
62 70 80
61 69 80
62 70 80
62 70 80
61 69 80
62 70 80
60 69 80
60 69 80
61 69 80
61 70 80
61 69 80
62 70 80
61 70 80
61 69 80
62 70 80
61 70 80
62 70 80
61 69 80
61 69 80
61 69 80
61 69 80
61 70 80
61 70 80
61 69 80
62 70 80
61 69 80
61 69 80
61 69 80
61 70 80
61 70 80
61 70 80
62 70 80
62 70 80
61 69 80
62 70 80
62 70 80
61 70 80
62 70 80
60 69 80
62 70 80
62 70 80
61 69 80
62 70 80
61 69 80
61 70 80
61 69 80
62 70 80
62 70 80
61 70 80
61 70 80
61 69 80
62 70 80
61 69 80
62 70 80
61 70 80
62 70 80
61 69 80
61 69 80
61 69 80
62 70 80
62 70 80
61 70 80
61 69 80
61 69 80
61 70 80
61 69 80
62 70 80
61 70 80
62 70 80
62 70 80
61 69 80
62 70 80
61 70 80
60 69 80
62 70 80
61 70 80
61 69 80
61 69 80
61 70 80
62 70 80
61 70 80
61 70 80
62 70 80
61 69 80
62 70 80
61 69 80
62 70 80
62 70 80
62 70 80
61 69 80
62 70 80
62 70 80
61 69 80
61 69 80
61 69 80
61 70 80
61 70 80
63 70 80
61 70 80
61 70 80
60 69 80
62 70 80
62 70 80
61 70 80
61 70 80
61 69 80
61 69 80
61 70 80
61 69 80
61 69 80
62 70 80
62 70 80
61 69 80
62 70 80
62 70 80
61 70 80
62 70 80
61 70 80
62 70 80
61 70 80
61 70 80
61 69 80
61 70 80
62 70 80
62 70 80
62 70 80
61 70 80
61 69 80
61 70 80
61 70 80
61 69 80
61 70 80
62 70 80
61 69 80
61 69 80
61 69 80
62 70 80
61 69 80
61 70 80
62 70 80
61 70 80
62 70 80
61 69 80
61 70 80
61 69 80
62 70 80
62 70 80
61 69 80
62 70 80
61 69 80
62 70 80
61 70 80
61 69 80
61 69 80
62 70 80
62 70 80
62 70 80
61 69 80
61 70 80
61 70 80
61 70 80
61 70 80
61 69 80
61 69 80
61 69 80
61 69 80
62 70 80
61 69 80
62 70 80
61 69 80
62 70 80
62 70 80
61 70 80
61 69 80
61 70 80
61 70 80
61 69 80
61 69 80
62 70 80
63 70 80
62 70 80
61 70 80
62 70 80
62 70 80
60 69 80
61 70 80
62 70 80
61 70 80
62 70 80
62 70 80
62 70 80
61 69 80
62 70 80
61 70 80
61 69 80
62 70 80
61 69 80
62 70 80
61 69 80
61 70 80
61 70 80
62 70 80
61 69 80
62 70 80
61 69 80
62 70 80
61 69 80
62 70 80
62 70 80
62 70 80
62 70 80
61 69 80
61 69 80
61 69 80
61 70 80
61 70 80
61 69 80
62 70 80
62 70 80
61 70 80
62 70 80
62 70 80
61 69 80
61 70 80
61 69 80
61 69 80
60 69 80
61 70 80
62 70 80
61 69 80
62 70 80
61 70 80
61 70 80
62 70 80
62 70 80
60 69 80
61 70 80
60 69 80
61 69 80
61 69 80
61 69 80
62 70 80
62 70 80
61 70 80
61 69 80
61 69 80
61 69 80
62 70 80
61 70 80
62 70 80
61 69 80
61 70 80
62 70 80
61 70 80
62 70 80
60 69 80
62 70 80
62 70 80
61 70 80
61 69 80
61 69 80
62 70 80
61 69 80
62 70 80
61 69 80
61 70 80
61 69 80
61 69 80
61 69 80
60 69 80
62 70 80
61 69 80
61 69 80
62 70 80
61 70 80
61 69 80
61 69 80
62 70 80
61 70 80
61 69 80
62 70 80
62 70 80
62 70 80
61 70 80
62 70 80
61 70 80
62 70 80
61 69 80
61 70 80
61 69 80
61 69 80
61 70 80
61 70 80
62 69 80
62 70 80
62 70 80
61 70 80
61 69 80
61 69 80
62 70 80
61 69 80
61 70 80
61 69 80
62 70 80
61 69 80
62 70 80
61 69 80
61 69 80
63 70 80
62 70 80
62 70 80
61 70 80
61 69 80
62 70 80
62 70 80
61 69 80
62 70 80
61 69 80
61 70 80
62 70 80
61 70 80
61 69 80
61 69 80
62 70 80
61 70 80
62 70 80
61 70 80
61 70 80
62 69 80
62 70 80
61 69 80
62 70 80
61 69 80
61 70 80
62 70 80
61 70 80
61 69 80
61 69 80
61 69 80
60 69 80
62 70 80
61 69 80
61 69 80
61 70 80
61 69 80
62 70 80
61 69 80
61 69 80
62 70 80
61 69 80
61 70 80
61 69 80
62 70 80
60 69 80
61 70 80
61 69 80
62 70 80
62 70 80
61 70 80
61 69 80
61 69 80
62 70 80
61 69 80
62 70 80
62 70 80
61 69 80
61 69 80
61 69 80
62 70 80
61 69 80
62 70 80
62 70 80
61 70 80
61 69 80
61 69 80
61 70 80
62 70 80
61 70 80
61 70 80
62 70 80
62 70 80
62 70 80
62 70 80
61 69 80
60 69 80
62 70 80
62 70 80
61 70 80
61 70 80
62 70 80
61 70 80
61 70 80
62 70 80
61 70 80
62 70 80
61 70 80
62 70 80
62 70 80
61 70 80
60 69 80
62 70 80
61 70 80
61 70 80
62 70 80
61 70 80
62 70 80
61 70 80
62 70 80
61 69 80
61 69 80
61 69 80
61 69 80
61 69 80
61 69 80
61 70 80
61 69 80
61 70 80
62 70 80
62 70 80
62 70 80
61 69 80
61 69 80
62 70 80
62 70 80
61 70 80
61 70 80
61 70 80
61 69 80
61 70 80
61 70 80
61 69 80
62 70 80
61 70 80
61 70 80
61 70 80
62 70 80
62 70 80
62 70 80
61 70 80
61 70 80
61 70 80
61 69 80
62 70 80
62 70 80
61 69 80
61 69 80
61 70 80
62 70 80
62 70 80
62 70 80
61 69 80
63 70 80
61 69 80
61 69 80
62 70 80
61 69 80
61 69 80
61 70 80
62 70 80
62 70 80
61 69 80
61 69 80
62 70 80
62 70 80
62 70 80
61 70 80
61 70 80
61 70 80
61 70 80
62 70 80
61 70 80
62 70 80
62 70 80
62 70 80
62 70 80
61 69 80
61 70 80
61 69 80
61 69 80
62 70 80
62 70 80
61 69 80
61 70 80
62 70 80
61 70 80
62 70 80
61 69 80
61 69 80
62 70 80
61 70 80
61 69 80
62 70 80
62 70 80
61 69 80
62 70 80
62 70 80
61 70 80
61 70 80
61 70 80
62 70 80
62 70 80
61 69 80
61 69 80
61 70 80
61 69 80
60 69 80
62 70 80
61 70 80
61 69 80
61 70 80
61 69 80
62 70 80
61 69 80
61 70 80
61 69 80
61 70 80
60 69 80
61 70 80
61 70 80
60 69 80
61 69 80
62 70 80
61 69 80
62 70 80
62 70 80
61 69 80
61 70 80
61 69 80
61 70 80
61 69 80
61 70 80
61 69 80
61 69 80
61 69 80
61 70 80
61 69 79
61 70 80
62 70 80
62 70 80
61 69 80
61 70 80
62 70 80
61 69 80
62 70 80
62 70 80
61 69 80
60 69 80
62 70 80
62 70 80
61 70 80
62 70 80
61 69 80
61 69 80
61 70 80
61 70 80
62 70 80
62 70 80
61 69 80
61 70 80
61 70 80
61 70 80
61 69 80
61 69 80
61 70 80
60 69 80
61 69 80
61 69 80
61 69 80
61 70 80
61 70 80
62 70 80
61 69 80
61 70 80
62 70 80
62 70 80
62 70 80
61 70 80
60 69 80
61 70 80
61 69 80
62 70 80
61 69 80
61 69 80
61 70 80
62 70 80
61 70 80
62 70 80
62 70 80
61 70 80
61 69 80
61 70 80
61 70 80
61 69 80
61 69 80
61 69 80
61 69 80
62 70 80
61 70 80
62 70 80
61 69 80
61 70 80
62 70 80
61 69 80
61 70 80
62 70 80
62 70 80
61 69 80
61 69 80
61 70 80
62 70 80
62 70 80
61 70 80
62 70 80
62 70 80
61 69 80
62 70 80
61 69 80
61 69 80
61 69 80
61 69 80
61 69 80
61 69 80
61 70 80
61 69 80
61 69 80
61 69 80
62 70 80
61 70 80
62 70 80
61 69 80
61 70 80
62 70 80
61 70 80
61 70 80
60 69 80
61 69 80
61 69 80
61 70 80
61 69 80
61 70 80
62 70 80
61 69 80
61 70 80
61 69 80
61 69 80
61 69 80
61 70 80
61 69 80
60 69 80
61 70 80
62 70 80
61 70 80
61 70 80
62 70 80
62 70 80
61 70 80
61 70 80
61 69 80
61 69 80
61 69 80
61 70 80
61 70 80
61 70 80
61 70 80
62 70 80
61 69 80
62 70 80
61 70 80
61 70 80
61 70 80
62 70 80
62 70 80
61 70 80
62 70 80
61 69 80
62 70 80
61 69 80
62 70 80
61 70 80
61 70 80
61 69 80
61 70 80
62 70 80
62 70 80
61 69 80
61 69 80
60 69 80
62 70 80
61 69 80
61 70 80
63 70 80
61 70 80
61 70 80
61 69 80
61 70 80
61 70 80
61 70 80
61 70 80
61 69 80
61 69 80
61 69 80
61 70 80
62 70 80
60 69 80
61 69 80
62 70 80
60 69 80
61 70 80
61 69 80
61 70 80
62 70 80
61 69 80
61 69 80
61 69 80
61 69 80
61 70 80
61 70 80
60 69 80
61 70 80
62 70 80
61 70 80
61 69 80
62 70 80
62 70 80
61 69 80
61 69 80
61 70 80
61 70 80
61 69 80
61 70 80
62 70 80
61 70 80
61 69 80
61 69 80
61 69 80
61 70 80
60 69 80
61 70 80
61 69 80
61 69 80
62 70 80
61 69 80
62 70 80
62 70 80
61 70 80
61 69 80
61 70 80
62 70 80
61 70 80
61 69 80
60 69 80
62 70 80
61 70 80
61 70 80
61 69 80
62 70 80
60 69 80
61 69 80
62 70 80
61 70 80
61 69 80
60 69 80
61 69 80
61 69 80
60 69 80
61 69 80
62 70 80
61 70 80
61 70 80
61 70 80
61 70 80
62 70 80
62 70 80
62 70 80
61 70 80
61 70 80
61 69 80
61 69 80
61 70 80
61 69 80
61 69 80
61 70 80
61 70 80
61 70 80
62 70 80
62 70 80
62 70 80
61 69 80
61 69 80
61 69 80
61 69 80
60 69 80
61 69 80
62 70 80
62 70 80
61 70 80
61 69 80
62 70 80
61 70 80
62 70 80
61 70 80
62 70 80
62 70 80
62 70 80
62 70 80
62 70 80
61 70 80
62 70 80
61 70 80
61 69 80
61 70 80
62 70 80
61 70 80
61 69 80
61 70 80
61 70 80
61 69 80
61 69 80
61 70 80
62 70 80
61 70 80
62 70 80
62 70 80
61 70 80
62 70 80
62 70 80
61 70 80
61 69 80
61 69 80
61 69 80
61 69 80
61 70 80
61 70 80
61 70 80
61 70 80
61 70 80
61 70 80
61 69 80
61 70 80
62 70 80
61 70 80
61 69 80
61 70 80
62 70 80
61 69 80
61 69 80
61 70 80
61 70 80
61 69 80
62 70 80
61 69 80
61 70 80
61 70 80
61 69 80
61 70 80
62 70 80
62 70 80
62 70 80
62 70 80
61 69 80
61 70 80
61 69 80
62 70 80
61 69 80
61 70 80
62 70 80
61 69 80
62 70 80
61 69 80
61 70 80
61 70 80
61 69 80
61 69 80
62 70 80
61 69 80
62 70 80
62 70 80
61 69 80
61 70 80
62 70 80
61 70 80
62 70 80
61 69 80
61 70 80
62 70 80
61 70 80
61 69 80
62 70 80
61 70 80
61 69 80
62 70 80
61 69 80
61 70 80
61 70 80
61 70 80
61 70 80
61 70 80
62 70 80
61 70 80
61 70 80
62 70 80
62 70 80
62 70 80
62 70 80
62 70 80
61 69 80
62 70 80
61 69 80
61 69 80
62 70 80
62 70 80
61 69 80
61 70 80
61 69 80
62 70 80
61 70 80
61 69 80
62 70 80
62 70 80
61 70 80
61 70 80
62 70 80
62 70 80
61 70 80
62 70 80
61 69 80
61 70 80
62 70 80
61 69 80
62 70 80
62 70 80
61 69 80
61 69 80
62 70 80
62 70 80
62 70 80
62 70 80
61 70 80
60 69 80
62 70 80
62 70 80
61 70 80
61 70 80
61 70 80
61 70 80
61 69 80
61 70 80
61 70 80
61 69 80
61 69 80
61 70 80
61 70 80
60 69 80
61 69 80
61 70 80
61 70 80
61 69 80
61 69 80
62 70 80
61 69 80
61 70 80
62 70 80
61 70 80
61 69 80
61 70 80
61 70 80
61 70 80
61 70 80
61 69 80
61 70 80
61 70 80
61 69 80
61 70 80
60 69 80
61 70 80
61 69 80
61 69 80
61 70 80
61 70 80
61 69 80
61 70 80
61 70 80
61 69 80
61 70 80
62 70 80
61 69 80
61 70 80
61 69 80
61 69 80
62 70 80
62 70 80
61 69 80
62 70 80
62 70 80
62 70 80
61 69 80
62 70 80
63 70 80
61 69 80
62 70 80
62 70 80
62 70 80
62 70 80
61 70 80
62 70 80
61 69 80
62 70 80
60 69 80
61 70 80
62 70 80
62 70 80
62 70 80
61 70 80
61 70 80
61 69 80
61 69 80
61 69 80
61 70 80
61 69 80
61 69 80
61 69 80
62 70 80
61 70 80
62 70 80
62 70 80
62 70 80
62 70 80
61 70 80
61 69 80
61 69 80
62 70 80
62 70 80
62 70 80
61 70 80
62 70 80
60 69 80
61 70 80
62 70 80
61 70 80
62 70 80
61 69 80
61 69 80
61 69 80
61 70 80
61 69 80
61 70 80
61 69 80
61 70 80
61 70 80
61 70 80
61 69 80
62 70 80
62 70 80
61 70 80
61 69 80
61 70 80
61 69 80
62 70 80
61 69 80
61 69 80
62 70 80
61 69 80
61 69 80
61 69 80
62 70 80
62 70 80
62 70 80
61 70 80
61 69 80
61 70 80
61 70 80
62 70 80
61 70 80
61 69 80
62 70 80
61 70 80
62 70 80
61 70 80
61 69 80
61 69 80
62 70 80
62 70 80
61 70 80
61 69 80
61 70 80
61 69 80
61 69 80
61 69 80
62 70 80
61 70 80
61 69 80
61 69 80
62 70 80
62 70 80
61 70 80
61 70 80
61 70 80
61 69 80
61 69 80
62 70 80
61 69 80
61 69 80
62 70 80
61 70 80
61 70 80
61 69 80
62 70 80
61 70 80
61 69 80
61 70 80
62 70 80
61 69 80
61 69 80
62 70 80
61 69 80
61 70 80
62 70 80
60 69 80
61 70 80
61 69 80
62 70 80
61 69 80
62 70 80
62 70 80
61 70 80
61 69 80
61 70 80
61 69 80
61 69 80
61 70 80
61 69 80
61 70 80
63 70 80
61 70 80
61 69 80
61 70 80
61 69 80
61 69 80
62 70 80
61 69 80
61 69 80
61 70 80
61 70 80
62 70 80
61 69 80
61 70 80
62 70 80
61 69 80
62 70 80
60 69 80
62 70 80
60 69 80
62 70 80
61 70 80
61 70 80
61 70 80
61 70 80
62 70 80
61 69 80
62 70 80
61 70 80
61 69 80
61 70 80
61 70 80
61 69 80
62 70 80
62 70 80
62 70 80
61 70 80
60 69 80
62 70 80
61 69 80
61 69 80
62 70 80
61 69 80
62 70 80
62 70 80
61 70 80
61 70 80
61 70 80
61 70 80
61 69 80
61 70 80
61 69 80
61 69 80
61 69 80
61 70 80
61 69 80
61 69 80
61 70 80
61 70 80
61 70 80
61 70 80
62 70 80
62 70 80
62 70 80
61 70 80
62 70 80
62 70 80
61 69 80
61 69 80
61 69 80
61 69 80
61 70 80
61 69 80
61 70 80
61 70 80
60 69 80
61 70 80
61 70 80
61 69 80
62 70 80
61 70 80
61 70 80
62 70 80
62 70 80
61 70 80
61 69 80
61 69 80
61 69 80
62 70 80
61 69 80
61 69 80
61 70 80
60 69 80
62 70 80
62 70 80
62 70 80
61 70 80
62 70 80
62 70 80
62 70 80
61 69 80
63 70 80
61 70 80
61 70 80
61 70 80
62 70 80
61 69 80
61 69 80
61 70 80
61 69 80
62 70 80
61 70 80
61 70 80
61 69 80
62 70 80
62 70 80
61 70 80
61 70 80
61 70 80
62 70 80
62 70 80
62 70 80
61 70 80
62 70 80
61 70 80
61 70 80
61 69 80
61 69 80
62 70 80
62 70 80
63 70 80
62 70 80
61 70 80
61 69 80
61 69 80
61 69 80
62 70 80
61 69 80
62 70 80
61 69 80
61 69 80
62 70 80
61 70 80
61 70 80
61 70 80
61 69 80
61 69 80
62 70 80
62 70 80
62 70 80
62 70 80
62 70 80
62 70 80
62 70 80
61 70 80
61 70 80
62 70 80
61 69 80
62 70 80
61 70 80
61 69 80
61 69 80
61 70 80
61 69 80
61 70 80
61 70 80
62 70 80
61 69 80
62 70 80
61 69 80
62 70 80
61 69 80
61 69 80
61 69 80
62 70 80
61 69 80
62 70 80
61 70 80
62 70 80
60 69 80
61 69 80
61 69 80
61 70 80
62 70 80
61 69 80
61 69 80
62 70 80
61 70 80
61 69 80
61 70 80
61 69 80
61 70 80
61 70 80
61 70 80
61 70 80
61 69 80
61 69 80
61 69 80
62 70 80
61 70 80
61 69 80
62 70 80
62 70 80
62 70 80
61 69 80
61 70 80
61 69 80
61 70 80
61 70 80
61 70 80
61 70 80
61 69 80
61 69 80
62 70 80
62 70 80
62 70 80
61 70 80
61 69 80
61 70 80
61 69 80
61 70 80
61 69 80
62 70 80
62 70 80
62 70 80
61 69 80
62 70 80
62 70 80
61 69 80
61 70 80
61 70 80
62 70 80
60 69 80
62 70 80
61 70 80
61 70 80
61 70 80
61 69 80
62 70 80
61 70 80
61 69 80
61 70 80
61 70 80
62 70 80
61 70 80
60 69 80
62 70 80
61 69 80
61 69 80
61 69 80
62 70 80
62 70 80
61 70 80
62 70 80
62 70 80
61 69 80
62 70 80
61 69 80
62 70 80
63 70 80
62 70 80
61 69 80
61 69 80
61 70 80
61 70 80
61 70 80
61 69 80
61 70 80
61 69 80
61 69 80
61 70 80
61 69 80
61 69 80
61 70 80
62 70 80
62 70 80
62 70 80
61 69 80
62 70 80
61 70 80
62 70 80
61 69 80
62 70 80
61 70 80
61 69 80
62 70 80
62 70 80
62 70 80
61 70 80
61 70 80
61 69 80
61 69 80
61 69 80
62 70 80
61 70 80
61 69 80
61 70 80
61 70 80
62 70 80
61 70 80
61 70 80
61 70 80
62 70 80
62 70 80
61 70 80
61 70 80
61 69 80
61 69 80
61 70 80
62 70 80
61 70 80
61 70 80
61 69 80
62 70 80
61 69 79
61 70 80
61 69 80
62 70 80
62 70 80
61 69 80
61 70 80
61 70 80
61 70 80
61 69 80
61 70 80
62 70 80
62 70 80
62 70 80
61 69 80
62 70 80
61 69 80
62 70 80
61 69 80
62 70 80
61 69 80
61 69 80
61 70 80
61 69 80
61 70 80
62 70 80
61 69 80
62 70 80
60 68 79
61 70 80
61 69 80
62 70 80
61 70 80
61 69 80
62 70 80
62 70 80
60 69 80
61 70 80
61 69 80
61 69 80
61 69 80
61 69 80
61 70 80
61 69 80
61 70 80
61 70 80
61 70 80
60 68 79
62 70 80
61 70 80
61 69 80
61 69 80
61 69 80
61 69 80
62 70 80
62 69 80
62 70 80
61 69 80
61 70 80
61 69 80
62 70 80
61 70 80
62 70 80
61 69 80
61 69 80
61 69 80
63 70 80
61 69 80
62 70 80
62 70 80
62 70 80
61 69 80
62 70 80
61 70 80
61 70 80
61 70 80
62 70 80
62 70 80
61 69 80
62 70 80
61 69 80
61 69 80
60 69 80
62 70 80
61 70 80
61 70 80
61 70 80
61 69 80
61 70 80
61 69 80
61 70 80
62 70 80
62 70 80
61 69 80
61 69 80
62 70 80
62 70 80
60 69 80
61 70 80
61 69 80
61 69 80
61 69 80
61 69 80
61 70 80
61 70 80
61 69 80
62 70 80
61 70 80
62 70 80
60 68 79
62 70 80
61 70 80
61 69 80
61 69 80
62 70 80
62 70 80
62 70 80
62 70 80
61 70 80
61 69 80
61 70 80
61 69 80
61 69 80
61 70 80
61 70 80
61 70 80
61 70 80
61 69 80
62 70 80
61 69 80
61 69 80
62 70 80
60 69 80
60 69 80
61 69 80
61 69 80
61 69 80
61 69 80
61 70 80
62 70 80
62 70 80
61 69 80
62 70 80
61 69 80
61 70 80
61 69 80
61 69 80
61 70 80
62 70 80
62 70 80
60 69 80
61 70 80
62 70 80
61 69 80
62 70 80
61 70 80
61 70 80
61 69 79
61 70 80
61 70 80
61 70 80
61 69 80
61 70 80
62 70 80
62 70 80
62 70 80
61 70 80
62 70 80
62 70 80
62 70 80
61 70 80
62 70 80
61 69 80
61 70 80
61 70 80
61 69 80
61 70 80
61 69 80
61 69 80
61 69 80
62 70 80
62 70 80
61 70 80
61 70 80
62 70 80
61 70 80
61 69 80
62 70 80
62 70 80
61 69 80
62 70 80
63 70 80
62 70 80
61 69 80
62 70 80
62 70 80
61 69 80
62 70 80
61 69 80
60 69 80
61 70 80
61 70 80
60 69 80
62 70 80
61 70 80
61 69 80
61 70 80
62 70 80
61 70 80
61 70 80
62 70 80
61 69 80
62 70 80
61 70 80
61 69 80
61 69 80
61 70 80
62 70 80
61 69 80
61 70 80
61 70 80
62 70 80
61 70 80
62 70 80
60 69 80
61 70 80
61 70 80
61 70 80
61 69 80
62 70 80
62 70 80
61 70 80
61 70 80
61 70 80
62 70 80
61 70 80
61 69 80
62 70 80
62 70 80
61 70 80
62 70 80
61 70 80
61 69 80
62 70 80
61 70 80
61 70 80
61 70 80
61 70 80
61 69 80
61 70 80
62 70 80
61 70 80
62 70 80
61 69 80
61 70 80
61 70 80
61 70 80
61 69 80
61 70 80
62 70 80
61 69 80
61 70 80
62 70 80
61 69 80
61 69 80
61 70 80
61 70 80
62 70 80
61 69 80
61 69 80
62 70 80
62 70 80
62 70 80
60 69 80
61 69 80
62 70 80
62 70 80
61 69 80
62 70 80
61 70 80
62 70 80
62 70 80
61 70 80
61 69 80
62 70 80
61 70 80
61 70 80
62 70 80
62 70 80
62 70 80
61 70 80
62 70 80
62 70 80
62 70 80
61 69 80
61 70 80
61 69 80
61 69 80
62 70 80
61 69 80
62 70 80
61 69 80
61 70 80
62 70 80
61 70 80
61 69 80
60 69 80
62 70 80
62 70 80
62 70 80
61 70 80
61 69 80
61 69 80
62 70 80
61 70 80
61 70 80
61 69 80
62 70 80
61 69 80
61 70 80
62 70 80
62 70 80
62 70 80
61 69 80
61 70 80
61 69 80
63 70 80
62 70 80
61 70 80
61 69 80
61 69 80
61 69 80
61 69 80
61 69 80
62 70 80
61 70 80
61 69 80
61 69 80
61 69 80
62 70 80
61 70 80
61 69 80
61 69 80
62 70 80
62 70 80
62 70 80
61 69 80
61 69 80
62 70 80
62 70 80
60 69 80
61 70 80
61 70 80
61 69 80
62 70 80
61 69 80
61 70 80
61 69 80
61 69 80
61 70 80
61 70 80
61 69 80
60 69 80
62 70 80
61 69 80
61 70 80
61 70 80
62 70 80
61 69 80
62 70 80
62 70 80
61 70 80
62 70 80
61 70 80
61 69 80
61 69 80
61 69 80
61 69 80
62 70 80
62 70 80
61 69 80
61 70 80
61 70 80
61 69 80
62 70 80
61 69 80
61 69 80
61 70 80
62 70 80
61 70 80
61 69 80
61 69 80
61 70 80
61 69 80
61 69 80
62 70 80
61 69 80
61 69 80
61 70 80
61 70 80
61 69 80
60 69 80
61 69 80
61 70 80
61 70 80
60 68 79
61 70 80
61 69 80
62 70 80
61 69 80
61 69 80
61 70 80
61 70 80
61 70 80
61 69 80
61 70 80
61 70 80
62 70 80
62 70 80
62 70 80
61 69 80
61 69 80
61 69 80
61 70 80
62 69 80
62 70 80
61 69 80
60 69 80
61 70 80
61 69 80
61 70 80
62 70 80
61 69 80
61 69 80
62 70 80
61 70 80
61 70 80
61 70 80
61 70 80
60 68 80
61 69 80
61 70 80
61 69 80
61 69 80
62 70 80
61 70 80
61 69 80
61 69 80
61 70 80
61 69 80
62 70 80
62 70 80
62 70 80
62 70 80
61 69 80
62 70 80
62 70 80
61 69 80
62 70 80
62 70 80
62 70 80
61 70 80
61 69 80
61 70 80
60 68 80
60 69 80
61 70 80
61 69 80
62 70 80
61 69 80
61 70 80
61 69 80
61 69 80
62 70 80
62 70 80
61 70 80
61 69 80
61 70 80
62 70 80
61 69 80
61 70 80
61 70 80
61 69 80
61 70 80
62 70 80
61 69 80
61 70 80
61 69 80
61 69 80
61 69 80
61 70 80
61 70 80
61 70 80
61 70 80
61 69 80
61 69 80
61 70 80
62 70 80
61 70 80
62 70 80
62 70 80
61 70 80
62 70 80
62 70 80
61 70 80
61 70 80
61 70 80
61 70 80
61 70 80
61 69 80
61 70 80
62 70 80
61 69 80
61 70 80
62 70 80
62 70 80
61 69 80
61 70 80
61 70 80
61 70 80
61 69 80
62 70 80
61 69 80
60 69 80
61 70 80
61 69 80
62 70 80
61 70 80
62 70 80
61 69 80
61 69 80
61 70 80
61 70 80
60 69 80
61 70 80
62 70 80
61 69 80
61 69 80
61 69 80
61 70 80
61 69 80
61 70 80
62 70 80
61 70 80
61 69 80
61 69 80
62 70 80
61 70 80
61 70 80
61 69 80
61 70 80
61 69 80
61 69 80
62 70 80
60 69 80
60 69 80
62 70 80
61 69 80
61 69 80
62 70 80
62 70 80
61 70 80
61 70 80
61 69 80
61 69 80
61 69 80
61 70 80
62 70 80
61 70 80
61 70 80
61 69 80
61 69 80
60 69 80
61 70 80
61 70 80
61 69 80
61 69 80
62 70 80
61 69 80
61 70 80
61 69 80
61 69 80
61 69 80
62 70 80
61 70 80
61 70 80
61 70 80
61 69 80
61 69 80
62 70 80
62 70 80
62 70 80
61 69 80
62 70 80
61 69 80
61 69 80
61 69 80
61 70 80
62 70 80
62 70 80
61 70 80
62 70 80
61 69 80
61 69 80
61 70 80
61 69 80
61 69 80
61 70 80
62 70 80
61 69 80
61 69 80
62 70 80
61 70 80
61 70 80
62 70 80
60 69 80
61 70 80
61 70 80
61 70 80
61 69 80
61 69 80
61 70 80
61 70 80
62 70 80
60 69 80
61 70 80
61 69 80
61 70 80
61 70 80
60 69 80
61 70 80
62 70 80
62 70 80
61 70 80
61 70 80
61 70 80
61 70 80
62 70 80
62 70 80
62 70 80
61 70 80
62 70 80
61 70 80
61 70 80
61 70 80
62 70 80
61 70 80
61 69 80
61 69 80
62 70 80
61 70 80
61 70 80
61 70 80
61 69 80
61 69 80
62 70 80
61 70 80
62 70 80
61 69 80
62 70 80
61 69 80
62 70 80
61 69 80
61 70 80
61 70 80
62 70 80
62 70 80
61 70 80
62 70 80
61 70 80
62 70 80
62 70 80
62 70 80
61 69 80
61 70 80
62 70 80
62 70 80
62 70 80
62 70 80
63 70 80
61 69 80
62 70 80
61 69 80
62 70 80
61 70 80
62 70 80
62 70 80
62 70 80
61 70 80
61 69 80
62 70 80
62 70 80
61 69 80
61 70 80
62 70 80
61 70 80
62 70 80
62 70 80
62 70 80
61 70 80
62 70 80
62 70 80
61 70 80
62 70 80
61 70 80
61 69 80
62 70 80
62 70 80
61 70 80
61 70 80
61 70 80
62 70 80
62 70 80
62 70 80
62 70 80
61 70 80
60 69 80
61 69 80
61 69 80
62 70 80
61 69 80
61 69 80
61 69 80
61 69 80
61 70 80
61 69 80
63 70 80
62 70 80
62 70 80
62 70 80
60 69 80
60 69 80
61 70 80
61 69 80
61 70 80
61 69 80
62 70 80
62 70 80
61 69 80
62 70 80
61 70 80
62 70 80
61 70 80
61 69 80
61 69 80
62 70 80
61 69 80
61 69 80
61 70 80
61 70 80
61 69 80
61 69 80
61 69 80
62 70 80
62 70 80
61 70 80
62 70 80
61 69 80
61 69 80
62 70 80
61 70 80
62 70 80
61 70 80
61 69 80
61 70 80
61 70 80
62 70 80
62 70 80
62 70 80
61 70 80
61 69 80
61 69 80
62 70 80
62 70 80
62 70 80
62 70 80
61 69 80
61 69 80
61 69 80
62 70 80
61 70 80
62 70 80
62 70 80
61 70 80
61 69 80
61 69 80
61 69 80
61 70 80
61 69 80
61 69 80
62 70 80
62 70 80
62 70 80
62 70 80
62 70 80
61 69 80
62 70 80
61 70 80
61 70 80
61 69 80
61 69 80
61 70 80
61 69 80
61 69 80
61 70 80
61 69 80
61 70 80
61 70 80
61 70 80
61 69 80
61 69 80
62 70 80
61 69 80
62 70 80
61 69 80
61 70 80
61 70 80
61 69 80
62 70 80
61 70 80
62 70 80
62 70 80
61 69 80
61 69 80
62 70 80
61 69 80
61 70 80
61 70 80
61 69 80
62 70 80
61 70 80
61 70 80
62 70 80
60 69 80
61 70 80
62 70 80
61 69 80
61 70 80
61 70 80
61 69 80
61 69 80
61 70 80
61 69 80
61 69 80
62 70 80
61 69 80
61 69 80
60 69 80
61 70 80
61 70 80
61 69 80
62 70 80
61 70 80
61 70 80
61 69 80
61 69 80
61 70 80
60 69 80
61 69 80
61 70 80
62 70 80
61 69 80
61 69 80
61 69 80
61 70 80
62 70 80
62 70 80
61 70 80
62 70 80
61 70 80
61 69 80
61 70 80
62 70 80
61 69 80
61 69 80
62 70 80
61 70 80
62 70 80
62 70 80
61 69 80
61 70 80
62 70 80
61 70 80
61 69 80
61 69 80
62 70 80
62 70 80
62 70 80
62 70 80
61 69 80
61 69 80
62 70 80
61 70 80
60 68 79
61 69 80
61 69 80
62 70 80
62 70 80
61 70 80
61 69 80
61 69 80
61 69 80
61 70 80
60 69 80
62 70 80
62 70 80
61 69 80
61 70 80
61 69 80
62 70 80
61 70 80
62 70 80
62 70 80
61 69 80
61 69 80
61 69 80
61 69 80
61 69 80
61 69 80
62 70 80
62 70 80
61 69 80
62 70 80
61 69 80
62 70 80
61 69 80
62 70 80
60 69 80
61 69 80
62 70 80
61 69 80
62 70 80
61 70 80
61 70 80
61 69 80
61 70 80
61 70 80
61 70 80
61 69 80
61 69 80
62 70 80
61 70 80
61 69 80
61 70 80
61 70 80
62 70 80
61 70 80
61 70 80
62 70 80
61 70 80
62 70 80
61 69 80
62 70 80
61 69 80
61 70 80
61 69 80
61 70 80
62 70 80
62 70 80
61 70 80
61 69 80
61 70 80
61 70 80
61 69 80
62 70 80
61 70 80
61 69 80
62 70 80
61 70 80
62 70 80
62 70 80
61 70 80
61 70 80
61 70 80
61 69 80
62 70 80
61 69 80
61 70 80
61 70 80
61 70 80
61 69 80
61 70 80
61 70 80
62 70 80
61 69 80
62 70 80
61 70 80
61 69 80
62 70 80
61 70 80
62 70 80
61 69 80
60 68 79
61 70 80
62 70 80
62 70 80
61 70 80
62 70 80
61 70 80
62 70 80
61 70 80
61 70 80
61 70 80
62 70 80
62 70 80
62 70 80
62 70 80
61 70 80
62 70 80
62 70 80
62 70 80
62 70 80
61 70 80
60 69 80
61 70 80
61 69 80
61 69 80
61 70 80
61 70 80
61 69 80
62 70 80
61 69 80
61 70 80
62 70 80
60 69 80
61 70 80
61 70 80
62 70 80
61 69 80
61 70 80
61 70 80
62 70 80
62 70 80
61 69 80
61 70 80
61 70 80
61 70 80
61 70 80
61 69 80
61 70 80
62 70 80
61 70 80
61 70 80
61 70 80
61 69 80
62 70 80
61 69 80
61 69 80
61 70 80
61 69 80
61 70 80
62 70 80
61 69 80
61 70 80
62 70 80
62 70 80
62 70 80
61 69 80
61 69 80
62 70 80
61 70 80
62 70 80
61 69 80
61 70 80
61 70 80
61 69 80
61 69 80
61 70 80
61 70 80
61 69 80
61 69 80
61 70 80
61 69 80
61 69 80
62 70 80
61 70 80
62 70 80
62 70 80
63 70 80
61 69 80
61 69 80
62 70 80
61 69 80
62 70 80
62 70 80
62 70 80
61 70 80
62 70 80
61 70 80
61 69 80
62 70 80
62 70 80
61 70 80
62 70 80
62 70 80
61 69 80
62 70 80
61 69 80
62 70 80
62 70 80
62 70 80
61 70 80
61 69 80
62 70 80
62 70 80
61 69 80
62 70 80
61 69 80
61 69 80
61 70 80
61 70 80
62 70 80
61 70 80
61 70 80
61 69 80
61 70 80
61 70 80
61 70 80
61 70 80
62 70 80
61 70 80
61 69 80
61 69 80
62 70 80
61 69 80
62 70 80
61 69 80
62 70 80
62 70 80
61 69 80
61 70 80
62 70 80
62 70 80
61 70 80
61 70 80
61 69 80
60 69 80
61 69 80
60 69 80
61 69 80
61 69 80
61 69 80
61 70 80
61 70 80
61 70 80
62 70 80
62 70 80
62 70 80
61 69 80
62 70 80
60 69 80
62 70 80
61 70 80
61 69 80
62 70 80
62 70 80
61 70 80
61 70 80
61 69 80
61 70 80
61 69 80
61 70 80
62 70 80
61 69 80
62 70 80
61 69 80
62 70 80
60 69 80
61 69 80
61 70 80
61 69 80
61 70 80
60 69 80
62 70 80
61 69 80
61 69 80
62 70 80
61 70 80
62 70 80
61 69 80
62 70 80
62 70 80
61 69 80
61 69 80
61 70 80
61 69 80
60 69 80
62 70 80
61 70 80
61 69 80
61 69 80
61 70 80
62 70 80
61 69 80
61 70 80
61 69 80
61 69 80
61 69 80
61 69 80
61 69 80
61 69 80
61 70 80
61 69 80
62 70 80
61 69 80
62 70 80
61 70 80
61 70 80
62 70 80
61 69 80
61 69 80
61 69 79
61 70 80
61 70 80
62 70 80
61 70 80
61 70 80
61 69 80
61 70 80
62 70 80
62 70 80
62 70 80
61 69 80
61 69 80
62 70 80
62 70 80
62 70 80
62 70 80
61 69 80
61 69 80
61 70 80
61 69 80
62 70 80
60 69 80
62 70 80
61 69 80
61 70 80
62 70 80
61 70 80
61 69 80
61 70 80
61 70 80
62 70 80
61 69 80
62 70 80
61 69 80
61 70 80
61 69 80
61 69 80
61 69 80
61 69 80
62 70 80
61 69 80
61 69 80
61 69 80
61 70 80
62 69 80
61 69 80
61 69 80
61 69 80
61 69 80
61 69 80
61 70 80
61 70 80
61 70 80
61 69 80
62 70 80
62 70 80
62 70 80
62 70 80
61 70 80
61 69 80
62 70 80
61 70 80
61 70 80
62 70 80
62 70 80
61 69 80
61 69 80
62 70 80
62 70 80
61 69 80
60 69 80
61 69 80
62 70 80
61 70 80
62 70 80
62 70 80
61 69 80
62 70 80
61 70 80
60 69 80
62 70 80
61 70 80
62 70 80
62 70 80
61 70 80
62 70 80
62 70 80
61 70 80
61 69 80
61 70 80
61 70 80
61 70 80
61 69 80
61 70 80
62 70 80
61 70 80
62 70 80
62 70 80
62 70 80
61 69 80
61 70 80
61 70 80
62 70 80
62 70 80
62 70 80
61 69 80
60 68 79
61 69 80
61 69 80
61 69 80
61 70 80
61 69 80
62 70 80
62 70 80
61 69 80
62 70 80
62 70 80
61 70 80
61 70 80
62 70 80
61 70 80
61 70 80
62 70 80
61 70 80
62 70 80
61 70 80
61 70 80
60 69 80
61 69 80
62 70 80
61 69 80
62 70 80
61 69 80
61 70 80
62 70 80
60 69 80
61 69 80
62 70 80
61 70 80
61 69 80
62 70 80
62 70 80
61 70 80
61 69 80
60 69 80
62 70 80
61 69 80
61 69 80
61 70 80
62 70 80
61 69 80
61 69 80
61 69 80
61 70 80
61 69 80
61 70 80
61 70 80
61 69 80
61 69 80
63 70 80
61 69 80
60 69 80
61 70 80
61 69 80
61 70 80
62 70 80
61 69 80
62 70 80
62 70 80
61 69 80
61 70 80
61 70 80
61 69 80
61 70 80
61 70 80
62 70 80
61 70 80
61 70 80
61 69 80
61 70 80
62 70 80
61 70 80
62 70 80
61 69 80
61 70 80
61 70 80
61 69 80
61 70 80
61 69 80
61 70 80
62 70 80
61 69 80
61 70 80
61 70 80
62 70 80
61 70 80
62 70 80
62 70 80
61 70 80
61 69 80
62 70 80
62 70 80
61 70 80
61 70 80
61 70 80
62 70 80
61 69 80
61 70 80
61 70 80
62 70 80
62 70 80
61 70 80
61 70 80
60 69 80
61 70 80
61 69 80
61 70 80
61 69 80
61 70 80
61 69 80
62 70 80
62 70 80
61 69 80
61 70 80
61 69 80
61 69 80
61 70 80
61 70 80
61 69 80
61 70 80
62 70 80
61 69 80
61 69 80
62 70 80
61 70 80
61 69 80
62 70 80
61 69 80
61 70 80
61 70 80
61 69 80
61 70 80
62 70 80
61 69 80
62 70 80
61 70 80
62 70 80
61 69 80
61 69 80
61 69 80
61 69 80
62 70 80
61 70 80
61 70 80
61 70 80
61 69 80
61 70 80
61 70 80
61 70 80
61 70 80
61 69 80
61 70 80
61 70 80
61 69 80
61 70 80
61 69 80
61 70 80
61 70 80
61 70 80
61 69 80
61 70 80
61 69 80
62 70 80
61 70 80
62 70 80
61 70 80
61 70 80
61 70 80
62 70 80
61 69 80
62 70 80
62 70 80
61 70 80
62 70 80
61 69 80
61 69 80
61 70 80
61 69 80
61 70 80
61 69 80
61 70 80
62 70 80
60 69 80
61 70 80
62 70 80
62 70 80
60 69 80
62 70 80
61 69 80
61 70 80
61 69 80
61 70 80
61 70 80
62 70 80
61 70 80
61 70 80
61 69 80
62 70 80
62 70 80
61 70 80
61 69 80
61 69 80
61 70 80
61 70 80
61 69 80
61 69 80
61 70 80
61 69 80
61 70 80
61 69 80
62 70 80
61 70 80
61 70 80
62 70 80
61 69 80
62 70 80
61 70 80
62 70 80
61 70 80
61 70 80
61 69 80
61 69 80
61 69 80
61 69 80
61 70 80
62 70 80
61 70 80
62 70 80
62 70 80
61 70 80
60 68 79
61 69 80
61 70 80
60 69 80
61 69 80
62 70 80
62 70 80
61 70 80
61 70 80
61 69 80
61 69 80
61 70 80
61 70 80
61 70 80
61 70 80
61 69 80
61 69 80
62 70 80
61 69 80
61 70 80
61 70 80
62 70 80
61 69 80
62 70 80
61 70 80
61 69 80
61 70 80
61 69 80
60 69 80
60 68 80
62 70 80
61 69 80
61 70 80
61 70 80
61 70 80
62 70 80
60 69 80
61 70 80
61 70 80
61 70 80
61 69 80
62 70 80
60 68 80
61 69 80
61 70 80
61 69 80
61 70 80
62 70 80
61 69 80
61 69 80
61 70 80
61 70 80
62 70 80
61 69 80
62 70 80
61 69 80
62 70 80
61 69 80
61 70 80
61 69 80
61 70 80
62 70 80
60 69 80
61 70 80
61 70 80
61 69 80
62 70 80
61 70 80
60 69 80
61 69 80
62 70 80
61 69 80
62 70 80
62 70 80
62 70 80
61 69 80
61 69 80
61 69 80
62 70 80
61 69 80
61 70 80
60 69 80
60 69 80
62 70 80
61 70 80
61 70 80
61 69 80
61 70 80
61 69 80
61 69 80
61 69 80
62 70 80
62 70 80
61 69 80
62 70 80
62 70 80
62 70 80
61 69 80
61 69 80
61 69 80
61 70 80
61 69 80
61 70 80
62 70 80
62 70 80
62 70 80
61 69 80
61 69 80
62 70 80
62 70 80
60 69 80
61 69 80
62 70 80
62 70 80
61 70 80
61 69 80
61 69 80
62 70 80
61 70 80
61 69 80
61 70 80
61 69 80
61 70 80
60 69 80
61 69 80
61 69 80
62 70 80
61 70 80
61 69 80
61 70 80
62 69 80
62 70 80
61 69 80
61 70 80
61 69 80
61 69 80
62 70 80
61 69 80
61 69 80
61 69 80
62 70 80
61 70 80
62 70 80
62 70 80
61 69 80
61 69 80
61 69 80
61 69 80
62 70 80
62 70 80
62 70 80
62 70 80
60 68 80
61 70 80
61 70 80
61 70 80
61 69 80
62 70 80
61 69 80
61 70 80
61 69 80
62 70 80
61 70 80
62 70 80
61 70 80
61 70 80
61 69 80
62 70 80
61 69 80
61 69 80
62 70 80
61 69 80
60 69 80
61 69 80
62 70 80
61 70 80
62 70 80
61 69 80
61 70 80
61 70 80
61 69 80
60 69 80
61 70 80
62 70 80
61 70 80
61 70 80
61 70 80
62 70 80
62 70 80
62 70 80
61 70 80
61 70 80
61 69 80
60 69 80
62 70 80
61 70 80
61 69 80
61 70 80
61 70 80
61 70 80
61 70 80
62 70 80
61 69 80
62 70 80
60 69 80
61 70 80
62 70 80
61 69 80
61 69 80
62 70 80
62 70 80
61 70 80
61 69 80
62 70 80
62 70 80
62 70 80
61 69 80
59 68 80
62 70 80
61 69 80
61 69 80
61 70 80
61 69 80
61 70 80
62 70 80
61 69 80
62 70 80
62 70 80
61 70 80
61 69 80
62 70 80
61 70 80
62 70 80
60 69 80
61 69 80
61 70 80
61 70 80
61 69 80
62 70 80
61 70 80
62 70 80
62 70 80
61 70 80
61 70 80
61 70 80
61 69 80
61 70 80
61 70 80
61 69 80
62 70 80
61 70 80
62 70 80
62 70 80
62 70 80
62 70 80
61 70 80
61 70 80
61 69 80
61 70 80
61 69 80
61 69 80
62 70 80
62 70 80
61 70 80
62 70 80
60 69 80
62 70 80
61 69 80
62 70 80
61 69 80
61 69 80
61 69 80
61 70 80
62 70 80
61 69 80
61 69 80
61 69 80
62 70 80
62 70 80
61 69 80
62 70 80
61 70 80
61 70 80
61 70 80
61 69 80
61 70 80
62 70 80
62 70 80
61 70 80
62 70 80
61 70 80
61 70 80
60 69 80
61 70 80
61 70 80
62 70 80
61 69 80
62 70 80
62 70 80
61 69 80
61 69 80
61 69 80
62 70 80
61 69 80
61 70 80
61 69 80
62 70 80
61 69 80
62 70 80
62 70 80
60 69 80
61 70 80
62 70 80
61 70 80
61 69 80
60 69 80
61 69 80
62 70 80
61 69 80
61 70 80
61 69 80
62 70 80
63 70 80
61 69 80
61 69 80
61 69 80
62 70 80
60 69 80
61 69 80
61 69 80
61 70 80
62 70 80
61 70 80
61 70 80
61 69 80
61 70 80
61 70 80
61 69 80
62 70 80
61 69 80
61 70 80
61 69 80
61 69 80
62 70 80
61 69 80
61 69 80
61 69 80
61 69 80
61 69 80
60 69 80
61 70 80
62 70 80
62 70 80
61 70 80
61 70 80
62 70 80
61 69 80
60 69 80
61 70 80
62 70 80
62 70 80
61 69 80
61 70 80
61 70 80
62 70 80
62 70 80
61 69 80
62 70 80
62 70 80
61 69 80
62 70 80
62 70 80
62 70 80
61 69 80
61 69 80
62 70 80
62 70 80
61 69 80
61 70 80
60 68 79
62 70 80
61 70 80
62 70 80
62 70 80
61 69 80
61 70 80
61 70 80
61 69 80
61 70 80
62 70 80
61 69 80
61 69 80
61 70 80
62 70 80
61 70 80
61 69 80
61 69 80
62 70 80
61 69 80
62 70 80
61 70 80
61 70 80
61 70 80
61 69 80
62 70 80
61 70 80
61 69 80
61 69 80
61 69 80
62 70 80
61 69 80
61 69 80
61 70 80
61 70 80
61 69 80
61 69 80
61 69 80
62 70 80
61 69 80
61 69 80
60 69 80
62 70 80
61 69 80
62 70 80
62 70 80
61 69 80
61 69 80
61 70 80
62 70 80
60 69 80
62 70 80
61 69 80
62 70 80
61 69 80
62 70 80
62 70 80
61 69 80
62 70 80
61 70 80
62 70 80
61 70 80
62 70 80
61 69 80
62 70 80
61 69 80
62 70 80
60 69 80
62 70 80
61 69 80
61 69 80
62 70 80
61 70 80
61 69 80
61 69 80
61 70 80
61 69 80
61 70 80
61 70 80
60 69 80
62 70 80
61 69 80
61 70 80
62 70 80
61 69 80
61 70 80
61 69 80
61 69 80
61 69 80
61 69 80
61 69 80
61 69 80
62 69 80
62 70 80
61 69 80
61 70 80
61 70 80
60 69 80
61 69 80
61 70 80
61 69 80
61 69 80
61 70 80
61 70 80
61 70 80
62 70 80
61 69 80
62 70 80
62 70 80
61 69 80
61 69 80
61 69 80
61 70 80
61 69 80
61 70 80
61 69 80
61 69 80
62 70 80
61 70 80
61 69 80
61 70 80
62 70 80
61 69 80
62 70 80
62 70 80
61 70 80
61 70 80
61 69 80
60 69 80
61 69 80
61 69 80
61 70 80
61 69 80
61 70 80
61 69 79
61 69 80
62 70 80
61 70 80
61 70 80
61 69 80
61 69 80
61 69 80
62 70 80
61 69 80
61 69 80
61 69 80
61 69 80
61 69 80
61 70 80
61 69 80
61 69 80
61 70 80
62 70 80
61 70 80
61 70 80
61 70 80
61 69 80
62 70 80
61 69 80
61 69 80
62 70 80
61 70 80
61 69 80
62 70 80
61 69 80
61 69 80
61 69 80
62 70 80
61 69 80
61 70 80
61 69 80
62 70 80
61 70 80
62 70 80
61 69 80
62 70 80
62 70 80
61 69 80
62 70 80
62 70 80
62 70 80
61 69 80
62 70 80
61 69 80
62 70 80
61 69 80
62 70 80
61 69 80
61 69 80
61 69 80
61 69 80
61 69 80
61 70 80
61 69 80
62 70 80
61 70 80
62 70 80
62 70 80
61 70 80
62 70 80
62 70 80
61 69 80
61 70 80
60 69 80
61 69 80
61 69 80
61 70 80
60 69 80
61 69 80
62 70 80
61 69 80
61 69 80
62 70 80
61 70 80
62 70 80
62 70 80
61 69 80
61 69 80
61 69 80
61 70 80
60 69 80
61 70 80
61 69 80
61 70 80
62 70 80
61 69 80
62 70 80
62 70 80
62 70 80
61 69 80
62 70 80
61 69 80
62 70 80
61 69 80
62 70 80
62 70 80
61 70 80
62 70 80
62 70 80
61 70 80
61 69 80
61 70 80
60 68 80
61 69 80
60 69 80
61 70 80
61 69 80
61 70 80
62 70 80
62 70 80
61 69 80
62 70 80
61 70 80
61 69 80
62 70 80
61 69 80
60 69 80
61 70 80
62 70 80
62 70 80
60 69 80
61 69 80
61 70 80
62 70 80
61 69 80
61 69 80
61 69 80
61 69 80
62 70 80
60 69 80
62 70 80
62 70 80
60 69 80
61 69 80
61 70 80
61 69 80
61 70 80
61 69 80
61 70 80
61 70 80
62 70 80
60 69 80
61 70 80
61 70 80
61 69 80
61 70 80
61 70 80
62 70 80
61 69 80
61 70 80
61 69 80
61 70 80
60 69 80
62 70 80
61 69 80
61 69 80
61 70 80
61 70 80
62 70 80
62 70 80
62 70 80
62 70 80
61 69 80
61 70 80
61 70 80
61 70 80
61 69 80
61 70 80
61 70 80
61 70 80
62 70 80
61 70 80
61 70 80
62 70 80
62 70 80
61 70 80
62 70 80
62 70 80
61 69 80
61 69 80
61 69 80
61 70 80
62 70 80
61 69 80
62 70 80
61 70 80
61 69 80
61 70 80
61 69 80
61 70 80
62 70 80
61 69 80
61 70 80
61 69 80
61 69 80
61 69 80
61 69 80
61 70 80
61 69 80
61 69 80
60 69 80
62 70 80
61 70 80
62 70 80
62 70 80
61 70 80
62 70 80
61 69 80
62 70 80
62 70 80
62 70 80
62 70 80
61 69 80
61 70 80
60 69 80
62 70 80
62 70 80
61 70 80
60 69 80
62 70 80
62 70 80
62 70 80
61 69 80
61 70 80
62 70 80
62 70 80
62 70 80
60 69 80
62 70 80
62 70 80
60 69 80
61 70 80
62 70 80
61 70 80
61 70 80
62 70 80
61 69 80
61 69 80
62 70 80
60 69 80
61 69 80
61 70 80
61 69 80
61 70 80
61 69 80
61 70 80
61 69 80
61 69 80
62 70 80
62 70 80
61 70 80
61 69 80
62 70 80
62 70 80
61 69 80
62 70 80
60 69 80
62 70 80
62 70 80
61 70 80
62 70 80
60 69 80
61 70 80
61 70 80
62 70 80
61 69 80
62 70 80
61 69 80
61 70 80
62 70 80
61 70 80
61 69 80
61 69 80
60 69 80
61 69 80
62 70 80
61 70 80
62 70 80
61 69 80
61 70 80
61 69 80
62 70 80
60 69 80
61 70 80
61 69 80
62 70 80
61 69 80
61 69 80
62 70 80
61 70 80
61 70 80
61 69 80
62 70 80
61 69 80
61 69 80
61 70 80
62 70 80
61 69 80
61 70 80
62 70 80
61 70 80
61 70 80
61 70 80
61 70 80
61 70 80
61 69 80
62 70 80
61 69 79
62 70 80
61 70 80
61 70 80
60 69 80
61 69 80
61 69 80
62 70 80
60 69 80
62 70 80
62 70 80
62 70 80
61 70 80
62 70 80
61 69 80
62 70 80
61 69 80
62 70 80
61 69 80
61 70 80
61 69 80
62 70 80
61 70 80
62 70 80
61 69 80
61 69 80
61 70 80
62 70 80
61 69 80
61 70 80
62 70 80
61 69 80
61 69 80
60 69 80
61 69 80
61 69 80
61 69 80
60 69 80
57 64 74
51 58 67
46 52 61
49 56 64
56 63 73
60 69 79
61 70 80
61 69 80
60 69 80
61 70 80
62 70 80
61 69 80
61 69 80
60 68 79
61 70 80
61 69 80
61 70 80
61 69 80
61 70 80
62 70 80
61 69 80
61 69 80
62 70 80
60 69 80
61 70 80
63 70 80
61 69 80
60 69 80
60 68 79
61 69 80
61 70 80
61 70 80
61 69 80
61 69 79
61 69 80
61 69 80
61 69 80
61 69 80
62 69 80
60 69 80
61 69 80
61 70 80
61 69 80
61 70 80
60 69 80
61 69 80
62 70 80
61 69 80
61 69 80
61 69 80
61 70 80
62 70 80
62 70 80
61 70 80
61 69 80
60 69 80
61 70 80
62 70 80
60 69 80
61 69 80
61 70 80
61 70 80
61 69 80
62 70 80
62 70 80
61 70 80
62 70 80
61 69 80
62 70 80
61 69 80
61 70 80
60 69 80
62 70 80
62 70 80
61 70 80
61 69 80
61 69 80
60 69 80
62 70 80
61 69 80
61 69 80
62 70 80
61 69 80
62 70 80
60 69 80
61 69 80
60 69 80
61 70 80
61 70 80
61 69 80
61 69 80
61 70 80
61 69 80
61 70 80
61 70 80
61 70 80
62 70 80
62 70 80
61 70 80
61 69 80
62 70 80
62 70 80
62 70 80
60 69 80
61 69 80
61 69 80
61 70 80
61 69 80
61 70 80
62 70 80
61 69 80
62 70 80
61 69 80
62 70 80
62 70 80
61 70 80
62 70 80
61 70 80
61 70 80
62 70 80
62 70 80
61 69 80
61 69 80
62 70 80
61 70 80
61 69 80
62 70 80
61 69 80
61 70 80
61 70 80
62 70 80
61 70 80
61 70 80
61 69 80
61 70 80
62 70 80
61 69 80
61 69 80
61 70 80
61 70 80
62 70 80
62 70 80
61 70 80
61 70 80
62 70 80
62 70 80
61 70 80
61 70 80
62 70 80
61 70 80
61 69 80
61 69 80
60 69 80
62 70 80
61 69 80
61 69 80
61 70 80
62 70 80
61 70 80
61 70 80
61 69 80
61 69 80
61 69 80
61 70 80
62 70 80
62 70 80
62 70 80
61 70 80
61 70 80
62 70 80
61 69 80
61 69 80
61 69 80
61 70 80
62 70 80
61 70 80
62 70 80
61 70 80
61 69 80
61 69 80
61 70 80
61 70 80
60 69 80
62 70 80
62 70 80
62 70 80
61 69 80
62 70 80
62 70 80
61 70 80
61 70 80
62 70 80
61 70 80
62 70 80
62 70 80
61 70 80
61 70 80
61 69 80
61 69 80
61 69 80
61 70 80
62 70 80
62 70 80
61 70 80
61 70 80
61 70 80
61 69 80
61 69 80
61 70 80
61 69 80
61 69 80
61 70 80
62 70 80
61 70 80
62 70 80
61 69 80
61 69 80
62 70 80
61 70 80
61 70 80
61 69 80
61 69 80
61 69 80
62 70 80
61 69 80
62 70 80
61 69 80
61 69 80
61 69 80
61 69 80
62 70 80
61 69 80
62 70 80
62 70 80
61 69 80
61 70 80
61 69 80
61 69 80
61 69 80
61 69 80
62 70 80
61 70 80
62 70 80
62 70 80
61 69 80
60 69 80
61 69 80
61 69 80
62 70 80
61 70 80
61 70 80
62 70 80
62 70 80
61 69 80
61 69 80
61 70 80
61 69 80
61 70 80
61 69 80
61 69 80
61 69 80
62 70 80
62 70 80
62 70 80
62 70 80
61 70 80
61 70 80
60 69 80
61 70 80
61 69 80
61 70 80
61 69 80
62 70 80
62 70 80
61 70 80
62 70 80
61 70 80
60 69 80
60 69 80
61 69 80
61 69 80
61 70 80
61 69 80
61 69 80
62 70 80
62 70 80
61 70 80
61 69 80
62 70 80
61 70 80
62 70 80
62 70 80
62 70 80
61 69 80
61 69 80
62 70 80
61 69 80
62 70 80
61 69 80
61 69 80
61 69 80
60 69 80
62 70 80
62 70 80
61 69 80
61 70 80
61 70 80
61 70 80
61 70 80
61 69 80
61 70 80
61 70 80
62 70 80
62 70 80
62 70 80
61 69 80
62 70 80
61 69 80
62 70 80
61 70 80
61 69 80
61 70 80
62 70 80
60 69 80
62 70 80
62 70 80
60 69 80
61 69 80
61 69 80
61 70 80
61 70 80
61 69 80
61 69 80
61 69 80
61 69 80
62 70 80
62 70 80
62 70 80
61 69 80
61 70 80
62 70 80
61 69 80
61 69 80
61 70 80
61 70 80
61 70 80
61 69 80
62 70 80
61 70 80
62 70 80
62 70 80
61 69 80
61 69 80
61 70 80
61 69 80
62 70 80
61 69 80
61 69 80
62 70 80
61 69 80
62 70 80
62 70 80
62 70 80
60 69 80
62 70 80
61 69 80
61 70 80
62 70 80
62 70 80
62 70 80
61 70 80
61 69 80
61 69 80
61 69 80
62 70 80
60 69 80
62 70 80
61 69 80
61 70 80
59 68 79
62 70 80
62 70 80
61 69 80
61 69 80
61 70 80
61 69 80
61 70 80
62 70 80
61 70 80
61 69 80
61 69 80
62 70 80
61 69 80
61 69 80
62 70 80
61 69 80
59 67 77
53 60 69
48 55 64
40 46 53
39 44 51
39 44 51
38 44 51
38 44 51
38 44 51
41 47 54
48 54 62
55 63 73
60 68 78
61 70 80
62 70 80
62 70 80
62 70 80
62 70 80
61 69 80
61 70 80
61 69 80
61 69 80
61 69 80
61 69 80
62 70 80
61 69 80
62 70 80
62 70 80
60 69 80
61 69 80
62 70 80
61 69 80
61 70 80
61 69 80
62 70 80
61 69 80
62 70 80
62 70 80
61 69 80
62 70 80
61 70 80
61 70 80
61 70 80
61 70 80
61 69 80
61 69 80
61 70 80
61 69 80
62 70 80
61 70 80
61 70 80
62 70 80
61 70 80
61 70 80
61 69 80
61 69 80
61 70 80
62 70 80
62 70 80
61 70 80
61 69 80
62 70 80
61 69 80
62 70 80
61 70 80
61 69 80
61 69 80
61 70 80
62 70 80
61 69 80
62 70 80
62 70 80
61 69 80
61 69 80
62 70 80
61 70 80
61 69 80
62 70 80
61 69 80
60 69 80
62 70 80
61 69 80
62 70 80
61 70 80
61 70 80
62 70 80
61 69 80
61 69 80
60 69 80
61 70 80
60 69 80
61 69 80
61 70 80
61 70 80
61 70 80
61 70 80
61 69 80
62 70 80
61 70 80
61 70 80
62 70 80
62 70 80
62 70 80
62 70 80
61 70 80
62 70 80
62 70 80
61 70 80
61 69 80
61 69 80
61 69 80
62 70 80
61 69 80
61 69 80
61 70 80
62 70 80
61 70 80
61 69 80
61 69 80
61 70 80
61 69 80
62 70 80
61 70 80
61 70 80
61 69 80
61 69 80
61 70 80
61 70 80
61 69 80
61 69 80
62 70 80
61 69 80
61 69 80
62 70 80
61 69 80
61 69 80
60 69 80
62 70 80
61 69 80
62 70 80
61 69 80
61 70 80
61 70 80
61 69 80
61 70 80
62 70 80
61 70 80
61 69 80
61 69 80
60 69 80
62 70 80
61 69 80
62 70 80
62 70 80
61 69 80
61 70 80
61 70 80
62 70 80
62 70 80
61 70 80
62 70 80
61 69 80
61 69 80
62 70 80
61 69 80
61 70 80
62 70 80
61 69 80
61 69 80
62 70 80
61 70 80
62 70 80
61 69 80
61 70 80
61 70 80
61 69 80
61 69 80
61 69 80
61 70 80
62 70 80
61 69 80
62 70 80
62 70 80
61 70 80
61 70 80
61 70 80
62 70 80
61 69 80
62 70 80
62 70 80
60 69 80
62 70 80
61 70 80
62 70 80
62 70 80
62 70 80
62 70 80
61 70 80
61 69 80
62 70 80
61 70 80
61 69 80
62 70 80
62 70 80
61 70 80
60 69 80
62 70 80
61 70 80
62 70 80
62 70 80
61 69 80
62 70 80
61 70 80
61 70 80
61 70 80
61 69 80
61 70 80
62 70 80
61 69 80
62 70 80
62 70 80
61 69 80
61 69 80
61 69 80
61 70 80
60 69 80
61 70 80
61 70 80
61 70 80
60 68 80
61 69 80
61 69 80
61 69 80
61 70 80
61 69 80
60 69 80
62 70 80
61 69 80
61 70 80
62 70 80
61 70 80
62 70 80
61 70 80
62 70 80
62 70 80
61 70 80
62 70 80
61 70 80
62 70 80
60 69 80
61 70 80
61 69 80
62 70 80
62 70 80
61 69 80
61 70 80
61 70 80
62 70 80
61 70 80
62 70 80
62 70 80
62 70 80
62 70 80
62 70 80
61 70 80
61 69 80
61 70 80
61 69 80
62 70 80
62 70 80
61 70 80
61 69 80
61 70 80
61 70 80
61 69 80
61 70 80
61 69 80
62 70 80
60 69 80
61 69 80
60 69 80
61 69 80
61 70 80
61 69 80
62 70 80
62 70 80
61 69 80
61 69 80
61 70 80
62 70 80
62 70 80
62 70 80
61 70 80
61 70 80
61 69 80
61 70 80
61 69 80
61 70 80
61 70 80
61 70 80
62 70 80
61 69 80
61 69 80
62 70 80
62 70 80
61 69 80
62 70 80
62 70 80
60 69 80
61 70 80
60 69 80
62 70 80
61 69 80
61 70 80
61 69 80
61 70 80
62 70 80
62 70 80
61 70 80
62 70 80
61 70 80
62 70 80
61 69 80
62 70 80
61 69 80
61 70 80
61 69 80
60 69 80
62 70 80
62 70 80
60 69 80
62 70 80
61 70 80
62 70 80
61 70 80
61 70 80
62 70 80
61 69 80
61 69 80
61 70 80
61 70 80
61 69 80
61 69 80
62 70 80
62 70 80
62 70 80
62 70 80
61 70 80
62 70 80
61 69 80
61 70 80
61 70 80
62 70 80
61 70 80
62 70 80
61 69 80
62 70 80
61 69 80
61 69 80
62 70 80
61 70 80
62 70 80
61 70 80
61 69 80
61 69 80
62 70 80
62 70 80
61 69 80
62 70 80
61 69 80
61 70 80
61 69 80
61 69 80
61 69 80
61 69 80
61 70 80
61 70 80
61 70 80
61 70 80
62 70 80
61 69 80
62 70 80
60 69 80
61 70 80
61 69 80
61 69 80
60 69 80
62 70 80
60 69 80
61 70 80
60 69 80
61 70 80
61 70 80
61 69 80
61 70 80
60 69 80
61 69 80
59 67 77
51 58 67
43 49 57
39 44 51
38 44 51
38 44 51
38 44 51
38 44 51
38 44 51
39 44 51
39 44 51
39 44 51
38 44 51
39 44 51
38 44 51
39 45 51
46 52 61
51 58 67
58 67 78
61 70 80
61 70 80
61 70 80
61 69 80
61 69 80
60 69 80
62 70 80
61 69 80
62 70 80
61 69 80
61 69 80
61 69 80
61 69 80
61 70 80
62 70 80
61 70 80
61 69 80
62 70 80
61 70 80
61 69 80
61 69 80
62 70 80
61 69 80
61 69 80
62 70 80
61 69 80
61 70 80
61 69 80
61 70 80
61 70 80
61 69 80
61 70 80
62 70 80
61 69 80
61 69 80
62 70 80
62 70 80
61 69 80
61 69 80
61 69 80
61 69 80
61 69 80
61 70 80
61 69 80
61 69 80
61 69 80
60 69 80
61 70 80
61 69 80
61 70 80
61 70 80
61 70 80
61 70 80
61 69 80
62 70 80
62 69 80
61 70 80
61 69 80
60 69 80
62 70 80
62 70 80
61 69 80
62 70 80
61 69 80
60 69 80
62 70 80
61 70 80
61 69 80
61 69 80
60 69 80
62 70 80
61 69 80
61 70 80
62 70 80
61 70 80
61 69 80
62 70 80
62 70 80
62 70 80
62 70 80
60 69 80
61 70 80
61 70 80
62 70 80
61 69 80
61 70 80
62 70 80
61 69 80
62 70 80
61 70 80
61 70 80
61 69 80
60 69 80
61 70 80
61 70 80
61 70 80
61 69 80
61 69 80
62 70 80
61 70 80
61 70 80
62 70 80
60 68 80
61 69 80
61 70 80
61 69 80
61 70 80
62 70 80
61 70 80
61 70 80
62 70 80
62 70 80
61 70 80
62 70 80
62 70 80
62 70 80
61 70 80
61 69 80
61 70 80
61 70 80
62 70 80
60 69 80
61 70 80
60 69 80
62 70 80
61 70 80
61 70 80
62 70 80
61 69 80
62 70 80
61 70 80
61 69 80
61 69 80
61 69 80
61 70 80
61 70 80
61 70 80
62 70 80
61 69 80
61 69 80
62 70 80
61 70 80
62 70 80
61 70 80
61 70 80
60 69 80
62 70 80
60 69 80
61 69 80
61 69 80
62 70 80
62 70 80
61 70 80
62 70 80
61 69 80
62 70 80
62 70 80
61 69 80
61 69 80
62 70 80
62 70 80
61 70 80
61 70 80
61 70 80
61 70 80
62 70 80
63 70 80
61 69 80
61 70 80
62 70 80
61 70 80
61 69 80
62 70 80
61 70 80
61 69 80
62 70 80
62 70 80
60 69 80
61 69 80
62 70 80
61 69 80
61 70 80
62 70 80
61 70 80
61 69 80
62 70 80
62 70 80
62 70 80
62 70 80
61 70 80
62 69 80
61 69 80
61 69 80
61 70 80
61 70 80
61 69 80
62 70 80
61 70 80
61 70 80
61 70 80
62 70 80
62 70 80
61 70 80
61 69 80
62 70 80
61 70 80
60 69 80
61 69 80
61 70 80
61 69 80
62 70 80
61 70 80
61 69 80
62 70 80
61 69 80
61 70 80
61 69 80
61 70 80
61 70 80
61 69 80
60 69 80
61 69 80
62 70 80
61 70 80
61 69 80
61 69 80
61 70 80
61 69 80
61 69 80
62 70 80
61 70 80
61 69 80
61 70 80
61 69 80
61 69 80
62 70 80
62 70 80
61 70 80
61 70 80
61 70 80
62 70 80
61 69 80
62 70 80
61 70 80
61 69 80
61 70 80
61 69 80
61 70 80
61 69 80
62 70 80
61 69 80
61 70 80
61 70 80
62 70 80
61 70 80
61 69 80
62 70 80
61 69 80
61 70 80
62 70 80
62 70 80
61 69 80
61 70 80
61 70 80
61 69 80
61 70 80
61 69 80
61 69 80
61 69 80
61 70 80
61 69 80
61 69 80
62 70 80
62 70 80
61 70 80
61 70 80
61 70 80
62 70 80
61 69 80
62 70 80
61 70 80
62 70 80
61 69 80
61 70 80
61 69 80
61 69 80
61 69 80
61 69 80
61 70 80
61 69 80
60 69 80
61 70 80
61 69 80
62 70 80
61 70 80
61 69 80
61 70 80
61 70 80
62 70 80
61 69 80
61 70 80
61 70 80
61 69 80
61 69 80
61 70 80
61 69 80
62 70 80
61 69 80
62 70 80
61 70 80
61 69 80
61 70 80
61 69 80
62 70 80
61 69 80
62 70 80
61 69 80
61 70 80
62 70 80
62 70 80
62 70 80
61 69 80
61 69 80
61 70 80
61 69 80
61 69 80
62 70 80
62 70 80
61 69 80
61 70 80
61 69 80
61 70 80
61 69 80
61 69 80
61 69 80
61 69 80
62 70 80
61 69 80
60 69 80
61 69 80
61 69 80
61 69 80
61 69 80
62 70 80
61 70 80
61 70 80
62 70 80
61 70 80
61 70 80
61 70 80
61 70 80
61 70 80
61 69 80
62 70 80
61 69 80
62 70 80
61 69 80
62 70 80
61 69 80
61 69 80
61 69 80
60 68 80
61 69 80
61 70 80
61 69 80
61 69 80
60 69 80
61 69 80
61 70 80
60 69 80
62 70 80
61 69 80
62 70 80
61 69 80
61 70 80
61 69 80
61 69 80
60 68 79
55 62 71
52 59 68
42 48 56
39 44 51
38 44 51
38 44 51
39 44 51
38 44 51
39 44 51
39 44 51
39 44 51
38 44 51
39 44 51
38 44 51
39 44 51
38 44 51
38 44 51
39 44 51
38 44 51
38 44 51
38 44 51
39 44 51
42 48 56
50 57 66
55 62 72
61 69 79
61 69 80
61 69 80
62 70 80
61 69 80
61 69 80
61 69 80
61 69 80
61 69 80
62 70 80
62 70 80
61 70 80
61 69 80
61 69 80
61 70 80
61 69 80
62 69 80
62 70 80
60 68 79
62 70 80
61 69 80
60 68 79
62 70 80
61 69 80
61 70 80
61 70 80
60 69 80
62 70 80
62 70 80
61 70 80
62 69 80
62 70 80
61 69 80
61 70 80
62 70 80
61 69 80
61 69 80
62 70 80
61 70 80
61 70 80
61 70 80
61 70 80
62 70 80
61 70 80
61 70 80
61 70 80
61 69 80
62 70 80
61 69 80
61 70 80
62 70 80
61 70 80
61 70 80
61 69 80
62 70 80
62 70 80
61 70 80
60 69 80
61 69 80
62 70 80
61 69 80
61 70 80
62 70 80
62 70 80
62 70 80
60 68 79
61 69 80
61 69 80
62 70 80
62 70 80
62 70 80
61 70 80
62 70 80
60 69 80
62 70 80
61 69 80
61 70 80
61 69 80
61 69 80
62 70 80
62 70 80
61 69 80
61 70 80
61 69 80
61 70 80
61 69 80
61 69 80
61 69 80
62 70 80
61 70 80
61 69 80
61 70 80
61 69 80
61 69 80
61 70 80
61 70 80
61 69 80
60 69 80
60 69 80
61 69 80
61 69 80
61 70 80
62 70 80
61 70 80
61 69 80
62 70 80
61 70 80
61 69 80
62 70 80
62 70 80
62 70 80
61 70 80
61 69 80
61 70 80
61 70 80
62 70 80
62 70 80
61 70 80
61 69 80
61 69 80
61 69 80
60 69 80
61 70 80
62 70 80
61 70 80
61 69 80
62 70 80
61 70 80
61 69 80
61 70 80
62 70 80
61 69 80
62 70 80
61 69 80
61 70 80
61 69 80
61 69 80
61 70 80
61 69 80
62 70 80
61 70 80
61 70 80
61 70 80
62 70 80
61 70 80
61 70 80
62 70 80
60 69 80
62 70 80
61 70 80
61 70 80
62 70 80
61 70 80
60 69 80
61 69 80
62 70 80
61 69 80
61 70 80
61 69 80
61 69 80
61 70 80
60 69 80
62 70 80
61 70 80
61 69 80
61 70 80
62 70 80
61 70 80
61 69 80
62 70 80
61 69 80
61 69 80
61 70 80
61 70 80
61 70 80
61 69 80
62 70 80
62 70 80
61 69 80
62 70 80
61 70 80
62 70 80
61 70 80
62 70 80
60 69 80
61 70 80
62 70 80
62 70 80
61 70 80
62 70 80
62 70 80
62 70 80
61 70 80
62 70 80
61 69 80
61 70 80
61 70 80
62 70 80
62 70 80
62 70 80
61 70 80
61 70 80
62 70 80
61 69 80
61 70 80
62 70 80
61 70 80
61 70 80
61 69 80
61 70 80
61 69 80
61 70 80
61 70 80
61 70 80
61 69 80
61 70 80
61 69 80
61 70 80
61 69 80
61 70 80
61 69 80
62 70 80
61 69 80
61 69 80
62 70 80
62 70 80
62 70 80
61 70 80
61 70 80
61 70 80
61 69 80
61 70 80
61 69 80
61 69 80
61 69 80
62 70 80
61 70 80
61 69 80
61 69 80
62 70 80
61 69 80
62 70 80
61 69 80
62 70 80
61 69 80
61 70 80
61 69 80
60 69 80
61 69 80
61 69 80
61 70 80
62 70 80
61 70 80
62 70 80
61 70 80
62 70 80
62 70 80
61 69 80
60 69 80
61 70 80
62 70 80
61 70 80
62 70 80
61 69 80
61 69 80
61 69 80
62 70 80
61 69 80
61 69 80
61 70 80
60 69 80
61 70 80
62 70 80
61 69 80
61 69 80
62 70 80
61 69 80
60 69 80
61 70 80
61 70 80
61 70 80
61 69 80
61 70 80
61 70 80
61 69 80
62 70 80
61 70 80
61 70 80
62 70 80
61 69 80
61 69 80
62 70 80
61 70 80
61 69 80
61 70 80
61 69 80
62 70 80
61 70 80
61 69 80
62 70 80
62 70 80
62 70 80
61 70 80
62 70 80
61 69 80
62 70 80
61 69 80
61 69 80
62 70 80
62 70 80
62 70 80
60 69 80
61 70 80
61 69 80
62 70 80
61 70 80
62 70 80
62 70 80
62 70 80
62 70 80
61 69 80
62 70 80
62 69 80
61 69 80
61 69 80
61 69 80
61 69 80
61 69 80
61 70 80
61 69 80
61 69 80
61 69 80
61 70 80
62 70 80
61 69 80
61 69 80
61 69 80
62 70 80
62 70 80
60 69 80
62 70 80
61 69 80
61 70 80
61 69 80
62 70 80
61 69 80
61 69 79
61 70 80
62 70 80
61 69 80
62 70 80
62 70 80
61 69 80
61 70 80
61 69 80
60 69 80
61 69 80
61 70 80
61 70 80
61 70 80
61 69 80
62 70 80
61 70 80
61 70 80
62 70 80
62 70 80
60 69 80
62 70 80
61 69 80
61 69 80
61 69 80
59 67 78
54 61 70
45 52 60
39 44 51
38 44 51
39 44 51
39 44 51
39 44 51
39 44 51
38 44 51
39 44 51
39 44 51
39 44 51
39 44 51
38 44 51
39 44 51
39 44 51
39 44 51
39 44 51
38 44 51
38 44 51
39 44 51
39 44 51
39 44 51
38 44 51
39 44 51
38 44 51
38 44 51
39 44 51
39 44 51
46 52 61
52 59 68
60 68 78
62 70 80
61 70 80
61 69 80
61 69 79
61 69 80
60 69 79
61 70 80
60 68 80
61 70 80
61 69 80
61 69 80
61 69 80
61 70 80
61 70 80
61 69 80
61 69 80
61 69 80
61 70 80
60 69 80
61 69 80
60 69 80
62 70 80
61 69 80
61 69 80
61 70 80
63 70 80
61 70 80
61 70 80
60 69 80
62 70 80
61 69 80
62 70 80
62 70 80
60 69 80
61 70 80
62 70 80
61 70 80
60 69 80
60 69 80
60 69 80
61 69 80
61 70 80
61 70 80
62 70 80
61 70 80
61 70 80
61 70 80
62 70 80
62 70 80
62 70 80
60 69 80
61 69 80
60 69 80
61 69 80
62 70 80
61 69 80
61 69 80
61 70 80
62 70 80
60 69 80
61 69 80
62 70 80
61 70 80
62 70 80
61 69 80
61 70 80
61 70 80
61 70 80
61 69 80
62 70 80
61 69 80
61 70 80
61 69 80
62 70 80
62 70 80
61 70 80
61 70 80
61 69 80
61 69 80
61 70 80
60 69 80
60 69 80
62 70 80
61 70 80
61 69 80
62 70 80
61 69 80
62 70 80
61 69 80
62 70 80
61 69 80
61 69 80
62 70 80
61 69 80
60 69 80
61 70 80
61 70 80
61 69 80
61 69 80
62 70 80
62 70 80
62 70 80
61 69 80
61 69 80
63 70 80
61 69 80
61 69 80
61 70 80
61 69 80
61 70 80
60 69 80
61 69 80
61 70 80
62 70 80
61 69 80
61 69 80
61 69 80
61 70 80
61 69 80
61 70 80
61 70 80
62 70 80
61 69 80
61 70 80
61 70 80
61 69 80
61 70 80
61 70 80
62 70 80
61 70 80
62 70 80
61 70 80
60 69 80
61 70 80
61 69 80
61 70 80
61 70 80
62 70 80
61 69 80
62 70 80
61 70 80
62 70 80
61 70 80
61 69 80
60 69 80
62 70 80
61 69 80
61 70 80
61 70 80
61 69 80
62 70 80
61 70 80
61 70 80
62 70 80
61 70 80
62 70 80
61 69 80
62 70 80
61 69 80
61 69 80
62 70 80
61 70 80
62 70 80
61 69 80
61 69 80
61 70 80
61 70 80
62 70 80
62 70 80
61 70 80
61 69 80
62 70 80
62 70 80
61 69 80
61 69 80
61 70 80
61 70 80
61 69 80
61 69 80
61 70 80
62 70 80
62 70 80
61 69 80
61 70 80
62 70 80
61 70 80
61 70 80
62 70 80
61 69 80
61 70 80
61 69 80
61 69 80
62 70 80
61 69 80
61 70 80
62 70 80
62 70 80
62 70 80
62 70 80
62 70 80
61 69 80
61 69 80
61 70 80
61 70 80
61 70 80
61 69 80
61 69 80
62 70 80
62 70 80
61 69 80
61 69 80
61 70 80
62 70 80
61 70 80
61 69 80
61 69 80
62 70 80
62 70 80
61 69 80
62 70 80
61 70 80
62 70 80
61 70 80
61 70 80
61 69 80
62 70 80
61 69 80
62 70 80
62 70 80
61 69 80
61 69 80
61 70 80
62 70 80
63 70 80
61 70 80
61 69 80
62 70 80
62 70 80
61 69 80
61 70 80
61 69 80
61 70 80
62 70 80
61 70 80
62 70 80
61 69 80
61 69 80
62 70 80
61 70 80
62 70 80
61 70 80
61 69 80
61 70 80
61 69 80
61 70 80
61 69 80
61 70 80
61 70 80
62 70 80
61 69 80
61 70 80
61 69 80
61 70 80
61 69 80
62 70 80
62 70 80
61 70 80
62 70 80
61 69 80
61 69 80
62 70 80
62 70 80
62 70 80
62 70 80
61 70 80
61 69 80
62 70 80
61 69 80
61 70 80
61 70 80
62 70 80
62 70 80
62 70 80
62 70 80
60 68 79
61 69 80
62 70 80
61 69 80
62 70 80
61 70 80
62 70 80
62 70 80
61 69 80
62 70 80
61 70 80
61 70 80
63 70 80
61 70 80
61 70 80
61 69 80
61 70 80
61 69 80
62 70 80
62 70 80
61 70 80
61 70 80
62 70 80
61 69 80
62 70 80
62 70 80
61 70 80
61 70 80
61 69 80
61 69 80
61 69 80
61 69 80
61 70 80
62 70 80
62 70 80
61 70 80
61 70 80
60 69 80
62 70 80
61 69 80
62 70 80
61 69 80
61 69 80
61 70 80
60 69 80
61 70 80
61 69 80
62 70 80
61 70 80
61 69 80
61 69 80
61 70 80
60 69 80
61 69 80
62 70 80
61 69 80
61 69 80
62 70 80
62 70 80
61 69 80
62 70 80
62 70 80
61 70 80
61 69 80
61 70 80
62 70 80
61 69 80
61 69 80
61 70 80
61 70 80
61 70 80
61 69 80
61 69 80
61 70 80
62 70 80
61 70 80
62 70 80
62 69 80
60 69 80
60 68 79
56 63 73
50 57 66
42 47 54
39 44 51
39 44 51
39 44 51
39 44 51
38 44 51
39 44 51
39 44 51
38 44 51
38 44 51
39 44 51
38 44 51
39 44 51
39 44 51
38 44 51
39 44 51
38 44 51
39 44 51
39 44 51
39 44 51
38 44 51
39 44 51
38 44 51
39 44 51
39 44 51
39 44 51
39 44 51
38 44 51
39 44 51
39 44 51
39 44 51
38 44 51
38 43 51
39 44 51
43 49 57
48 55 64
56 63 74
60 68 78
61 69 80
62 70 80
62 70 80
61 69 80
60 69 80
61 69 80
61 70 80
61 69 80
60 69 80
61 70 80
61 70 80
62 70 80
62 70 80
61 69 80
61 70 80
61 70 80
62 70 80
61 69 80
61 70 80
61 69 80
61 69 80
61 69 80
62 70 80
62 70 80
62 69 80
61 70 80
61 69 80
62 70 80
61 70 80
62 70 80
61 69 80
61 69 80
62 70 80
62 70 80
61 69 80
62 70 80
60 68 79
61 69 80
61 70 80
62 70 80
62 70 80
61 69 80
61 70 80
61 70 80
61 69 80
61 70 80
61 70 80
61 69 80
61 69 80
61 69 80
61 70 80
62 70 80
62 70 80
60 69 80
62 70 80
61 70 80
60 69 80
61 69 80
61 69 80
61 70 80
61 69 80
62 70 80
62 70 80
61 69 80
61 70 80
61 70 80
62 70 80
61 70 80
61 69 80
62 70 80
61 69 80
61 69 80
62 70 80
61 70 80
61 70 80
61 70 80
62 70 80
61 70 80
61 70 80
61 69 80
61 69 80
61 70 80
61 69 80
60 69 80
61 69 80
62 70 80
61 69 80
61 70 80
61 69 80
61 70 80
61 69 80
61 69 80
61 70 80
62 70 80
61 69 80
62 70 80
61 69 80
61 70 80
62 70 80
62 70 80
62 70 80
62 70 80
61 70 80
62 70 80
62 70 80
62 70 80
61 70 80
61 70 80
61 70 80
62 70 80
61 70 80
61 69 80
61 70 80
61 70 80
61 69 80
61 70 80
61 69 80
61 69 80
61 69 80
61 70 80
61 69 80
61 70 80
61 70 80
61 70 80
61 70 80
61 69 80
61 70 80
62 70 80
61 70 80
61 70 80
61 70 80
61 69 80
62 70 80
61 69 80
62 70 80
62 70 80
61 70 80
62 70 80
61 69 80
62 70 80
61 69 80
61 70 80
62 70 80
61 69 80
61 69 80
61 69 80
61 69 80
61 70 80
61 69 80
61 70 80
61 69 80
61 69 80
61 70 80
61 70 80
61 70 80
62 70 80
61 70 80
61 70 80
61 69 80
62 70 80
61 70 80
61 70 80
61 70 80
61 69 80
62 70 80
61 69 80
60 69 80
61 69 80
61 70 80
61 70 80
61 69 80
62 70 80
62 70 80
61 69 80
61 70 80
61 70 80
61 70 80
62 70 80
61 69 80
61 70 80
62 70 80
62 70 80
61 69 80
61 69 80
60 68 79
61 70 80
61 70 80
61 69 80
61 70 80
61 69 80
62 70 80
62 70 80
62 70 80
61 70 80
62 70 80
62 70 80
61 70 80
62 70 80
61 70 80
61 69 80
61 69 80
61 69 80
61 70 80
62 70 80
61 69 80
62 70 80
62 70 80
61 70 80
61 69 80
61 70 80
61 70 80
61 69 80
61 70 80
60 69 80
61 70 80
61 70 80
61 69 80
62 70 80
61 70 80
61 69 80
61 70 80
61 70 80
61 70 80
60 69 80
61 70 80
61 69 80
62 70 80
61 69 80
61 70 80
61 70 80
61 70 80
62 70 80
62 70 80
62 70 80
62 70 80
61 69 80
61 70 80
61 70 80
61 70 80
62 70 80
62 70 80
61 70 80
62 70 80
63 70 80
61 69 80
61 69 80
61 70 80
61 69 80
62 70 80
60 69 80
61 69 80
62 70 80
61 69 80
62 70 80
61 70 80
61 69 80
61 70 80
61 70 80
62 70 80
61 69 80
62 70 80
61 70 80
61 69 80
62 70 80
61 69 80
62 70 80
61 70 80
61 69 80
61 70 80
61 70 80
61 69 80
62 70 80
61 69 80
61 69 80
61 69 80
61 70 80
61 69 80
61 70 80
61 69 80
61 70 80
61 70 80
61 70 80
61 69 80
61 69 80
61 69 80
61 70 80
61 70 80
61 70 80
62 70 80
61 69 80
61 70 80
61 70 80
60 69 80
61 70 80
62 70 80
62 70 80
61 70 80
61 69 80
61 69 80
62 70 80
61 70 80
61 69 80
61 70 80
61 69 80
61 70 80
62 70 80
61 69 80
61 70 80
61 70 80
60 69 80
60 69 80
61 69 80
62 70 80
61 69 80
61 70 80
61 70 80
61 70 80
61 70 80
62 70 80
60 69 80
61 70 80
61 69 80
62 70 80
61 69 80
61 69 79
62 70 80
61 70 80
61 69 80
62 70 80
62 70 80
61 70 80
61 69 80
61 69 80
61 70 80
61 70 80
60 69 80
62 70 80
61 70 80
62 70 80
61 70 80
61 70 80
61 69 80
61 70 80
60 69 79
61 70 80
62 70 80
60 69 80
61 69 80
61 69 80
61 69 80
62 70 80
61 69 80
61 69 80
61 69 80
62 70 80
62 70 80
57 64 75
55 62 72
46 52 61
39 44 51
39 44 51
39 44 51
39 44 51
39 44 51
39 44 51
38 44 51
39 44 51
38 44 51
39 44 51
39 44 51
39 44 51
39 44 51
39 44 51
39 44 51
39 44 51
39 44 51
39 44 51
39 44 51
39 44 51
38 44 51
38 43 51
38 44 51
38 44 51
39 44 51
39 44 51
38 44 51
39 44 51
39 44 51
39 44 51
39 44 51
38 44 51
39 44 51
39 44 51
38 44 51
38 44 51
39 44 51
39 44 51
39 44 51
39 44 51
39 44 51
48 54 63
53 60 69
59 67 77
61 69 80
60 69 80
62 70 80
61 69 80
61 69 80
62 70 80
61 69 80
61 69 80
62 70 80
61 69 80
61 69 80
60 69 80
62 70 80
61 69 80
61 70 80
61 70 80
62 70 80
60 68 78
61 69 80
61 70 80
62 70 80
61 70 80
60 69 80
61 69 80
62 70 80
61 69 80
61 69 80
61 69 80
61 69 80
61 69 80
61 69 80
61 69 80
61 70 80
61 69 80
61 69 80
62 70 80
61 69 80
60 68 80
61 70 80
61 70 80
62 70 80
61 69 80
61 69 80
61 70 80
61 69 80
61 69 80
61 70 80
62 70 80
61 70 80
60 69 80
62 70 80
61 69 80
61 69 80
62 70 80
61 70 80
61 69 80
62 70 80
62 70 80
61 70 80
62 70 80
62 70 80
61 69 80
61 70 80
61 70 80
61 69 80
62 70 80
61 69 80
61 69 80
61 69 80
61 69 80
62 70 80
62 70 80
61 70 80
62 70 80
61 70 80
61 70 80
62 70 80
62 70 80
61 70 80
61 69 80
62 70 80
60 69 80
62 70 80
61 69 80
61 69 80
61 69 80
62 70 80
61 70 80
62 70 80
62 70 80
61 69 80
61 70 80
61 70 80
61 70 80
61 69 80
60 69 80
61 70 80
62 70 80
60 69 80
61 70 80
62 70 80
61 70 80
61 69 80
62 70 80
61 70 80
61 69 80
62 70 80
61 69 80
61 70 80
61 69 80
61 69 80
61 69 80
60 69 80
62 70 80
61 70 80
61 70 80
62 70 80
61 70 80
62 70 80
61 69 80
62 70 80
61 70 80
61 70 80
61 69 80
61 70 80
61 70 80
62 70 80
61 70 80
62 70 80
61 69 80
62 70 80
61 70 80
62 70 80
62 70 80
61 69 80
61 69 80
62 70 80
61 70 80
63 70 80
61 69 80
61 69 80
61 70 80
62 70 80
62 70 80
61 69 80
60 69 80
61 69 80
62 70 80
61 70 80
61 70 80
62 70 80
62 70 80
62 70 80
62 70 80
62 70 80
62 70 80
61 70 80
62 70 80
61 69 80
62 70 80
61 69 80
61 70 80
61 70 80
62 70 80
62 70 80
61 70 80
62 70 80
62 70 80
61 69 80
62 70 80
62 70 80
62 70 80
61 70 80
62 70 80
61 70 80
61 70 80
61 69 80
62 70 80
62 70 80
62 70 80
62 70 80
62 70 80
62 70 80
61 70 80
61 70 80
61 69 80
61 70 80
61 69 80
61 69 80
61 69 80
61 70 80
62 70 80
61 70 80
61 69 80
61 69 80
61 70 80
62 70 80
61 70 80
61 70 80
61 69 80
62 70 80
60 69 80
61 70 80
61 69 80
61 69 80
62 70 80
61 70 80
61 69 80
61 70 80
61 70 80
62 70 80
61 69 80
61 69 80
60 69 80
61 69 80
61 70 80
61 70 80
60 69 80
61 70 80
61 69 80
62 70 80
61 70 80
62 70 80
61 70 80
61 69 80
61 69 80
61 69 80
61 69 80
61 70 80
61 69 80
61 69 80
61 70 80
61 70 80
61 70 80
61 69 80
62 70 80
62 70 80
62 70 80
61 70 80
61 70 80
61 70 80
61 69 80
61 69 80
61 69 80
61 69 80
61 70 80
61 69 80
61 70 80
61 70 80
61 69 80
62 70 80
61 70 80
62 70 80
61 69 80
62 70 80
60 69 80
62 70 80
62 70 80
61 69 80
61 69 80
61 69 80
61 70 80
62 70 80
61 69 80
62 70 80
61 70 80
61 69 80
60 69 80
62 70 80
61 69 80
62 70 80
61 69 80
62 70 80
61 69 80
61 69 80
61 69 80
61 70 80
62 70 80
61 70 80
62 70 80
61 69 80
61 70 80
61 69 80
61 69 80
62 70 80
61 69 80
61 70 80
61 69 80
61 70 80
61 70 80
61 69 80
62 70 80
61 69 80
61 69 80
61 69 80
61 69 80
61 70 80
62 70 80
61 70 80
61 69 80
61 69 80
61 69 80
61 69 80
62 70 80
60 68 79
61 69 80
61 69 80
61 69 80
61 69 80
61 69 80
61 69 80
62 70 80
61 69 80
61 69 80
61 70 80
62 70 80
61 69 80
61 69 80
62 70 80
61 69 80
62 70 80
61 70 80
63 70 80
62 70 80
61 69 80
62 70 80
61 70 80
62 70 80
61 70 80
61 69 80
60 69 80
62 70 80
61 69 80
61 69 80
61 69 80
61 69 80
61 69 80
60 68 80
61 69 80
60 68 79
61 70 80
62 70 80
60 69 80
62 70 80
62 70 80
62 70 80
61 69 80
60 68 79
62 70 80
60 69 80
58 66 76
53 60 69
45 51 59
39 44 51
39 44 51
38 44 51
39 44 51
39 44 51
38 44 51
38 44 51
38 44 51
39 44 51
38 44 51
38 44 51
39 44 51
38 44 51
39 44 51
39 44 51
39 44 51
39 44 51
39 44 51
39 44 51
39 44 51
39 44 51
39 44 51
39 44 51
39 44 51
38 44 51
39 44 51
38 44 51
38 44 51
39 44 51
39 44 51
38 44 51
39 44 51
39 44 51
39 44 51
39 44 51
39 44 51
39 44 51
39 44 51
39 44 51
39 44 51
39 44 51
39 44 51
38 44 51
39 44 51
39 44 51
38 44 51
39 44 51
46 53 61
53 60 70
57 65 75
62 70 80
61 69 80
61 70 80
61 70 80
61 69 80
61 69 80
61 69 80
62 70 80
61 69 80
61 70 80
61 69 80
62 70 80
62 70 80
62 70 80
61 69 80
61 69 80
61 70 80
61 69 80
62 70 80
61 70 80
61 69 80
60 69 80
61 70 80
61 70 80
61 69 80
62 70 80
62 70 80
62 70 80
61 69 80
61 69 80
61 70 80
62 70 80
61 69 80
61 70 80
62 70 80
61 69 80
61 69 80
61 69 80
61 69 80
61 69 80
60 69 80
62 70 80
61 70 80
62 70 80
60 69 80
61 70 80
61 70 80
60 69 80
61 69 80
61 69 80
61 69 80
61 70 80
61 69 80
62 70 80
61 70 80
61 70 80
62 70 80
62 70 80
61 70 80
62 70 80
61 69 80
62 70 80
62 70 80
61 70 80
62 70 80
62 70 80
62 69 80
62 70 80
61 69 80
61 69 80
61 69 80
61 70 80
61 69 80
61 70 80
61 69 80
61 69 80
61 69 80
61 69 80
61 69 80
62 70 80
61 70 80
61 69 80
62 70 80
61 70 80
62 70 80
61 70 80
61 69 80
62 70 80
62 70 80
61 69 80
62 70 80
61 69 80
61 70 80
61 69 80
62 70 80
61 69 80
61 70 80
60 69 80
62 70 80
62 70 80
61 70 80
61 69 80
61 69 80
61 69 80
61 69 80
61 70 80
61 70 80
62 70 80
61 70 80
62 70 80
61 69 80
60 69 80
62 70 80
61 69 80
60 69 80
62 70 80
61 70 80
61 70 80
62 70 80
61 69 80
62 70 80
61 70 80
61 70 80
61 70 80
62 70 80
60 69 80
61 69 80
61 70 80
62 70 80
61 69 80
62 70 80
60 69 80
61 70 80
62 70 80
61 70 80
62 70 80
61 69 80
62 70 80
61 70 80
61 70 80
62 70 80
61 69 80
62 70 80
62 70 80
61 70 80
61 70 80
61 69 80
62 70 80
61 69 80
62 70 80
61 70 80
61 70 80
61 69 80
62 70 80
61 69 80
62 70 80
60 69 80
61 70 80
61 69 80
61 70 80
61 70 80
61 69 80
61 70 80
62 70 80
61 70 80
61 69 80
62 70 80
61 70 80
61 69 80
62 70 80
61 70 80
61 70 80
60 69 80
61 69 80
61 69 80
62 70 80
60 69 80
61 70 80
61 70 80
62 70 80
61 70 80
62 70 80
61 70 80
61 69 80
61 70 80
62 70 80
60 69 80
62 70 80
61 70 80
61 69 80
62 70 80
62 70 80
61 70 80
61 69 80
61 69 80
62 70 80
61 70 80
61 69 80
61 69 80
61 70 80
61 69 80
61 69 80
62 70 80
62 70 80
62 70 80
61 70 80
62 70 80
61 69 80
61 70 80
61 70 80
61 70 80
61 70 80
61 70 80
62 70 80
61 69 80
62 70 80
61 70 80
62 70 80
62 70 80
61 69 80
61 69 80
62 70 80
61 70 80
62 70 80
61 70 80
61 70 80
61 69 80
61 69 80
61 70 80
62 70 80
61 69 80
61 69 80
62 70 80
61 69 80
61 69 80
61 69 80
62 70 80
61 69 80
62 70 80
61 69 80
62 70 80
61 69 80
61 70 80
61 70 80
61 69 80
61 70 80
61 69 80
62 70 80
61 69 80
62 70 80
62 70 80
61 69 80
62 70 80
61 70 80
61 69 80
61 70 80
61 70 80
61 70 80
62 70 80
61 69 80
62 70 80
63 70 80
62 70 80
61 69 80
61 69 80
61 69 80
61 69 80
61 69 80
62 70 80
61 69 80
61 70 80
62 70 80
62 70 80
62 70 80
62 70 80
62 70 80
61 70 80
60 69 80
62 70 80
61 69 80
62 70 80
61 69 80
61 69 80
61 70 80
61 69 80
62 70 80
61 69 80
61 69 80
62 70 80
60 69 80
62 70 80
61 69 80
61 69 80
60 69 80
61 69 80
62 70 80
61 70 80
62 70 80
61 69 80
61 69 80
62 70 80
61 69 80
61 69 80
61 69 80
61 70 80
61 69 80
61 69 80
61 69 80
62 70 80
61 69 80
61 70 80
62 70 80
61 69 80
62 70 80
61 69 80
61 69 80
61 69 80
61 69 80
61 69 80
61 70 80
61 69 80
60 69 80
61 69 80
61 70 80
62 70 80
61 69 80
62 70 80
62 70 80
61 70 80
62 70 80
61 69 80
61 69 80
61 70 80
62 70 80
62 70 80
61 70 80
60 69 80
61 69 80
61 69 80
61 69 80
61 69 80
62 70 80
61 69 80
61 69 80
55 63 73
47 54 62
42 47 54
39 44 51
39 44 51
38 44 51
39 44 51
39 44 51
39 44 51
39 44 51
39 44 51
38 44 51
39 44 51
38 44 51
38 44 51
39 44 51
39 44 51
39 44 51
39 44 51
38 44 51
38 44 51
39 44 51
38 44 51
38 44 51
39 44 51
39 44 51
39 44 51
39 44 51
39 44 51
39 44 51
38 44 51
39 44 51
38 44 51
39 44 51
38 44 51
39 44 51
39 44 51
39 44 51
38 44 51
39 44 51
38 44 51
39 44 51
38 44 51
39 44 51
39 44 51
38 44 51
38 44 51
39 44 51
38 44 51
39 44 51
39 44 51
39 44 51
38 44 51
39 44 51
38 43 51
39 44 51
43 49 56
52 59 68
54 61 71
60 68 78
61 69 80
61 69 80
62 70 80
60 69 80
61 69 80
61 69 80
61 70 80
61 69 80
61 69 80
62 70 80
61 70 80
61 69 80
61 69 80
61 70 80
62 70 80
62 70 80
61 69 80
61 69 79
61 69 80
61 69 80
62 70 80
61 70 80
61 70 80
61 69 80
62 70 80
61 70 80
62 70 80
62 70 80
61 70 80
61 70 80
61 70 80
61 69 80
62 70 80
61 69 80
61 69 80
60 69 80
61 69 79
61 70 80
61 69 80
61 69 80
61 69 80
61 70 80
62 70 80
62 70 80
61 70 80
62 70 80
61 69 80
61 69 80
62 70 80
60 68 79
61 69 80
62 70 80
61 69 80
61 69 80
61 69 80
61 70 80
61 69 80
61 69 80
60 69 80
62 70 80
61 69 80
61 70 80
61 69 80
61 69 80
61 70 80
61 69 80
61 70 80
62 70 80
61 70 80
61 69 80
62 70 80
61 69 80
62 70 80
62 70 80
61 69 80
62 70 80
61 69 80
60 69 80
60 69 80
61 70 80
61 69 80
62 70 80
60 69 80
61 70 80
61 70 80
61 69 80
61 70 80
62 70 80
61 69 80
62 70 80
61 70 80
61 69 80
61 69 80
62 70 80
61 70 80
62 70 80
61 69 80
62 70 80
61 69 80
61 70 80
61 69 80
62 70 80
60 69 80
61 69 80
61 69 80
62 70 80
61 70 80
61 69 80
62 70 80
61 69 80
61 70 80
61 69 80
61 70 80
62 70 80
61 70 80
61 69 80
61 69 80
61 70 80
61 70 80
62 70 80
61 69 80
61 70 80
61 70 80
61 69 80
62 70 80
62 70 80
61 70 80
61 70 80
61 70 80
61 69 80
61 69 80
60 69 80
61 70 80
61 70 80
62 70 80
61 70 80
62 70 80
61 69 80
61 69 80
61 70 80
61 70 80
61 69 80
61 69 80
62 70 80
61 69 80
62 70 80
62 70 80
61 69 80
61 70 80
61 69 80
60 69 80
62 70 80
61 69 80
62 70 80
62 70 80
61 69 80
61 69 80
61 70 80
61 69 80
61 69 80
61 70 80
61 70 80
61 69 80
61 69 80
61 70 80
61 70 80
61 69 80
62 70 80
61 69 80
61 70 80
61 70 80
62 70 80
61 70 80
61 70 80
61 70 80
62 70 80
61 70 80
61 69 80
61 69 80
61 69 80
61 69 80
61 70 80
62 70 80
62 70 80
61 70 80
61 70 80
61 70 80
61 70 80
62 70 80
61 70 80
61 70 80
62 70 80
61 69 80
61 69 80
62 70 80
61 70 80
62 70 80
62 70 80
61 70 80
61 69 80
61 69 80
62 70 80
60 69 80
61 69 80
61 70 80
62 70 80
61 69 80
62 70 80
62 70 80
62 70 80
61 69 80
62 70 80
60 69 80
62 70 80
61 69 80
61 69 80
62 70 80
62 70 80
61 69 80
61 69 80
61 70 80
62 70 80
62 70 80
61 70 80
63 70 80
61 69 80
61 70 80
62 70 80
62 70 80
62 70 80
60 69 80
61 69 80
61 70 80
61 70 80
61 69 80
61 70 80
61 70 80
62 70 80
62 70 80
61 69 80
61 69 80
61 70 80
61 69 80
61 69 80
61 69 80
62 70 80
62 70 80
62 70 80
61 69 80
61 69 80
61 70 80
61 69 80
61 69 80
62 70 80
61 69 80
61 69 80
62 70 80
61 69 80
62 70 80
61 69 80
61 69 80
61 69 80
62 70 80
61 70 80
61 69 80
62 70 80
60 69 80
61 69 80
61 69 80
62 70 80
61 70 80
62 70 80
62 70 80
62 70 80
61 69 80
61 69 80
61 70 80
61 69 80
61 70 80
61 69 80
61 70 80
61 69 80
61 70 80
61 69 80
61 70 80
61 69 80
61 69 80
62 70 80
61 70 80
62 70 80
61 69 80
61 70 80
61 69 80
61 69 80
62 70 80
62 70 80
62 70 80
61 69 80
60 69 80
61 69 80
61 69 80
61 69 80
60 69 80
61 69 80
61 70 80
62 70 80
60 69 80
61 69 80
61 69 80
61 70 80
60 69 80
61 69 80
61 70 80
62 70 80
62 70 80
62 70 80
62 70 80
61 69 80
61 69 80
62 69 80
61 69 80
61 70 80
61 70 80
61 70 80
62 70 80
61 69 80
62 70 80
61 69 80
62 70 80
61 69 80
62 70 80
61 69 80
61 69 80
60 69 80
61 70 80
61 70 80
59 67 77
51 58 67
46 52 61
39 44 51
39 44 51
38 44 51
39 44 51
39 44 51
39 44 51
38 44 51
38 44 51
39 44 51
39 44 51
39 44 51
39 44 51
38 44 51
39 44 51
38 44 51
38 44 51
38 44 51
39 44 51
39 44 51
39 44 51
38 44 51
39 44 51
39 44 51
39 44 51
38 44 51
39 44 51
38 44 51
39 44 51
39 44 51
39 44 51
39 44 51
39 44 51
38 44 51
39 44 51
39 44 51
39 44 51
39 44 51
39 44 51
38 44 51
39 44 51
38 44 51
38 44 51
39 44 51
39 44 51
38 44 51
38 44 51
39 44 51
39 44 51
39 44 51
38 44 51
38 44 51
39 44 51
39 44 51
39 44 51
39 44 51
39 44 51
39 44 51
39 44 51
39 44 51
38 44 51
39 44 51
47 54 62
52 59 68
59 67 77
61 69 80
61 69 80
61 69 80
60 69 80
61 69 80
61 70 80
62 70 80
60 69 80
62 70 80
61 69 80
62 70 80
62 70 80
61 69 80
61 69 80
60 69 80
61 69 80
62 70 80
60 69 80
62 70 80
61 70 80
62 70 80
61 70 80
61 69 80
62 70 80
61 69 80
60 69 80
62 70 80
60 69 80
61 69 80
61 70 80
62 70 80
62 70 80
62 70 80
62 70 80
60 69 80
61 69 80
60 69 80
61 69 80
61 69 80
61 70 80
61 69 80
62 70 80
62 70 80
62 69 80
61 69 80
62 70 80
61 70 80
61 69 80
60 68 79
62 70 80
61 69 80
61 70 80
62 70 80
61 69 79
61 69 80
61 70 80
62 70 80
60 69 80
61 69 80
62 70 80
61 69 80
62 70 80
62 70 80
62 70 80
61 69 80
61 69 80
61 69 80
60 69 80
61 70 80
61 69 80
61 70 80
61 69 80
61 69 80
61 69 80
62 70 80
61 69 80
61 69 80
59 68 80
61 69 80
62 70 80
60 69 80
61 70 80
61 70 80
62 70 80
62 70 80
62 70 80
61 70 80
61 70 80
61 69 80
61 70 80
61 70 80
61 69 80
61 70 80
61 69 80
61 70 80
61 69 80
61 69 80
62 70 80
60 69 80
61 70 80
61 70 80
61 69 80
62 70 80
60 69 80
61 70 80
61 69 80
62 70 80
62 70 80
62 70 80
62 70 80
61 69 80
61 70 80
61 69 80
61 70 80
61 69 80
61 70 80
61 69 80
62 70 80
61 70 80
62 70 80
61 69 80
62 70 80
62 70 80
61 69 80
62 70 80
61 69 80
62 70 80
61 70 80
61 69 80
61 70 80
61 70 80
61 70 80
62 70 80
62 70 80
60 69 80
61 69 80
62 70 80
62 70 80
60 69 80
61 69 80
61 70 80
61 69 80
61 70 80
61 70 80
61 69 80
61 70 80
61 70 80
61 70 80
60 69 80
61 70 80
61 70 80
61 69 80
61 69 80
61 70 80
61 69 80
61 69 80
61 70 80
61 70 80
62 70 80
61 70 80
61 69 80
61 70 80
61 70 80
61 69 80
61 70 80
61 70 80
62 70 80
62 70 80
62 70 80
62 70 80
62 70 80
62 70 80
61 70 80
61 69 80
61 70 80
60 69 80
62 70 80
62 70 80
62 70 80
61 69 80
60 69 80
62 70 80
61 69 80
62 70 80
62 70 80
62 70 80
61 70 80
61 69 80
62 70 80
61 69 80
61 69 80
62 70 80
61 70 80
61 70 80
62 70 80
61 69 80
61 69 80
61 69 80
61 69 80
62 70 80
61 69 80
61 69 80
62 70 80
61 69 80
61 70 80
62 70 80
62 70 80
62 70 80
62 70 80
62 70 80
61 70 80
62 70 80
61 70 80
61 70 80
62 70 80
62 70 80
61 70 80
60 69 80
61 69 80
61 69 80
62 70 80
62 70 80
61 69 80
62 70 80
62 70 80
61 69 80
62 70 80
61 69 80
62 70 80
61 69 80
61 69 80
63 70 80
61 69 80
61 70 80
62 70 80
61 69 80
61 69 80
61 70 80
62 70 80
61 69 80
61 70 80
62 70 80
61 70 80
61 69 80
62 70 80
61 69 80
61 69 80
61 70 80
61 69 80
60 69 80
62 70 80
62 70 80
62 70 80
61 69 80
61 70 80
60 69 80
61 70 80
62 70 80
62 70 80
61 70 80
62 70 80
61 69 80
60 69 80
63 70 80
62 70 80
61 70 80
61 69 80
62 70 80
61 69 80
61 69 80
61 70 80
61 69 80
62 70 80
62 70 80
61 69 80
61 69 80
61 70 80
60 69 80
62 70 80
61 69 80
62 70 80
61 69 80
62 70 80
61 70 80
61 70 80
61 70 80
62 70 80
62 70 80
61 69 80
60 68 79
61 69 80
61 70 80
60 69 80
61 69 80
61 69 80
61 69 80
61 69 80
61 69 80
61 70 80
61 69 80
60 69 80
61 69 80
61 70 80
60 69 80
60 68 79
62 70 80
61 69 80
62 69 80
61 70 80
61 70 80
60 69 80
62 70 80
60 69 80
61 70 80
61 69 80
61 69 80
61 69 80
61 70 80
61 69 80
61 70 80
61 70 80
61 69 79
61 69 80
61 69 80
61 69 80
61 70 80
61 69 80
61 69 80
61 69 80
62 70 79
54 61 70
50 56 65
42 48 56
38 44 51
39 44 51
39 44 51
39 44 51
39 44 51
38 44 51
38 44 51
39 44 51
39 44 51
38 44 51
39 44 51
38 44 51
38 44 51
39 44 51
39 44 51
38 44 51
38 44 51
39 44 51
39 44 51
39 44 51
38 44 51
39 44 51
39 44 51
39 44 51
39 44 51
38 44 51
39 44 51
39 44 51
38 44 51
39 44 51
38 44 51
39 44 51
39 44 51
39 44 51
38 43 51
39 44 51
39 44 51
38 44 51
39 44 51
39 44 51
38 43 51
39 44 51
38 44 51
39 44 51
38 44 51
39 44 51
38 44 51
39 44 51
39 44 51
39 44 51
39 44 51
39 44 51
38 44 51
39 44 51
39 44 51
39 44 51
39 44 51
38 44 51
38 44 51
39 44 51
39 44 51
39 44 51
39 44 51
39 44 51
38 44 51
39 44 51
38 44 51
40 46 53
46 52 61
55 63 72
59 67 78
62 70 80
62 70 80
61 69 80
61 69 80
61 69 80
61 69 80
61 69 80
60 68 78
61 69 80
62 70 80
61 70 80
61 69 80
61 69 80
61 70 80
62 70 80
61 69 80
61 69 80
61 70 80
61 69 80
61 69 80
62 70 80
62 70 80
61 70 80
62 70 80
61 70 80
61 69 80
60 68 79
61 69 80
61 69 80
61 70 80
62 70 80
62 70 80
61 69 80
62 70 80
62 70 80
61 69 80
60 69 80
62 70 80
62 70 80
60 69 80
61 69 80
62 70 80
62 70 80
61 69 80
60 69 80
61 70 80
62 70 80
60 69 80
62 70 80
61 69 80
61 70 80
61 70 80
62 70 80
62 70 80
61 69 80
62 70 80
62 70 80
61 70 80
62 70 80
61 69 80
61 69 80
61 69 80
61 70 80
61 69 80
61 70 80
61 70 80
61 69 80
60 69 80
62 70 80
61 70 80
61 69 80
62 70 80
61 70 80
61 69 80
61 69 80
62 70 80
61 70 80
61 69 80
62 70 80
61 69 80
61 69 79
62 70 80
61 69 80
61 69 80
62 70 80
61 69 80
61 69 80
61 70 80
61 69 80
61 70 80
61 70 80
61 70 80
61 70 80
62 70 80
61 69 80
61 69 80
62 70 80
61 69 80
61 69 80
61 70 80
62 70 80
61 70 80
61 70 80
61 70 80
61 70 80
61 70 80
61 70 80
62 70 80
61 69 80
61 70 80
61 69 80
60 69 80
62 70 80
62 70 80
62 70 80
61 69 80
61 69 80
62 70 80
61 69 80
60 69 80
61 69 80
61 69 80
62 70 80
61 69 80
62 70 80
62 70 80
61 69 80
61 69 80
61 69 80
61 69 80
62 70 80
61 69 80
61 69 80
62 70 80
61 70 80
62 70 80
61 69 80
61 70 80
61 70 80
61 69 80
61 69 80
62 70 80
62 70 80
60 69 80
61 69 80
61 70 80
60 69 80
61 70 80
61 70 80
61 69 80
62 70 80
61 69 80
61 69 80
61 69 80
62 70 80
61 69 80
61 69 80
61 69 80
61 70 80
62 70 80
61 70 80
61 69 80
62 70 80
62 70 80
61 69 80
62 70 80
61 69 80
62 70 80
61 70 80
61 69 80
61 70 80
61 70 80
62 70 80
62 70 80
61 69 80
61 69 80
61 69 80
62 70 80
61 70 80
62 70 80
61 69 80
62 70 80
62 70 80
61 69 80
62 70 80
61 69 80
61 70 80
61 70 80
61 69 80
62 70 80
61 70 80
62 70 80
62 70 80
61 70 80
61 69 80
61 70 80
61 69 80
61 69 80
61 70 80
62 70 80
61 69 80
61 69 80
61 69 80
62 70 80
61 69 80
61 70 80
61 69 80
61 70 80
62 70 80
62 70 80
61 70 80
61 69 80
61 69 80
61 70 80
60 69 80
61 70 80
61 69 80
62 70 80
61 70 80
62 70 80
61 69 80
61 69 80
61 70 80
61 70 80
61 69 80
60 69 80
62 70 80
61 69 80
62 70 80
62 70 80
62 70 80
61 70 80
61 70 80
62 70 80
60 69 80
61 69 80
61 70 80
62 70 80
61 70 80
61 69 80
61 69 80
63 70 80
61 69 80
61 69 80
61 69 80
61 70 80
61 69 80
61 70 80
61 70 80
62 70 80
62 70 80
61 69 80
62 70 80
60 69 80
61 69 80
62 70 80
62 70 80
61 70 80
62 70 80
61 70 80
60 69 80
61 69 80
61 70 80
61 70 80
61 69 80
61 70 80
61 69 80
62 70 80
61 69 80
61 70 80
61 69 80
60 69 80
61 69 80
61 69 80
61 70 80
61 69 80
61 69 80
61 69 80
62 70 80
62 70 80
62 70 80
60 69 80
61 70 80
60 69 80
61 70 80
61 69 79
62 70 80
61 69 80
61 70 80
61 70 80
61 70 80
61 70 80
61 69 80
61 69 80
61 69 80
61 69 80
62 69 80
61 69 80
60 69 80
61 70 80
61 69 80
61 69 80
61 69 80
61 69 80
61 69 80
61 69 80
61 69 80
60 69 80
61 70 80
61 69 80
61 70 80
61 70 80
60 68 79
62 70 80
61 70 80
62 70 80
61 69 80
61 69 80
61 70 80
62 70 80
61 70 80
61 69 80
60 68 78
54 61 70
47 54 62
40 46 54
39 44 51
38 44 51
39 44 51
39 44 51
38 44 51
39 44 51
39 44 51
38 44 51
39 44 51
39 44 51
39 44 51
39 44 51
39 44 51
39 44 51
39 44 51
39 44 51
39 44 51
39 44 51
39 44 51
38 43 51
38 44 51
39 44 51
38 44 51
39 44 51
39 44 51
39 44 51
38 44 51
39 44 51
39 44 51
38 44 51
39 44 51
38 44 51
39 44 51
39 44 51
38 44 51
39 44 51
38 44 51
39 44 51
38 44 51
39 44 51
38 44 51
38 44 51
39 44 51
39 44 51
39 44 51
39 44 51
39 44 51
38 44 51
39 44 51
39 44 51
39 44 51
39 44 51
39 44 51
39 44 51
39 44 51
39 44 51
39 44 51
38 44 51
39 44 51
39 44 51
38 43 51
39 44 51
39 44 51
39 44 51
38 44 51
39 44 51
39 44 51
39 44 51
39 44 51
39 44 51
39 44 51
39 44 51
39 44 51
40 45 52
44 50 59
54 62 71
59 66 76
61 69 80
61 69 80
61 69 80
61 69 80
61 70 80
61 69 80
61 69 80
61 69 80
61 70 80
61 69 80
61 69 80
61 70 80
61 69 80
61 70 80
60 69 80
61 69 80
61 69 80
61 69 80
61 69 80
61 70 80
61 69 80
62 70 80
61 69 80
61 70 80
61 69 80
61 69 80
62 70 80
60 69 80
61 69 80
61 70 80
61 69 80
61 69 80
61 70 80
61 70 80
61 69 80
61 69 80
62 70 80
62 70 80
61 69 80
61 70 80
61 70 80
60 69 80
62 70 80
62 70 80
60 68 80
61 70 80
61 69 80
61 69 80
61 69 80
62 70 80
61 70 80
61 69 80
61 69 80
61 69 80
61 69 80
62 70 80
61 69 80
61 69 80
62 70 80
61 69 80
61 70 80
61 69 80
60 69 80
61 70 80
61 69 80
62 70 80
61 70 80
61 69 80
61 70 80
60 68 80
61 69 80
62 70 80
61 70 80
61 69 80
60 69 80
61 69 80
62 70 80
61 70 80
61 70 80
62 70 80
62 70 80
60 69 80
61 70 80
60 69 80
61 70 80
61 69 80
61 69 80
62 70 80
62 70 80
61 69 80
61 69 80
60 69 80
61 69 80
62 70 80
62 70 80
61 69 80
61 70 80
60 69 80
62 70 80
61 70 80
61 70 80
60 69 80
61 69 80
62 70 80
62 70 80
62 70 80
61 70 80
61 69 80
60 69 80
61 69 80
61 70 80
62 70 80
61 70 80
61 69 80
60 68 79
62 70 80
62 70 80
61 70 80
61 70 80
63 70 80
61 69 80
61 70 80
61 70 80
61 70 80
61 69 80
61 70 80
62 70 80
62 70 80
61 69 80
61 70 80
62 70 80
62 70 80
61 70 80
61 69 80
61 69 80
61 69 80
62 70 80
62 70 80
60 69 80
61 70 80
61 69 80
62 70 80
61 70 80
61 69 80
61 70 80
61 70 80
62 70 80
62 70 80
61 70 80
62 70 80
61 70 80
61 70 80
61 69 80
61 69 80
61 69 80
61 70 80
62 70 80
62 70 80
61 70 80
61 69 80
62 70 80
61 69 80
62 70 80
62 70 80
62 70 80
61 70 80
61 70 80
62 70 80
61 70 80
61 70 80
61 69 80
60 69 80
62 70 80
61 69 80
61 69 80
61 69 80
62 70 80
61 70 80
61 69 80
60 69 80
61 69 80
62 70 80
62 70 80
61 70 80
62 70 80
61 70 80
61 69 80
61 70 80
61 70 80
62 70 80
61 69 80
61 70 80
62 70 80
61 69 80
62 70 80
62 70 80
61 69 80
61 70 80
61 70 80
61 69 80
62 70 80
61 69 80
62 70 80
62 70 80
62 70 80
62 70 80
62 70 80
62 70 80
61 69 80
61 70 80
61 69 80
61 69 80
60 69 80
61 69 80
61 70 80
60 69 80
61 69 80
61 70 80
62 70 80
62 70 80
61 69 80
61 70 80
62 70 80
61 70 80
61 69 80
62 70 80
61 69 80
61 69 80
62 70 80
61 69 80
61 70 80
62 70 80
62 70 80
61 69 80
61 70 80
62 70 80
62 70 80
61 70 80
61 69 80
61 69 80
61 70 80
61 69 80
61 69 80
61 69 80
61 70 80
61 69 80
62 70 80
60 69 80
62 70 80
61 70 80
61 70 80
61 69 80
61 70 80
62 70 80
61 70 80
61 70 80
61 69 80
61 69 80
62 70 80
62 70 80
61 70 80
60 69 80
62 70 80
61 69 80
62 70 80
61 69 80
62 70 80
61 69 79
61 70 80
61 70 80
62 70 80
60 69 80
61 70 80
61 69 80
62 70 80
61 69 80
61 69 80
62 70 80
61 70 80
60 69 80
62 70 80
61 70 80
62 70 80
61 69 80
61 70 80
61 69 80
61 69 80
60 69 80
61 69 80
60 69 80
61 70 80
60 69 80
61 70 80
61 69 80
61 70 80
60 69 80
61 69 80
61 70 80
61 70 80
61 70 80
62 70 80
60 68 79
61 70 80
60 68 78
61 70 80
60 68 79
61 69 80
61 69 80
61 70 80
61 70 80
61 69 80
61 70 80
61 69 80
61 69 80
61 70 80
61 70 80
59 67 77
50 56 65
43 50 58
39 44 51
38 44 51
38 44 51
39 44 51
38 44 51
39 44 51
38 44 51
38 44 51
38 44 51
38 44 51
38 44 51
39 44 51
39 44 51
39 44 51
38 44 51
39 44 51
39 44 51
39 44 51
38 44 51
38 44 51
39 44 51
38 44 51
39 44 51
38 44 51
38 44 51
39 44 51
39 44 51
39 44 51
39 44 51
38 44 51
39 44 51
39 44 51
38 44 51
38 44 51
39 44 51
39 44 51
39 44 51
38 44 51
39 44 51
39 44 51
38 44 51
39 44 51
39 44 51
39 44 51
39 44 51
38 44 51
39 44 51
38 44 51
39 44 51
39 44 51
39 44 51
38 44 51
39 44 51
39 44 51
39 44 51
39 44 51
38 44 51
39 44 51
38 44 51
39 44 51
39 44 51
38 44 51
39 44 51
38 44 51
39 44 51
38 44 51
39 44 51
39 44 51
39 44 51
39 44 51
39 44 51
39 44 51
39 44 51
38 44 51
39 44 51
39 44 51
39 44 51
39 44 51
39 44 51
39 44 51
38 44 51
46 51 59
51 57 66
57 65 76
61 69 80
62 70 80
61 69 80
60 68 79
61 70 80
60 69 80
61 69 80
61 69 80
61 69 80
61 70 80
61 69 80
62 70 80
61 69 80
61 70 80
62 70 80
62 69 80
61 70 80
61 69 80
61 69 80
61 69 80
61 69 79
62 70 80
61 70 80
60 69 80
62 70 80
61 70 80
62 69 80
61 69 80
62 70 80
61 70 80
61 69 80
62 70 80
60 69 80
62 70 80
61 70 80
61 70 80
62 70 80
62 70 80
61 69 80
61 70 80
61 69 80
61 69 80
61 69 80
61 69 80
61 70 80
61 69 80
61 70 80
60 69 80
61 69 80
61 70 80
61 70 80
61 69 80
62 70 80
61 70 80
62 70 80
60 69 80
61 70 80
61 69 80
61 69 80
61 70 80
61 69 80
62 70 80
61 70 80
62 70 80
61 70 80
62 70 80
61 69 80
61 70 80
62 70 80
62 70 80
61 69 80
61 69 80
61 69 80
61 69 80
62 70 80
60 69 80
61 69 80
61 70 80
62 70 80
62 70 80
61 69 80
61 70 80
61 70 80
61 69 80
62 70 80
61 69 80
61 70 80
61 70 80
62 70 80
61 69 80
61 69 80
61 69 80
61 69 80
62 70 80
61 70 80
61 69 80
61 70 80
61 70 80
61 69 80
62 70 80
61 70 80
62 70 80
60 69 80
61 69 80
61 69 80
61 69 80
61 69 80
61 69 80
60 69 80
62 70 80
61 69 80
61 70 80
61 70 80
62 70 80
61 70 80
61 69 80
62 70 80
61 70 80
61 70 80
61 70 80
61 69 80
61 70 80
61 69 80
61 69 80
61 70 80
62 70 80
61 69 80
61 69 80
62 70 80
61 69 80
61 70 80
61 70 80
61 70 80
62 70 80
61 70 80
61 70 80
62 70 80
61 70 80
61 70 80
61 69 80
61 69 80
61 69 80
61 69 80
62 70 80
61 69 80
61 69 80
62 70 80
62 70 80
61 70 80
62 70 80
61 70 80
61 69 80
61 70 80
61 69 80
61 70 80
61 69 80
62 70 80
61 70 80
61 69 80
61 70 80
61 69 80
62 70 80
61 69 80
62 70 80
62 70 80
61 70 80
61 69 80
61 70 80
62 70 80
61 69 80
61 69 80
61 69 80
61 70 80
61 69 80
61 70 80
61 70 80
62 70 80
61 70 80
62 70 80
60 69 80
62 70 80
61 70 80
61 70 80
61 70 80
61 70 80
61 70 80
62 70 80
61 70 80
61 69 80
62 70 80
62 70 80
61 70 80
61 70 80
62 70 80
61 70 80
61 70 80
61 69 80
63 70 80
61 70 80
61 70 80
62 70 80
61 69 80
62 70 80
61 69 80
61 70 80
61 69 80
61 69 80
60 69 80
60 69 80
60 69 80
62 70 80
61 69 80
61 70 80
61 70 80
62 70 80
61 69 80
61 70 80
61 69 80
61 69 80
61 69 80
61 70 80
62 70 80
62 70 80
61 69 80
61 70 80
62 69 80
61 70 80
62 70 80
61 70 80
61 70 80
62 70 80
61 70 80
61 69 80
61 70 80
61 70 80
62 70 80
61 69 80
62 70 80
61 70 80
61 70 80
62 70 80
61 69 80
62 70 80
61 69 80
61 70 80
61 70 80
61 69 80
61 70 80
61 70 80
61 69 80
62 70 80
61 70 80
61 69 80
62 70 80
61 69 80
62 70 80
61 69 80
61 69 80
62 70 80
61 70 80
61 69 80
60 68 79
61 69 80
61 69 79
61 70 80
61 70 80
61 69 80
61 69 80
61 70 80
62 70 80
61 70 80
61 69 80
62 70 80
61 70 80
61 69 80
62 70 80
61 70 80
61 70 80
62 70 80
61 69 80
61 70 80
61 69 80
61 70 80
61 69 80
62 70 80
62 70 80
61 69 80
62 70 80
61 70 80
61 70 80
61 69 80
61 69 80
60 69 80
62 70 80
60 69 80
61 70 80
60 69 80
62 70 80
61 69 80
61 69 80
62 70 80
61 70 80
61 70 80
61 69 80
61 69 80
62 70 80
61 69 80
62 70 80
61 70 80
61 69 80
61 69 80
61 70 80
61 70 80
57 64 74
34 38 43
36 41 47
37 42 49
38 44 51
39 44 51
39 44 51
39 44 51
38 44 51
39 44 51
39 44 51
39 44 51
39 44 51
39 44 51
39 44 51
39 44 51
39 44 51
39 44 51
39 44 51
38 44 51
38 44 51
38 44 51
39 44 51
39 44 51
39 44 51
39 44 51
38 44 51
39 44 51
38 43 51
39 44 51
39 44 51
39 44 51
39 44 51
38 44 51
39 44 51
38 44 51
39 44 51
39 44 51
39 44 51
38 44 51
39 44 51
39 44 51
39 44 51
39 44 51
39 44 51
38 44 51
39 44 51
38 44 51
38 44 51
39 44 51
38 44 51
39 44 51
39 44 51
39 44 51
38 44 51
39 44 51
38 44 51
38 44 51
39 44 51
38 44 51
39 44 51
39 44 51
39 44 51
39 44 51
39 44 51
39 44 51
38 44 51
38 44 51
38 44 51
38 44 51
39 44 51
39 44 51
39 44 51
38 44 51
39 44 51
39 44 51
39 44 51
39 44 51
38 44 51
38 44 51
39 44 51
38 44 51
39 44 51
38 43 50
36 40 46
36 40 45
55 63 73
61 69 80
61 69 80
62 70 80
61 69 80
61 69 80
61 69 80
61 69 80
62 70 80
60 68 79
61 69 80
62 70 80
62 70 80
61 70 80
61 69 80
61 70 80
62 70 80
61 69 80
60 69 80
61 69 80
60 68 79
62 70 80
61 69 80
62 70 80
61 70 80
61 69 80
62 70 80
61 69 80
62 70 80
62 70 80
61 69 80
60 68 79
61 69 80
61 69 80
61 69 80
62 70 80
60 69 80
61 69 80
62 70 80
61 70 80
62 70 80
61 70 80
60 68 80
63 70 80
61 70 80
61 69 80
61 70 80
61 70 80
61 69 80
61 69 80
61 70 80
61 69 80
61 69 80
61 69 80
61 69 80
61 70 80
62 70 80
62 70 80
61 69 80
61 70 80
61 69 80
61 69 80
62 70 80
61 70 80
62 70 80
60 69 80
62 70 80
61 69 80
62 70 80
61 70 80
62 70 80
61 70 80
61 69 80
62 70 80
61 69 80
62 70 80
62 70 80
61 69 80
62 70 80
61 70 80
61 70 80
61 69 80
60 69 80
61 69 80
62 70 80
61 69 80
61 70 80
61 70 80
61 70 80
61 70 80
61 70 80
61 69 80
62 70 80
60 68 79
60 69 80
61 69 80
62 70 80
62 70 80
61 70 80
63 70 80
61 69 80
61 70 80
61 70 80
61 70 80
61 70 80
61 69 80
61 69 80
62 70 80
62 70 80
61 69 80
62 70 80
61 70 80
62 70 80
60 69 80
61 69 80
61 70 80
61 69 80
62 70 80
61 70 80
61 69 80
61 70 80
61 69 80
61 69 80
61 70 80
61 69 80
61 69 80
62 70 80
62 70 80
62 70 80
61 70 80
62 70 80
61 70 80
62 70 80
62 70 80
62 70 80
61 69 80
61 70 80
60 69 80
62 70 80
62 70 80
62 70 80
61 69 80
61 69 80
61 70 80
62 70 80
62 70 80
61 70 80
61 70 80
61 70 80
62 70 80
61 69 80
61 69 80
61 70 80
61 70 80
61 69 80
61 70 80
61 69 80
61 69 80
61 69 80
62 70 80
61 69 80
62 70 80
61 69 80
61 70 80
61 70 80
61 69 80
61 69 80
61 69 80
61 70 80
62 70 80
61 69 80
61 69 80
61 70 80
62 70 80
62 70 80
61 70 80
61 70 80
60 69 80
61 69 80
61 69 80
61 69 80
62 70 80
61 70 80
61 70 80
60 69 80
61 70 80
61 69 80
61 70 80
63 70 80
61 69 80
61 70 80
61 70 80
61 69 80
61 70 80
61 70 80
61 70 80
62 70 80
62 70 80
61 70 80
62 70 80
60 69 80
61 70 80
61 69 80
61 69 80
61 70 80
61 70 80
61 70 80
61 69 80
61 70 80
61 69 80
61 70 80
62 70 80
62 70 80
61 69 80
61 70 80
61 70 80
62 70 80
61 69 80
62 70 80
61 70 80
61 69 80
62 70 80
61 69 80
61 70 80
62 70 80
62 70 80
62 70 80
61 69 80
61 70 80
61 70 80
62 70 80
62 70 80
61 70 80
61 69 80
61 69 80
61 69 80
60 69 80
61 69 80
62 70 80
61 69 80
61 69 80
61 70 80
62 70 80
62 70 80
61 70 80
61 69 80
61 70 80
62 70 80
62 70 80
61 70 80
61 69 80
61 69 80
62 70 80
61 69 80
62 70 80
62 70 80
61 70 80
62 70 80
62 70 80
61 69 80
61 69 80
61 69 80
60 69 80
62 70 80
61 70 80
61 69 80
60 68 80
62 70 80
61 70 80
60 69 80
62 70 80
61 69 80
61 69 80
61 69 80
61 69 80
61 70 80
61 70 80
60 69 80
62 70 80
61 70 80
61 69 80
61 69 80
61 69 80
61 70 80
60 68 79
61 69 80
62 70 80
61 69 80
61 69 80
61 69 80
61 69 80
61 70 80
61 69 80
61 69 80
62 70 80
60 69 80
61 69 80
61 69 80
61 69 80
61 69 80
61 70 80
61 70 80
61 69 80
61 70 80
61 69 80
61 69 80
61 69 80
61 69 80
61 69 80
60 69 80
60 69 80
62 70 80
62 70 80
61 69 80
57 65 75
35 39 44
33 37 42
36 40 45
34 38 44
38 43 49
39 44 51
39 44 51
38 44 51
39 44 51
38 44 51
39 44 51
38 44 51
39 44 51
38 44 51
39 44 51
38 44 51
38 44 51
39 44 51
38 44 51
38 44 51
38 44 51
39 44 51
38 44 51
39 44 51
38 44 51
39 44 51
39 44 51
38 44 51
39 44 51
39 44 51
38 44 51
38 44 51
38 44 51
38 44 51
39 44 51
38 44 51
39 44 51
39 44 51
38 44 51
39 44 51
39 44 51
39 44 51
39 44 51
39 44 51
39 44 51
39 44 51
38 44 51
39 44 51
39 44 51
38 44 51
39 44 51
39 44 51
39 44 51
39 44 51
39 44 51
38 44 51
38 44 51
38 44 51
39 44 51
38 44 51
38 43 51
39 44 51
38 44 51
39 44 51
38 44 51
38 44 51
39 44 51
39 44 51
38 44 51
39 44 51
39 44 51
38 44 51
39 44 51
38 44 51
39 44 51
38 44 51
39 44 51
39 44 51
38 44 51
38 43 50
36 41 47
35 39 44
34 38 43
36 40 45
34 39 44
57 65 75
60 69 80
61 69 80
62 70 80
61 69 80
61 69 80
61 69 80
61 69 80
61 69 80
61 69 80
61 69 80
61 69 80
62 70 80
61 69 80
61 70 80
61 69 80
61 70 80
61 69 80
61 70 80
61 69 80
61 69 80
61 69 80
61 69 80
61 70 80
60 69 80
61 69 80
62 69 80
62 70 80
60 69 80
61 69 80
62 70 80
61 70 80
61 69 80
61 70 80
61 70 80
61 70 80
61 69 80
60 68 79
61 69 80
61 69 80
61 69 80
61 69 80
61 70 80
61 69 80
62 70 80
61 69 80
61 69 80
62 70 80
62 70 80
62 70 80
60 69 80
60 69 80
61 69 80
62 70 80
61 69 80
61 69 80
61 70 80
61 69 80
60 69 80
61 70 80
60 69 80
62 70 80
62 70 80
61 69 80
61 69 80
61 69 80
61 70 80
61 70 80
62 70 80
61 69 80
62 70 80
61 70 80
60 68 79
62 70 80
61 69 80
62 70 80
61 69 80
61 69 80
62 70 80
61 70 80
61 70 80
62 70 80
60 69 80
61 69 80
61 70 80
62 70 80
61 70 80
62 70 80
61 70 80
62 70 80
62 70 80
62 70 80
61 69 80
61 70 80
61 69 80
62 70 80
62 70 80
61 69 80
61 69 80
61 69 80
61 69 80
61 70 80
61 70 80
60 68 79
61 69 80
61 69 80
61 69 80
61 69 80
60 69 80
61 69 80
61 70 80
62 70 80
62 70 80
60 69 80
62 70 80
62 70 80
62 70 80
61 70 80
61 69 80
61 69 80
61 69 80
61 70 80
61 70 80
61 69 80
61 69 80
61 70 80
61 70 80
61 69 80
61 70 80
62 70 80
61 70 80
62 70 80
61 70 80
61 69 80
61 70 80
61 69 80
61 70 80
61 69 80
60 69 80
62 70 80
61 70 80
62 70 80
61 70 80
61 69 80
61 69 80
62 70 80
62 70 80
61 69 80
61 70 80
61 69 80
61 70 80
62 70 80
62 70 80
62 70 80
61 70 80
61 70 80
61 69 80
61 69 80
61 69 80
62 70 80
62 70 80
62 70 80
61 70 80
61 70 80
62 70 80
61 69 80
62 70 80
61 69 80
61 70 80
61 70 80
61 69 80
61 70 80
62 70 80
61 70 80
61 70 80
61 69 80
61 69 80
62 70 80
62 70 80
60 69 80
61 70 80
62 70 80
61 70 80
61 70 80
62 70 80
62 70 80
61 70 80
61 70 80
62 70 80
62 70 80
61 70 80
61 69 80
60 69 80
61 69 80
62 70 80
61 69 80
61 69 80
62 70 80
61 70 80
61 69 80
61 69 80
61 70 80
62 70 80
62 70 80
61 70 80
61 70 80
62 69 80
61 70 80
61 70 80
62 70 80
61 69 80
62 70 80
61 70 80
61 69 80
61 70 80
61 70 80
62 70 80
61 69 80
62 70 80
62 70 80
61 70 80
61 70 80
60 69 80
61 69 80
62 70 80
61 70 80
61 69 80
61 69 80
62 70 80
62 70 80
62 70 80
61 69 80
61 69 80
60 69 80
62 70 80
61 69 80
61 69 80
62 70 80
61 69 80
62 70 80
61 69 80
62 70 80
60 69 80
60 69 80
61 70 80
61 70 80
60 69 80
61 69 80
61 69 80
62 70 80
60 69 80
61 69 79
62 70 80
61 70 80
62 70 80
61 69 80
61 69 80
61 69 80
61 70 80
61 69 80
61 70 80
61 69 80
61 69 80
61 70 80
61 70 80
62 70 80
61 70 80
62 70 80
61 70 80
61 69 80
61 69 80
61 70 80
61 69 80
62 70 80
61 70 80
61 69 79
61 70 80
61 70 80
61 69 80
61 69 80
60 69 80
60 69 80
61 70 80
60 68 79
61 69 80
61 69 80
61 70 80
61 69 80
62 70 80
61 69 80
61 69 79
61 69 80
60 69 80
61 69 80
62 70 80
61 69 80
61 69 79
61 69 80
61 69 80
60 69 80
61 69 80
61 69 80
62 70 80
60 68 79
62 70 80
61 69 80
61 70 80
60 68 80
61 69 80
60 69 80
62 70 80
60 69 80
60 69 80
61 69 80
60 67 77
34 38 43
34 38 43
34 38 44
34 38 43
36 41 46
34 39 44
35 39 45
38 43 49
39 44 51
39 44 51
38 44 51
39 44 51
39 44 51
39 44 51
39 44 51
38 44 51
39 44 51
39 44 51
39 44 51
39 44 51
39 44 51
39 44 51
38 44 51
38 44 51
39 44 51
38 44 51
39 44 51
38 44 51
39 44 51
39 44 51
39 44 51
38 44 51
38 44 51
39 44 51
38 44 51
39 44 51
39 44 51
39 44 51
38 44 51
38 44 51
39 44 51
39 44 51
38 44 51
38 44 51
39 44 51
39 44 51
38 44 51
38 44 51
39 44 51
39 44 51
38 44 51
39 44 51
38 44 51
38 44 51
38 44 51
39 44 51
39 44 51
39 44 51
38 44 51
38 44 51
39 44 51
38 44 51
38 44 51
38 44 51
39 44 51
38 44 51
39 44 51
39 44 51
39 44 51
39 44 51
38 44 51
39 44 51
38 44 51
39 44 51
38 44 51
39 44 51
38 44 51
38 43 49
36 40 46
34 38 43
34 38 43
32 36 41
33 37 42
34 38 43
34 38 43
59 67 78
61 69 80
61 69 80
61 69 80
61 70 80
60 68 79
62 70 80
61 69 80
61 69 80
61 69 80
61 69 80
61 69 80
62 70 80
62 70 80
62 70 80
61 69 80
61 69 80
61 69 80
61 69 80
62 70 80
61 69 80
61 69 80
61 70 80
62 70 80
61 69 80
61 70 80
61 69 80
61 69 80
62 70 80
61 70 80
61 69 80
61 70 80
61 70 80
62 70 80
61 69 80
61 70 80
62 70 80
62 70 80
61 70 80
61 70 80
61 69 80
62 70 80
60 69 80
61 69 80
60 69 80
62 70 80
61 70 80
61 69 80
61 69 80
62 70 80
61 69 80
61 69 80
61 69 80
61 69 80
61 69 80
62 70 80
61 69 80
62 70 80
61 70 80
61 70 80
61 70 80
61 69 80
61 69 80
61 70 80
62 70 80
61 69 80
61 70 80
61 70 80
61 70 80
61 70 80
61 69 80
61 69 80
62 70 80
62 70 80
62 70 80
61 69 80
61 69 80
62 70 80
62 70 80
62 70 80
61 69 80
61 69 80
62 70 80
61 69 80
61 69 80
62 70 80
61 70 80
61 69 80
62 70 80
62 70 80
61 70 80
61 70 80
61 70 80
61 69 80
61 70 80
60 69 80
60 69 80
61 69 80
61 70 80
62 70 80
61 69 80
61 70 80
62 70 80
62 70 80
62 70 80
61 69 80
62 70 80
61 69 80
61 69 80
62 70 80
61 69 80
61 69 80
61 69 80
61 69 80
61 70 80
61 69 80
61 70 80
61 69 80
61 70 80
61 69 80
61 69 80
62 70 80
62 70 80
61 69 80
61 69 80
62 70 80
61 70 80
62 70 80
61 69 80
61 70 80
62 70 80
61 70 80
61 70 80
61 70 80
61 69 80
62 70 80
62 70 80
61 69 80
61 70 80
61 70 80
61 69 80
61 69 80
61 70 80
61 70 80
61 70 80
61 69 80
61 69 80
61 70 80
61 69 80
62 70 80
62 70 80
60 69 80
61 69 80
61 70 80
61 69 80
61 70 80
61 70 80
61 70 80
61 69 80
62 70 80
61 69 80
61 70 80
61 69 80
62 70 80
61 70 80
62 70 80
61 70 80
61 69 80
61 69 80
62 70 80
61 70 80
61 69 80
61 69 80
62 70 80
62 70 80
60 69 80
61 70 80
62 70 80
62 70 80
62 70 80
62 70 80
62 70 80
62 70 80
62 70 80
61 69 80
62 70 80
60 69 80
62 70 80
60 69 80
61 69 80
61 70 80
61 69 80
61 70 80
61 69 80
62 70 80
61 70 80
61 69 80
61 69 80
62 70 80
62 70 80
61 70 80
61 69 80
61 70 80
61 69 80
61 70 80
62 70 80
62 70 80
61 70 80
62 70 80
61 70 80
61 70 80
61 70 80
60 69 80
62 70 80
61 69 80
62 70 80
61 69 80
61 69 80
61 70 80
62 70 80
62 70 80
62 70 80
62 70 80
61 69 80
62 70 80
61 70 80
61 69 80
61 69 80
61 70 80
62 70 80
62 70 80
61 69 80
61 70 80
61 69 80
61 69 80
60 69 80
61 70 80
61 70 80
61 69 80
61 69 80
61 70 80
62 70 80
61 69 80
61 69 80
62 70 80
61 70 80
62 70 80
62 70 80
62 70 80
62 70 80
60 69 80
62 70 80
61 70 80
61 70 80
61 70 80
61 69 80
61 70 80
61 70 80
62 70 80
61 70 80
62 70 80
61 69 80
61 69 80
61 69 80
63 70 80
61 69 80
61 69 80
61 69 80
61 69 80
60 68 79
61 70 80
61 70 80
60 69 80
61 69 80
60 69 80
61 70 80
61 69 80
61 69 80
61 69 80
61 69 79
62 70 80
62 70 80
60 68 79
61 70 80
61 69 80
61 69 80
61 69 80
62 70 80
62 70 80
61 69 80
62 70 80
62 70 80
62 70 80
60 69 80
60 69 80
61 69 80
62 70 80
61 69 80
61 69 80
61 69 80
62 70 80
61 69 80
61 70 80
62 70 80
62 70 80
61 69 80
61 70 80
60 69 80
61 69 80
60 68 78
60 68 79
60 69 80
62 70 80
61 69 80
61 69 80
37 41 46
33 37 43
35 40 45
34 38 43
35 39 45
36 40 45
33 37 42
35 38 43
35 40 46
38 43 49
38 43 50
39 44 51
38 43 51
38 44 51
38 44 51
39 44 51
39 44 51
39 44 51
38 44 51
39 44 51
38 44 51
39 44 51
39 44 51
39 44 51
38 44 51
39 44 51
39 44 51
38 44 51
38 44 51
38 44 51
39 44 51
38 44 51
38 44 51
38 44 51
39 44 51
39 44 51
39 44 51
39 44 51
39 44 51
38 44 51
39 44 51
38 44 51
39 44 51
39 44 51
39 44 51
39 44 51
38 44 51
38 44 51
38 44 51
39 44 51
38 44 51
38 44 51
39 44 51
39 44 51
39 44 51
38 44 51
38 44 51
39 44 51
38 44 51
39 44 51
39 44 51
39 44 51
38 44 51
39 44 51
39 44 51
39 44 51
38 44 51
39 44 51
38 44 51
39 44 51
40 44 51
39 44 51
39 44 51
38 44 51
37 42 49
37 42 48
35 39 45
34 38 43
35 39 44
33 37 42
33 37 43
34 38 43
34 38 43
33 37 42
36 40 45
60 69 80
61 70 80
61 70 80
61 70 80
61 70 80
61 69 80
61 69 80
61 69 80
61 69 80
61 70 80
62 70 80
62 70 80
61 69 80
61 69 80
61 69 80
60 69 80
61 69 80
61 69 80
62 70 80
61 70 80
61 69 80
60 69 80
61 69 80
61 69 80
61 70 80
61 69 80
62 70 80
61 69 80
61 70 80
61 69 80
61 69 80
62 70 80
60 68 79
62 70 80
61 70 80
61 69 80
61 69 80
61 69 80
62 70 80
61 69 80
62 70 80
60 69 80
61 70 80
61 69 80
61 69 80
62 70 80
61 69 80
61 70 80
60 69 80
61 69 80
61 70 80
62 70 80
62 70 80
62 70 80
61 69 80
61 70 80
62 69 80
60 69 80
61 69 80
62 70 80
62 70 80
61 69 80
62 70 80
61 70 80
61 70 80
61 70 80
61 69 80
61 69 80
61 69 80
61 70 80
62 70 80
61 70 80
62 70 80
61 69 80
61 69 80
61 70 80
61 69 80
61 70 80
61 69 80
61 69 80
62 70 80
61 70 80
61 69 80
60 69 80
62 70 80
62 70 80
61 69 80
61 70 80
62 70 80
61 69 80
61 69 80
60 69 80
61 69 80
61 70 80
61 70 80
62 70 80
61 69 80
61 69 80
62 70 80
61 70 80
61 70 80
62 70 80
61 69 80
61 70 80
60 69 80
61 69 80
61 70 80
60 69 80
62 70 80
61 70 80
62 70 80
61 69 80
61 70 80
62 70 80
61 69 80
61 70 80
61 70 80
62 70 80
62 70 80
62 70 80
61 70 80
62 70 80
61 70 80
62 70 80
61 70 80
61 69 80
62 70 80
60 68 80
62 70 80
60 69 80
62 70 80
61 69 79
61 69 80
61 69 80
62 70 80
60 69 80
62 70 80
61 69 80
62 70 80
61 70 80
62 70 80
61 70 80
61 70 80
61 70 80
61 70 80
62 70 80
61 69 80
61 70 80
61 70 80
62 70 80
61 70 80
62 70 80
60 69 80
61 70 80
61 70 80
62 70 80
61 69 80
62 70 80
62 70 80
61 70 80
61 69 80
61 69 80
61 69 80
61 69 80
61 70 80
62 70 80
61 69 80
62 70 80
61 70 80
62 70 80
61 70 80
61 69 80
61 69 80
62 70 80
61 69 80
62 70 80
62 70 80
62 70 80
61 69 80
60 69 80
62 70 80
61 70 80
62 70 80
61 70 80
61 70 80
61 69 80
61 70 80
62 70 80
62 70 80
60 69 80
61 69 80
61 70 80
60 69 80
62 70 80
61 69 80
61 69 80
61 70 80
62 70 80
61 69 80
61 70 80
62 70 80
61 70 80
62 69 80
61 70 80
60 69 80
62 70 80
61 69 80
60 69 80
61 70 80
61 69 80
62 70 80
61 69 80
61 69 80
61 70 80
62 70 80
61 69 80
62 70 80
61 70 80
61 69 80
62 70 80
61 69 80
62 70 80
61 69 80
62 70 80
61 69 80
62 70 80
62 70 80
62 70 80
61 69 80
62 70 80
61 70 80
62 70 80
61 69 80
61 70 80
62 70 80
62 70 80
62 70 80
62 70 80
61 69 80
62 70 80
62 70 80
61 70 80
62 70 80
60 69 80
61 70 80
61 70 80
62 70 80
61 69 80
62 70 80
61 69 80
61 70 80
62 70 80
60 69 80
61 70 80
61 69 80
62 70 80
61 69 80
61 70 80
61 70 80
63 70 80
60 69 80
62 69 80
61 69 80
62 70 80
62 70 80
61 70 80
62 70 80
61 69 80
61 70 80
61 69 80
61 70 80
61 70 80
62 70 80
62 70 80
61 69 80
60 69 80
61 69 79
61 70 80
61 70 80
62 70 80
62 70 80
61 69 80
61 70 80
62 70 80
59 67 78
61 70 80
61 69 80
60 69 80
61 70 80
61 69 80
61 69 80
61 69 80
61 70 80
61 69 80
61 69 80
62 70 80
62 70 80
60 68 79
61 69 80
62 70 80
59 67 78
61 70 80
62 70 80
61 70 80
60 69 80
62 70 80
62 70 80
61 69 80
62 70 80
61 69 80
61 69 80
60 68 79
60 68 79
61 69 80
60 68 79
38 43 49
34 38 43
32 36 41
33 37 42
33 37 42
34 38 43
34 38 43
35 39 44
36 40 45
34 38 43
33 37 42
37 42 48
37 42 48
39 44 51
38 44 51
39 44 51
39 44 51
38 44 51
39 44 51
39 44 51
38 44 51
39 44 51
39 44 51
39 44 51
39 44 51
39 44 51
38 44 51
38 44 51
38 44 51
39 44 51
39 44 51
39 44 51
39 44 51
39 44 51
39 44 51
39 44 51
39 44 51
38 44 51
38 44 51
39 44 51
38 44 51
39 44 51
38 44 51
38 44 51
38 44 51
39 44 51
38 44 51
38 44 51
39 44 51
38 44 51
38 44 51
38 44 51
38 44 51
39 44 51
38 44 51
38 44 51
39 44 51
39 44 51
39 44 51
39 44 51
39 44 51
39 44 51
39 44 51
39 44 51
39 44 51
38 44 51
39 44 51
39 44 51
38 44 51
39 44 51
38 44 51
39 44 51
37 42 48
36 40 46
36 40 46
34 38 43
34 38 43
34 38 43
34 39 44
35 39 44
36 40 45
33 37 42
36 40 46
33 37 42
36 40 46
61 69 80
61 70 80
60 69 80
60 69 80
61 69 80
62 70 80
61 70 80
62 70 80
61 70 80
61 69 80
61 69 80
60 69 80
60 68 79
61 70 80
60 69 80
61 69 80
62 70 80
61 69 80
61 70 80
61 69 80
62 70 80
62 70 80
60 68 78
61 69 80
62 70 80
62 70 80
61 69 80
61 70 80
61 69 80
62 70 80
60 68 79
61 70 80
61 70 80
61 69 80
61 69 80
62 70 80
60 69 80
60 68 79
62 70 80
61 69 80
62 70 80
62 70 80
61 69 80
61 69 80
62 70 80
62 70 80
61 69 80
61 70 80
61 70 80
61 70 80
61 70 80
61 69 80
61 69 80
60 68 79
62 70 80
61 70 80
60 69 80
62 70 80
61 70 80
61 69 80
61 69 80
62 70 80
60 69 80
61 69 80
61 69 80
61 69 80
62 70 80
61 70 80
62 70 80
61 70 80
61 70 80
62 70 80
61 69 80
60 69 80
61 69 80
61 69 80
61 70 80
62 70 80
61 69 80
61 69 80
62 70 80
61 70 80
61 69 80
61 69 80
61 69 80
60 69 80
61 69 80
61 70 80
61 69 80
61 70 80
61 69 80
61 69 80
62 70 80
61 70 80
61 69 80
62 70 80
61 70 80
62 70 80
61 69 80
61 69 80
61 69 80
61 69 80
60 69 80
62 70 80
61 70 80
61 69 80
61 70 80
60 69 80
61 69 80
61 69 80
62 70 80
61 70 80
62 70 80
61 69 80
61 69 80
61 70 80
61 69 80
61 69 80
61 69 80
61 70 80
61 69 80
61 70 80
61 70 80
61 70 80
62 70 80
60 69 80
61 70 80
61 70 80
61 69 80
62 70 80
62 70 80
61 70 80
61 70 80
61 70 80
62 70 80
61 70 80
62 70 80
61 69 80
63 70 80
61 70 80
62 70 80
61 70 80
62 70 80
61 69 80
62 70 80
61 70 80
61 70 80
62 70 80
61 70 80
62 70 80
61 70 80
62 70 80
61 70 80
62 70 80
61 70 80
62 70 80
61 69 80
62 70 80
61 70 80
62 70 80
62 70 80
61 69 80
61 70 80
61 70 80
61 69 80
61 70 80
61 69 80
62 70 80
61 69 80
61 70 80
61 70 80
61 70 80
61 69 80
61 69 80
61 69 80
61 69 80
61 69 80
61 69 80
62 70 80
62 70 80
62 70 80
61 70 80
61 69 80
62 70 80
62 70 80
61 69 80
62 70 80
61 69 80
62 70 80
61 70 80
62 70 80
61 70 80
61 69 80
62 70 80
61 69 80
62 70 80
60 69 80
61 70 80
61 69 80
61 69 80
61 70 80
61 69 80
61 69 80
62 70 80
61 69 80
62 70 80
62 70 80
62 69 80
62 70 80
61 70 80
61 70 80
62 70 80
62 70 80
61 69 80
61 70 80
62 70 80
61 70 80
61 69 80
61 69 80
62 70 80
61 70 80
61 69 80
62 70 80
61 70 80
61 69 80
61 69 80
62 70 80
61 70 80
61 70 80
62 70 80
61 69 80
61 69 80
61 70 80
61 70 80
62 70 80
61 69 80
61 69 80
61 69 80
61 70 80
61 69 80
61 69 80
61 70 80
61 70 80
62 70 80
61 69 80
61 70 80
61 70 80
61 69 80
61 70 80
61 69 80
62 70 80
60 69 80
61 70 80
61 70 80
61 69 80
62 70 80
61 69 80
61 70 80
60 68 79
61 69 80
61 69 80
61 69 80
62 70 80
61 70 80
61 69 80
60 68 79
61 70 80
62 69 80
60 69 80
60 69 80
61 69 80
60 69 80
62 69 80
62 70 80
61 69 80
62 70 80
61 69 80
62 70 80
61 69 80
62 70 80
60 69 80
60 69 80
62 70 80
60 69 80
61 70 80
60 69 80
61 69 80
61 70 80
61 69 80
62 70 80
61 69 80
62 70 80
62 69 80
61 69 80
61 69 80
62 70 80
61 70 80
61 69 80
61 70 80
62 70 80
61 69 80
61 69 80
60 69 80
62 70 80
62 70 80
61 70 80
62 70 80
61 69 80
61 69 80
61 69 80
60 68 79
61 69 80
61 70 80
61 69 80
61 70 80
39 44 50
35 39 44
34 38 43
35 38 44
35 39 44
35 39 44
32 36 41
35 39 44
34 38 43
33 36 42
35 39 44
32 36 41
35 39 45
34 39 44
36 40 46
39 44 51
39 44 51
39 44 51
39 44 51
38 44 51
39 44 51
39 44 51
39 44 51
38 44 51
39 44 51
39 44 51
38 44 51
38 44 51
38 44 51
39 44 51
39 44 51
39 44 51
38 44 51
39 44 51
39 44 51
39 44 51
39 44 51
39 44 51
38 44 51
39 44 51
38 44 51
39 44 51
39 44 51
38 44 51
38 44 51
38 44 51
38 44 51
39 44 51
39 44 51
38 44 51
39 44 51
39 44 51
38 44 51
38 43 51
39 44 51
39 44 51
38 44 51
39 44 51
38 44 51
39 44 51
39 44 51
39 44 51
39 44 51
39 44 51
39 44 51
39 44 51
39 44 51
39 44 51
39 44 51
37 42 49
36 40 47
36 40 46
34 38 43
34 38 43
35 38 44
34 38 44
34 38 43
33 37 42
34 38 43
34 38 43
35 39 44
34 38 43
33 37 43
35 39 44
40 44 51
61 69 80
60 68 80
62 70 80
59 67 78
61 69 80
60 68 79
62 70 80
61 69 80
61 70 80
61 69 80
61 69 80
62 70 80
61 69 80
61 69 80
61 70 80
60 69 80
61 69 80
62 70 80
60 68 80
62 70 80
62 70 80
60 69 80
62 70 80
61 69 80
61 70 80
61 70 80
62 70 80
60 68 80
60 69 80
62 70 80
61 69 80
61 69 80
61 69 80
62 70 80
61 69 80
61 69 80
60 69 80
60 69 80
61 69 80
61 70 80
62 70 80
62 70 80
61 70 80
61 69 80
62 70 80
60 68 79
61 70 80
61 69 80
62 70 80
62 70 80
61 70 80
61 69 80
60 69 80
62 70 80
61 69 79
62 70 80
62 70 80
60 69 80
61 69 80
61 69 80
61 70 80
60 69 80
61 69 80
62 70 80
62 70 80
62 70 80
62 70 80
62 70 80
61 70 80
61 69 80
61 70 80
61 69 80
61 69 80
61 69 80
62 70 80
61 69 80
61 70 80
61 69 80
61 70 80
61 70 80
62 70 80
61 70 80
62 70 80
62 70 80
61 69 80
61 70 80
61 69 80
61 69 80
61 70 80
61 70 80
61 70 80
61 70 80
60 69 80
62 70 80
62 70 80
62 70 80
62 70 80
62 70 80
61 69 80
61 70 80
61 70 80
61 69 80
61 69 80
62 70 80
62 70 80
62 70 80
61 69 80
62 70 80
61 70 80
61 69 80
61 69 80
61 70 80
61 70 80
62 70 80
61 69 80
61 70 80
61 70 80
62 70 80
61 70 80
61 70 80
61 69 80
61 69 80
61 69 80
61 69 80
62 70 80
61 70 80
61 69 80
62 70 80
61 70 80
62 70 80
61 70 80
61 69 80
61 70 80
61 69 80
62 70 80
61 69 80
62 70 80
61 69 80
61 70 80
61 69 80
61 69 80
61 70 80
60 69 80
61 69 80
61 70 80
61 69 80
61 70 80
61 70 80
61 70 80
61 69 80
61 69 80
61 69 80
62 70 80
61 69 80
61 69 80
61 70 80
61 70 80
62 70 80
61 69 80
61 70 80
62 70 80
61 69 80
61 70 80
62 70 80
61 70 80
60 69 80
61 70 80
61 70 80
60 69 80
61 69 80
61 70 80
61 70 80
61 70 80
60 69 80
62 70 80
61 70 80
61 70 80
61 69 80
61 69 80
61 70 80
61 69 80
61 70 80
61 70 80
62 70 80
62 70 80
62 70 80
62 70 80
61 69 80
61 69 80
61 70 80
61 70 80
61 69 80
62 70 80
61 70 80
61 70 80
61 69 80
61 69 80
61 70 80
61 69 80
61 69 80
62 70 80
61 69 80
62 70 80
61 70 80
61 70 80
61 69 80
61 69 80
60 69 80
61 70 80
62 70 80
62 70 80
61 70 80
62 70 80
61 70 80
62 70 80
61 70 80
62 70 80
61 70 80
61 69 80
62 70 80
61 69 80
62 70 80
61 69 80
61 70 80
62 70 80
62 70 80
60 69 80
61 70 80
61 69 80
60 69 80
61 69 80
61 69 80
62 70 80
61 70 80
61 70 80
61 70 80
61 70 80
61 69 80
61 69 79
62 70 80
61 70 80
60 69 80
62 69 80
62 70 80
61 69 80
62 70 80
61 69 80
61 70 80
60 69 80
62 70 80
61 69 80
61 70 80
61 69 80
60 69 80
62 70 80
60 69 80
61 69 80
61 69 80
61 69 80
61 69 80
61 69 80
62 70 80
61 70 80
61 69 80
61 69 80
61 70 80
61 69 80
61 70 80
61 69 80
61 69 80
61 70 80
62 70 80
62 70 80
61 69 80
62 70 80
62 70 80
61 70 80
61 69 80
61 70 80
60 69 80
61 69 80
60 68 79
62 70 80
61 69 80
61 69 80
61 70 80
63 71 80
61 69 80
61 69 80
61 70 80
60 69 80
61 70 80
61 69 80
61 69 80
61 70 80
61 69 80
61 70 80
61 70 80
61 69 80
61 69 80
60 69 80
61 69 80
62 70 80
61 69 80
61 69 80
61 69 80
60 69 80
61 69 80
61 70 80
62 70 80
61 69 80
61 69 80
60 69 80
61 69 80
62 70 80
44 49 57
35 39 44
36 39 44
35 39 44
35 40 45
33 36 41
36 40 46
34 38 44
37 41 47
34 38 43
35 39 44
34 38 43
36 40 46
34 39 44
33 37 42
36 40 45
35 40 45
38 42 49
38 44 50
38 44 51
38 44 51
39 44 51
38 44 51
38 44 51
38 44 51
39 44 51
39 44 51
39 44 51
39 44 51
38 44 51
39 44 51
38 44 51
39 44 51
39 44 51
39 44 51
39 44 51
38 44 51
39 44 51
38 44 51
39 44 51
39 44 51
38 44 51
39 44 51
38 44 51
38 44 51
39 44 51
39 44 51
39 44 51
39 44 51
39 44 51
38 44 51
38 44 51
39 44 51
39 44 51
38 44 51
38 44 51
39 44 51
39 44 51
39 44 51
39 44 51
38 43 51
39 44 51
39 44 51
39 44 51
39 44 51
39 44 51
39 44 51
38 43 49
36 40 46
34 38 43
33 37 42
36 40 45
32 36 41
34 39 44
33 37 42
35 38 44
34 38 43
33 37 42
35 39 44
36 40 46
35 39 44
35 39 44
34 38 43
34 38 43
42 48 55
60 69 80
59 67 78
60 68 79
60 69 80
61 69 80
61 69 80
61 69 80
60 69 80
61 69 80
60 68 79
61 69 80
60 69 80
62 70 80
62 70 80
61 70 80
60 69 80
62 70 80
62 70 80
62 70 80
61 69 79
61 69 80
62 70 80
61 69 80
61 70 80
61 69 80
63 70 80
61 69 80
61 69 80
60 68 80
61 70 80
61 70 80
62 70 80
60 68 79
61 69 80
61 69 80
61 70 80
62 70 80
61 69 80
61 69 80
60 69 80
61 70 80
60 69 80
60 69 80
62 70 80
61 69 80
61 69 80
61 70 80
62 69 80
62 70 80
62 70 80
61 70 80
60 69 80
61 69 80
61 70 80
61 70 80
62 70 80
61 70 80
60 69 80
61 69 80
61 69 80
62 70 80
61 70 80
61 69 80
62 70 80
61 69 80
61 70 80
62 70 80
61 70 80
62 70 80
62 70 80
60 69 80
61 70 80
62 70 80
61 69 80
61 69 80
61 69 80
61 69 80
61 69 80
61 69 80
61 70 80
61 69 80
62 70 80
61 69 80
61 70 80
62 70 80
61 70 80
61 70 80
61 70 80
62 70 80
60 69 80
62 70 80
62 70 80
61 69 80
61 69 80
61 70 80
60 69 80
61 69 80
61 69 80
61 70 80
61 70 80
61 69 80
61 70 80
60 69 80
62 70 80
62 70 80
62 70 80
60 69 80
61 70 80
61 69 80
61 69 80
60 69 80
61 70 80
62 70 80
60 69 80
61 69 80
61 69 80
61 70 80
62 69 80
61 69 80
61 69 80
62 70 80
61 69 80
61 69 80
61 69 80
62 70 80
62 70 80
61 69 80
61 69 80
61 69 80
61 70 80
61 70 80
61 70 80
62 70 80
61 69 80
61 70 80
62 70 80
61 69 80
61 69 80
61 70 80
61 69 80
62 70 80
61 70 80
61 69 80
61 69 80
62 70 80
61 69 80
62 70 80
61 69 80
62 70 80
61 69 80
62 70 80
61 70 80
62 70 80
62 70 80
61 70 80
61 70 80
61 69 80
61 69 80
61 69 80
62 70 80
62 70 80
61 69 80
62 70 80
62 70 80
61 69 80
61 69 80
61 70 80
61 69 80
61 70 80
60 69 80
61 69 80
61 69 80
61 69 80
62 70 80
62 70 80
61 69 80
62 70 80
61 69 80
61 70 80
61 69 80
62 70 80
62 70 80
61 69 80
61 69 80
61 69 80
61 69 80
60 68 80
61 70 80
61 70 80
62 70 80
61 69 80
61 70 80
61 69 80
62 70 80
61 69 80
61 70 80
61 69 80
62 70 80
61 69 80
62 70 80
61 70 80
61 70 80
62 70 80
61 70 80
61 69 80
61 70 80
61 69 80
61 70 80
62 70 80
61 70 80
62 70 80
62 70 80
61 69 80
61 69 80
62 70 80
62 70 80
60 69 80
61 69 80
61 69 80
61 69 80
62 70 80
62 70 80
60 69 80
61 69 80
61 70 80
62 70 80
61 70 80
61 69 80
61 70 80
61 70 80
61 70 80
62 70 80
61 69 80
61 69 80
61 69 80
61 69 80
61 69 80
61 69 80
61 69 80
60 69 80
61 69 80
61 69 80
61 69 80
61 70 80
62 70 80
61 69 80
62 70 80
61 69 80
62 70 80
61 69 80
62 70 80
61 69 80
61 69 80
62 70 80
61 70 80
61 69 80
61 70 80
61 70 80
61 69 80
61 69 80
61 70 80
62 70 80
60 68 79
61 70 80
62 70 80
61 70 80
61 70 80
61 70 80
61 69 80
61 69 80
60 69 80
61 69 80
61 69 80
61 70 80
62 70 80
61 69 80
61 69 80
61 69 80
60 68 79
61 70 80
61 69 80
61 69 80
60 69 80
61 70 80
61 69 80
61 70 80
61 70 80
61 69 79
62 70 80
60 69 80
61 69 80
61 69 80
61 69 80
61 70 80
61 70 80
60 68 78
61 69 80
61 69 80
60 69 80
60 68 79
60 69 80
60 69 80
61 69 80
62 70 80
62 70 80
60 69 80
61 69 80
61 69 80
60 69 79
62 70 80
61 69 80
60 68 79
60 69 80
61 70 80
61 69 80
40 45 52
36 40 45
35 39 45
35 39 45
35 39 44
34 38 43
34 38 43
35 39 44
33 37 42
33 37 42
33 37 42
34 38 43
33 37 42
34 38 43
34 38 43
33 37 42
36 40 45
35 39 44
34 38 44
36 41 47
38 43 49
38 44 51
39 44 51
39 44 51
39 44 51
38 44 51
39 44 51
39 44 51
39 44 51
39 44 51
39 44 51
38 44 51
38 44 51
39 44 51
38 44 51
39 44 51
39 44 51
39 44 51
39 44 51
39 44 51
38 44 51
39 44 51
38 44 51
38 44 51
39 44 51
38 44 51
38 44 51
38 44 51
39 44 51
39 44 51
39 44 51
39 44 51
39 44 51
39 44 51
39 44 51
39 44 51
38 44 51
39 44 51
39 44 51
38 44 51
39 44 51
39 44 51
39 44 51
39 44 51
37 42 49
37 42 47
33 38 43
35 39 44
35 39 44
36 40 46
34 38 44
35 39 45
34 38 43
34 38 43
36 40 45
35 39 44
34 38 44
35 39 44
35 39 44
33 38 43
35 39 44
35 39 44
33 37 43
34 38 44
44 49 56
62 70 80
62 70 80
61 69 80
60 68 79
61 70 80
61 69 80
61 69 80
62 69 80
61 70 80
61 70 80
62 70 80
60 68 79
62 70 80
60 69 80
61 69 80
61 69 80
61 69 79
61 69 80
60 68 79
60 69 80
61 69 80
61 70 80
60 68 78
62 70 80
61 69 80
61 69 79
62 70 80
60 69 80
61 70 80
61 69 80
60 69 80
61 69 80
61 69 80
61 69 80
62 70 80
60 69 80
62 70 80
61 69 80
62 70 80
61 70 80
62 70 80
60 69 80
61 70 80
61 69 80
61 70 80
62 70 80
61 69 80
62 70 80
61 69 79
61 69 80
61 69 80
61 69 80
61 70 80
60 69 80
61 69 80
62 70 80
61 70 80
61 70 80
61 69 80
61 70 80
62 70 80
61 69 80
61 70 80
61 69 80
62 70 80
61 70 80
61 70 80
61 70 80
60 69 80
61 70 80
61 69 80
61 69 80
60 69 80
61 70 80
61 70 80
61 69 80
62 70 80
62 70 80
61 70 80
61 69 80
62 70 80
61 69 80
61 70 80
61 70 80
62 70 80
62 70 80
61 70 80
60 69 80
60 69 80
61 70 80
61 69 80
61 69 80
60 69 80
61 70 80
61 69 80
61 69 80
61 69 80
62 70 80
62 70 80
61 69 80
61 70 80
60 68 80
60 68 79
62 70 80
61 69 80
61 69 80
62 70 80
62 70 80
61 69 80
61 69 80
62 70 80
61 70 80
61 69 80
62 70 80
60 69 80
61 69 80
62 70 80
61 69 80
61 70 80
61 70 80
61 70 80
62 70 80
62 70 80
61 69 80
61 69 80
61 70 80
62 70 80
61 69 80
61 70 80
61 69 80
61 69 80
62 70 80
61 69 80
62 70 80
61 69 80
61 69 80
61 69 80
61 70 80
61 70 80
61 69 80
61 70 80
61 69 80
61 69 80
61 69 80
61 69 80
62 70 80
61 70 80
62 70 80
62 70 80
62 70 80
61 69 80
61 69 80
61 69 80
61 69 80
61 69 80
61 70 80
61 69 80
62 70 80
61 70 80
61 70 80
61 70 80
61 70 80
61 70 80
60 69 80
62 70 80
61 70 80
61 69 80
62 70 80
61 70 80
61 70 80
61 70 80
62 70 80
62 70 80
62 70 80
61 69 80
61 70 80
60 69 80
62 70 80
62 70 80
61 69 80
62 70 80
62 70 80
61 70 80
62 70 80
62 70 80
62 70 80
61 69 80
62 70 80
60 69 80
61 70 80
62 70 80
62 70 80
61 69 80
61 69 80
61 70 80
62 70 80
62 70 80
61 69 80
61 70 80
61 69 80
61 70 80
61 69 80
62 70 80
61 70 80
61 70 80
61 70 80
61 69 80
61 70 80
61 70 80
62 70 80
61 69 80
61 69 80
62 70 80
62 70 80
62 70 80
62 70 80
60 69 80
61 69 80
61 69 80
62 70 80
61 69 80
62 70 80
62 70 80
60 69 80
61 69 80
60 68 79
61 70 80
61 70 80
62 70 80
62 70 80
62 70 80
61 69 80
62 70 80
61 69 80
62 70 80
61 70 80
61 69 80
61 69 80
60 69 80
61 70 80
61 69 80
61 70 80
62 70 80
61 70 80
61 69 80
62 70 80
61 69 80
61 69 80
62 70 80
61 69 80
61 69 80
61 69 80
60 68 79
61 69 80
61 69 80
61 70 80
61 69 80
61 69 80
62 70 80
61 70 80
61 70 80
61 69 80
61 70 80
62 70 80
61 69 80
60 69 80
62 70 80
61 70 80
62 70 80
61 69 80
61 70 80
61 69 80
60 69 80
61 69 80
61 69 80
61 69 80
61 69 80
61 69 80
62 70 80
61 69 80
61 69 80
61 70 80
60 69 80
60 69 80
61 69 80
62 70 80
61 70 80
60 69 80
60 68 79
61 69 80
61 69 80
61 69 80
61 69 80
60 68 79
61 69 80
61 70 80
61 69 80
61 69 80
60 69 80
61 69 80
62 70 80
62 70 80
62 70 80
62 70 80
59 67 78
60 69 80
62 70 80
61 69 80
61 69 80
60 69 80
61 70 80
61 69 80
61 69 80
61 69 80
61 69 80
44 50 57
35 39 44
34 38 44
33 37 42
34 38 43
34 38 43
34 38 43
34 38 43
35 39 44
34 38 42
35 39 44
34 38 43
34 38 43
35 39 44
35 39 44
34 38 43
34 38 43
34 38 44
34 38 43
35 39 44
34 38 44
36 40 46
36 41 47
38 43 50
39 44 51
39 44 51
39 44 51
39 44 51
39 44 51
39 44 51
39 44 51
38 44 51
38 44 51
39 44 51
38 44 51
39 44 51
38 44 51
39 44 51
38 44 51
38 44 51
39 44 51
39 44 51
38 44 51
39 44 51
39 44 51
39 44 51
39 44 51
39 44 51
39 44 51
39 44 51
39 44 51
38 43 51
38 44 51
38 44 51
39 44 51
38 44 51
39 44 51
39 44 51
39 44 51
39 44 51
39 44 51
39 44 50
37 41 47
35 40 45
36 39 44
35 40 45
35 39 44
35 39 44
34 38 43
34 38 44
34 38 43
33 37 42
33 37 43
36 40 45
34 38 43
33 37 42
33 37 43
35 39 45
36 40 46
37 41 46
33 37 42
35 39 44
35 39 44
35 38 44
44 50 58
62 70 80
61 69 80
60 68 79
61 69 80
61 69 80
61 69 80
61 69 80
61 70 80
60 69 80
61 69 80
61 69 80
59 67 78
61 69 80
61 69 80
61 70 80
61 70 80
62 70 80
60 68 79
61 70 80
61 69 80
61 69 80
61 69 80
62 70 80
61 69 80
61 69 79
60 69 79
61 69 80
61 70 80
61 70 80
61 70 80
62 70 80
62 70 80
61 69 80
62 70 80
60 68 79
62 70 80
61 69 80
60 69 80
62 70 80
62 70 80
61 70 80
60 69 80
61 70 80
61 69 80
61 69 80
61 69 80
61 69 80
61 70 80
62 70 80
61 70 80
61 70 80
61 70 80
61 70 80
60 69 80
62 70 80
61 69 80
61 70 80
62 70 80
60 68 79
61 69 80
61 70 80
61 70 80
61 69 80
61 70 80
61 69 80
61 69 80
61 69 80
61 70 80
61 69 80
60 69 80
61 69 80
61 70 80
61 69 80
61 70 80
61 69 80
62 70 80
62 70 80
61 69 80
62 70 80
62 70 80
61 70 80
62 70 80
62 70 80
61 69 80
61 70 80
60 68 79
62 70 80
60 69 80
61 69 80
62 70 80
61 69 80
61 69 80
61 70 80
61 69 80
61 69 80
61 69 80
61 70 80
61 70 80
61 70 80
60 68 80
62 70 80
62 70 80
61 69 80
60 69 80
62 70 80
61 69 80
61 69 80
61 70 80
61 69 80
61 70 80
61 69 80
61 69 80
61 70 80
61 70 80
62 70 80
61 70 80
61 70 80
62 70 80
62 70 80
62 70 80
61 70 80
61 69 80
62 70 80
62 70 80
61 70 80
62 70 80
60 68 78
62 70 80
61 70 80
61 69 80
61 69 80
62 70 80
62 70 80
62 70 80
62 70 80
61 69 80
61 69 80
62 70 80
61 70 80
61 70 80
61 70 80
61 69 80
61 69 80
61 70 80
60 69 80
61 69 80
61 69 80
61 70 80
61 69 80
61 69 80
61 70 80
62 70 80
61 69 80
62 70 80
62 70 80
62 70 80
61 70 80
62 70 80
62 70 80
62 70 80
61 69 80
61 69 80
61 70 80
62 70 80
61 69 80
60 69 80
61 69 80
61 70 80
61 70 80
61 69 80
61 70 80
61 69 80
61 69 80
61 69 80
62 70 80
62 70 80
60 69 80
63 70 80
61 69 80
62 70 80
61 69 80
61 70 80
61 70 80
61 70 80
62 70 80
61 70 80
61 70 80
62 70 80
61 70 80
61 69 80
61 70 80
61 69 80
61 69 80
61 70 80
62 70 80
61 70 80
62 70 80
61 70 80
62 70 80
61 69 80
61 70 80
61 69 80
61 70 80
61 70 80
62 70 80
62 70 80
61 69 80
62 70 80
62 70 80
62 70 80
61 70 80
62 70 80
61 70 80
61 70 80
62 70 80
61 69 80
60 69 80
62 70 80
62 70 80
61 70 80
60 69 80
61 69 80
62 70 80
61 69 80
62 70 80
60 69 80
61 69 80
61 69 80
62 69 80
62 70 80
61 69 80
61 70 80
61 69 80
61 70 80
62 70 80
61 69 80
61 69 80
61 69 80
61 69 80
60 69 79
61 69 80
62 70 80
61 69 80
61 69 80
61 69 80
60 69 80
62 70 80
61 69 80
61 70 80
60 69 80
61 69 80
62 70 80
61 70 80
62 70 80
61 69 80
61 69 80
61 69 80
61 69 80
61 69 80
61 69 80
60 69 80
61 70 80
61 69 80
61 70 80
62 70 80
61 70 80
62 70 80
61 69 80
60 69 80
60 69 80
62 70 80
61 69 80
61 70 80
62 70 80
61 70 80
61 69 80
60 69 80
60 69 80
61 69 80
61 69 80
62 70 80
61 70 80
62 70 80
61 70 80
61 70 80
61 69 80
60 68 79
61 69 80
60 69 80
61 70 80
59 68 78
62 70 80
61 70 80
61 69 80
61 70 80
61 69 80
60 68 79
62 70 80
61 70 80
61 69 80
61 70 80
61 69 80
61 70 80
61 69 80
60 69 80
61 69 80
60 68 79
60 68 79
60 69 80
60 68 78
61 69 80
62 70 80
61 69 80
62 70 80
60 68 78
47 53 60
34 38 43
34 38 43
35 39 44
34 39 44
34 38 43
33 37 42
32 36 41
35 39 44
34 38 43
34 38 43
35 39 44
33 36 42
33 37 41
33 37 43
33 37 42
34 38 43
35 39 44
32 36 41
33 37 42
33 37 43
34 38 43
34 38 43
35 39 44
35 39 45
37 42 48
39 44 51
38 44 51
38 44 51
39 44 51
39 44 51
39 44 51
39 44 51
38 44 51
39 44 51
38 44 51
38 44 51
38 44 51
39 44 51
38 44 51
38 43 51
39 44 51
39 44 51
38 43 51
39 44 51
39 44 51
39 44 51
39 44 51
39 44 51
38 44 51
39 44 51
38 44 51
39 44 51
38 44 51
38 44 51
38 44 51
39 44 51
39 44 51
39 44 51
37 42 49
37 41 47
36 40 45
33 37 43
33 38 43
34 37 43
34 37 42
36 40 45
33 36 42
35 39 45
34 37 43
34 38 43
35 39 44
34 37 43
34 38 43
33 37 42
34 38 43
35 39 44
34 38 43
34 38 43
35 39 44
35 39 44
35 39 44
34 38 43
31 35 41
45 51 59
61 69 79
58 67 78
61 70 80
61 69 80
61 70 80
60 68 79
62 70 80
62 70 80
61 69 80
61 69 80
61 69 80
61 69 80
61 69 80
60 69 80
61 70 80
60 68 79
62 70 80
61 70 80
61 69 80
61 70 80
61 69 80
61 70 80
60 69 80
62 70 80
61 69 80
62 70 80
61 69 80
61 70 80
61 69 80
62 70 80
60 69 80
61 69 80
61 69 80
62 70 80
61 69 80
61 70 80
61 69 80
61 69 80
61 69 80
61 69 80
61 69 80
61 70 80
61 69 80
60 68 79
62 70 80
61 69 80
62 70 80
61 70 80
62 70 80
61 70 80
61 69 80
61 70 80
62 70 80
61 70 80
61 70 80
61 69 80
61 69 80
61 70 80
61 69 80
61 69 80
61 70 80
61 69 80
61 69 80
61 69 80
60 68 79
61 70 80
61 69 80
61 69 80
61 70 80
62 70 80
62 70 80
61 70 80
61 69 80
60 69 80
61 69 80
61 69 80
61 70 80
61 69 80
62 70 80
61 69 80
61 70 80
61 70 80
60 69 80
61 69 80
62 70 80
61 70 80
60 69 80
61 70 80
63 70 80
62 70 80
62 70 80
61 69 80
61 69 80
61 70 80
61 69 80
61 69 80
61 70 80
61 70 80
61 69 80
62 70 80
62 70 80
61 70 80
61 69 80
62 70 80
62 70 80
62 70 80
62 70 80
62 70 80
61 70 80
62 70 80
61 70 80
60 69 80
61 70 80
62 70 80
61 70 80
61 70 80
62 70 80
61 70 80
61 69 80
61 70 80
61 70 80
62 70 80
61 69 80
61 70 80
62 70 80
61 70 80
61 70 80
61 69 80
61 69 80
61 70 80
61 70 80
61 69 80
60 69 80
62 70 80
61 70 80
62 70 80
62 70 80
61 69 80
62 70 80
62 70 80
62 70 80
61 70 80
61 69 80
62 70 80
61 69 80
61 70 80
61 69 80
61 70 80
61 70 80
60 69 80
61 69 80
61 69 80
62 70 80
61 69 80
62 70 80
61 70 80
61 69 80
62 70 80
62 70 80
62 70 80
62 70 80
62 70 80
61 70 80
62 70 80
61 69 80
61 69 80
62 70 80
61 70 80
60 69 80
62 70 80
62 70 80
62 70 80
61 69 80
61 70 80
62 70 80
61 69 80
61 70 80
61 69 80
60 69 80
61 69 80
62 70 80
61 70 80
61 69 80
61 69 80
61 70 80
62 70 80
62 70 80
61 69 80
61 69 80
62 70 80
62 70 80
62 70 80
61 70 80
62 70 80
62 70 80
61 69 80
61 69 80
61 69 80
61 70 80
62 70 80
62 70 80
61 70 80
61 69 80
61 70 80
62 70 80
61 69 80
61 69 80
61 70 80
61 70 80
62 70 80
61 70 80
62 70 80
61 70 80
62 70 80
62 70 80
61 70 80
61 69 80
61 70 80
61 70 80
61 69 80
62 70 80
62 70 80
61 69 80
61 69 80
61 69 80
62 70 80
61 69 80
62 70 80
61 70 80
61 70 80
62 70 80
60 69 80
61 69 80
61 69 80
61 69 80
62 70 80
62 70 80
62 70 80
60 68 79
61 69 80
61 69 79
62 70 80
61 69 80
61 70 80
62 70 80
61 70 80
61 69 80
61 69 80
61 70 80
61 70 80
61 70 80
62 70 80
61 70 80
62 70 80
61 69 80
61 70 80
60 69 80
61 69 80
62 70 80
61 70 80
60 69 80
61 69 79
62 70 80
61 70 80
61 69 80
61 69 80
60 69 80
62 70 80
60 69 80
62 70 80
62 70 80
62 70 80
61 69 80
61 69 80
61 69 80
60 69 80
61 70 80
62 70 80
62 70 80
61 69 80
61 69 80
61 70 80
60 69 80
61 69 80
61 69 80
60 69 80
61 69 80
61 70 80
60 69 80
60 69 80
61 70 80
59 67 78
61 69 80
61 69 80
62 70 80
60 68 78
60 68 78
61 70 80
62 70 80
60 68 78
61 69 80
60 68 79
60 68 79
61 69 80
59 68 78
59 67 78
61 69 80
61 69 80
60 69 80
61 69 80
61 69 80
61 69 80
60 68 79
60 69 80
61 69 80
50 56 65
35 39 44
36 40 45
35 39 44
34 38 43
33 37 42
35 39 44
33 37 42
33 37 42
34 38 44
35 39 45
35 39 44
34 38 43
33 37 42
34 38 43
35 39 45
32 36 41
34 38 43
34 38 43
34 38 43
35 39 44
33 37 42
33 37 43
34 38 43
35 39 44
35 39 44
37 41 46
37 42 48
38 43 50
39 44 51
39 44 51
38 44 51
38 44 51
39 44 51
39 44 51
39 44 51
39 44 51
38 44 51
38 44 51
38 44 51
39 44 51
39 44 51
39 44 51
39 44 51
38 44 51
39 44 51
39 44 51
38 44 51
39 44 51
38 44 51
39 44 51
38 44 51
39 44 51
39 44 51
38 44 51
38 44 51
38 43 49
37 42 48
36 40 45
32 37 42
32 36 41
34 38 43
34 38 43
33 37 42
35 39 44
35 39 44
34 38 44
35 39 44
34 38 44
35 39 44
35 38 44
35 39 44
34 38 43
35 39 44
34 38 43
32 36 41
37 41 47
35 39 44
34 37 42
37 41 46
33 37 42
34 38 43
34 38 43
35 39 44
49 56 65
61 69 80
61 69 79
60 69 80
62 70 80
60 68 78
60 69 80
61 69 80
60 68 79
61 69 80
59 68 78
61 69 80
62 70 80
61 69 80
61 70 80
61 69 80
61 69 80
60 68 79
60 69 80
62 70 80
61 70 80
61 69 80
63 70 80
61 69 80
61 69 80
62 70 80
60 68 79
61 69 80
61 69 80
62 70 80
61 70 80
61 69 80
61 69 80
61 70 80
61 69 80
60 69 80
60 68 79
62 70 80
61 70 80
61 69 80
62 70 80
61 69 80
61 69 80
62 70 80
61 70 80
61 70 80
61 69 80
61 69 80
62 70 80
61 69 80
61 69 80
61 69 80
62 70 80
61 69 80
62 70 80
62 70 80
62 69 80
61 69 80
62 70 80
61 69 80
61 69 79
62 70 80
61 69 80
60 68 80
61 70 80
62 70 80
62 70 80
62 70 80
61 70 80
62 70 80
62 70 80
61 69 80
61 69 80
60 68 79
61 69 80
61 70 80
62 70 80
61 69 80
61 70 80
62 70 80
60 69 80
62 70 80
61 69 80
61 69 80
61 69 80
62 70 80
61 70 80
61 70 80
61 69 80
61 70 80
61 70 80
61 69 80
61 70 80
61 69 80
62 70 80
60 69 80
62 70 80
61 69 80
61 70 80
61 70 80
61 69 80
61 70 80
61 69 80
60 69 80
61 70 80
61 70 80
61 70 80
62 70 80
61 70 80
61 70 80
61 70 80
61 70 80
62 70 80
62 70 80
62 70 80
61 70 80
61 70 80
61 70 80
61 70 80
62 70 80
62 70 80
61 70 80
62 70 80
61 70 80
60 69 80
61 70 80
61 70 80
61 70 80
62 70 80
62 70 80
61 70 80
62 70 80
61 70 80
61 70 80
62 70 80
62 70 80
61 70 80
62 70 80
62 70 80
61 70 80
61 70 80
60 69 80
61 69 80
61 70 80
61 69 80
61 70 80
61 69 80
62 70 80
61 69 80
62 70 80
62 70 80
61 69 80
60 69 80
62 70 80
61 69 80
61 70 80
61 69 80
61 70 80
62 70 80
61 70 80
61 70 80
62 70 80
61 69 80
61 70 80
61 69 80
62 70 80
61 69 80
61 70 80
61 70 80
61 70 80
61 70 80
61 70 80
61 70 80
61 70 80
62 70 80
62 70 80
62 70 80
60 68 79
61 69 80
61 69 80
62 70 80
61 70 80
62 70 80
61 69 80
61 69 80
61 70 80
61 69 80
61 70 80
61 70 80
61 69 80
61 70 80
61 70 80
61 69 80
61 70 80
61 69 80
61 69 80
61 70 80
61 70 80
62 70 80
62 70 80
61 69 80
62 70 80
61 69 80
61 70 80
61 69 80
60 68 79
61 69 80
61 69 80
61 70 80
61 69 80
62 70 80
60 69 80
62 70 80
61 69 80
61 70 80
62 70 80
61 70 80
62 70 80
61 69 80
61 69 80
61 69 80
61 69 80
61 69 80
60 69 80
62 70 80
62 70 80
61 69 80
61 70 80
62 70 80
61 69 80
61 70 80
61 69 80
61 70 80
61 69 80
61 69 79
62 70 80
61 69 80
61 70 80
62 70 80
61 69 80
61 69 80
61 70 80
61 69 80
62 70 80
60 69 80
61 69 80
62 70 80
61 69 80
62 70 80
61 69 80
61 69 80
62 70 80
61 70 80
61 70 80
60 69 80
60 69 80
61 69 80
61 70 80
61 69 80
61 69 80
60 68 79
61 69 80
61 69 80
61 70 80
61 69 80
62 70 80
61 69 80
62 70 80
61 69 80
61 69 80
61 70 80
61 69 80
61 69 80
62 70 80
59 68 79
60 69 80
61 69 80
61 69 80
60 69 80
61 69 80
62 70 80
60 68 79
61 69 80
60 69 80
61 69 80
61 69 80
61 69 80
59 68 78
61 69 80
61 69 80
62 70 80
61 69 80
62 70 80
61 69 80
61 69 80
61 69 80
60 68 80
60 69 80
60 69 80
62 70 80
60 69 80
62 70 80
61 69 80
61 69 80
62 70 80
60 68 79
62 70 80
61 69 79
61 69 80
61 69 79
61 69 80
61 69 80
60 68 79
62 70 80
62 70 80
61 70 80
53 61 70
35 39 44
35 39 44
34 38 44
33 38 43
34 38 44
35 39 44
35 39 44
34 38 43
35 39 44
35 39 44
35 39 44
35 38 43
34 38 44
35 39 45
35 39 44
35 39 44
36 40 45
35 39 44
34 38 44
34 38 43
36 40 45
35 39 44
36 40 45
36 40 46
35 39 44
34 38 43
34 38 43
35 39 44
35 40 46
38 42 49
38 44 51
39 44 51
38 44 51
39 44 51
39 44 51
39 44 51
39 44 51
39 44 51
39 44 51
39 44 51
38 44 51
39 44 51
39 44 51
39 44 51
39 44 51
39 44 51
39 44 51
39 44 51
39 44 51
39 44 51
38 44 51
39 44 51
39 44 51
38 43 50
35 39 45
36 39 45
36 40 45
33 37 42
33 37 42
33 37 42
34 38 43
34 38 44
36 40 46
35 39 45
34 39 44
36 40 45
36 40 45
34 38 43
35 40 45
34 38 44
34 38 43
34 38 43
34 38 44
34 38 43
34 38 43
34 38 44
35 38 44
35 39 44
36 40 45
33 37 42
34 38 43
35 39 45
35 39 44
51 58 67
61 69 80
62 70 80
62 69 80
60 69 80
61 70 80
61 69 80
61 69 80
61 69 80
61 69 80
61 70 80
60 69 80
61 69 80
60 69 80
61 69 80
62 70 80
60 69 80
60 69 80
61 69 80
62 70 80
61 69 80
62 70 80
61 69 80
62 70 80
60 69 80
62 70 80
61 69 80
61 69 80
61 70 80
60 68 78
61 69 79
60 68 79
60 69 80
61 69 80
61 70 80
60 69 80
62 70 80
62 70 80
61 69 80
61 69 80
61 69 79
60 69 80
61 70 80
59 67 78
60 69 80
62 70 80
61 69 80
61 69 79
61 69 80
62 70 80
61 69 80
61 69 80
60 68 79
61 69 80
61 70 80
60 68 79
60 68 79
61 69 79
62 70 80
62 70 80
61 69 80
61 69 80
62 70 80
61 70 80
61 69 80
61 69 80
61 70 80
62 70 80
61 69 80
60 69 80
61 69 80
61 70 80
61 69 80
62 70 80
60 69 80
61 69 80
61 69 80
61 69 80
62 70 80
62 70 80
61 70 80
61 69 80
62 70 80
62 70 80
61 69 80
62 70 80
61 70 80
62 70 80
61 70 80
61 69 80
61 70 80
61 69 80
62 70 80
62 70 80
61 69 80
62 70 80
61 69 80
62 70 80
61 70 80
61 69 80
62 70 80
62 70 80
62 70 80
61 69 80
61 70 80
62 70 80
61 70 80
61 70 80
61 70 80
60 68 80
61 69 80
61 69 80
62 70 80
62 70 80
62 70 80
61 70 80
60 69 80
62 70 80
62 70 80
61 70 80
62 70 80
61 70 80
61 69 80
61 70 80
61 69 80
61 70 80
62 70 80
62 70 80
60 69 80
61 69 80
60 69 80
61 69 80
61 69 80
62 70 80
61 69 80
62 70 80
61 70 80
62 70 80
62 70 80
60 69 80
62 70 80
60 69 80
61 69 80
62 70 80
62 70 80
61 70 80
62 70 80
61 70 80
61 70 80
61 69 80
62 70 80
62 70 80
61 70 80
61 69 80
62 70 80
61 70 80
61 70 80
62 70 80
62 70 80
61 69 80
61 70 80
61 70 80
62 70 80
61 70 80
61 70 80
62 70 80
61 69 80
61 70 80
61 70 80
61 70 80
61 70 80
61 70 80
62 70 80
61 70 80
61 70 80
61 70 80
61 69 80
62 70 80
61 69 80
62 70 80
61 70 80
61 69 80
62 70 80
60 68 79
61 70 80
62 70 80
61 69 80
61 69 80
61 69 80
60 69 80
61 69 80
61 70 80
61 69 80
61 70 80
61 69 80
62 70 80
61 70 80
61 70 80
62 70 80
61 69 80
62 70 80
62 70 80
60 69 80
61 69 80
62 70 80
61 69 80
62 70 80
61 69 80
61 69 80
60 69 80
60 69 80
62 70 80
61 70 80
61 70 80
61 69 80
61 70 80
61 70 80
61 69 80
61 70 80
61 70 80
61 69 80
61 70 80
62 70 80
62 70 80
60 69 80
61 69 80
61 70 80
61 70 80
62 70 80
61 69 80
61 69 80
61 70 80
60 69 80
61 70 80
61 69 80
61 70 80
61 70 80
61 69 80
61 69 80
61 69 79
61 70 80
61 69 80
61 69 80
62 70 80
62 70 80
60 68 79
62 70 80
61 70 80
61 70 80
61 70 80
61 69 79
61 69 80
60 69 80
62 70 80
62 70 80
61 70 80
61 68 79
60 68 79
61 70 80
62 70 80
61 70 80
61 69 80
61 69 80
60 68 79
60 69 80
62 70 80
61 70 80
61 69 80
62 70 80
62 70 80
61 70 80
60 69 80
60 68 79
61 70 80
61 70 80
61 69 80
62 70 80
61 69 80
61 70 80
62 70 80
61 70 80
62 70 80
61 69 80
61 70 80
62 70 80
61 69 80
61 70 80
59 68 79
61 70 80
61 69 80
61 69 79
61 69 80
60 69 80
61 70 80
62 70 80
61 70 80
61 70 80
61 69 80
61 70 80
61 69 80
61 69 80
61 70 80
62 70 80
59 67 78
61 69 80
60 69 80
62 70 80
61 69 80
61 69 80
61 69 80
60 68 79
61 68 78
60 69 80
62 70 80
61 69 80
60 69 80
55 63 72
34 38 44
32 36 41
35 39 44
34 38 43
34 38 44
35 39 45
33 37 42
34 38 44
34 38 43
35 39 45
35 38 44
35 39 44
36 40 45
34 38 43
33 36 41
34 37 43
36 40 46
34 38 44
34 38 43
35 38 44
36 40 45
35 39 44
34 38 43
35 39 44
34 39 44
33 37 42
35 39 44
35 39 45
34 38 43
32 36 41
36 40 46
36 40 46
38 43 50
39 44 51
38 44 51
38 44 51
39 44 51
39 44 51
39 44 51
39 44 51
39 44 51
38 44 51
39 44 51
39 44 51
39 44 51
39 44 51
38 44 51
39 44 51
39 44 51
39 44 51
38 43 49
36 42 48
35 39 44
34 38 44
35 39 44
33 37 42
35 39 44
35 39 44
35 39 45
35 39 44
32 36 42
36 40 46
34 38 43
34 38 44
34 38 43
34 38 43
34 38 44
34 38 43
35 40 45
36 40 45
35 39 44
35 39 44
34 37 43
34 38 43
35 39 44
35 39 44
34 38 43
33 36 42
35 39 44
33 38 43
33 37 43
36 40 45
34 38 43
54 60 69
61 69 80
62 70 80
61 69 80
62 70 80
59 68 78
60 69 80
61 70 80
60 69 80
60 69 79
60 68 79
60 68 79
60 69 80
61 69 80
61 69 79
60 69 80
60 68 79
61 69 80
61 70 80
61 70 80
61 69 80
61 69 80
61 69 80
62 70 80
62 70 80
61 69 80
61 69 79
60 68 79
61 69 80
60 69 80
61 69 80
61 69 80
61 70 80
62 70 80
61 69 79
61 70 80
61 69 80
62 70 80
61 70 80
60 68 79
60 69 80
62 70 80
61 69 80
61 70 80
60 69 80
61 69 80
61 69 80
61 70 80
61 69 80
61 69 80
60 68 79
61 69 80
61 70 80
61 70 80
60 68 79
62 70 80
61 69 80
61 70 80
61 70 80
61 69 80
61 70 80
61 70 80
61 69 80
62 70 80
61 70 80
61 70 80
62 70 80
61 70 80
61 69 80
61 69 80
61 70 80
60 69 80
61 69 79
61 70 80
61 69 80
62 70 80
62 70 80
61 69 80
61 70 80
62 70 80
61 69 80
61 69 80
61 70 80
61 69 80
61 70 80
61 69 80
62 70 80
61 70 80
62 70 80
62 70 80
61 70 80
62 70 80
61 70 80
62 70 80
60 69 80
62 70 80
61 69 80
62 70 80
60 69 80
61 69 80
61 69 80
62 70 80
62 70 80
61 69 80
61 69 80
62 70 80
62 70 80
61 69 80
61 70 80
61 69 80
62 70 80
61 70 80
61 69 80
61 70 80
61 69 80
61 69 80
61 69 80
61 69 80
61 70 80
62 70 80
62 70 80
61 69 80
61 69 80
61 70 80
61 69 80
61 70 80
61 70 80
61 70 80
62 70 80
61 69 80
60 69 80
62 70 80
61 69 80
62 70 80
62 70 80
62 70 80
61 70 80
61 69 80
61 69 80
62 70 80
61 69 80
61 69 80
61 69 80
61 70 80
61 69 80
61 69 80
62 70 80
61 69 80
62 70 80
61 69 80
61 70 80
61 70 80
61 69 80
62 70 80
62 70 80
61 69 80
61 69 80
62 70 80
61 70 80
61 69 80
62 70 80
61 70 80
61 70 80
61 69 80
62 70 80
61 69 80
61 70 80
61 69 80
61 70 80
60 69 80
62 70 80
62 70 80
61 70 80
61 69 80
61 70 80
60 69 80
61 69 80
62 70 80
62 70 80
61 70 80
62 70 80
61 69 80
62 70 80
61 69 80
61 70 80
62 70 80
61 70 80
62 70 80
62 70 80
61 70 80
61 69 80
61 70 80
61 70 80
61 69 80
62 70 80
61 70 80
62 70 80
61 69 80
62 70 80
62 70 80
60 69 80
62 70 80
62 70 80
62 70 80
62 70 80
61 70 80
62 70 80
61 69 80
62 70 80
62 70 80
62 70 80
62 70 80
60 69 80
61 69 80
61 69 80
61 69 80
61 69 80
61 70 80
61 69 80
61 69 80
60 69 80
62 70 80
62 70 80
61 69 80
60 69 80
62 70 80
60 69 80
61 70 80
61 69 80
61 69 80
61 69 80
62 70 80
61 70 80
62 70 80
62 70 80
61 69 80
61 69 80
61 69 80
61 69 80
61 69 79
61 70 80
61 69 80
61 69 80
61 69 80
61 69 80
61 70 80
61 69 80
61 69 80
61 70 80
62 70 80
61 69 80
62 70 80
63 70 80
62 70 80
61 70 80
62 70 80
61 69 80
60 68 79
60 69 80
62 70 80
61 69 80
61 69 80
61 69 80
61 69 80
60 68 79
62 70 80
61 69 80
61 70 80
61 70 80
61 70 80
61 69 80
62 70 80
61 70 80
60 69 80
62 70 80
61 70 80
61 70 80
62 70 80
61 69 80
61 69 80
61 69 80
60 68 79
62 69 80
61 69 80
61 70 80
61 70 80
61 69 80
61 69 80
61 69 80
60 68 79
61 69 80
60 69 80
61 69 80
61 69 80
61 69 79
62 70 80
61 69 80
61 70 80
60 68 79
61 69 80
62 70 80
61 69 80
60 68 79
61 69 79
60 69 80
60 69 80
61 69 80
60 68 78
61 69 80
60 68 79
60 69 80
60 69 80
60 68 78
61 69 80
62 70 80
61 69 80
54 62 72
35 39 44
33 37 42
35 39 44
34 38 43
35 38 44
33 37 42
34 37 43
34 38 43
34 39 44
32 36 41
35 39 44
35 39 44
35 39 44
34 37 42
36 40 45
34 38 43
33 37 43
35 39 44
35 39 45
33 37 42
34 38 44
32 36 42
33 37 42
33 37 42
34 38 43
36 40 45
33 37 42
35 39 44
32 37 42
33 37 43
35 39 44
33 37 42
34 37 43
36 40 46
38 42 49
39 44 51
38 44 51
39 44 51
39 44 51
39 44 51
39 44 51
38 44 51
39 44 51
38 44 51
39 44 51
39 44 51
38 44 51
38 44 51
37 42 49
36 41 47
34 38 43
34 39 44
35 39 44
34 38 44
34 37 42
34 38 43
33 37 42
34 38 44
35 39 44
34 38 43
33 37 43
35 39 44
35 39 44
35 39 44
34 38 43
34 38 44
33 37 42
36 40 45
35 39 44
36 40 46
34 39 44
33 37 43
33 37 42
36 40 45
34 37 43
36 40 46
32 36 41
34 37 43
36 39 45
34 38 43
34 38 43
34 38 43
35 39 44
58 65 75
61 70 80
61 69 80
60 68 79
60 69 80
61 69 80
62 70 80
59 68 78
60 68 79
61 70 80
62 70 80
60 69 80
61 70 80
61 69 79
61 69 80
60 69 80
60 68 80
60 69 80
60 68 78
61 69 80
61 69 80
61 69 80
61 69 80
61 69 80
61 69 80
60 68 80
60 69 80
60 68 79
61 70 80
61 69 80
61 69 79
62 70 80
61 70 80
61 69 80
61 70 80
61 69 80
62 70 80
61 70 80
62 70 80
61 69 80
61 69 80
61 69 80
60 68 79
60 68 80
61 69 80
60 69 80
61 69 80
61 69 79
61 70 80
61 70 80
62 70 80
61 69 80
60 69 79
62 70 80
62 70 80
60 69 80
61 70 80
62 70 80
61 69 80
61 69 80
61 69 80
62 70 80
62 70 80
62 70 80
61 69 80
61 70 80
62 70 80
62 70 80
61 70 80
60 68 79
61 70 80
60 69 80
61 70 80
61 69 80
61 69 80
62 70 80
60 69 80
61 70 80
61 69 80
61 70 80
62 70 80
60 69 80
61 70 80
61 69 80
62 70 80
62 70 80
60 69 80
61 69 80
61 70 80
61 70 80
61 70 80
61 70 80
61 69 80
62 70 80
61 70 80
61 70 80
62 70 80
61 70 80
62 70 80
61 69 80
62 70 80
61 70 80
62 70 80
61 69 80
61 69 80
61 69 80
61 69 80
61 69 80
62 70 80
60 69 80
61 70 80
62 70 80
61 70 80
62 70 80
61 69 79
62 70 80
61 69 80
62 70 80
61 70 80
61 70 80
62 70 80
62 70 80
61 70 80
62 70 80
62 70 80
61 70 80
61 70 80
61 69 80
62 70 80
61 70 80
60 69 80
62 70 80
61 69 80
62 70 80
61 70 80
61 70 80
62 70 80
61 70 80
61 69 80
62 70 80
61 69 80
61 70 80
61 70 80
60 69 80
61 70 80
61 69 80
60 69 80
61 69 80
62 70 80
62 70 80
61 69 80
62 70 80
62 70 80
61 70 80
62 70 80
62 70 80
62 70 80
61 69 80
61 69 80
61 69 80
62 70 80
61 70 80
61 69 80
62 70 80
61 69 80
61 69 80
62 70 80
62 70 80
61 70 80
61 69 80
62 70 80
61 69 80
62 70 80
61 69 80
61 69 80
61 69 80
61 70 80
61 69 80
62 70 80
61 69 80
61 69 80
61 70 80
61 70 80
61 70 80
61 70 80
62 70 80
61 69 80
61 70 80
62 70 80
61 69 80
61 69 80
61 70 80
61 70 80
62 70 80
61 69 80
62 70 80
61 70 80
62 70 80
61 69 80
60 69 80
61 70 80
61 69 80
62 70 80
62 70 80
61 70 80
60 69 80
61 70 80
61 69 80
60 68 79
61 69 80
62 70 80
60 69 80
62 70 80
61 70 80
62 70 80
60 69 80
60 69 80
61 70 80
61 69 80
61 69 80
61 69 80
61 70 80
62 69 80
61 70 80
61 70 80
62 70 80
61 70 80
62 70 80
61 70 80
61 70 80
62 70 80
61 69 80
61 70 80
61 69 80
62 70 80
61 69 80
61 69 80
61 70 80
61 69 80
61 69 80
60 69 80
61 69 80
61 70 80
61 69 80
60 69 80
61 70 80
61 69 80
61 69 80
61 69 80
61 69 80
61 70 80
61 70 80
62 70 80
61 69 80
60 69 80
61 69 80
61 69 80
61 70 80
61 69 80
62 70 80
61 69 80
61 70 80
61 69 80
61 69 80
60 69 80
59 68 79
61 70 80
62 70 80
61 69 80
62 70 80
62 70 80
61 69 80
61 69 80
61 69 80
61 69 80
61 69 80
60 69 80
61 70 80
61 69 80
61 70 80
61 70 80
60 68 80
60 69 80
61 69 80
61 70 80
61 69 80
61 69 80
61 70 80
62 70 80
61 70 80
61 70 80
61 69 80
61 69 80
61 70 80
60 68 79
61 70 80
61 69 80
61 69 80
61 70 80
60 68 79
61 69 80
60 68 78
61 69 80
61 69 79
61 69 80
59 68 79
60 68 79
59 67 77
60 69 80
59 67 78
61 70 80
61 69 80
60 68 79
61 69 80
61 69 80
60 68 78
56 64 74
34 38 44
35 38 44
33 37 42
34 38 43
35 39 44
34 38 43
35 39 44
35 39 44
35 39 44
34 37 43
34 37 43
34 38 43
34 38 44
36 40 46
35 39 44
34 38 43
33 37 43
35 40 45
33 37 42
34 38 43
33 37 42
34 38 43
35 40 45
33 37 42
36 40 46
34 38 43
34 38 43
34 38 43
34 39 44
34 38 43
34 38 44
35 39 44
34 38 43
33 37 42
33 37 42
35 39 44
37 41 48
38 43 49
38 44 51
39 44 51
38 44 51
39 44 51
39 44 51
39 44 51
39 44 51
37 43 50
37 41 47
34 38 43
35 39 44
33 37 42
33 38 43
35 39 44
34 38 43
35 39 44
34 38 44
35 39 44
34 38 44
34 38 43
35 39 45
35 39 44
35 39 45
34 38 44
34 38 43
35 39 44
34 37 43
34 38 43
37 41 46
35 39 44
35 39 44
36 40 46
33 37 42
35 39 44
37 41 46
35 39 44
35 39 44
33 37 43
35 39 44
35 39 44
33 37 42
34 38 43
35 40 45
33 37 42
36 40 46
57 64 73
60 69 80
60 69 80
61 70 80
61 69 80
60 69 80
61 70 80
59 67 78
61 69 79
59 68 78
60 69 80
61 70 80
61 69 80
60 68 78
61 69 80
61 69 80
61 69 80
61 69 80
61 70 80
62 70 80
60 69 80
61 70 80
61 69 80
61 69 80
61 69 80
61 69 80
61 69 80
62 70 80
61 69 80
61 69 79
60 68 79
61 69 80
61 69 80
59 68 78
60 69 80
60 69 80
61 69 80
62 70 80
61 69 80
62 70 80
61 69 80
61 70 80
61 69 80
61 69 80
61 69 80
60 68 79
60 69 80
60 69 80
61 70 80
61 70 80
61 69 80
60 69 80
61 70 80
61 70 80
61 69 80
61 69 80
60 69 80
61 69 80
61 69 80
62 70 80
61 69 80
61 70 80
61 69 80
61 70 80
62 70 80
61 70 80
60 69 80
61 69 80
61 70 80
62 70 80
63 70 80
60 69 80
61 69 80
62 70 80
61 69 80
62 69 80
62 70 80
61 69 80
60 69 80
61 70 80
60 69 80
61 70 80
62 70 80
62 70 80
62 70 80
62 70 80
61 69 79
61 70 80
61 69 80
61 70 80
61 69 80
61 70 80
62 70 80
61 69 80
61 69 80
62 70 80
62 70 80
62 70 80
60 69 80
61 69 80
61 69 80
61 70 80
61 70 80
61 70 80
60 69 80
61 70 80
61 69 80
61 70 80
61 70 80
61 70 80
61 69 80
61 70 80
62 70 80
61 69 80
62 70 80
62 70 80
61 69 80
62 70 80
61 70 80
61 69 80
62 70 80
60 69 80
61 69 80
61 69 80
61 69 80
61 70 80
61 70 80
61 69 80
61 70 80
61 70 80
61 70 80
62 70 80
61 70 80
62 69 80
60 69 80
61 69 80
61 69 80
62 70 80
62 70 80
61 69 80
61 69 80
61 70 80
61 70 80
62 70 80
62 70 80
62 70 80
61 70 80
62 70 80
62 70 80
61 69 80
61 70 80
61 69 80
62 70 80
61 70 80
62 70 80
62 70 80
62 70 80
61 69 80
61 69 80
60 69 80
61 69 80
61 69 80
62 70 80
61 70 80
62 70 80
62 70 80
62 70 80
62 70 80
61 70 80
61 70 80
61 70 80
62 70 80
61 70 80
62 70 80
62 70 80
61 70 80
62 70 80
61 69 80
61 69 80
61 70 80
61 69 80
61 69 80
61 70 80
61 70 80
62 70 80
61 70 80
61 69 80
62 70 80
61 69 80
61 70 80
61 70 80
61 69 80
61 70 80
61 69 80
61 69 80
62 70 80
62 70 80
61 70 80
60 68 79
61 70 80
61 69 80
62 70 80
61 69 80
61 70 80
61 69 80
61 69 80
61 69 80
61 69 80
61 69 80
62 70 80
62 70 80
61 69 80
62 70 80
62 70 80
60 69 80
61 69 80
62 70 80
61 69 80
61 70 80
61 69 79
61 70 80
62 70 80
61 69 80
62 70 80
61 70 80
61 70 80
62 70 80
62 70 80
62 70 80
60 68 80
61 69 80
61 70 80
61 69 80
62 70 80
61 70 80
61 69 80
61 69 80
61 70 80
61 69 80
61 69 80
61 69 80
60 69 80
61 70 80
61 69 80
61 69 80
61 70 80
60 69 80
62 70 80
61 69 80
62 69 80
61 70 80
61 70 80
61 69 80
62 70 80
61 69 80
61 69 80
61 69 80
60 68 79
61 70 80
62 70 80
60 69 80
62 70 80
61 69 80
61 69 79
61 69 80
61 69 80
62 70 80
61 69 80
62 70 80
61 69 80
60 68 79
61 69 80
60 68 78
61 70 80
61 70 80
61 69 80
62 70 80
61 69 80
61 69 80
62 70 80
61 69 80
60 68 79
62 70 80
62 70 80
60 68 79
61 69 80
61 70 80
60 69 80
61 69 80
61 69 79
61 69 80
61 69 80
62 70 80
61 69 79
61 69 80
61 69 80
58 67 78
62 70 80
60 68 79
61 69 80
61 69 80
61 69 80
60 68 78
60 68 79
60 69 80
62 70 80
61 69 80
61 70 80
60 68 79
61 69 80
61 69 80
60 68 79
60 68 79
60 68 79
60 69 80
60 68 79
58 66 76
35 38 43
34 38 43
36 40 46
35 39 44
37 41 46
34 38 43
34 38 43
34 38 43
36 40 45
34 38 44
35 39 44
33 37 42
33 37 42
35 39 45
36 40 45
34 38 43
35 40 45
33 37 42
35 39 44
34 38 43
36 40 45
33 36 41
35 39 44
35 39 45
35 39 44
35 39 45
34 38 43
34 38 43
34 38 43
34 38 43
33 37 42
35 39 44
33 37 43
35 39 44
34 38 43
35 39 45
33 37 42
35 38 43
35 39 45
38 42 48
38 44 50
39 44 51
38 43 50
36 41 47
35 39 45
34 38 44
33 37 42
35 39 44
33 37 42
36 40 45
35 39 44
34 38 43
34 38 43
34 38 44
35 39 44
34 38 43
34 38 42
35 39 44
35 38 44
35 39 44
34 38 44
34 38 44
34 38 43
35 39 44
35 39 45
34 38 43
33 37 42
35 39 44
32 36 41
36 40 45
36 40 45
33 37 42
34 38 44
33 37 42
34 38 43
34 38 44
35 39 44
35 38 43
34 38 43
34 38 43
33 37 42
32 36 41
33 38 44
57 65 76
61 69 80
61 69 80
59 68 78
61 69 80
61 69 80
61 69 80
60 68 80
61 70 80
61 69 80
61 69 80
61 69 79
60 68 78
61 69 80
61 69 80
61 69 80
61 69 80
60 68 78
60 69 80
61 69 80
61 69 80
61 69 80
60 69 80
60 68 79
60 68 79
61 69 80
61 69 80
60 68 79
60 68 79
62 70 80
61 70 80
61 69 80
60 68 79
60 69 80
62 69 80
60 68 80
61 69 80
61 69 80
62 69 80
60 69 80
62 70 80
62 70 80
61 69 80
61 69 80
62 70 80
62 70 80
62 70 80
62 70 80
62 70 80
61 70 80
59 67 78
60 69 80
62 69 80
61 69 80
60 69 80
61 69 80
61 69 80
61 69 80
62 70 80
61 70 80
61 69 80
61 69 80
61 70 80
61 70 80
61 70 80
60 69 80
62 70 80
61 70 80
62 70 80
60 69 80
61 69 80
61 70 80
61 69 80
60 68 79
61 69 80
61 69 80
62 70 80
61 69 80
62 70 80
61 70 80
61 69 80
61 70 80
62 70 80
61 69 80
61 69 80
61 69 80
62 70 80
61 69 80
61 69 80
60 69 80
62 70 80
61 69 80
62 70 80
61 70 80
61 69 80
61 70 80
61 69 80
62 70 80
62 70 80
61 69 80
61 69 80
61 69 80
61 69 80
62 70 80
62 70 80
60 69 80
62 70 80
61 69 80
61 69 80
62 70 80
61 70 80
61 69 80
61 70 80
61 69 80
60 69 80
62 70 80
61 70 80
62 70 80
62 70 80
62 70 80
61 69 80
61 70 80
61 70 80
62 70 80
61 69 80
61 69 80
61 69 80
62 70 80
61 69 80
61 69 80
62 70 80
62 70 80
61 69 80
62 70 80
62 70 80
62 70 80
61 69 80
61 69 80
62 70 80
62 70 80
62 70 80
62 70 80
60 69 80
61 70 80
61 69 79
62 70 80
60 69 80
61 69 80
61 69 80
62 70 80
62 70 80
62 70 80
62 70 80
61 69 80
62 70 80
61 69 80
61 69 80
62 70 80
61 69 80
62 70 80
61 69 80
61 70 80
61 69 80
61 69 80
61 70 80
62 70 80
61 69 80
61 70 80
60 69 80
61 69 80
61 69 80
61 69 80
62 70 80
61 70 80
62 70 80
61 70 80
61 69 80
61 70 80
62 70 80
61 69 80
60 69 80
62 70 80
61 69 80
62 70 80
62 70 80
61 69 80
61 69 80
61 70 80
61 69 80
62 70 80
61 69 80
61 69 80
62 70 80
62 70 80
61 69 80
61 70 80
61 69 80
61 70 80
61 70 80
61 70 80
61 70 80
62 70 80
62 70 80
61 70 80
62 70 80
61 69 80
61 70 80
62 70 80
61 70 80
61 69 80
60 69 80
62 70 80
62 70 80
61 70 80
61 70 80
61 70 80
61 69 80
61 69 80
61 69 80
61 70 80
60 69 80
59 67 78
61 69 80
62 70 80
62 70 80
61 69 80
61 69 80
61 69 80
61 69 80
61 69 80
60 69 80
61 70 80
61 70 80
61 70 80
61 70 80
62 70 80
61 69 80
62 70 80
61 69 80
61 69 80
61 69 80
61 69 80
61 70 80
61 70 80
60 69 80
60 68 79
61 70 80
61 69 80
61 69 80
60 68 79
62 70 80
61 70 80
61 69 80
62 70 80
62 70 80
61 69 80
61 69 80
60 68 79
61 69 80
61 70 80
61 70 80
61 69 80
62 70 80
60 69 80
61 70 80
61 70 80
61 69 79
62 70 80
61 70 80
61 69 80
61 69 80
61 70 80
60 68 79
61 69 80
62 70 80
61 69 80
61 69 80
61 69 80
61 69 80
61 69 80
61 69 80
61 69 80
61 69 80
61 69 80
61 70 80
60 69 79
61 69 80
60 68 78
60 69 80
60 68 79
61 69 80
61 69 80
61 70 80
61 69 80
60 69 80
61 69 80
61 69 80
60 69 80
61 69 80
62 70 80
61 69 79
61 70 80
61 70 80
61 69 80
60 68 78
62 70 80
61 69 80
61 69 80
61 69 79
60 68 78
61 69 80
59 67 77
60 68 79
59 67 78
61 69 79
60 68 79
59 67 77
36 40 45
36 40 46
35 39 44
36 40 45
33 37 42
34 38 43
35 40 45
34 38 43
35 40 45
33 37 42
36 40 45
34 39 44
35 39 44
34 38 43
35 39 44
36 40 45
34 38 44
34 38 43
33 37 42
34 38 43
36 39 45
33 37 42
33 37 42
36 40 45
34 38 43
35 40 45
34 38 43
35 39 44
34 38 43
34 37 43
35 39 44
32 37 42
34 38 44
34 38 43
34 38 44
34 38 43
34 38 43
33 37 42
33 37 42
36 40 46
35 39 45
36 40 46
36 39 45
33 37 42
34 38 44
34 38 43
34 38 44
33 37 42
35 39 44
34 38 43
32 36 42
35 39 45
34 39 44
33 37 42
33 37 42
34 38 43
35 39 44
34 38 43
34 38 44
34 38 44
34 38 44
33 37 42
35 39 44
33 37 42
36 40 45
34 38 44
35 39 45
35 39 44
34 38 44
35 39 44
33 37 43
35 39 45
35 39 44
34 38 43
35 40 45
34 38 43
34 38 43
34 38 44
35 39 44
32 36 42
36 39 44
32 36 41
34 38 43
57 65 75
60 69 80
61 69 80
60 68 78
60 69 80
60 69 79
60 68 79
62 70 80
60 69 80
61 69 80
60 69 80
61 69 80
60 68 79
61 70 80
59 68 78
60 68 79
61 69 80
61 69 80
60 68 79
61 70 80
61 69 80
59 67 78
60 68 79
61 70 80
60 69 80
61 69 80
61 69 79
61 69 80
60 68 79
61 69 80
62 70 80
59 68 79
61 70 80
61 69 80
60 69 80
63 70 80
61 69 80
61 69 80
61 69 80
60 69 80
60 68 79
61 70 80
61 69 80
61 69 80
62 70 80
62 70 80
61 69 80
60 69 80
61 69 80
61 70 80
62 70 80
61 69 80
61 70 80
61 69 80
62 70 80
59 68 79
61 70 80
61 70 80
61 69 80
61 69 80
60 68 80
61 69 80
61 69 80
60 69 80
61 70 80
62 70 80
61 69 80
62 70 80
61 69 80
61 69 80
61 70 80
61 69 80
61 69 80
61 69 80
61 69 80
61 70 80
62 70 80
61 70 80
61 70 80
61 69 80
61 70 80
61 70 80
61 69 80
62 70 80
61 70 80
61 69 80
61 69 80
62 70 80
61 70 80
62 70 80
62 70 80
61 69 80
62 70 80
61 69 80
62 70 80
61 70 80
61 70 80
62 70 80
61 69 80
63 70 80
62 70 80
61 69 80
61 69 80
61 69 80
61 69 80
62 70 80
61 70 80
61 69 80
61 70 80
61 70 80
61 69 80
60 69 80
61 70 80
61 69 80
60 69 80
61 70 80
61 70 80
61 70 80
61 70 80
61 69 80
61 70 80
61 69 80
61 69 80
61 69 79
61 69 79
61 70 80
61 70 80
62 70 80
62 70 80
61 70 80
61 70 80
63 70 80
61 69 80
62 70 80
62 70 80
61 69 80
61 70 80
61 70 80
61 69 80
62 70 80
61 70 80
62 70 80
61 70 80
61 69 80
61 70 80
62 70 80
61 70 80
62 70 80
62 70 80
62 70 80
61 69 80
62 70 80
61 69 80
61 70 80
60 69 80
61 70 80
60 69 80
61 69 80
61 69 80
61 70 80
61 69 80
61 69 80
61 70 80
62 70 80
61 70 80
62 70 80
61 69 80
62 70 80
61 70 80
62 70 80
61 69 80
61 70 80
61 69 80
61 70 80
61 69 80
61 70 80
61 70 80
61 69 80
61 69 80
62 70 80
61 69 80
61 70 80
61 70 80
61 69 80
62 70 80
61 70 80
61 70 80
60 69 80
61 69 80
61 69 80
61 69 80
61 69 80
61 69 80
62 70 80
61 70 80
62 70 80
61 69 80
62 70 80
61 69 80
61 69 80
61 69 80
61 70 80
61 69 80
61 70 80
61 69 80
61 69 80
62 70 80
62 70 80
62 70 80
61 69 80
61 69 80
62 70 80
61 70 80
60 69 80
62 70 80
62 70 80
61 69 80
61 70 80
61 70 80
60 68 79
62 70 80
61 69 80
61 70 80
61 70 80
60 68 79
62 70 80
62 69 80
61 69 80
61 69 80
61 70 80
62 70 80
60 69 80
62 70 80
61 69 80
61 69 80
62 70 80
61 70 80
62 70 80
60 68 80
60 69 80
61 70 80
61 69 80
60 69 80
61 69 80
62 70 80
61 69 80
61 69 79
61 70 80
61 69 80
61 69 80
61 70 80
61 70 80
62 70 80
62 70 80
62 70 80
62 69 79
61 69 80
61 69 80
61 69 80
61 69 80
62 70 80
62 70 80
61 69 79
62 70 80
60 69 80
62 70 80
60 69 80
61 69 79
61 69 80
61 69 80
61 69 80
62 70 80
62 70 80
60 69 80
62 70 80
61 70 80
60 68 79
61 69 80
61 69 80
62 70 80
60 69 80
61 69 80
60 69 80
61 69 80
61 69 80
59 67 78
61 69 80
61 69 80
61 69 80
60 68 79
61 69 80
61 70 80
61 69 80
60 68 79
61 70 80
60 69 80
60 68 79
61 70 80
60 69 80
61 70 80
60 69 80
59 67 78
60 68 78
60 69 80
60 68 79
60 68 79
60 69 80
60 69 80
60 68 79
60 68 78
59 67 78
60 68 78
61 69 80
60 68 79
61 70 80
61 69 80
60 68 79
35 39 44
34 38 44
36 40 45
36 40 45
33 37 42
33 37 43
34 38 43
35 39 45
34 38 44
35 39 44
36 40 46
34 38 43
34 38 43
35 39 45
32 36 41
35 39 44
35 39 45
35 39 44
32 36 41
34 38 43
34 38 43
35 39 45
33 37 42
34 38 43
35 39 45
33 37 43
35 39 44
34 38 44
36 40 45
34 38 43
35 39 44
34 38 43
34 39 44
33 37 42
35 39 44
35 39 44
36 40 45
35 39 44
36 41 46
35 39 45
35 38 44
35 39 44
32 37 42
36 40 46
33 38 43
33 37 42
35 39 45
33 37 42
33 37 42
35 39 45
35 39 44
33 37 43
34 38 43
34 38 44
33 37 42
36 40 45
35 38 43
35 39 44
34 37 42
33 37 41
33 37 42
33 37 42
34 38 43
35 39 45
34 39 44
34 38 43
34 38 43
35 39 45
35 39 45
35 39 44
34 38 43
34 39 44
35 39 44
35 40 45
35 39 44
32 36 42
33 37 42
35 39 44
36 40 45
35 39 44
32 36 41
35 39 44
36 40 45
61 69 79
61 69 80
60 68 78
61 69 80
59 67 78
60 68 78
61 69 80
61 69 80
60 68 79
61 69 80
59 67 78
61 69 80
62 70 80
61 69 80
62 70 80
60 69 80
60 69 80
60 68 79
60 68 79
60 68 79
61 70 80
61 69 80
61 69 80
59 67 78
62 70 80
61 70 80
61 70 80
60 69 80
60 68 79
61 69 79
60 69 80
60 69 80
61 70 80
59 67 78
61 69 80
62 70 80
60 68 79
61 69 80
62 70 80
60 68 79
60 69 80
61 69 80
61 70 80
61 69 80
61 69 79
62 70 80
62 70 80
61 69 80
61 69 80
61 69 80
61 70 80
62 70 80
62 70 80
61 69 80
61 69 80
62 70 80
60 68 79
60 69 80
61 69 80
61 69 80
62 70 80
61 70 80
62 70 80
61 69 80
61 69 80
61 70 80
61 70 80
62 70 80
61 70 80
62 70 80
62 70 80
61 70 80
61 69 80
61 70 80
61 70 80
61 69 80
62 70 80
61 69 80
62 70 80
61 70 80
60 68 79
62 70 80
61 69 80
61 69 80
61 70 80
60 68 79
60 69 79
62 70 80
61 69 80
61 70 80
61 69 80
62 70 80
62 70 80
61 69 80
61 70 80
61 70 80
61 70 80
62 70 80
61 69 80
61 70 80
61 70 80
61 69 80
60 69 80
61 69 80
62 70 80
62 70 80
61 70 80
62 70 80
61 70 80
61 69 80
61 69 80
60 69 80
62 70 80
62 70 80
62 70 80
61 69 80
62 70 80
61 70 80
60 69 80
61 70 80
60 69 80
60 69 80
61 69 80
62 70 80
62 70 80
61 69 80
61 69 80
61 70 80
62 70 80
61 69 80
61 70 80
61 69 80
61 70 80
61 69 80
62 70 80
61 69 80
62 70 80
61 70 80
61 69 80
61 69 80
62 70 80
61 70 80
62 70 80
62 70 80
62 70 80
62 70 80
62 70 80
61 69 80
60 69 80
61 69 80
61 70 80
61 69 80
62 70 80
61 70 80
61 70 80
61 69 80
61 69 80
61 69 80
61 69 80
61 69 80
61 69 80
62 70 80
61 70 80
61 69 80
61 70 80
62 70 80
62 69 80
62 70 80
61 69 80
61 70 80
61 70 80
60 69 80
61 70 80
60 69 80
62 70 80
61 69 80
61 70 80
61 69 80
61 69 80
61 69 80
62 70 80
61 69 80
62 70 80
61 70 80
62 70 80
61 69 80
62 70 80
61 69 80
62 70 80
61 69 80
61 70 80
61 70 80
61 70 80
61 70 80
61 69 80
61 70 80
61 70 80
61 69 80
61 69 80
61 69 80
61 69 80
61 69 80
61 69 80
61 70 80
61 69 80
61 69 80
61 70 80
61 69 80
61 70 80
61 69 80
61 69 80
62 70 80
61 70 80
62 70 80
62 70 80
61 70 80
62 70 80
61 70 80
60 68 80
61 69 80
61 69 80
61 69 80
61 69 80
61 69 80
62 70 80
62 70 80
62 70 80
61 69 80
61 70 80
61 69 80
62 70 80
61 69 80
61 70 80
61 70 80
61 70 80
61 69 80
62 70 80
61 69 80
61 69 80
61 70 80
61 70 80
61 69 80
62 70 80
61 69 80
61 69 80
61 69 80
61 69 80
62 70 80
61 70 80
61 69 80
60 68 79
61 69 80
62 70 80
60 69 80
62 70 80
61 70 80
60 69 80
62 70 80
61 69 80
61 69 80
61 69 80
61 69 80
61 69 80
61 69 80
61 69 80
62 69 80
61 69 80
61 70 80
61 69 80
61 69 80
62 70 80
61 69 80
61 69 80
61 69 80
61 69 80
61 69 80
61 70 80
61 69 80
61 70 80
62 70 80
60 68 79
61 69 80
59 67 78
60 68 79
61 69 80
60 68 79
62 70 80
61 70 80
61 70 80
61 70 80
61 69 80
61 69 80
61 69 80
60 68 78
62 70 80
60 68 78
60 68 79
60 68 78
61 69 79
60 68 79
59 68 78
61 69 80
60 68 79
62 70 80
59 67 77
61 69 80
58 66 77
60 68 78
60 68 78
60 68 78
61 69 79
60 69 79
60 69 80
60 68 79
60 68 79
60 68 79
61 69 80
37 42 48
35 39 44
35 39 44
35 38 43
33 37 42
33 37 42
34 38 43
36 40 45
34 38 43
35 39 45
34 38 44
33 37 42
34 37 42
34 38 43
35 39 44
35 39 44
33 37 42
35 39 44
32 36 41
33 37 42
33 37 42
34 38 44
32 36 41
34 38 44
35 40 45
34 38 43
33 37 43
34 38 43
36 40 45
33 38 43
33 37 42
34 38 43
36 40 46
34 38 43
35 39 44
35 38 43
34 38 43
34 37 42
34 39 44
34 38 43
33 37 43
35 39 44
34 38 44
36 40 45
33 37 42
35 39 44
34 38 44
34 39 44
35 39 44
33 37 42
35 39 44
34 38 43
33 37 42
36 40 45
35 38 43
34 38 43
34 38 43
35 39 45
36 40 46
32 36 41
35 39 44
33 37 42
35 39 44
35 39 44
36 40 46
33 37 43
34 38 43
33 37 42
34 38 43
36 40 45
33 37 42
36 40 45
35 39 44
32 36 42
33 37 42
33 37 42
34 38 43
34 38 43
36 39 45
33 37 42
35 39 44
34 38 44
36 40 46
61 69 79
59 68 78
60 69 79
60 69 79
62 70 80
59 67 78
61 68 78
58 66 76
62 69 80
60 69 80
62 69 80
60 68 79
61 69 80
61 69 80
60 68 79
59 67 77
59 67 78
60 68 78
60 68 78
60 68 80
60 68 79
60 68 79
61 69 80
60 68 79
61 69 80
60 69 80
61 69 80
60 68 79
60 68 79
59 68 78
61 70 80
61 69 80
61 69 80
62 70 80
61 69 80
61 70 80
60 68 79
59 67 78
61 70 80
61 69 80
60 69 80
61 69 80
61 69 80
60 69 80
60 68 79
60 69 80
61 70 80
62 70 80
60 69 80
61 69 80
62 70 80
60 69 80
61 69 80
62 70 80
60 68 78
62 70 80
60 68 79
60 68 79
60 69 80
61 70 80
63 70 80
60 69 80
62 70 80
61 69 80
62 70 80
61 69 80
60 69 80
62 69 80
62 70 80
61 70 80
61 69 80
61 70 80
61 69 80
61 69 80
61 69 80
60 69 80
61 69 80
60 69 80
61 69 80
62 70 80
61 69 80
61 69 80
61 69 80
62 69 80
62 70 80
61 69 80
61 69 80
61 69 80
61 69 80
61 69 80
61 69 80
62 70 80
62 70 80
60 69 79
61 69 80
61 69 80
61 70 80
61 70 80
61 69 80
62 70 80
60 69 80
61 69 80
61 69 80
61 70 80
61 69 80
62 70 80
62 70 80
61 70 80
61 69 80
62 70 80
61 70 80
61 69 80
62 70 80
62 70 80
61 69 80
62 70 80
62 70 80
62 70 80
60 69 80
61 69 80
61 69 80
61 69 80
61 69 80
61 69 80
62 70 80
61 69 80
60 69 80
61 69 80
61 70 80
61 70 80
61 69 80
61 70 80
61 69 80
61 69 80
61 69 80
61 69 80
61 70 80
61 69 80
62 70 80
61 70 80
60 69 80
62 70 80
61 69 80
61 69 80
62 70 80
62 70 80
61 69 80
62 70 80
62 70 80
61 69 80
61 69 80
62 70 80
61 69 80
62 70 80
61 69 80
62 70 80
61 69 80
61 70 80
61 69 80
62 70 80
62 70 80
61 69 80
61 70 80
62 70 80
61 70 80
61 69 80
61 70 80
61 69 80
62 70 80
61 69 80
62 70 80
62 70 80
62 70 80
61 70 80
60 69 80
61 69 80
61 70 80
62 70 80
62 70 80
60 68 79
61 70 80
61 70 80
61 69 80
61 69 80
62 70 80
62 70 80
61 69 80
62 70 80
61 69 80
61 69 80
61 70 80
61 69 80
61 70 80
61 70 80
61 69 80
62 70 80
61 69 80
61 69 80
62 70 80
62 70 80
62 70 80
62 70 80
62 70 80
62 70 80
61 69 80
61 69 80
61 70 80
61 70 80
61 69 80
61 69 80
61 70 80
62 69 80
61 69 80
60 68 79
61 69 80
61 69 80
61 70 80
61 69 80
61 69 80
62 70 80
61 70 80
62 70 80
60 69 80
62 70 80
61 70 80
61 69 80
60 69 80
61 69 80
62 70 80
61 69 80
61 70 80
61 69 80
61 70 80
60 68 79
61 70 80
61 69 80
61 70 80
62 70 80
60 68 79
60 69 80
60 69 80
61 70 80
62 70 80
61 69 80
60 68 79
62 70 80
61 69 80
61 70 80
61 69 80
61 69 80
62 70 80
60 69 80
61 70 80
61 69 80
60 68 79
61 70 80
61 69 80
62 70 80
61 69 80
62 70 80
60 69 80
62 70 80
61 69 80
60 68 79
60 69 80
61 69 80
61 69 80
61 70 80
60 69 80
61 69 80
62 70 80
61 70 80
61 69 79
61 69 80
61 69 79
61 70 80
59 67 77
61 69 80
60 69 80
61 70 80
61 69 80
60 68 79
61 70 80
60 68 79
61 70 80
61 69 80
61 69 80
62 70 80
61 69 80
61 69 80
59 68 79
61 70 80
60 68 79
61 69 80
61 69 80
60 68 78
61 69 80
61 69 80
61 69 80
61 69 80
59 68 78
60 68 79
60 68 79
60 68 79
60 68 79
60 68 79
59 68 78
60 68 78
60 68 79
59 67 78
60 68 79
59 68 78
62 70 80
61 69 80
60 68 79
59 68 78
58 66 77
35 39 45
34 38 43
35 39 44
34 37 42
34 38 43
36 40 45
34 38 43
35 39 44
35 39 44
36 40 45
33 37 42
33 37 42
33 37 43
35 39 44
33 37 42
34 38 43
34 38 44
33 37 42
35 39 44
34 38 43
36 40 45
33 37 42
33 37 42
34 38 43
35 38 44
32 35 40
35 39 44
36 40 45
35 39 45
33 37 42
35 38 44
32 36 41
36 40 45
34 38 43
35 38 44
35 39 44
34 37 42
32 36 41
36 39 44
34 37 43
36 40 45
36 39 44
36 40 46
34 37 42
35 38 44
34 39 44
34 38 43
32 36 41
34 38 43
34 39 44
34 38 43
35 38 43
36 40 45
33 37 43
33 38 43
32 36 42
35 39 44
34 38 43
36 39 45
36 40 45
31 35 40
33 37 42
34 38 43
34 38 43
35 39 44
34 38 43
36 40 46
34 38 44
34 38 44
36 41 46
32 36 41
36 40 45
34 39 44
33 37 42
34 38 43
33 37 42
35 40 45
33 37 42
31 35 40
35 39 44
34 38 43
34 38 43
43 48 55
60 68 79
60 68 79
60 69 80
60 68 79
61 69 80
61 69 80
60 68 78
61 69 80
61 69 79
60 68 79
61 69 79
62 70 80
61 69 79
59 67 78
60 68 79
61 69 80
59 67 77
60 69 80
62 70 80
61 69 80
61 70 80
60 68 79
61 69 80
60 69 80
60 69 80
61 70 80
61 69 80
60 68 78
61 69 80
61 69 80
61 69 80
59 67 78
61 69 80
60 68 78
59 68 79
59 68 78
60 68 79
62 70 80
61 69 80
61 69 80
61 69 80
60 68 79
60 68 79
61 69 80
60 68 79
61 69 80
60 69 80
61 70 80
60 69 80
62 69 80
61 69 80
61 69 80
61 69 80
61 69 79
60 69 80
61 69 80
60 69 80
61 69 80
60 68 79
62 70 80
62 70 80
61 69 80
62 70 80
61 69 80
61 69 80
62 70 80
61 69 80
61 69 80
61 70 80
62 70 80
60 69 80
61 69 80
61 69 79
61 69 80
60 69 80
61 70 80
61 70 80
60 69 80
61 69 80
61 69 80
61 70 80
61 70 80
61 69 80
61 70 80
61 70 80
62 70 80
61 69 80
61 69 80
61 69 80
60 69 80
61 69 80
62 70 80
62 70 80
61 69 80
61 70 80
61 69 80
61 69 80
61 69 80
61 70 80
62 70 80
61 69 80
61 70 80
61 69 80
61 69 80
61 69 80
61 70 80
61 69 80
61 69 80
61 69 80
61 70 80
61 70 80
61 69 80
63 70 80
62 70 80
61 69 80
61 69 80
62 70 80
61 69 80
61 69 80
62 70 80
62 70 80
62 70 80
61 69 80
62 70 80
61 70 80
61 69 80
61 69 80
61 69 80
61 69 80
61 69 80
60 69 80
61 69 80
62 70 80
61 70 80
61 69 80
62 70 80
62 70 80
61 69 80
61 69 80
61 70 80
62 70 80
62 70 80
62 70 80
61 70 80
62 70 80
60 69 80
61 70 80
62 70 80
61 69 80
61 70 80
62 70 80
61 69 80
60 69 80
61 69 80
60 69 80
62 70 80
62 70 80
61 70 80
61 70 80
61 69 80
62 70 80
61 69 80
61 69 80
61 70 80
62 70 80
62 70 80
61 69 80
61 69 80
61 69 80
62 70 80
62 70 80
61 69 80
59 68 78
60 69 80
61 69 80
62 70 80
61 69 80
62 70 80
61 69 80
61 70 80
59 68 78
62 70 80
61 69 80
61 70 80
61 70 80
60 69 80
61 69 80
62 70 80
61 69 80
61 70 80
61 70 80
62 70 80
62 70 80
61 69 80
61 69 80
61 69 80
62 70 80
60 69 80
61 70 80
61 70 80
61 69 80
62 70 80
61 70 80
61 69 80
61 69 80
61 69 80
61 70 80
61 70 80
61 70 80
61 69 80
61 69 80
62 70 80
61 70 80
61 70 80
61 69 80
61 70 80
61 69 80
60 69 79
61 69 80
61 69 80
61 69 80
61 70 80
60 68 79
61 69 80
61 69 80
61 69 80
60 69 80
62 70 80
62 70 80
61 70 80
61 70 80
61 69 80
61 70 80
62 70 80
61 70 80
62 70 80
61 69 80
62 70 80
62 70 80
61 70 80
60 69 80
62 70 80
61 69 80
61 69 80
62 70 80
61 70 80
61 69 80
62 70 80
61 69 80
60 69 80
61 70 80
61 69 80
61 69 80
60 69 80
61 69 80
62 70 80
61 70 80
61 70 80
61 70 80
61 69 80
61 69 80
61 69 80
61 70 80
62 70 80
60 68 79
61 69 80
61 69 80
61 69 80
62 70 80
61 70 80
62 70 80
60 68 79
61 69 80
61 69 80
60 69 80
61 69 80
61 69 80
61 69 80
61 69 80
59 67 78
62 70 80
60 69 80
60 68 80
61 69 80
61 69 80
61 70 80
60 69 80
60 68 79
61 69 79
61 69 80
60 68 78
60 69 80
61 69 80
60 68 78
61 69 80
59 67 78
61 70 80
59 67 77
60 68 79
62 70 80
61 69 80
61 69 79
60 69 80
59 68 79
60 68 78
60 68 79
61 69 80
59 67 77
61 69 80
60 68 79
59 67 78
59 67 78
59 67 77
61 69 80
61 69 80
61 69 79
59 67 78
40 44 50
34 38 43
33 37 42
33 37 42
34 39 44
35 39 44
34 39 44
34 38 43
33 37 42
33 37 43
34 38 43
34 39 44
33 37 42
34 38 43
34 38 43
35 39 44
34 38 43
34 38 43
34 38 43
34 38 43
33 37 42
33 37 43
33 37 42
34 37 42
34 38 43
34 38 43
35 39 45
36 39 45
33 37 43
35 39 45
35 39 44
35 39 44
34 38 43
35 39 44
32 36 41
33 37 43
34 38 43
35 39 44
36 40 45
35 39 44
34 38 43
34 38 44
34 38 44
33 37 42
35 39 44
34 38 43
35 40 45
33 37 43
34 38 43
35 39 44
34 38 43
33 37 43
35 39 44
35 39 44
35 39 45
33 37 42
33 37 42
36 39 45
33 37 43
34 38 43
33 37 43
34 38 44
36 40 45
32 36 41
34 38 43
35 39 44
36 40 46
35 40 45
35 39 44
34 38 43
35 38 43
34 38 43
34 38 43
32 36 41
33 37 43
35 39 44
33 37 43
34 38 43
33 37 42
35 39 44
34 38 43
32 35 40
38 43 49
60 69 80
60 68 79
59 68 78
60 69 79
61 69 80
61 70 80
59 67 78
61 69 79
60 68 79
60 68 78
60 68 79
60 68 78
61 69 80
60 68 79
60 69 79
61 69 80
62 70 80
62 70 80
60 69 80
60 68 79
61 69 79
62 70 80
60 69 80
62 70 80
61 70 80
60 68 79
60 68 78
61 69 79
59 67 78
60 68 79
60 69 80
61 69 80
61 70 80
61 69 80
61 69 80
60 68 79
60 69 80
61 70 80
60 68 79
60 68 79
60 68 79
60 68 80
61 70 80
60 69 80
61 69 80
61 69 80
61 69 80
61 69 80
61 70 80
61 69 80
60 69 80
61 69 80
62 70 80
61 69 79
60 68 79
61 69 80
59 67 78
60 69 80
61 69 80
60 68 78
61 69 80
61 70 80
61 69 80
61 69 80
61 69 80
60 68 79
61 69 80
62 70 80
61 69 80
60 69 80
61 70 80
61 69 80
60 69 80
61 69 80
62 70 80
61 70 80
60 68 79
61 69 80
60 69 80
61 69 80
60 68 79
61 70 80
62 70 80
61 69 80
62 70 80
61 70 80
61 69 80
60 69 80
60 69 80
61 69 80
62 70 80
61 69 80
61 69 80
61 70 80
62 69 80
61 69 80
61 69 80
61 70 80
60 68 78
61 69 80
61 69 80
61 69 80
62 70 80
62 70 80
61 69 80
62 70 80
62 70 80
61 70 80
61 69 80
61 69 80
60 69 80
62 70 80
62 70 80
61 70 80
61 70 80
61 70 80
61 70 80
61 69 80
61 70 80
61 69 80
62 70 80
61 69 80
61 70 80
61 69 80
60 69 80
62 70 80
61 69 80
60 69 80
61 69 80
61 69 80
61 69 80
62 70 80
61 70 80
62 70 80
62 70 80
61 70 80
62 70 80
61 70 80
61 69 80
61 70 80
62 70 80
61 69 80
62 70 80
61 69 80
61 69 80
61 70 80
62 70 80
61 69 80
61 69 80
60 69 80
61 69 80
61 70 80
61 69 80
61 70 80
61 69 80
61 69 80
61 69 80
61 69 80
62 70 80
61 70 80
60 69 80
61 70 80
61 69 80
61 70 80
62 70 80
62 70 80
61 70 80
61 70 80
61 69 80
61 69 80
61 69 80
62 70 80
61 69 80
61 69 80
61 70 80
61 70 80
61 69 80
62 70 80
61 70 80
61 69 80
61 69 80
61 70 80
61 69 80
61 69 80
61 70 80
62 69 80
61 70 80
61 69 80
61 69 80
62 70 80
61 69 80
61 69 80
61 70 80
62 70 80
61 69 80
61 70 80
63 70 80
61 70 80
61 69 80
62 70 80
61 69 80
61 70 80
61 70 80
62 70 80
60 69 80
61 70 80
61 69 80
61 69 80
62 70 80
61 70 80
61 69 80
61 70 80
61 69 80
61 69 80
60 68 79
62 70 80
61 69 80
62 70 80
61 69 80
61 69 80
61 69 80
61 69 80
61 69 80
61 69 80
62 70 80
61 69 80
60 69 80
62 70 80
61 69 80
60 69 80
61 70 80
61 70 80
61 69 80
59 67 78
62 70 80
60 69 80
60 69 80
61 69 80
62 70 80
61 70 80
62 70 80
61 70 80
61 70 80
61 69 80
60 68 79
62 70 80
60 69 80
60 68 79
60 69 80
61 69 80
62 70 80
61 69 80
62 70 80
62 70 80
61 70 80
62 70 80
61 70 80
61 70 80
60 68 79
61 70 80
61 69 80
61 69 80
60 68 79
60 68 79
61 69 80
61 70 80
61 69 80
61 69 79
61 70 80
61 69 80
61 69 80
61 69 80
60 69 80
61 69 80
61 69 80
60 69 80
61 69 80
62 70 80
61 70 80
61 69 80
61 69 80
61 70 80
60 68 80
60 69 80
61 69 80
59 67 78
60 68 78
61 69 80
61 69 80
61 70 80
61 69 80
60 69 80
61 70 80
60 68 79
61 69 80
61 69 79
60 68 79
61 69 80
60 68 79
60 68 79
61 69 79
61 69 79
61 69 80
61 70 80
61 69 80
61 69 80
60 68 79
60 68 79
60 69 80
61 69 79
60 68 79
61 69 79
61 69 80
59 68 79
59 67 78
59 67 78
59 67 78
44 50 58
34 38 43
34 38 43
33 37 42
33 37 42
35 39 44
35 39 44
34 38 43
33 37 42
34 38 43
34 38 43
34 38 44
34 38 43
35 38 44
36 40 45
35 39 44
33 37 43
35 39 44
33 37 42
36 40 45
34 38 43
35 39 44
35 39 44
32 36 41
34 38 43
35 39 44
34 38 43
33 37 43
35 39 44
34 38 43
36 40 45
33 37 42
33 37 43
34 38 44
34 38 44
33 38 43
35 39 45
33 38 43
35 39 44
33 38 43
36 40 46
35 39 44
35 38 43
35 39 45
34 38 43
35 39 45
34 38 44
37 41 46
36 40 45
35 39 44
34 38 43
32 36 41
35 39 44
34 38 44
33 37 42
35 39 44
34 38 43
35 39 45
34 38 43
34 38 43
34 38 43
34 38 43
36 40 45
34 37 42
36 39 44
34 38 43
34 38 43
32 35 41
35 39 44
35 39 44
33 37 42
35 39 44
33 37 42
35 39 44
35 39 44
33 37 42
34 38 44
34 38 43
33 37 42
33 37 42
33 37 42
34 38 44
42 48 55
59 67 77
60 69 80
59 67 78
60 68 78
59 67 78
61 69 80
62 70 80
60 68 78
61 70 80
61 69 80
60 68 78
60 68 79
59 67 77
59 68 79
57 65 75
60 68 78
59 67 78
59 68 79
61 69 80
60 68 78
60 68 79
59 67 78
60 68 79
60 69 80
61 69 80
60 69 80
60 68 79
61 69 80
62 70 80
61 69 80
60 68 79
61 69 80
61 69 80
60 69 80
60 69 80
61 69 80
59 68 79
61 70 80
59 67 78
61 69 80
61 69 80
60 68 79
60 68 79
60 69 80
61 69 79
61 69 80
62 70 80
62 70 80
61 69 80
60 69 80
60 69 80
61 69 80
61 69 80
61 70 80
60 69 80
61 69 80
60 68 79
61 69 80
62 70 80
61 69 80
62 70 80
61 69 80
61 70 80
61 69 80
62 70 80
60 68 78
61 69 80
61 69 80
62 70 80
61 69 80
61 70 80
61 69 80
61 70 80
61 69 80
60 68 79
61 69 80
60 68 79
62 69 80
61 69 80
62 70 80
61 69 80
61 70 80
59 67 78
61 69 80
60 69 80
61 69 80
61 69 80
61 69 79
61 70 80
61 69 80
61 69 79
61 70 80
61 69 80
61 69 80
62 70 80
61 70 80
60 69 80
60 69 80
62 70 80
61 70 80
62 70 80
61 70 80
61 70 80
61 70 80
61 70 80
61 69 80
61 69 80
61 69 80
61 69 80
61 69 80
61 69 80
61 69 80
61 69 80
61 70 80
61 70 80
61 69 80
62 70 80
61 69 80
61 69 80
61 69 80
60 69 80
60 69 80
61 69 80
61 69 80
61 70 80
61 69 80
61 69 80
60 69 80
61 70 80
61 70 80
62 70 80
61 70 80
61 69 80
62 70 80
61 70 80
61 70 80
61 69 80
62 70 80
61 69 80
62 70 80
61 69 80
61 69 80
61 69 80
60 69 80
61 69 80
62 70 80
61 69 80
61 69 80
61 70 80
62 70 80
61 70 80
61 69 80
61 70 80
62 70 80
62 70 80
61 70 80
62 70 80
60 69 80
61 70 80
61 69 80
61 70 80
61 70 80
61 69 80
61 70 80
61 69 80
61 70 80
60 69 80
61 70 80
62 70 80
61 69 80
61 69 80
62 70 80
61 70 80
61 69 80
61 69 80
62 70 80
61 69 80
61 69 80
62 70 80
61 69 80
61 70 80
60 69 80
61 69 80
61 70 80
61 69 80
61 70 80
62 70 80
61 69 80
61 70 80
61 69 80
62 70 80
61 69 80
61 69 80
61 69 80
61 69 80
60 69 80
61 70 80
60 69 80
61 69 80
61 70 80
61 69 80
61 69 80
61 70 80
61 70 80
62 70 80
62 70 80
61 69 80
61 69 80
62 70 80
62 70 80
60 69 80
61 69 80
62 69 80
61 70 80
60 69 80
62 70 80
61 70 80
60 69 80
61 70 80
61 69 80
60 69 80
61 69 80
60 69 80
61 69 80
62 70 80
60 69 80
61 69 80
61 69 80
61 69 80
61 69 80
61 70 80
62 70 80
61 69 80
61 70 80
62 70 80
60 68 79
61 69 80
61 70 80
61 69 80
61 69 80
61 69 79
60 69 80
62 70 80
61 70 80
61 69 80
61 70 80
61 69 80
61 69 80
61 70 80
62 70 80
61 69 80
60 69 80
62 70 80
61 70 80
61 69 80
61 69 80
60 68 80
61 70 80
62 70 80
60 69 80
61 69 80
61 69 80
59 67 78
61 69 80
59 68 79
62 70 80
62 70 80
60 68 79
61 69 80
60 69 80
61 69 80
61 69 80
61 69 80
61 69 80
60 68 79
61 69 80
60 69 80
61 69 80
61 69 80
61 69 80
60 69 80
61 70 80
60 68 79
61 69 80
61 69 80
61 70 80
61 69 80
60 69 80
61 69 80
60 68 79
60 68 79
60 68 79
60 68 78
59 68 79
60 68 79
61 69 80
61 70 80
60 68 78
58 66 76
61 69 80
59 67 78
59 68 79
62 70 80
61 69 80
59 67 78
57 66 76
61 69 80
58 66 76
60 68 78
58 66 77
61 69 80
61 69 80
59 67 78
60 69 80
59 67 78
58 66 76
61 69 80
45 50 58
34 39 44
34 38 43
33 37 42
35 39 44
34 38 43
35 39 44
36 40 45
34 37 42
34 38 43
33 37 42
34 38 43
34 38 43
35 39 44
35 38 44
33 37 42
36 40 46
33 37 43
32 36 42
36 40 45
35 39 45
34 38 43
33 37 42
34 38 43
34 38 44
34 37 43
36 40 46
34 38 43
34 38 44
34 38 43
34 38 43
34 38 44
34 38 44
35 39 44
35 39 44
33 37 42
36 40 45
35 40 45
34 38 43
33 37 42
33 38 43
35 39 44
33 37 42
32 36 41
33 37 43
34 38 43
34 38 43
35 39 44
35 38 44
35 39 44
34 38 43
35 39 44
34 38 43
34 38 44
34 39 44
35 39 44
35 38 43
35 39 44
35 39 44
33 37 42
36 40 45
35 39 44
37 41 46
34 38 43
36 40 46
32 36 41
35 39 45
33 37 42
34 38 44
34 38 43
34 38 43
34 38 43
35 39 44
34 38 44
33 37 42
34 38 44
34 38 43
33 37 42
34 38 43
35 39 45
34 37 42
35 39 44
48 54 62
59 68 79
61 69 80
61 69 80
60 68 78
60 69 80
59 67 78
59 67 78
60 68 79
60 69 79
60 69 80
59 67 77
60 68 78
60 69 80
60 68 79
60 68 79
61 69 80
60 68 78
59 68 79
60 68 79
59 67 77
61 69 80
61 69 80
61 69 80
61 69 80
61 70 80
58 66 77
60 68 78
61 69 80
60 68 79
62 70 80
60 68 79
61 69 80
61 69 80
60 69 80
60 68 78
60 69 80
60 69 80
60 68 79
60 68 79
62 70 80
61 69 80
59 68 78
61 69 80
60 68 79
61 69 80
62 70 80
61 70 80
60 68 79
60 69 80
61 70 80
61 69 80
61 69 80
61 69 80
59 68 78
61 69 80
61 69 80
59 68 79
61 69 80
61 69 80
61 70 80
59 68 79
60 69 80
61 69 80
61 69 80
59 67 78
60 69 80
60 69 80
60 68 79
61 69 80
61 69 80
60 69 80
62 70 80
61 69 80
60 69 80
62 70 80
62 70 80
61 69 80
62 70 80
60 69 80
62 70 80
61 69 80
60 69 80
61 69 80
60 68 79
61 69 80
61 69 80
61 70 80
61 70 80
60 68 79
61 69 80
60 69 80
60 69 80
61 70 80
61 69 80
61 69 80
61 70 80
61 69 80
61 70 80
62 70 80
61 69 80
62 70 80
61 69 80
61 69 80
61 69 80
61 70 80
62 70 80
62 70 80
62 70 80
61 69 80
62 70 80
61 69 80
61 70 80
61 70 80
61 70 80
61 69 80
61 69 80
61 69 80
62 70 80
61 69 80
61 70 80
61 69 80
61 70 80
61 70 80
61 69 80
61 70 80
61 70 80
61 70 80
61 70 80
62 70 80
62 70 80
61 70 80
61 70 80
62 70 80
60 69 80
62 69 80
61 69 80
62 70 80
61 70 80
61 70 80
61 70 80
61 70 80
61 70 80
62 70 80
61 70 80
62 70 80
62 70 80
61 69 80
61 70 80
61 70 80
62 70 80
61 70 80
61 69 80
61 70 80
61 69 80
62 70 80
62 70 80
62 70 80
61 70 80
61 69 80
62 70 80
60 69 80
60 68 79
62 70 80
62 70 80
62 70 80
61 69 80
61 69 80
61 70 80
61 70 80
61 69 80
61 69 80
61 69 80
61 69 80
62 70 80
62 70 80
61 69 80
62 70 80
61 69 80
61 70 80
60 69 80
61 70 80
61 69 80
61 69 80
60 69 80
61 69 80
61 70 80
61 69 80
61 69 80
61 69 80
60 69 80
61 70 80
61 69 80
61 69 80
62 70 80
62 70 80
61 70 80
61 69 80
62 70 80
61 69 80
61 69 80
61 69 80
61 70 80
62 70 80
61 69 80
61 70 80
61 69 80
61 70 80
62 70 80
61 69 80
60 69 79
61 69 80
61 69 80
61 69 80
60 69 80
61 70 80
62 70 80
63 70 80
61 70 80
62 70 80
61 69 80
61 69 80
59 68 79
61 69 80
62 70 80
61 69 80
61 69 80
61 69 80
61 69 80
61 70 80
62 70 80
62 70 80
62 70 80
60 68 79
61 69 80
62 70 80
61 69 79
60 68 79
60 68 79
62 70 80
62 70 80
61 69 80
62 70 80
60 69 80
61 69 80
62 70 80
61 69 80
61 70 80
61 69 80
61 69 79
61 69 80
61 69 80
61 69 80
61 69 80
61 69 80
61 69 79
60 69 80
61 69 80
61 70 80
60 68 78
60 69 80
62 70 80
62 70 80
60 68 79
61 69 80
60 69 80
61 69 80
61 69 80
62 70 80
62 70 80
60 69 80
62 70 80
60 68 79
60 68 79
61 69 80
61 69 79
60 68 78
61 69 79
61 69 80
60 68 78
62 69 80
60 69 80
61 69 80
61 69 80
60 68 79
62 70 80
61 69 80
62 70 80
60 69 80
61 70 80
61 70 80
60 69 80
62 70 80
61 69 80
61 69 80
62 70 80
60 68 78
59 67 77
60 68 78
57 65 75
59 67 78
58 66 77
60 68 79
58 66 76
59 68 79
59 67 78
61 69 80
59 67 77
61 69 79
61 69 79
61 69 80
59 68 78
59 67 78
59 67 78
58 66 77
60 68 78
58 66 77
60 68 78
47 54 62
32 36 41
33 37 43
36 40 45
35 38 43
34 38 43
34 37 42
34 38 43
35 38 44
34 38 43
33 37 42
34 38 44
34 38 43
34 38 44
34 38 43
35 39 45
35 39 44
33 37 42
35 39 44
34 38 44
36 40 45
33 37 42
35 39 44
32 36 41
32 36 41
34 38 43
34 38 44
34 38 43
34 38 43
35 39 44
32 36 41
35 39 44
34 39 44
34 38 43
36 40 45
33 36 41
32 36 42
34 38 43
35 39 44
34 38 43
35 39 44
33 37 42
33 37 42
34 38 43
33 37 42
33 37 42
33 37 42
33 37 42
32 36 41
35 39 44
34 38 43
36 39 45
33 38 43
34 37 42
32 36 42
37 41 47
33 37 42
35 40 45
36 40 45
34 38 43
35 39 44
35 39 45
33 37 42
35 39 45
35 39 44
34 38 43
33 37 42
35 39 44
33 37 42
33 36 42
34 38 43
33 37 42
33 37 42
33 37 43
35 39 44
34 38 44
35 39 44
34 38 43
33 37 42
34 38 44
34 38 44
34 38 43
44 49 56
60 68 79
59 67 77
60 68 79
59 67 78
60 68 79
60 68 78
60 68 78
61 69 80
60 68 79
60 68 78
60 68 79
59 67 78
59 67 77
60 68 78
60 69 80
60 68 79
59 67 77
61 69 79
60 68 79
61 69 80
61 69 80
60 68 78
60 68 79
59 68 78
59 68 79
60 69 80
60 69 80
60 68 79
62 70 80
61 69 80
60 69 80
60 68 78
59 67 78
60 68 79
60 68 79
62 70 80
61 69 80
59 67 78
59 67 78
59 67 78
60 68 79
61 70 80
60 68 79
60 68 78
62 70 80
60 68 79
61 69 80
59 68 79
61 69 80
61 68 78
62 70 80
61 69 80
61 69 80
61 69 80
60 68 78
59 67 78
61 69 80
61 69 80
61 69 80
60 69 80
60 68 79
61 70 80
60 69 80
61 70 80
60 68 79
61 70 80
61 70 80
61 69 80
61 70 80
60 69 80
61 69 80
61 69 80
61 70 80
61 70 80
61 69 80
61 69 80
61 69 80
61 69 80
62 70 80
61 70 80
62 70 80
61 70 80
61 70 80
61 70 80
62 70 80
61 70 80
62 70 80
61 69 80
60 69 80
61 70 80
62 70 80
62 70 80
60 69 80
61 69 80
61 69 80
60 69 80
62 70 80
61 70 80
61 69 80
62 70 80
61 70 80
60 68 79
61 69 80
61 69 80
62 70 80
61 70 80
61 69 80
61 69 80
61 70 80
61 69 80
60 69 80
61 69 80
61 70 80
61 69 80
61 69 80
61 70 80
61 70 80
61 69 80
61 70 80
61 70 80
61 69 80
62 70 80
61 69 80
60 69 80
62 70 80
61 70 80
61 69 79
62 70 80
61 69 80
61 70 80
61 70 80
61 70 80
61 70 80
61 69 80
61 69 80
60 69 80
61 70 80
61 70 80
62 70 80
61 70 80
61 69 80
61 70 80
61 69 80
61 69 80
61 69 80
61 69 80
61 70 80
62 70 80
62 70 80
61 69 80
61 70 80
62 70 80
61 69 80
61 69 80
60 69 80
61 69 80
61 70 80
60 69 80
60 68 80
62 70 80
61 70 80
62 70 80
62 70 80
60 69 80
62 70 80
61 70 80
61 69 80
62 70 80
61 69 80
61 70 80
61 69 80
62 70 80
60 69 80
61 69 80
61 70 80
62 70 80
61 69 80
61 70 80
61 69 80
61 69 80
61 70 80
62 70 80
61 70 80
62 70 80
62 70 80
61 69 80
62 70 80
60 69 80
61 69 80
61 69 80
62 70 80
61 69 80
61 70 80
62 70 80
61 70 80
61 70 80
62 70 80
61 69 80
61 70 80
60 69 80
62 70 80
61 70 80
62 70 80
61 69 80
62 70 80
61 69 80
61 69 80
61 70 80
61 69 80
61 69 80
60 68 80
61 69 80
61 69 80
62 69 80
62 70 80
61 69 80
60 68 79
61 69 80
62 70 80
61 70 80
61 69 80
62 70 80
61 70 80
61 69 80
62 70 80
61 69 80
61 69 80
61 70 80
61 69 80
61 69 80
61 70 80
61 69 80
61 69 80
62 70 80
60 69 80
61 70 80
61 69 80
61 69 80
61 70 80
60 69 80
61 69 80
61 69 80
60 69 80
61 69 80
60 68 79
61 70 80
61 69 80
61 69 80
61 69 80
61 69 80
61 69 80
62 70 80
62 70 80
61 69 80
59 67 78
61 69 80
61 69 80
61 69 80
61 69 80
61 69 80
62 70 80
62 70 80
59 68 78
61 69 80
61 69 80
61 69 80
61 69 80
61 69 80
61 69 80
62 70 80
60 69 80
61 69 80
60 68 79
60 68 80
61 70 80
61 70 80
60 68 78
62 70 80
60 68 79
60 69 80
62 70 80
60 69 80
61 69 80
61 70 80
61 69 80
61 69 80
60 68 79
59 67 77
61 69 80
60 68 79
61 69 79
62 70 80
58 65 76
61 70 80
59 67 78
60 68 79
60 68 79
59 67 78
60 69 80
60 68 78
60 68 79
58 66 77
59 67 78
60 69 80
61 69 79
59 67 78
59 67 78
58 67 78
60 68 79
61 69 80
61 69 80
59 67 78
60 68 79
58 66 76
60 68 79
60 68 79
59 68 78
45 51 59
36 40 45
34 38 43
33 37 42
33 37 42
35 39 44
35 39 44
36 40 46
35 39 44
35 39 45
36 40 45
33 37 42
33 37 42
32 36 41
35 38 44
34 38 44
34 38 43
34 39 44
34 38 43
34 38 43
35 39 45
33 37 42
35 39 45
35 39 44
35 39 44
35 39 44
35 39 44
34 38 43
34 38 44
35 38 44
35 39 44
33 38 43
32 36 41
34 38 43
35 39 44
34 38 43
34 38 43
33 37 42
34 38 43
34 38 44
34 38 43
34 38 44
32 37 42
36 40 46
34 38 43
35 39 44
33 36 42
36 40 45
34 38 43
33 37 42
35 39 44
35 39 44
32 36 42
36 40 45
35 39 44
34 38 43
35 39 44
34 38 43
34 38 43
35 39 45
34 38 44
36 40 46
33 37 42
35 39 44
36 40 45
34 38 43
35 39 44
36 40 45
34 38 43
35 39 44
35 39 44
32 36 41
35 39 44
36 40 45
34 38 43
33 37 42
34 38 44
34 38 44
34 38 43
33 37 42
36 40 45
33 37 42
46 52 60
59 67 77
60 68 78
58 66 77
59 67 78
59 67 78
60 67 78
60 68 78
61 69 79
61 70 80
59 68 78
60 67 78
60 68 79
60 68 79
59 67 78
61 69 79
60 68 79
60 67 78
59 67 78
59 67 78
59 67 78
60 68 79
61 70 80
57 65 76
60 68 79
58 66 77
61 69 80
60 69 80
61 69 79
61 69 80
60 68 79
60 69 80
61 69 80
62 70 80
61 69 80
60 68 79
59 67 78
60 68 79
61 70 80
60 69 80
61 69 80
60 69 80
60 69 80
61 70 80
61 69 80
61 70 80
60 68 80
60 68 79
61 70 80
61 69 80
61 69 79
62 70 80
60 68 79
60 68 79
61 69 80
60 69 80
60 68 79
62 70 80
61 69 80
60 68 79
62 70 80
60 69 80
60 69 80
62 70 80
61 69 80
61 70 80
61 70 80
61 69 80
61 69 80
61 70 80
61 70 80
60 69 80
61 70 80
61 69 80
61 69 80
61 70 80
62 70 80
61 70 80
61 70 80
61 70 80
61 69 80
61 70 80
62 70 80
61 69 80
62 70 80
61 69 80
61 69 80
61 69 80
63 70 80
62 70 80
61 69 80
61 69 80
62 70 80
62 70 80
61 70 80
61 69 80
61 69 80
60 68 79
61 69 79
62 70 80
61 69 80
61 69 80
61 69 80
61 69 80
61 69 80
62 70 80
61 69 80
61 69 80
62 70 80
61 70 80
61 70 80
62 70 80
61 69 80
62 70 80
61 69 80
61 69 79
61 69 79
62 70 80
61 69 80
60 69 80
62 70 80
61 70 80
61 70 80
61 70 80
62 70 80
62 70 80
61 70 80
62 70 80
61 69 80
62 70 80
62 70 80
62 70 80
61 70 80
61 69 80
62 70 80
62 70 80
61 69 80
62 70 80
60 68 80
61 70 80
61 70 80
61 69 80
61 69 80
61 70 80
61 69 80
62 70 80
62 70 80
62 70 80
61 70 80
61 69 80
60 69 80
62 70 80
62 70 80
62 70 80
61 70 80
60 68 79
61 70 80
61 69 80
61 69 80
61 69 80
60 68 79
62 70 80
62 70 80
61 69 80
62 70 80
61 69 80
62 70 80
61 70 80
61 70 80
62 70 80
61 69 80
62 70 80
61 70 80
62 70 80
61 69 80
62 70 80
62 70 80
61 69 80
60 69 80
62 70 80
62 70 80
61 69 80
62 70 80
62 70 80
62 70 80
61 69 80
62 70 80
60 68 79
61 70 80
60 69 80
61 69 80
60 69 80
61 69 79
62 70 80
61 70 80
61 69 80
62 70 80
61 70 80
62 70 80
61 69 80
61 69 80
61 69 80
61 69 80
61 69 80
60 69 80
61 69 79
61 69 80
61 69 80
61 69 80
61 69 80
61 69 80
61 69 80
61 69 80
60 69 80
61 69 80
61 69 80
61 69 80
61 69 80
61 69 80
62 70 80
61 69 80
61 69 80
61 69 80
61 69 80
61 70 80
60 69 80
61 69 80
61 69 80
61 70 80
61 69 80
60 69 80
61 69 80
61 70 80
61 69 80
60 68 79
61 70 80
60 68 79
60 68 79
60 69 80
60 68 80
60 69 80
60 69 80
61 69 80
61 69 80
60 69 80
61 69 80
60 68 79
61 69 80
61 69 80
60 69 80
61 70 80
62 70 80
62 70 80
62 70 80
61 69 80
61 70 80
61 69 80
60 68 79
61 69 80
61 69 80
61 70 80
61 69 80
62 70 80
60 68 79
61 69 80
59 67 78
61 70 80
61 69 80
61 70 80
60 68 78
60 68 79
60 69 80
60 69 80
60 69 80
61 69 80
60 68 79
60 68 78
61 69 80
60 69 80
61 69 80
61 69 80
61 70 80
61 69 80
61 69 80
60 69 80
60 68 79
60 68 79
61 70 80
60 69 80
60 68 79
58 66 76
60 68 79
63 70 80
61 70 80
60 68 79
59 67 78
58 67 78
61 69 79
60 68 79
59 67 77
60 68 79
60 68 78
60 68 78
60 68 79
59 67 78
60 68 78
61 69 79
61 69 79
60 68 78
59 67 78
58 66 77
61 69 80
61 69 80
57 65 75
58 66 76
61 69 80
60 68 78
59 67 78
47 53 62
35 39 44
35 39 45
35 39 44
34 38 43
34 38 43
32 36 41
36 40 45
32 35 40
34 38 43
34 37 42
34 38 43
34 38 44
35 39 45
35 39 44
33 37 42
33 37 42
34 38 44
33 37 43
33 37 42
36 40 46
35 39 44
34 37 43
36 40 46
34 38 43
36 40 45
34 38 44
35 39 44
34 38 43
33 37 42
34 38 43
31 35 40
34 38 43
37 41 46
34 38 44
34 38 44
33 37 42
34 38 43
35 39 44
34 38 44
33 37 43
35 39 45
35 39 44
33 37 42
35 39 44
34 37 42
34 38 43
34 38 44
33 37 42
35 39 44
36 40 45
33 37 42
34 38 43
33 37 42
33 37 42
33 37 42
35 39 44
35 39 44
34 38 43
34 38 43
34 38 43
34 38 43
34 37 43
33 37 42
33 36 41
35 39 44
35 39 45
34 38 43
36 40 46
33 37 42
34 38 44
33 36 41
36 40 45
32 36 42
35 39 44
34 38 44
34 38 43
36 40 46
34 37 43
34 38 43
34 39 44
35 39 44
51 57 66
60 68 78
58 66 76
59 67 77
60 68 78
60 68 79
59 67 78
60 69 80
59 67 77
60 68 79
58 66 76
59 68 78
59 67 78
60 69 80
59 67 78
60 68 79
62 70 80
60 68 79
60 68 79
60 68 78
60 68 79
60 68 79
62 69 80
59 67 78
60 68 79
61 70 80
61 69 80
61 70 80
60 68 79
62 70 80
61 69 80
61 70 80
60 68 79
61 70 80
61 69 79
61 69 80
61 69 80
61 69 80
62 70 80
61 69 80
60 69 80
60 69 80
60 68 78
61 69 80
61 69 80
60 68 79
61 69 80
60 68 79
61 69 80
61 70 80
61 69 80
60 68 79
60 68 79
62 70 80
60 69 80
60 69 80
61 70 80
61 70 80
60 69 80
62 70 80
61 69 80
61 69 80
61 69 80
61 70 80
61 69 80
61 69 79
61 69 80
61 69 80
61 69 80
60 68 79
61 69 80
60 68 79
62 70 80
61 69 80
61 70 80
62 70 80
60 69 80
61 69 80
60 68 79
61 69 80
60 69 80
61 69 80
60 68 80
61 70 80
61 70 80
61 69 80
62 70 80
61 69 80
61 70 80
62 70 80
61 69 79
61 69 80
62 70 80
61 69 80
61 69 80
61 70 80
61 69 80
62 70 80
61 69 80
61 69 80
61 69 80
61 69 80
61 70 80
62 70 80
60 69 80
61 70 80
60 69 80
61 70 80
61 69 80
61 69 80
62 70 80
61 70 80
61 69 80
62 70 80
61 69 80
61 69 80
61 70 80
61 69 80
62 70 80
62 70 80
61 69 80
61 69 80
61 69 80
61 69 80
62 70 80
60 69 80
61 69 80
61 70 80
61 70 80
61 69 80
62 70 80
62 70 80
62 70 80
61 69 80
61 70 80
61 70 80
62 70 80
61 69 80
62 70 80
61 70 80
61 69 80
61 70 80
61 69 80
61 70 80
61 70 80
61 70 80
62 70 80
61 70 80
61 69 80
62 70 80
61 69 80
61 69 80
61 69 80
61 69 80
61 70 80
62 70 80
61 70 80
61 70 80
60 69 80
61 70 80
61 69 80
61 70 80
61 69 80
61 70 80
61 69 80
62 70 80
61 70 80
60 69 80
61 69 80
61 70 80
61 69 80
60 69 80
60 69 80
61 69 80
61 70 80
61 70 80
61 69 80
62 70 80
61 69 80
61 69 80
62 70 80
61 69 80
61 69 80
61 69 80
61 70 80
61 69 80
62 70 80
61 69 80
60 69 80
61 69 80
62 69 80
61 69 80
61 69 80
61 70 80
62 70 80
60 69 80
61 69 80
61 70 80
61 69 80
61 70 80
61 70 80
62 70 80
61 69 80
62 70 80
61 69 80
61 69 80
62 70 80
61 69 80
62 70 80
61 69 80
61 69 80
61 69 80
61 69 80
62 70 80
60 68 79
62 70 80
61 70 80
61 70 80
61 70 80
61 69 80
62 70 80
61 70 80
62 70 80
61 70 80
61 69 80
61 69 80
62 70 80
60 69 80
61 70 80
60 68 79
61 69 80
61 69 80
62 70 80
62 70 80
61 69 80
61 69 80
62 70 80
60 69 80
61 69 80
62 70 80
61 69 80
60 69 80
61 69 80
60 69 80
61 70 80
61 70 80
61 69 80
61 69 80
61 69 80
61 70 80
61 70 80
60 68 79
60 69 80
61 70 80
62 70 80
61 69 80
60 69 80
60 69 80
60 69 80
61 69 79
61 69 80
61 69 80
61 69 80
61 69 80
62 70 80
61 69 80
61 70 80
60 68 78
61 69 80
61 69 80
62 70 80
62 70 80
61 69 79
61 69 80
60 68 78
60 69 79
60 68 79
61 69 80
61 70 80
61 69 80
60 68 79
61 69 79
59 67 77
61 69 80
61 69 80
59 68 79
61 69 80
59 68 78
60 69 80
61 69 80
61 69 79
59 67 77
60 68 79
58 66 76
61 69 80
61 69 80
60 68 79
61 70 80
60 69 80
60 68 79
61 69 80
61 69 80
60 68 79
60 68 78
58 67 78
60 68 79
60 68 79
59 67 78
60 68 78
58 67 78
58 66 77
56 65 75
61 69 80
61 69 80
58 66 77
60 68 79
58 66 76
58 66 77
51 58 66
35 39 45
34 38 44
34 38 44
35 39 44
37 41 46
34 39 44
34 38 44
34 37 42
33 37 43
35 39 44
35 39 44
33 38 43
34 38 43
34 38 44
33 37 42
34 38 44
33 37 42
34 38 43
33 37 42
34 38 43
33 38 43
33 36 42
34 38 43
34 37 42
35 38 44
36 40 45
37 41 46
35 39 44
34 38 43
34 38 43
34 38 43
35 39 45
35 39 44
34 37 43
34 38 44
34 38 44
34 39 44
34 38 43
33 37 42
33 37 43
36 40 45
33 37 42
34 38 43
33 37 42
33 37 42
33 37 42
34 38 44
36 40 46
34 38 43
33 36 42
34 38 43
34 38 44
35 39 44
34 38 43
33 37 42
34 38 43
33 37 42
34 38 43
34 38 43
36 40 45
35 39 44
32 36 41
35 39 44
35 39 44
35 39 44
35 39 45
36 40 45
33 37 42
34 38 43
35 39 44
36 40 46
36 40 45
34 39 44
33 36 42
34 38 44
35 39 44
34 38 43
33 37 42
35 39 44
35 39 44
33 37 42
50 57 66
60 68 79
59 67 78
59 67 77
59 67 77
60 68 78
58 66 77
58 66 76
60 68 78
60 68 78
58 66 76
59 67 78
59 67 77
60 68 78
60 68 79
58 66 76
59 68 79
61 69 80
61 69 79
60 68 79
61 69 79
61 69 80
61 69 80
62 69 80
60 68 79
59 67 78
61 69 80
61 69 79
60 68 78
61 69 80
60 68 79
61 69 79
61 69 79
58 66 78
60 69 80
61 69 80
61 69 79
58 65 76
60 69 80
60 68 79
60 68 79
61 70 80
60 69 80
61 69 80
61 69 79
61 70 80
61 69 80
60 68 79
60 68 79
60 69 80
61 70 80
62 70 80
62 70 80
61 70 80
61 70 80
60 68 79
62 70 80
60 68 79
61 69 80
61 69 80
61 70 80
61 69 80
61 69 80
62 70 80
61 69 80
61 69 80
60 69 80
60 69 80
61 69 80
61 69 80
61 70 80
61 69 80
61 69 80
61 69 80
62 70 80
61 69 80
61 69 80
61 70 80
61 70 80
61 69 80
60 69 80
61 70 80
61 69 80
61 70 80
61 69 80
61 70 80
60 69 79
61 69 80
62 70 80
61 70 80
61 69 80
60 69 80
60 69 80
61 69 80
61 69 80
61 69 80
61 69 80
62 70 80
62 70 80
62 70 80
61 70 80
60 69 80
61 69 80
61 69 80
61 69 80
60 68 79
62 70 80
62 70 80
61 70 80
62 70 80
61 70 80
61 69 80
60 69 80
62 70 80
60 69 80
61 70 80
61 69 80
62 70 80
61 69 80
61 70 80
61 70 80
61 70 80
61 69 80
61 70 80
61 70 80
61 70 80
62 70 80
61 69 80
61 69 80
61 69 80
61 69 80
61 69 80
61 70 80
62 70 80
61 70 80
61 70 80
62 70 80
61 70 80
61 69 80
61 69 80
62 70 80
62 70 80
62 70 80
62 70 80
62 70 80
61 70 80
62 70 80
62 70 80
61 69 80
61 69 80
61 70 80
62 70 80
61 69 80
60 69 80
61 69 80
62 70 80
61 69 80
62 70 80
61 70 80
62 70 80
61 70 80
60 68 80
61 69 80
61 69 80
62 70 80
61 70 80
61 70 80
61 69 80
61 69 80
61 69 80
62 70 80
60 69 80
61 70 80
62 70 80
60 69 80
61 70 80
61 69 80
61 69 80
61 69 80
61 69 80
62 70 80
61 69 80
62 70 80
61 69 80
62 70 80
61 69 80
61 70 80
61 70 80
61 69 80
61 69 80
61 69 80
62 70 80
61 70 80
60 69 80
61 69 80
61 69 80
61 69 80
62 70 80
61 70 80
62 70 80
62 70 80
61 70 80
60 68 79
61 70 80
61 69 80
60 69 80
62 70 80
62 70 80
62 70 80
61 69 80
61 69 80
61 69 80
61 69 80
60 69 80
62 70 80
61 69 80
62 70 80
61 69 80
61 70 80
61 69 80
60 68 80
61 69 80
62 70 80
61 70 80
62 70 80
62 70 80
61 70 80
62 70 80
61 70 80
61 69 80
61 70 80
61 70 80
60 68 80
62 70 80
62 70 80
62 70 80
60 69 80
61 69 80
61 70 80
61 69 80
61 69 80
62 70 80
60 69 80
60 68 79
61 69 80
62 70 80
61 70 80
61 69 80
60 69 80
61 70 80
62 70 80
61 69 80
60 69 80
61 70 80
60 69 80
59 68 78
61 70 80
60 69 80
61 69 80
62 70 80
60 68 79
60 68 79
59 68 78
60 69 80
60 69 80
61 69 80
61 69 79
60 69 80
60 69 80
60 68 79
61 69 80
62 70 80
61 69 80
61 69 80
59 68 79
61 69 80
61 69 80
60 68 79
60 68 80
61 69 80
60 68 79
60 68 78
60 68 78
60 68 79
59 68 78
61 69 80
60 68 78
61 69 80
60 69 80
59 68 79
60 69 80
60 68 78
61 69 80
60 68 78
61 69 80
62 70 80
60 68 79
61 69 80
60 68 79
60 68 79
59 67 77
60 68 79
58 66 76
59 67 78
60 68 79
61 69 79
58 66 76
60 68 79
58 66 76
59 68 78
59 67 78
60 68 78
60 67 78
59 67 78
61 69 79
60 68 79
60 68 78
59 67 78
49 56 64
35 39 44
32 36 41
35 39 44
35 39 44
34 38 43
35 39 45
35 39 44
34 38 44
35 40 45
36 40 45
35 39 44
35 39 44
35 38 44
35 39 44
34 38 43
33 37 42
35 40 45
33 38 43
34 38 43
34 38 43
34 38 44
33 37 42
35 39 44
35 39 44
33 38 43
33 37 42
34 38 43
34 38 43
34 38 43
34 38 44
35 39 44
36 40 46
34 38 43
35 39 44
34 38 44
32 35 41
32 36 41
33 37 43
35 39 44
35 38 43
35 38 44
34 38 44
33 37 42
33 37 42
35 39 44
34 38 43
34 38 44
35 39 44
32 36 41
35 39 44
34 38 43
33 37 42
34 38 43
33 37 42
33 37 43
35 39 44
34 38 43
34 38 43
34 38 43
34 38 43
34 38 43
34 38 43
35 39 44
37 42 47
34 38 44
34 38 43
35 39 44
32 36 41
33 37 42
35 39 45
34 38 43
34 38 44
32 36 41
32 36 42
33 37 42
36 39 45
33 37 42
34 38 43
36 40 45
33 37 42
36 40 45
55 62 71
59 67 77
59 67 77
59 67 78
58 66 76
59 66 76
59 67 78
56 64 74
61 69 80
60 68 78
60 68 78
60 68 79
60 68 79
60 68 79
57 64 75
58 66 76
59 68 78
59 67 78
61 69 79
58 66 76
58 66 77
60 68 78
60 68 79
61 69 80
60 68 78
59 67 78
60 69 80
61 69 80
59 67 78
61 69 80
60 69 80
59 67 78
61 69 79
60 68 78
60 68 79
61 70 80
60 68 79
61 69 80
61 70 80
61 68 79
60 68 78
62 70 80
61 69 80
60 68 79
60 68 79
61 69 80
60 68 79
61 69 80
60 68 79
61 69 80
59 68 78
62 70 80
60 69 80
61 69 80
61 69 80
61 69 80
60 68 78
61 70 80
61 69 79
61 69 80
61 70 80
61 69 80
61 70 80
60 68 79
60 68 78
60 68 79
60 69 80
61 69 80
61 69 80
61 69 80
62 70 80
60 69 80
61 69 80
62 70 80
61 70 80
62 69 80
61 69 80
62 70 80
61 69 80
61 69 80
60 69 80
61 70 80
62 70 80
61 70 80
61 69 80
61 69 80
61 69 80
61 70 80
61 69 80
61 69 80
62 70 80
61 69 80
61 69 80
61 69 80
62 70 80
61 70 80
62 70 80
61 69 80
61 69 80
61 69 80
61 70 80
61 69 80
60 68 79
62 70 80
61 70 80
62 70 80
60 68 79
61 70 80
62 70 80
61 69 79
61 69 80
62 70 80
62 70 80
61 70 80
61 70 80
62 70 80
61 69 80
62 70 80
62 70 80
62 70 80
61 70 80
61 69 80
62 70 80
61 69 80
61 69 80
61 70 80
62 70 80
62 70 80
61 70 80
61 70 80
60 69 80
62 70 80
61 70 80
61 69 80
61 69 80
61 69 80
61 70 80
61 70 80
61 69 80
61 70 80
62 70 80
61 70 80
61 70 80
61 70 80
62 70 80
62 70 80
61 70 80
60 69 80
60 69 80
61 69 80
62 70 80
62 70 80
61 70 80
61 70 80
61 69 80
61 70 80
62 70 80
61 69 80
61 70 80
61 69 80
61 69 80
61 69 80
61 70 80
62 70 80
61 70 80
61 70 80
61 70 80
62 70 80
62 70 80
61 69 80
62 70 80
61 70 80
62 70 80
62 70 80
62 70 80
61 69 80
61 70 80
62 70 80
62 70 80
61 69 80
62 70 80
62 70 80
61 69 80
61 70 80
61 70 80
61 69 80
61 69 80
62 70 80
62 70 80
61 70 80
62 70 80
60 69 80
61 70 80
61 69 80
61 69 80
61 69 80
62 69 80
61 70 80
61 70 80
62 70 80
61 69 80
61 69 80
61 69 80
61 69 80
61 70 80
61 69 80
62 70 80
62 70 80
62 70 80
62 70 80
60 69 80
60 69 80
62 70 80
61 69 80
61 69 80
61 70 80
61 69 80
61 69 80
60 68 79
61 70 80
62 70 80
61 70 80
61 69 80
61 69 80
60 68 79
61 69 80
61 69 79
61 69 80
60 69 80
61 69 80
60 69 80
61 69 80
60 69 80
62 70 80
61 69 80
61 69 80
60 69 80
61 69 80
61 69 79
62 70 80
60 69 80
61 69 80
59 67 78
61 69 80
61 70 80
61 69 79
62 70 80
61 69 80
60 69 80
62 70 80
60 68 79
61 69 80
61 70 80
60 69 80
60 69 80
62 70 80
61 69 80
61 69 80
61 69 80
61 69 80
61 69 80
61 70 80
61 69 80
60 69 80
61 69 80
60 68 79
61 69 80
61 69 80
61 69 80
59 68 78
60 69 80
62 70 80
60 69 80
61 70 80
60 68 79
63 70 80
61 69 80
61 69 79
61 70 80
61 70 80
61 69 80
60 69 80
59 68 78
61 69 80
58 66 77
60 68 78
60 68 79
59 68 79
60 69 80
61 69 79
60 68 78
60 69 80
60 69 80
60 68 78
60 69 80
60 68 78
59 67 78
60 69 80
60 67 78
61 69 80
59 67 77
59 68 78
60 68 79
60 68 78
60 68 78
60 68 79
60 68 78
59 67 78
58 66 77
59 68 79
59 68 78
57 65 75
60 68 80
59 67 78
61 69 80
59 67 78
59 67 78
59 67 78
54 61 71
34 38 43
33 37 42
34 38 43
32 36 41
32 36 41
34 38 43
34 38 44
35 39 44
37 40 46
34 38 44
33 37 42
35 39 44
34 38 44
35 39 44
32 36 41
34 38 43
35 39 44
34 37 42
33 37 43
34 38 43
34 37 42
34 38 44
35 39 44
35 39 44
36 40 45
36 40 45
32 36 42
35 39 44
34 38 43
35 39 44
35 39 44
35 39 44
34 38 43
35 39 44
33 37 43
33 36 41
35 39 44
34 38 43
35 39 44
35 39 44
35 39 44
35 39 44
33 37 42
36 40 45
33 36 42
34 38 43
33 37 42
34 38 43
35 39 44
35 39 44
34 39 44
34 37 42
36 40 45
34 38 43
36 40 45
34 38 43
33 37 42
33 37 42
34 38 43
33 37 43
33 37 42
34 38 43
36 40 45
32 36 41
36 40 46
32 36 41
33 37 42
36 40 46
36 40 45
33 37 43
35 39 45
33 37 42
34 38 44
34 38 44
34 38 44
32 36 42
36 40 45
33 37 43
35 39 44
32 36 41
35 39 45
50 57 66
58 66 76
58 66 76
60 68 78
60 68 79
58 66 76
58 66 77
59 67 77
59 67 78
60 68 78
58 66 76
60 68 79
59 67 78
60 68 79
60 68 79
59 66 76
60 68 79
59 67 78
59 68 78
59 67 77
60 68 79
58 66 77
59 67 78
60 68 79
61 69 79
61 69 80
59 67 78
59 66 77
60 68 78
60 68 79
60 68 79
60 68 79
60 68 78
59 67 78
60 68 78
60 69 80
61 69 79
60 69 80
61 69 80
61 70 80
62 69 80
61 69 80
61 69 80
61 69 80
60 69 80
62 70 80
59 67 78
62 70 80
61 69 80
61 70 80
61 69 80
60 69 80
59 68 78
61 69 80
61 70 80
60 68 79
61 69 80
60 69 80
61 69 80
60 69 80
59 67 78
60 69 80
61 69 80
61 69 79
61 69 80
61 69 80
61 69 80
61 69 80
59 67 78
62 69 80
61 69 80
61 69 80
59 67 78
61 69 80
60 69 80
61 69 80
61 69 80
61 70 80
59 68 79
61 69 80
60 69 80
61 69 80
61 70 80
61 69 80
61 69 80
60 69 80
61 70 80
60 69 80
60 69 80
61 70 80
61 70 80
61 70 80
61 69 79
61 69 80
60 69 80
61 69 80
60 68 79
61 70 80
61 69 80
61 69 80
59 68 78
61 69 80
61 70 80
61 69 80
61 70 80
62 70 80
62 70 80
61 70 80
61 70 80
61 70 80
61 69 80
61 70 80
61 70 80
61 69 80
61 69 80
60 69 80
61 69 80
61 70 80
61 69 80
61 69 80
61 70 80
62 70 80
61 69 80
61 69 80
61 70 80
62 70 80
61 69 80
61 70 80
60 69 80
61 70 80
62 70 80
61 69 80
60 68 79
61 69 80
61 70 80
61 69 80
60 68 79
61 70 80
62 70 80
61 70 80
62 70 80
61 70 80
61 69 80
61 70 80
61 69 80
61 69 80
61 69 80
61 69 80
61 69 80
60 69 80
62 70 80
61 70 80
61 69 80
61 70 80
62 70 80
61 69 80
62 70 80
61 70 80
61 69 80
61 69 80
61 69 80
62 70 80
61 70 80
61 70 80
61 69 80
62 70 80
62 70 80
61 70 80
62 70 80
61 70 80
61 69 80
60 69 80
61 70 80
61 69 80
61 69 80
60 69 79
61 70 80
61 70 80
61 70 80
61 69 80
61 70 80
61 69 80
60 69 80
61 70 80
60 69 80
61 70 80
62 70 80
60 69 80
61 70 80
62 70 80
61 70 80
62 70 80
61 70 80
61 70 80
61 69 80
61 69 79
61 70 80
61 69 80
62 70 80
60 69 80
61 69 80
61 69 80
61 70 80
61 69 80
60 69 80
60 69 80
60 69 80
61 70 80
61 69 80
61 69 80
61 69 80
61 69 80
61 70 80
61 69 79
61 70 80
61 69 80
60 69 80
61 70 80
60 69 80
61 70 80
62 70 80
61 70 80
59 67 78
62 70 80
61 70 80
62 70 80
62 70 80
62 70 80
61 69 80
61 69 80
61 69 80
60 69 80
61 70 80
61 70 80
60 68 79
61 69 80
61 69 80
61 70 80
61 69 80
62 70 80
61 70 80
62 70 80
61 69 80
61 69 80
61 70 80
60 69 80
62 70 80
61 70 80
60 68 79
61 69 80
61 69 80
61 69 80
61 69 80
60 69 80
61 69 80
60 68 79
62 70 80
61 69 80
61 70 80
60 68 79
59 68 79
61 69 80
62 70 80
60 69 80
59 68 78
60 68 78
62 69 80
60 69 80
60 68 78
60 68 78
62 70 80
60 69 79
61 69 80
61 69 80
60 69 80
61 69 80
60 69 80
61 69 80
61 69 80
60 68 79
60 69 80
61 70 80
61 69 80
60 69 79
59 68 78
61 70 80
61 69 79
60 68 78
60 68 79
60 69 80
61 69 80
60 68 79
59 67 78
62 70 80
60 68 78
59 68 78
60 68 78
60 68 79
60 68 79
58 66 76
59 67 77
61 69 79
60 68 79
60 68 78
59 67 78
61 69 80
58 66 76
59 67 78
57 65 75
59 67 77
59 67 77
59 67 78
59 66 77
58 66 76
57 66 76
58 66 77
59 67 77
59 67 78
53 61 70
34 38 44
34 38 43
32 36 41
32 36 42
34 38 43
34 38 43
34 38 43
34 38 44
36 40 45
34 39 44
35 39 44
34 38 43
33 38 43
32 36 41
35 39 44
34 38 43
34 38 43
34 38 43
35 39 45
34 38 43
33 37 42
34 38 44
33 37 42
34 38 43
35 39 44
34 38 43
32 36 41
35 39 44
34 38 44
35 39 44
35 39 45
36 40 45
35 39 44
35 39 45
33 37 42
34 39 44
34 38 43
35 39 45
34 38 43
34 38 43
34 38 43
35 39 44
35 38 44
33 37 42
33 37 42
35 38 44
33 37 42
35 39 44
33 36 41
34 38 43
35 39 44
35 39 44
33 37 42
35 39 44
35 39 44
34 38 43
35 39 45
36 40 45
35 39 44
34 38 43
36 40 46
34 38 43
33 38 43
34 38 44
32 36 41
33 36 42
33 37 43
32 36 41
34 38 43
32 36 41
36 40 45
35 39 44
33 37 43
33 37 42
33 37 43
34 38 44
34 38 44
34 38 43
33 37 42
32 36 42
33 37 42
54 61 70
59 67 78
58 66 76
58 66 77
57 65 75
58 66 77
59 68 78
59 67 78
59 68 79
57 65 76
59 67 77
59 67 78
59 67 78
59 67 77
58 65 76
59 67 77
60 68 79
61 69 79
60 68 79
59 68 79
60 68 79
59 67 78
59 67 78
61 70 80
60 68 79
60 68 78
60 68 79
59 68 79
59 68 78
60 68 78
61 70 80
60 68 78
60 68 78
60 68 79
61 69 80
60 68 78
61 69 80
60 68 78
61 69 80
61 69 80
59 68 79
58 67 78
58 66 76
61 69 80
58 67 78
61 69 80
61 69 80
62 70 80
59 67 78
61 69 80
61 69 79
61 69 80
59 67 78
61 69 80
60 68 79
61 69 80
61 69 80
59 68 78
60 68 79
61 69 80
61 69 80
61 69 80
60 68 79
60 69 80
62 70 80
59 67 78
60 69 80
61 69 80
61 70 80
60 69 80
61 69 80
61 69 80
62 70 80
60 69 80
61 69 80
61 70 80
61 70 80
62 70 80
61 69 80
59 68 79
60 69 80
61 69 80
59 68 78
61 69 80
61 70 80
61 69 80
61 70 80
61 70 80
61 69 80
61 69 80
62 70 80
62 70 80
61 70 80
60 68 79
61 69 80
61 69 80
61 69 80
61 69 80
60 68 78
61 69 80
61 70 80
61 69 80
61 69 80
61 69 80
61 70 80
61 69 80
62 70 80
62 70 80
62 70 80
60 68 79
61 69 80
60 69 80
61 69 80
61 70 80
60 69 80
61 69 80
61 70 80
61 69 80
61 69 80
61 70 80
62 70 80
61 70 80
62 70 80
61 70 80
62 70 80
61 70 80
61 70 80
62 70 80
61 70 80
61 69 80
61 69 80
61 70 80
61 69 80
62 70 80
62 70 80
61 70 80
61 70 80
62 70 80
61 70 80
61 69 80
61 69 80
61 69 80
61 69 80
61 70 80
61 69 80
61 70 80
61 70 80
61 70 80
61 70 80
61 70 80
62 70 80
61 70 80
62 70 80
62 70 80
60 69 80
61 69 80
61 69 80
62 70 80
61 70 80
61 69 80
61 69 80
61 69 80
60 69 80
61 70 80
61 70 80
61 69 80
61 70 80
61 70 80
61 70 80
61 70 80
62 70 80
61 69 80
61 69 80
61 69 80
62 70 80
60 69 80
61 70 80
62 70 80
61 70 80
61 70 80
61 69 80
61 70 80
61 70 80
62 70 80
62 70 80
62 70 80
61 70 80
61 69 80
61 69 79
62 70 80
62 70 80
61 69 80
61 69 80
60 69 80
61 70 80
60 68 79
61 69 80
62 70 80
62 70 80
62 69 80
61 69 80
60 69 80
62 70 80
61 69 80
60 69 80
61 69 80
61 69 80
61 70 80
61 69 80
61 70 80
62 70 80
61 69 80
61 70 80
62 69 80
61 69 80
61 70 80
61 69 80
62 70 80
61 69 80
61 69 80
61 70 80
61 70 80
62 70 80
59 67 78
61 69 80
62 70 80
60 68 78
61 70 80
61 69 80
61 69 80
61 70 80
61 69 79
61 69 80
60 69 80
61 69 80
61 69 80
62 70 80
61 69 80
60 69 80
61 69 80
60 69 80
62 70 80
62 70 80
59 67 77
61 70 80
62 70 80
60 68 78
61 70 80
62 70 80
61 70 80
61 69 79
61 69 80
61 70 80
61 69 80
61 70 80
61 69 80
61 70 80
61 69 80
61 70 80
61 69 80
60 68 79
61 70 80
61 69 79
59 68 79
61 70 80
61 69 79
60 68 79
61 70 80
61 69 80
61 69 80
61 69 80
61 70 80
61 69 80
61 69 80
60 68 79
61 69 79
62 69 80
59 68 78
60 68 78
60 69 80
61 69 79
60 68 79
60 68 78
60 68 79
60 68 79
61 69 80
61 69 79
58 67 78
59 67 78
59 67 78
60 69 80
60 68 78
60 69 80
58 66 77
60 68 79
61 69 80
59 68 78
59 67 78
60 68 78
59 68 79
59 67 78
59 67 77
58 66 77
60 68 78
61 69 80
58 66 76
60 67 78
57 65 75
57 65 75
60 68 79
57 65 75
58 66 76
58 66 77
59 67 78
58 65 75
58 65 75
59 68 78
57 65 76
57 65 75
33 37 41
34 38 43
35 39 45
33 36 41
35 39 44
32 35 40
34 38 43
33 37 43
35 40 45
34 38 43
34 38 43
34 38 43
36 40 45
33 38 43
33 37 42
34 38 43
32 36 40
33 37 43
35 39 44
34 37 43
33 37 42
36 40 46
34 38 44
35 39 45
34 38 44
34 37 43
36 40 46
36 39 44
35 39 44
35 39 44
35 39 44
34 38 43
34 37 42
33 37 42
34 38 44
35 39 44
34 38 44
33 37 43
32 36 41
35 39 45
35 39 44
35 39 44
34 39 44
34 38 44
34 38 43
34 38 43
35 39 45
35 39 44
35 39 44
34 38 43
34 38 44
36 40 45
33 37 42
34 38 43
34 38 44
34 38 44
34 38 43
35 39 44
35 39 44
32 36 42
33 36 41
34 38 43
35 39 44
33 37 43
34 38 43
35 39 44
35 39 45
34 38 43
35 39 44
34 37 43
35 39 45
36 40 45
33 37 42
32 36 41
35 39 44
35 39 44
35 39 44
35 39 44
32 36 41
36 40 45
32 37 42
56 63 73
59 67 77
59 68 78
59 67 77
59 67 78
57 65 75
58 66 76
59 68 78
59 68 78
60 68 78
59 67 78
59 67 77
57 65 75
59 67 78
60 68 78
59 67 77
60 68 78
57 65 76
59 67 78
57 65 75
60 68 78
60 67 78
60 68 79
61 69 79
60 68 79
57 65 74
57 65 75
62 69 80
61 69 80
58 66 77
60 68 79
60 68 79
60 68 79
61 69 80
59 67 78
59 67 78
61 69 79
59 67 77
60 69 80
62 70 80
60 68 79
61 69 80
61 69 80
60 68 79
60 68 79
61 69 80
60 68 78
59 68 79
60 69 80
60 69 80
59 67 78
62 70 80
62 70 80
62 70 80
61 69 80
61 70 80
61 69 79
60 69 80
60 68 79
61 69 80
61 69 80
60 68 79
60 69 80
60 68 79
61 70 80
62 70 80
60 69 80
61 69 80
61 69 80
60 68 78
61 69 79
61 69 80
62 69 80
60 68 79
61 69 80
61 68 79
62 70 80
62 70 80
62 70 80
60 69 80
60 68 79
61 69 80
61 69 80
61 70 80
60 69 79
60 68 79
61 70 80
61 69 80
61 70 80
61 69 80
62 70 80
61 69 80
61 69 80
60 68 79
60 69 80
61 70 80
61 70 80
62 70 80
61 69 80
61 69 80
60 68 79
61 69 80
61 69 80
61 70 80
61 70 80
61 69 80
62 70 80
62 70 80
61 69 80
61 69 80
61 70 80
60 69 80
61 69 80
61 70 80
61 69 80
60 69 80
61 69 80
62 70 80
61 69 80
61 69 80
61 69 80
60 69 80
61 69 80
62 70 80
62 70 80
61 69 80
61 69 80
62 70 80
62 70 80
61 69 80
61 69 80
61 69 80
61 69 80
61 69 80
61 69 80
61 69 80
62 70 80
61 69 80
62 70 80
61 70 80
61 69 80
61 70 80
62 70 80
61 69 80
61 69 80
62 70 80
60 68 79
62 70 80
61 69 80
62 70 80
62 70 80
61 69 80
62 70 80
61 69 80
62 70 80
61 69 80
61 70 80
62 70 80
61 69 80
61 70 80
61 69 80
61 69 80
61 70 80
61 70 80
62 70 80
62 70 80
62 70 80
61 70 80
62 70 80
61 69 80
61 69 80
62 70 80
61 69 80
61 69 80
61 69 80
61 70 80
61 69 80
61 70 80
62 70 80
62 70 80
61 69 80
61 69 80
62 70 80
61 70 80
61 70 80
61 69 80
61 70 80
62 70 80
61 69 80
61 69 80
61 70 80
61 69 80
61 69 80
62 70 80
61 69 80
61 70 80
61 70 80
61 70 80
61 69 80
61 69 80
61 69 80
61 69 80
61 69 80
60 69 80
62 70 80
61 69 80
61 70 80
60 69 80
61 70 80
61 70 80
61 69 80
61 69 80
62 70 80
62 70 80
62 70 80
61 70 80
61 69 80
61 69 80
61 69 80
61 69 80
61 70 80
60 69 80
62 70 80
61 70 80
61 69 80
61 70 80
61 69 80
61 70 80
62 70 80
62 70 80
62 70 80
61 69 80
61 70 80
60 68 79
61 70 80
61 70 80
61 70 80
61 69 80
62 70 80
61 69 80
61 69 80
62 70 80
60 69 80
62 70 80
61 69 80
61 69 80
60 68 79
61 70 80
61 69 80
61 69 80
61 69 80
60 68 78
61 69 79
61 69 80
61 69 79
61 69 80
60 68 80
60 69 80
61 69 80
60 69 80
60 69 80
61 69 80
60 69 80
61 69 79
60 68 78
60 68 79
60 68 78
61 69 80
61 69 80
60 68 78
60 68 78
61 69 80
60 68 79
59 67 77
60 68 80
61 69 80
61 70 80
61 68 79
60 69 80
60 69 80
59 68 79
60 68 79
60 68 78
61 69 79
61 69 79
60 68 79
59 68 79
62 70 80
61 69 80
59 68 78
61 69 80
59 67 78
60 68 79
59 68 78
60 68 78
57 65 75
61 69 80
60 68 78
59 68 78
60 68 79
59 67 78
59 68 78
58 66 77
58 66 76
58 66 76
59 68 78
59 67 78
58 66 75
59 68 78
58 66 76
59 67 77
59 66 75
58 66 76
59 67 77
57 65 75
57 65 75
58 66 76
57 65 76
60 68 78
33 37 42
33 37 42
36 40 45
33 37 42
35 39 44
34 38 43
33 37 42
34 38 44
35 39 45
34 38 43
33 37 42
35 39 45
34 38 44
35 39 45
33 37 42
34 38 43
34 37 42
33 37 43
34 38 44
34 38 44
34 38 43
34 38 44
32 36 41
35 38 44
35 39 45
34 38 43
35 39 44
32 36 41
33 37 42
34 38 42
36 40 46
33 37 42
36 40 46
34 38 43
35 39 44
34 38 44
35 39 45
34 38 44
33 38 43
35 39 44
35 39 45
33 37 43
35 38 44
32 36 42
34 38 44
35 39 44
35 39 44
37 40 45
32 36 42
35 39 44
34 38 43
35 38 43
35 39 44
35 39 44
33 37 42
33 37 42
34 39 44
34 38 43
33 37 42
34 38 43
33 37 42
34 38 43
35 39 44
35 39 44
35 39 44
34 38 43
33 37 42
36 39 45
35 39 45
34 38 43
33 37 42
33 37 42
32 36 41
33 37 42
34 39 44
35 38 44
33 37 42
33 37 42
33 37 42
32 36 41
34 38 44
58 66 76
56 63 73
57 65 76
58 66 76
59 67 78
58 66 76
56 64 75
60 68 78
59 67 78
59 67 78
57 65 75
58 66 76
58 66 76
60 68 79
59 67 78
60 69 80
61 69 80
56 64 75
60 68 78
58 66 77
60 68 79
60 68 78
61 69 79
59 67 78
60 68 79
60 68 79
60 68 78
60 68 79
60 68 78
59 67 78
60 68 79
61 69 80
62 70 80
60 68 79
60 68 78
60 68 78
61 69 80
60 69 80
60 68 79
59 68 78
59 68 78
61 69 80
61 69 80
61 69 80
60 68 79
60 69 80
60 69 79
60 69 80
61 69 80
61 69 80
60 69 79
61 69 80
62 70 80
61 70 80
62 70 80
60 69 80
61 69 80
61 69 80
60 68 79
60 68 79
61 70 80
62 70 80
59 68 78
59 68 78
61 69 80
61 69 80
61 69 80
61 70 80
61 69 80
62 70 80
60 68 79
60 69 80
61 69 80
61 69 80
60 69 80
61 69 80
61 69 80
60 69 80
61 69 80
62 70 80
61 69 80
61 69 80
60 69 80
62 70 80
61 69 79
61 69 80
61 69 80
60 68 79
59 68 79
61 69 80
62 70 80
62 70 80
60 68 80
61 69 80
61 69 80
61 69 80
61 69 80
61 70 80
62 70 80
61 69 80
61 70 80
61 69 80
60 68 79
62 70 80
62 69 80
62 70 80
61 69 80
60 69 80
61 70 80
61 69 80
61 69 80
61 69 80
62 70 80
61 69 80
62 70 80
61 69 80
62 70 80
61 69 80
61 69 80
60 69 80
61 69 80
61 69 80
61 70 80
61 70 80
61 69 80
61 70 80
61 70 80
61 70 80
61 69 80
62 70 80
62 70 80
61 70 80
61 70 80
61 70 80
61 70 80
61 69 80
62 70 80
60 69 80
62 70 80
61 70 80
61 70 80
60 68 79
62 70 80
61 69 80
61 70 80
61 70 80
62 70 80
61 70 80
61 69 80
62 70 80
62 70 80
61 69 80
62 70 80
60 69 80
61 70 80
61 69 80
62 70 80
61 69 80
61 70 80
60 69 80
61 69 80
61 70 80
61 70 80
61 69 80
60 69 80
61 69 80
61 70 80
61 69 80
61 70 80
61 69 80
62 70 80
61 69 80
61 69 80
61 69 80
61 70 80
62 70 80
61 69 80
62 70 80
62 70 80
62 70 80
61 69 80
61 69 80
62 70 80
62 70 80
62 70 80
61 69 80
61 70 80
60 69 80
61 69 80
61 70 80
62 70 80
60 69 80
61 70 80
61 69 80
60 69 80
61 69 80
62 70 80
62 70 80
62 70 80
61 70 80
62 70 80
61 69 80
62 70 80
61 69 80
62 70 80
62 70 80
61 70 80
61 69 80
61 70 80
61 70 80
61 69 80
61 69 80
61 69 80
61 69 80
61 69 80
60 69 80
61 70 80
61 70 80
60 69 80
61 70 80
61 70 80
61 69 80
61 69 80
61 69 80
61 69 80
61 69 80
61 70 80
61 69 80
62 70 80
61 70 80
61 70 80
60 68 79
61 69 80
61 69 80
61 69 80
62 70 80
61 69 80
62 70 80
60 68 79
59 68 79
60 68 79
61 69 80
62 70 80
61 70 80
60 69 80
61 70 80
61 69 80
61 70 80
61 70 80
62 70 80
62 70 80
61 69 80
62 70 80
61 69 80
62 70 80
61 69 79
61 69 80
60 68 79
60 69 80
61 69 80
59 67 78
60 68 79
61 69 80
60 68 79
60 69 80
61 69 80
60 69 80
60 69 80
60 68 79
60 68 79
60 68 79
61 69 80
61 69 80
60 68 79
59 68 78
60 68 79
61 69 80
59 68 80
59 67 78
59 67 78
61 69 80
59 67 78
60 68 78
60 68 78
59 67 78
61 69 80
60 68 79
58 67 78
61 69 80
60 68 78
58 66 77
61 69 79
61 69 79
59 67 78
60 68 78
61 69 80
60 69 79
58 66 77
62 70 80
60 68 78
60 68 78
59 67 78
58 66 76
58 66 77
59 67 78
60 68 79
59 67 77
60 68 78
58 66 76
57 65 76
60 68 79
58 66 76
57 65 76
59 66 76
57 65 75
58 66 76
57 65 75
59 67 77
57 65 76
36 40 45
34 38 43
34 38 43
34 38 43
35 39 45
36 40 45
34 37 43
34 38 43
33 37 42
32 36 41
33 37 42
36 40 45
35 39 44
34 38 43
34 37 43
35 39 44
33 37 42
34 38 43
34 38 43
33 37 43
34 38 43
35 39 44
33 37 42
33 37 43
34 38 43
34 38 43
34 38 43
33 37 42
36 40 45
35 39 44
34 38 43
34 38 43
33 37 42
34 38 43
36 40 45
34 38 44
33 37 42
35 39 44
34 39 44
31 35 40
32 36 42
35 39 44
35 39 44
34 38 43
36 40 45
34 38 44
35 39 44
33 37 42
35 40 45
36 40 45
34 38 43
37 41 46
35 39 45
35 39 44
33 37 42
35 39 44
34 38 44
33 37 42
35 39 44
36 40 45
35 39 44
34 37 43
36 40 45
34 38 43
33 37 42
34 38 44
35 39 44
34 38 42
35 39 44
34 38 43
34 38 43
33 37 42
34 38 44
34 37 42
35 38 43
35 39 44
33 37 42
34 38 44
35 39 44
34 38 43
37 41 47
57 65 76
58 66 76
59 67 77
59 67 78
59 67 77
59 66 77
57 64 73
56 63 73
60 68 78
59 67 78
60 68 78
57 65 75
59 68 78
60 68 78
59 68 79
58 66 76
59 67 78
60 69 80
60 69 80
57 65 76
59 67 77
60 68 79
60 68 78
60 68 78
60 67 78
60 68 79
61 69 80
59 67 78
60 68 78
60 68 79
60 69 80
61 69 80
61 69 79
59 68 78
60 68 78
60 68 78
60 68 78
60 69 79
61 69 79
61 69 80
58 67 78
60 68 79
60 68 79
60 69 80
61 69 80
60 68 79
60 69 80
61 70 80
61 69 80
60 68 79
61 70 80
60 68 78
61 69 80
60 69 80
61 69 80
59 68 79
60 69 80
60 68 78
60 68 78
61 69 80
59 68 78
60 68 79
61 69 80
61 69 80
60 68 79
61 69 80
61 69 80
61 70 80
61 70 80
60 68 79
61 69 80
62 70 80
61 70 80
60 68 79
60 69 80
63 70 80
62 70 80
61 69 80
62 70 80
61 69 80
61 70 80
60 69 80
61 69 80
61 69 80
61 69 80
61 70 80
61 69 80
60 69 80
61 69 80
61 70 80
62 70 80
61 69 80
62 69 80
61 70 80
61 70 80
62 70 80
61 69 80
61 70 80
61 69 80
60 69 80
61 70 80
61 70 80
61 70 80
61 70 80
61 70 80
61 70 80
61 70 80
61 69 80
61 69 80
61 70 80
61 69 80
61 70 80
60 69 80
60 69 80
61 69 80
60 69 80
61 69 80
61 69 80
60 68 80
61 70 80
61 70 80
61 69 80
61 70 80
62 70 80
61 69 80
62 70 80
61 69 80
61 69 80
60 69 80
62 70 80
62 70 80
61 69 80
60 69 80
61 69 80
61 69 80
61 70 80
61 69 80
61 70 80
61 69 80
61 69 80
61 69 80
61 70 80
61 69 80
61 69 80
61 69 80
61 69 80
62 70 80
61 70 80
61 70 80
60 69 80
61 69 80
61 70 80
61 69 80
61 69 80
61 70 80
62 70 80
61 70 80
62 70 80
61 69 80
61 69 80
61 70 80
61 70 80
60 69 80
62 70 80
61 69 80
62 70 80
61 69 80
62 70 80
61 69 80
61 69 80
61 69 80
61 70 80
61 69 80
61 69 80
62 70 80
62 70 80
62 70 80
61 70 80
61 69 80
61 70 80
60 69 80
60 69 80
61 69 80
60 69 80
61 70 80
62 70 80
61 69 80
62 70 80
61 69 80
62 70 80
62 70 80
61 69 80
61 69 80
60 68 79
60 69 80
62 70 80
61 69 80
62 70 80
61 70 80
61 70 80
62 70 80
61 69 80
61 69 80
60 69 80
61 70 80
61 69 80
61 69 80
61 70 80
62 70 80
62 70 80
62 70 80
61 69 80
61 69 80
61 70 80
60 69 80
62 70 80
62 70 80
61 70 80
61 69 80
60 69 80
62 70 80
61 69 80
61 69 80
61 69 80
61 70 80
62 70 80
61 69 80
61 70 80
60 69 80
62 70 80
61 69 80
62 70 80
61 69 80
61 69 80
61 69 80
61 69 80
60 69 80
61 69 80
60 69 79
62 70 80
61 70 80
60 68 79
60 69 80
61 70 80
61 69 80
61 70 80
60 69 80
61 69 80
61 69 80
61 69 80
60 69 80
62 70 80
59 68 78
61 69 80
61 70 80
60 68 79
61 70 80
61 70 80
61 69 80
61 69 80
61 69 80
62 69 80
59 68 79
59 68 78
61 70 80
59 67 78
61 69 79
61 69 80
60 67 78
60 68 79
60 68 79
60 68 79
61 69 79
61 69 80
60 69 80
61 69 79
61 69 80
60 68 78
59 67 78
59 67 78
59 67 78
59 67 78
60 68 78
61 69 79
60 68 79
58 66 77
61 70 80
60 68 79
60 68 79
58 66 77
61 69 80
61 69 80
59 68 78
60 68 79
58 67 77
59 67 77
60 68 78
60 69 80
60 68 79
60 69 80
59 67 76
59 67 78
59 67 78
59 67 77
60 68 79
59 68 79
59 67 78
58 66 77
58 66 77
57 65 75
58 66 76
57 65 75
59 67 77
59 67 77
58 66 77
58 66 77
58 67 78
58 66 76
55 62 72
37 42 48
34 38 43
35 39 45
33 37 43
35 40 45
33 37 42
34 38 43
33 37 43
35 39 45
35 38 43
34 38 44
33 37 42
35 39 44
35 38 44
36 40 45
33 37 42
36 40 45
34 38 43
34 38 43
34 38 44
35 39 44
34 38 43
34 38 43
34 38 43
33 37 42
34 38 44
34 38 43
37 41 46
32 36 41
34 38 43
34 37 42
35 39 45
33 37 42
35 39 44
34 38 43
34 38 44
33 37 42
35 39 44
35 39 44
34 38 43
34 38 43
32 36 41
33 37 43
35 39 45
34 38 43
35 40 45
33 37 43
33 37 42
35 38 44
33 37 42
33 37 42
32 36 41
32 36 41
35 39 44
35 39 44
35 39 44
35 39 45
33 37 43
33 37 42
35 39 44
33 37 43
33 37 42
35 39 44
35 40 45
36 40 46
34 38 44
33 37 42
34 38 43
34 38 44
33 37 42
33 37 42
33 37 42
34 38 43
34 38 43
35 38 44
33 37 42
35 39 44
33 37 42
35 39 44
33 37 43
37 42 48
55 62 72
56 64 74
57 64 75
58 66 77
58 66 77
58 66 77
56 63 73
58 66 76
60 68 79
57 65 76
57 65 75
60 68 79
60 68 79
58 66 77
58 67 78
58 66 78
59 68 78
60 68 78
60 68 78
57 65 76
61 70 80
58 67 78
59 67 78
59 67 78
61 69 80
61 69 80
60 68 78
60 68 79
60 68 78
59 68 79
61 69 80
61 69 80
60 68 78
58 67 78
59 67 78
60 68 78
61 69 80
59 67 78
59 67 78
60 69 80
61 69 80
60 68 78
61 69 80
60 69 80
59 68 78
60 68 79
59 67 78
59 68 78
60 69 80
59 67 78
61 70 80
61 70 80
60 68 79
61 70 80
60 68 79
61 69 80
61 69 80
60 68 78
61 69 80
60 68 78
61 69 80
61 69 80
61 69 80
61 69 80
61 69 80
62 70 80
59 67 77
59 67 78
61 69 80
61 69 80
61 70 80
62 70 80
61 69 79
61 70 80
61 69 80
60 68 79
61 69 80
61 69 80
61 69 80
61 69 80
60 69 80
61 69 80
61 69 80
60 68 79
60 69 80
62 70 80
61 70 80
61 69 80
61 70 80
60 69 79
62 70 80
60 68 79
60 69 80
61 69 80
61 69 80
60 69 80
60 69 80
61 69 80
62 70 80
61 69 80
61 69 80
60 69 80
62 70 80
60 69 80
61 70 80
62 69 80
61 69 80
61 70 80
61 69 80
60 68 79
61 69 80
60 68 80
61 69 80
61 69 80
61 69 80
62 70 80
62 70 80
62 70 80
61 69 80
61 70 80
62 70 80
60 68 79
60 69 80
61 70 80
61 69 80
61 69 80
61 69 80
62 70 80
61 69 80
61 69 80
61 69 80
61 70 80
60 69 80
62 70 80
61 70 80
60 68 79
61 70 80
61 69 80
61 69 80
61 69 80
60 69 80
61 70 80
61 69 80
61 70 80
62 70 80
61 69 80
62 70 80
61 70 80
61 69 80
61 70 80
61 69 80
61 70 80
62 70 80
61 69 80
61 69 80
61 69 80
61 69 80
62 70 80
61 69 80
62 70 80
61 69 80
61 70 80
61 70 80
61 69 80
62 70 80
61 69 80
61 69 80
61 69 80
61 69 80
62 70 80
61 69 80
62 70 80
61 70 80
61 69 80
61 69 80
61 69 80
62 70 80
61 70 80
61 69 80
61 69 80
61 69 80
61 70 80
62 70 80
61 69 80
61 69 80
61 70 80
62 70 80
62 70 80
61 70 80
61 69 80
61 70 80
61 69 80
61 69 80
62 70 80
60 69 80
62 70 80
62 70 80
61 69 80
61 69 80
61 69 80
61 69 80
61 70 80
61 70 80
61 69 80
62 70 80
61 70 80
61 70 80
61 70 80
61 69 80
61 69 80
60 69 80
61 70 80
61 70 80
62 70 80
60 69 80
62 70 80
62 70 80
61 70 80
61 69 80
61 70 80
61 69 80
61 69 80
61 69 80
61 70 80
61 69 80
61 69 80
62 70 80
61 70 80
61 70 80
60 68 79
62 70 80
61 69 80
61 69 80
60 68 79
61 69 80
62 70 80
62 70 80
60 69 80
61 69 80
61 69 80
62 70 80
60 68 79
61 70 80
60 68 79
61 69 80
60 68 79
62 70 80
61 69 80
61 69 80
60 69 80
60 68 79
60 69 80
59 67 78
61 69 80
60 68 79
61 69 80
60 68 79
61 69 80
60 68 79
60 68 79
60 68 79
61 69 80
62 70 80
58 66 76
60 68 80
61 69 80
61 69 80
61 69 80
61 69 80
60 69 80
62 70 80
61 69 79
61 69 80
60 68 79
60 69 80
59 68 79
61 69 79
60 69 80
61 70 80
62 69 80
61 69 79
60 68 78
59 68 79
62 70 80
59 68 79
59 67 78
60 68 79
60 68 78
60 68 78
60 68 78
58 66 76
58 67 78
59 67 78
60 69 80
59 68 78
60 68 78
58 66 76
59 67 78
58 66 77
60 68 79
56 64 74
58 66 77
59 68 78
58 66 76
57 65 75
60 68 78
59 67 78
55 63 73
58 66 76
59 67 78
56 64 74
58 66 76
57 64 75
58 66 76
56 64 74
58 65 75
58 66 76
60 68 78
58 66 76
41 46 52
31 35 40
33 37 42
34 38 44
33 37 42
34 38 43
36 40 45
34 38 43
35 40 45
35 39 44
33 37 42
33 37 42
35 39 44
35 39 45
36 40 45
34 38 43
35 39 44
35 39 45
34 38 44
33 37 43
34 38 43
33 37 42
36 39 44
34 38 43
34 38 43
33 37 42
35 38 43
34 38 44
33 37 42
35 39 45
34 38 43
33 36 41
33 37 42
33 37 43
35 39 44
33 37 42
36 40 45
34 38 44
34 38 43
33 37 42
35 39 44
35 39 45
34 38 43
35 39 44
35 39 44
34 38 44
32 36 41
35 39 45
34 38 43
35 39 44
36 40 44
36 40 45
35 39 44
32 36 40
35 39 44
34 37 42
34 38 43
35 39 45
34 38 43
32 36 41
32 36 42
33 37 43
35 39 45
33 37 42
35 39 44
37 41 46
33 37 43
35 39 44
34 38 43
34 38 43
35 40 45
34 38 44
34 38 43
35 39 44
34 38 43
33 37 43
36 40 45
33 37 42
32 36 41
34 38 43
42 47 53
57 65 75
56 64 75
56 64 74
58 66 76
57 65 75
59 67 77
57 65 76
58 66 76
57 65 75
56 64 74
57 65 76
59 67 78
59 67 78
59 66 76
59 67 77
60 68 78
60 68 78
58 67 78
60 68 78
58 66 75
60 67 78
57 66 76
60 68 78
60 68 78
60 68 79
59 67 77
60 68 78
61 69 80
56 64 74
60 68 79
60 68 78
59 67 77
58 66 76
61 69 80
60 68 79
60 68 78
60 68 79
59 68 78
59 68 78
58 67 78
60 69 80
60 68 79
59 68 79
62 69 80
61 69 79
61 70 80
60 68 78
60 68 79
60 69 80
61 69 80
61 69 80
61 70 80
60 68 79
60 68 78
61 69 79
61 70 80
60 69 80
61 69 80
61 69 79
62 70 80
59 68 79
60 68 79
61 69 80
60 69 80
60 68 79
61 69 79
62 70 80
61 70 80
61 69 80
62 70 80
61 69 79
62 70 80
59 68 79
60 69 80
60 68 79
60 69 80
61 70 80
61 69 80
59 67 78
60 68 79
61 69 80
62 70 80
60 68 79
61 70 80
61 69 80
61 70 80
61 69 80
62 70 80
61 69 80
62 69 80
61 70 80
62 70 80
61 69 80
61 69 80
60 69 80
62 70 80
61 69 80
61 70 80
61 69 80
61 69 80
61 69 80
60 68 79
61 70 80
61 69 80
61 69 80
62 70 80
61 70 80
61 69 80
61 69 80
61 70 80
61 70 80
62 70 80
61 70 80
61 69 80
61 70 80
61 69 80
61 70 80
61 70 80
62 70 80
61 69 80
62 70 80
61 70 80
61 69 80
61 70 80
61 69 80
61 69 80
61 69 80
61 70 80
62 70 80
61 69 80
60 69 80
61 70 80
61 69 80
61 69 80
61 70 80
61 69 80
61 70 80
62 70 80
62 70 80
61 69 80
61 69 80
60 68 79
61 69 80
62 70 80
60 69 80
60 69 80
61 69 80
62 70 80
62 70 80
61 69 80
61 69 80
61 69 80
61 70 80
60 68 79
61 70 80
61 69 80
61 70 80
61 69 80
62 70 80
62 70 80
61 70 80
61 70 80
61 69 80
61 70 80
61 69 80
61 69 80
62 70 80
62 70 80
61 69 80
60 69 80
62 70 80
61 69 80
61 70 80
61 70 80
61 69 80
61 69 80
61 69 80
61 69 80
62 70 80
61 70 80
61 70 80
62 70 80
61 69 80
62 70 80
62 70 80
61 69 80
61 69 80
61 70 80
61 70 80
62 70 80
60 68 80
61 69 80
60 68 79
61 70 80
62 70 80
61 69 79
60 69 79
62 69 80
62 70 80
61 69 80
61 70 80
62 70 80
62 70 80
63 70 80
60 68 80
61 69 80
61 69 80
61 69 80
61 70 80
61 69 80
61 70 80
61 69 80
61 69 80
61 70 80
61 69 80
62 70 80
60 69 80
60 68 79
62 70 80
62 70 80
62 70 80
61 69 80
61 69 80
61 69 80
60 69 80
61 70 80
61 69 79
61 69 80
61 69 80
61 69 80
61 70 80
62 70 80
60 69 80
61 69 80
61 70 80
62 70 80
61 70 80
61 69 80
61 70 80
61 70 80
61 69 80
60 68 79
61 69 80
61 69 80
61 69 80
62 70 80
61 69 80
61 69 80
61 69 80
61 69 79
60 68 79
60 69 80
60 69 80
60 68 79
62 69 80
62 70 80
60 69 80
59 67 78
60 68 79
61 69 79
62 70 80
61 69 80
59 67 78
61 69 80
60 69 79
60 69 80
61 69 80
61 69 80
61 69 80
60 69 80
60 68 79
57 65 76
61 69 80
61 69 80
61 69 80
60 69 80
57 65 75
60 68 79
61 69 80
60 68 78
59 68 78
60 68 78
59 68 78
60 68 79
60 68 78
61 69 80
60 68 78
60 69 80
59 67 78
60 68 78
60 68 79
62 70 80
60 69 80
60 69 80
60 68 78
59 67 78
59 68 78
60 68 79
61 69 80
59 67 77
59 68 78
60 69 80
59 67 78
59 67 78
58 66 77
60 68 79
57 64 74
57 65 75
54 62 72
59 67 78
60 68 78
55 63 74
55 62 72
56 64 74
55 63 73
55 62 72
57 65 75
56 64 74
55 63 73
39 44 50
33 37 42
36 40 46
34 38 43
35 39 45
35 39 45
34 38 44
35 39 44
33 37 42
35 39 45
33 37 42
34 38 43
35 39 44
34 38 43
34 37 42
32 36 42
35 39 44
35 39 44
31 35 40
33 37 42
36 40 45
33 37 42
35 39 45
34 38 43
35 39 44
35 39 45
34 38 43
35 39 44
33 37 43
35 39 44
33 36 41
35 39 44
34 38 43
34 38 43
35 38 44
34 38 43
34 38 43
34 38 43
35 39 44
33 37 42
33 37 42
33 37 42
32 36 41
33 37 43
36 40 45
34 37 42
37 41 46
34 38 43
36 40 45
36 40 46
33 37 42
33 37 43
34 38 44
34 38 43
35 39 45
34 38 43
35 39 44
33 37 42
35 39 44
34 38 43
33 36 41
36 39 45
35 39 44
34 37 42
35 38 44
34 38 43
35 39 45
33 37 42
33 37 43
33 36 41
34 38 44
36 40 45
34 38 44
34 38 43
35 39 45
33 37 42
34 38 43
33 37 42
36 40 45
35 39 44
44 50 58
59 67 77
53 61 71
60 68 79
59 67 78
57 64 74
57 65 75
57 65 75
58 66 76
57 65 76
57 66 76
59 68 78
58 66 76
59 67 77
58 67 77
60 68 79
58 66 76
61 69 80
55 63 74
57 64 74
60 68 78
60 68 78
60 68 78
60 68 79
60 69 80
60 68 78
60 68 79
60 68 78
60 68 79
59 67 78
60 68 79
59 67 78
60 68 78
61 69 80
60 68 78
60 68 78
61 69 80
59 68 78
60 68 79
60 68 78
61 69 80
59 67 78
61 69 80
60 69 80
61 69 80
62 70 80
60 68 79
60 69 80
60 69 80
60 69 80
61 69 80
61 69 80
60 68 79
61 69 80
61 69 80
59 67 78
59 67 78
60 68 79
61 69 80
62 70 80
61 69 80
61 69 80
59 68 79
61 69 80
61 69 80
59 68 78
61 70 80
60 69 80
60 68 79
61 69 80
61 69 80
61 70 80
60 68 79
61 69 80
61 70 80
61 70 80
60 69 80
62 70 80
62 70 80
61 69 80
60 69 80
61 69 80
61 70 80
60 69 80
61 69 80
60 68 79
62 70 80
61 69 80
61 69 80
60 69 80
61 70 80
60 68 79
62 70 80
61 69 80
61 69 80
62 70 80
62 70 80
62 70 80
61 70 80
61 69 80
61 69 80
61 69 80
61 69 80
61 69 80
62 70 80
61 70 80
61 69 80
61 70 80
60 69 80
61 69 80
62 70 80
61 70 80
61 69 80
62 70 80
60 69 79
61 69 80
61 69 80
61 69 80
61 69 80
62 70 80
61 69 80
62 70 80
62 70 80
62 70 80
61 69 80
61 70 80
61 69 80
61 69 80
62 70 80
62 70 80
61 70 80
60 69 80
61 70 80
61 70 80
61 70 80
61 70 80
62 70 80
61 70 80
62 70 80
61 69 80
61 69 80
61 70 80
62 70 80
61 70 80
61 70 80
61 69 80
61 69 80
61 70 80
61 70 80
61 69 80
61 70 80
61 69 80
62 70 80
62 70 80
61 69 80
61 69 80
61 70 80
61 69 80
61 70 80
61 69 80
61 69 80
62 70 80
61 70 80
62 69 80
61 70 80
61 69 80
61 69 80
61 69 80
61 69 80
62 70 80
62 70 80
60 68 79
61 69 80
60 69 80
61 69 80
61 69 80
61 70 80
62 70 80
61 70 80
61 70 80
61 70 80
61 69 80
62 70 80
61 69 80
61 70 80
61 69 80
60 69 80
62 70 80
61 69 80
60 68 80
61 69 80
62 70 80
61 70 80
61 70 80
62 70 80
61 69 80
61 69 80
61 70 80
61 69 80
60 68 79
61 69 80
61 69 80
61 70 80
61 69 80
61 69 80
61 69 80
61 70 80
60 69 80
61 69 80
62 70 80
61 69 80
61 69 80
61 69 80
60 68 79
60 68 78
61 69 79
60 69 80
60 69 80
61 70 80
61 69 80
62 70 80
61 70 80
61 69 80
61 70 80
61 69 80
61 69 80
61 69 80
62 70 80
61 69 80
61 70 80
61 69 80
62 70 80
61 70 80
61 69 80
61 69 80
60 69 80
60 69 80
60 68 79
61 69 80
59 68 79
60 69 80
61 69 80
61 69 80
59 68 78
62 70 80
61 69 80
61 70 80
61 70 80
62 70 80
61 69 80
60 69 80
61 69 80
61 69 80
60 69 80
61 69 80
61 70 80
60 67 78
61 69 80
62 70 80
61 70 80
61 69 80
60 69 80
61 69 80
59 68 79
61 70 80
61 69 79
61 70 80
59 67 78
60 69 80
60 69 80
60 68 79
61 70 80
61 69 80
61 69 80
60 69 79
60 69 80
60 69 80
60 68 79
60 69 80
61 69 79
58 66 77
62 70 80
60 68 79
59 68 78
59 68 78
60 68 78
61 69 80
60 68 78
58 65 75
61 69 80
60 68 79
60 69 80
60 68 79
61 69 80
57 65 75
60 68 78
61 69 80
58 66 76
58 66 76
59 67 78
60 68 79
60 68 78
59 67 78
58 66 77
57 65 75
60 68 79
60 68 78
56 64 75
59 67 78
57 65 75
59 67 77
55 62 73
56 64 75
58 66 76
56 64 75
56 64 74
58 66 77
55 63 73
56 64 73
56 64 74
40 45 52
34 38 43
35 39 44
34 38 43
34 38 43
34 37 43
34 38 43
36 40 45
35 39 44
34 38 43
35 38 44
33 37 42
36 40 45
35 39 44
34 38 43
34 38 43
34 37 43
36 40 45
35 39 44
35 39 44
33 37 43
34 37 42
33 37 42
34 38 43
31 35 40
33 37 42
34 38 43
33 37 42
33 37 43
33 37 42
33 37 42
35 39 44
35 39 44
35 39 44
34 38 43
34 38 44
32 36 41
35 39 44
35 39 44
35 39 44
35 39 44
36 40 45
33 37 43
36 40 46
33 37 42
34 38 44
35 39 44
35 39 44
33 37 42
37 41 46
34 38 43
34 38 44
33 38 43
34 38 43
34 38 43
34 38 43
34 38 43
34 39 44
36 40 45
33 37 41
34 38 44
35 39 44
33 37 42
34 38 44
34 37 42
35 38 44
33 37 42
33 37 43
34 38 44
33 37 42
33 37 42
34 38 43
35 38 44
34 38 44
33 36 41
36 40 45
35 39 44
33 37 42
34 38 43
34 38 43
41 46 52
58 66 76
54 62 72
59 67 78
58 65 76
57 65 76
59 67 78
58 66 77
57 65 76
57 64 74
57 65 76
58 66 76
58 66 75
57 65 75
56 64 74
57 65 76
59 67 78
59 67 78
59 68 78
58 66 76
58 66 77
60 68 78
58 66 76
56 64 74
59 68 78
60 68 79
59 67 78
58 67 78
60 68 78
60 68 79
61 68 78
60 68 78
61 69 79
59 67 77
61 69 80
60 69 80
58 66 77
61 69 80
60 68 79
60 68 79
60 68 79
61 69 80
60 68 78
60 68 78
58 66 77
61 68 78
60 68 79
61 69 80
60 68 78
60 69 79
59 68 79
61 69 80
61 69 80
61 69 80
61 69 80
60 68 78
60 68 79
60 69 80
60 69 80
60 68 79
61 69 80
60 68 79
61 69 80
59 68 78
62 70 80
60 68 79
61 69 80
60 69 80
61 69 80
61 69 80
60 69 80
61 69 80
60 68 78
60 69 80
60 68 79
61 70 80
61 69 80
61 69 80
60 69 80
61 69 79
61 69 80
61 69 80
61 70 80
60 68 79
61 70 80
60 69 80
61 69 80
61 70 80
62 70 80
62 70 80
60 69 80
59 68 79
60 69 80
62 70 80
61 69 80
60 68 79
60 68 79
61 69 80
61 69 80
61 69 80
61 69 80
61 69 80
61 70 80
61 70 80
60 69 80
61 69 80
62 70 80
60 69 80
61 69 79
62 70 80
61 69 80
61 70 80
61 70 80
62 70 80
61 70 80
60 69 80
61 69 80
62 69 80
61 69 80
61 70 80
61 69 80
61 69 80
61 70 80
60 68 80
61 69 80
61 69 80
61 70 80
61 70 80
62 70 80
61 70 80
61 69 80
61 69 80
61 69 80
61 69 80
61 70 80
62 70 80
61 69 80
61 70 80
61 69 80
62 70 80
62 70 80
62 70 80
62 70 80
62 70 80
61 70 80
62 70 80
61 70 80
61 70 80
62 70 80
61 69 80
62 70 80
61 70 80
62 70 80
62 70 80
62 70 80
62 70 80
61 69 80
61 69 80
61 70 80
61 69 80
62 70 80
61 69 80
61 69 80
62 70 80
61 70 80
62 70 80
60 68 79
62 69 80
61 69 80
61 69 80
61 70 80
62 70 80
61 69 80
61 70 80
62 70 80
61 70 80
62 70 80
61 69 80
61 69 80
62 70 80
61 69 80
62 70 80
61 69 80
60 69 80
62 70 80
61 70 80
61 69 80
62 70 80
61 69 80
61 69 80
62 70 80
61 69 80
61 70 80
62 70 80
61 69 80
61 69 80
61 70 80
61 69 80
61 69 80
62 70 80
61 69 80
61 69 80
61 70 80
60 68 79
61 69 80
61 69 80
62 70 80
60 69 80
60 69 80
61 69 80
62 70 80
62 70 80
62 70 80
61 70 80
61 69 80
61 69 80
61 69 80
62 70 80
61 69 80
61 69 80
61 69 80
62 70 80
62 70 80
60 68 79
62 70 80
61 69 80
61 70 80
61 69 80
61 69 80
61 69 80
60 69 80
60 69 80
61 69 80
61 70 80
61 70 80
60 68 79
61 69 80
60 68 79
59 68 78
60 68 78
61 69 80
61 69 80
61 69 80
62 70 80
61 69 80
60 68 79
61 69 80
62 70 80
61 69 80
61 69 80
62 70 80
60 69 80
60 69 80
61 69 80
61 70 80
61 69 79
60 68 78
60 69 80
61 69 80
61 70 80
60 68 79
60 68 78
61 69 79
60 69 80
61 69 80
60 68 78
59 68 80
60 68 79
61 69 80
60 69 80
61 70 80
61 69 80
59 67 77
61 69 80
60 69 80
60 68 79
60 68 78
60 69 80
60 68 78
60 68 79
61 69 80
62 70 80
60 68 78
58 66 77
60 68 78
61 69 80
58 67 78
60 68 79
59 68 78
60 69 80
59 67 77
60 68 78
62 70 80
61 69 80
59 68 79
60 68 79
61 69 79
58 66 77
60 67 78
61 68 78
60 67 77
61 69 80
59 67 78
58 66 77
57 65 75
58 67 78
58 67 78
61 69 80
58 65 75
58 66 76
60 68 78
57 65 75
55 63 74
55 63 73
52 60 69
58 66 76
59 67 78
57 65 75
54 61 70
55 63 72
45 51 58
34 38 44
33 37 42
34 38 44
33 37 42
34 38 43
35 38 43
36 40 45
33 37 42
35 39 44
33 37 43
34 38 43
36 40 46
34 38 43
34 38 44
33 37 43
34 38 43
34 38 43
31 35 40
34 38 44
34 38 43
33 37 42
34 38 43
33 37 42
34 38 43
33 37 42
35 39 44
32 36 41
34 38 43
34 38 44
35 39 44
35 39 44
34 38 44
35 39 44
35 39 44
32 36 41
35 39 44
34 38 43
34 38 43
35 39 44
35 39 44
34 38 43
34 38 43
33 37 43
34 38 43
33 37 42
33 37 42
32 36 42
33 37 42
33 36 41
32 36 41
38 41 47
34 38 44
34 38 43
35 39 44
35 39 45
34 38 43
35 39 44
34 38 44
36 40 45
35 38 44
33 37 42
34 38 43
34 38 43
32 36 42
35 38 44
33 36 42
33 37 43
34 38 43
36 40 46
32 36 40
34 38 43
34 38 44
33 37 43
33 37 42
35 39 44
34 38 43
33 37 42
33 37 42
35 39 44
42 48 55
56 63 72
55 63 73
54 61 71
58 66 76
59 68 78
56 63 73
56 63 73
60 68 78
55 63 72
57 65 75
57 66 76
57 65 75
58 66 76
59 67 78
58 66 76
58 66 76
59 67 78
59 67 78
60 68 79
57 65 75
60 68 78
57 64 74
58 66 77
60 68 79
59 67 78
61 69 80
61 69 80
58 66 76
60 68 79
60 68 78
59 67 78
60 68 79
59 67 77
59 67 78
57 65 75
58 66 77
60 68 79
59 67 78
60 68 79
59 67 78
61 69 80
60 68 79
60 68 79
60 68 79
60 68 79
58 65 75
60 68 79
60 68 79
62 70 80
61 69 80
61 69 79
59 68 79
60 69 80
60 69 80
62 69 80
61 69 80
61 68 78
61 69 80
61 69 80
61 69 80
60 68 79
60 69 80
60 69 80
61 69 80
61 69 80
60 68 79
60 68 79
60 68 79
60 68 79
61 69 80
61 69 80
60 68 79
61 69 80
60 68 79
62 70 80
61 69 80
61 69 80
60 69 80
61 70 80
61 69 80
61 69 80
61 69 80
61 69 80
61 69 80
60 69 80
61 69 80
61 70 80
61 69 80
61 69 80
61 69 80
60 68 79
61 69 80
60 69 79
60 69 80
60 69 80
60 68 80
61 69 80
60 69 80
61 69 80
61 69 80
61 70 80
59 68 78
61 69 80
61 69 80
61 70 80
61 69 80
60 69 80
62 70 80
61 69 80
60 68 79
60 69 80
60 69 80
62 70 80
60 68 79
61 69 80
61 70 80
61 69 80
61 70 80
62 70 80
61 70 80
61 69 80
61 69 80
61 69 80
61 70 80
62 70 80
61 69 80
61 69 80
61 69 80
61 69 80
61 70 80
61 70 80
61 69 80
61 70 80
62 70 80
61 69 80
62 70 80
61 69 80
61 70 80
62 70 80
62 70 80
61 70 80
62 70 80
61 70 80
62 70 80
61 69 80
61 70 80
62 70 80
62 70 80
61 69 80
62 70 80
61 70 80
61 70 80
60 69 80
60 69 80
61 69 80
60 69 80
61 69 80
61 70 80
62 70 80
62 70 80
61 69 80
62 70 80
61 69 80
62 70 80
60 68 79
62 70 80
62 70 80
61 70 80
62 70 80
61 69 80
60 68 79
59 68 79
61 70 80
61 69 80
62 70 80
60 69 80
61 69 80
61 69 80
61 69 80
61 69 80
62 70 80
62 70 80
61 69 80
62 70 80
61 69 80
61 69 80
61 69 80
61 70 80
62 70 80
62 70 80
61 70 80
62 70 80
61 70 80
62 70 80
62 70 80
61 70 80
61 69 80
60 68 78
61 69 80
61 70 80
61 69 80
61 70 80
60 68 79
62 70 80
60 69 80
62 70 80
61 69 80
61 70 80
61 69 80
61 70 80
61 69 80
61 69 80
60 69 80
61 69 80
61 69 80
61 69 80
61 70 80
61 69 80
60 69 80
60 69 80
61 70 80
61 70 80
62 70 80
61 70 80
62 70 80
61 69 80
59 68 79
60 68 79
60 69 80
61 69 80
61 69 80
61 69 80
62 70 80
61 70 80
61 69 80
60 69 80
60 69 80
59 68 78
61 69 80
62 70 80
61 69 80
59 68 78
61 69 80
60 69 80
61 69 80
62 70 80
61 69 79
60 68 78
61 69 80
59 68 79
62 70 80
62 70 80
60 68 79
61 69 80
61 69 80
61 69 80
61 69 79
59 68 78
61 69 79
60 68 78
61 69 79
59 67 78
60 68 79
61 69 79
60 68 78
62 70 80
60 68 79
59 67 78
59 68 78
60 68 79
59 67 78
61 69 80
59 67 78
59 67 78
61 69 80
61 68 78
61 69 80
58 66 77
61 69 80
59 67 78
60 68 79
58 66 77
60 68 79
60 69 80
58 67 78
59 67 77
59 68 79
59 67 78
60 68 78
59 68 78
60 67 78
59 67 78
58 66 77
58 66 77
58 66 77
61 69 79
60 68 79
60 68 79
60 67 78
57 65 75
59 68 78
58 66 76
57 65 76
57 65 76
57 65 75
54 62 72
57 65 76
57 65 75
57 65 75
58 66 76
59 68 78
54 62 72
55 63 72
57 65 75
58 65 75
55 63 72
55 62 71
54 61 71
59 67 78
43 48 56
33 36 42
35 39 44
32 36 41
34 38 44
34 38 44
37 41 46
32 36 40
34 37 42
34 38 43
34 38 43
35 39 44
33 37 42
35 38 43
34 38 43
36 40 45
35 39 44
36 40 45
33 37 42
34 39 44
34 38 43
34 38 43
32 35 40
35 39 45
34 38 43
34 38 43
33 37 42
34 37 42
33 37 42
33 37 42
34 38 43
33 38 43
32 36 42
35 39 44
33 37 42
32 36 41
34 38 43
34 38 44
37 41 46
33 37 43
34 38 43
35 39 44
33 37 42
34 38 43
35 39 44
33 37 42
33 37 43
34 38 43
35 39 45
34 38 43
33 38 43
35 39 44
33 37 42
34 37 43
34 38 43
34 38 44
34 38 43
35 39 45
34 38 44
34 38 43
33 37 42
34 38 43
34 38 44
33 37 43
33 37 42
32 36 41
33 37 42
34 38 43
34 38 43
34 37 43
33 37 43
35 39 44
34 38 43
33 37 42
34 38 43
35 39 44
33 37 42
34 38 43
35 38 43
32 36 42
44 50 57
57 65 75
55 63 72
58 67 77
56 63 73
58 66 76
53 60 70
58 66 77
57 64 75
57 64 75
58 66 76
56 63 73
56 64 74
58 66 76
60 68 78
61 69 79
57 65 75
59 67 78
59 67 78
58 66 77
57 66 76
59 67 76
60 67 78
57 65 75
60 67 78
59 66 76
57 65 76
60 68 79
58 66 77
60 68 79
60 68 79
59 68 79
59 67 77
58 65 75
59 67 78
60 68 79
60 68 79
58 67 78
60 68 79
60 68 79
61 69 79
61 69 80
60 68 78
60 68 78
60 68 79
60 69 80
59 67 78
61 69 79
60 69 80
60 69 80
62 70 80
60 69 80
59 67 78
62 70 80
61 69 79
60 68 79
61 69 80
60 68 79
60 68 79
60 68 79
62 70 80
62 70 80
59 67 78
59 67 78
61 69 80
61 69 80
60 68 79
60 69 80
61 69 80
60 69 80
60 68 79
60 69 80
62 70 80
60 69 80
60 69 80
62 70 80
63 70 80
61 69 80
61 69 80
61 70 80
61 70 80
60 67 78
62 70 80
60 68 78
61 70 80
60 68 79
61 69 80
61 69 80
61 70 80
61 69 80
61 70 80
60 68 79
61 69 80
62 70 80
63 70 80
61 69 80
61 69 80
61 69 80
61 69 80
61 70 80
62 70 80
62 70 80
61 69 80
61 70 80
62 70 80
61 69 80
61 69 80
61 69 80
61 70 80
61 69 80
61 69 80
62 70 80
62 70 80
61 70 80
60 68 79
60 69 80
61 69 80
60 68 79
62 70 80
62 70 80
61 69 80
61 69 80
61 70 80
62 70 80
61 69 80
61 70 80
62 70 80
61 69 80
61 70 80
62 70 80
62 70 80
61 69 80
62 70 80
61 69 80
61 69 80
61 69 80
61 69 80
61 69 80
62 70 80
62 70 80
60 69 80
60 68 79
62 70 80
62 70 80
61 69 79
62 70 80
61 70 80
62 70 80
61 70 80
61 70 80
61 69 80
61 69 80
61 69 80
61 69 80
61 69 80
62 70 80
61 70 80
62 70 80
62 70 80
62 70 80
62 69 80
62 70 80
61 69 80
61 70 80
61 70 80
61 69 80
61 69 79
61 69 80
61 69 80
61 70 80
62 70 80
62 69 80
61 69 80
61 69 80
61 70 80
61 69 80
61 69 80
62 70 80
61 69 80
61 69 80
61 69 80
61 70 80
61 69 80
62 70 80
62 70 80
61 70 80
60 69 80
62 70 80
61 69 80
62 70 80
61 69 80
61 69 80
61 70 80
62 70 80
61 70 80
61 70 80
61 70 80
62 70 80
61 69 80
61 69 80
61 70 80
61 69 80
61 69 80
61 69 80
61 70 80
61 69 80
60 69 80
61 69 80
61 69 80
62 70 80
62 70 80
60 69 80
61 69 80
61 70 80
60 69 80
60 69 80
61 69 80
61 69 80
62 70 80
61 69 80
61 69 80
62 70 80
61 70 80
62 70 80
61 69 80
62 70 80
61 69 80
61 69 80
62 70 80
61 69 80
62 70 80
61 70 80
60 69 80
60 68 79
60 69 80
61 69 80
60 69 80
60 68 79
61 70 80
61 69 80
60 69 80
61 70 80
61 69 80
61 69 80
60 69 80
61 70 80
61 69 80
61 70 80
60 68 78
59 68 79
60 69 80
59 68 78
59 67 78
60 68 79
60 68 79
62 70 80
61 69 80
61 69 80
61 70 80
60 68 78
61 69 79
60 68 79
61 69 80
60 69 80
60 68 78
63 70 80
60 69 80
60 68 79
60 69 80
59 67 78
59 68 78
60 68 79
61 69 80
60 68 80
61 69 80
61 70 80
61 69 80
60 69 79
59 67 78
60 68 79
60 68 79
58 66 77
59 67 78
61 70 80
60 69 80
58 67 77
60 68 79
58 66 76
62 69 80
59 67 78
60 69 80
60 68 78
58 66 76
59 67 78
58 67 78
60 68 79
60 68 79
59 67 77
57 65 75
59 67 78
59 68 78
57 64 74
57 65 76
56 64 75
57 65 75
61 69 80
60 69 80
58 65 75
58 66 77
57 65 76
57 65 75
57 64 75
54 62 72
57 64 75
55 62 72
56 64 75
56 64 75
55 62 72
55 63 73
55 62 72
44 49 57
33 37 42
33 36 41
33 36 41
34 38 43
34 37 42
34 38 43
34 38 43
36 40 46
33 37 43
33 37 42
31 35 40
34 38 44
34 38 43
32 36 41
32 36 41
33 37 42
33 37 43
33 38 43
34 38 43
35 39 45
34 38 43
34 38 43
34 38 44
35 39 44
34 38 43
34 38 44
34 38 44
36 40 46
36 40 45
35 40 45
35 39 44
33 38 43
34 38 43
34 38 44
34 37 42
34 38 43
35 39 44
33 38 43
36 40 45
35 39 45
34 38 44
33 37 42
35 39 44
35 39 44
33 37 42
32 36 41
35 38 44
33 37 42
35 39 44
36 40 45
36 40 46
34 37 42
34 38 43
34 38 43
34 38 43
34 38 43
33 37 42
34 37 43
34 38 43
33 37 42
35 38 43
35 39 44
34 38 43
34 38 43
34 38 43
34 38 43
33 38 43
33 37 42
34 38 43
35 39 45
32 36 41
35 39 45
32 35 41
35 38 44
36 40 46
34 38 43
34 38 44
34 38 43
34 38 43
46 52 60
57 64 74
57 64 74
56 64 75
58 65 76
51 58 67
56 64 74
57 65 75
57 65 75
60 68 78
57 65 75
57 65 75
59 67 78
57 65 75
60 68 79
56 64 74
59 66 76
59 66 77
56 64 74
59 67 78
56 64 75
59 67 78
59 67 77
59 67 77
58 66 76
57 66 76
60 68 78
59 67 78
60 68 79
60 68 78
59 67 78
59 67 77
59 67 77
61 69 80
59 67 78
60 69 79
60 68 78
60 69 80
60 68 78
60 69 79
62 70 80
60 68 78
59 67 78
59 67 78
59 67 78
61 69 80
60 68 79
61 70 80
59 68 79
60 68 79
60 68 78
58 66 77
61 69 79
59 68 79
61 70 80
60 68 79
60 69 80
60 69 80
60 69 80
60 68 79
59 68 78
60 69 80
61 69 80
61 69 80
61 70 80
60 69 80
60 68 79
60 69 80
60 68 79
61 69 80
61 69 80
62 70 80
61 69 80
61 69 80
61 69 80
61 69 80
61 69 80
60 68 78
61 69 80
61 69 79
60 69 80
61 69 80
60 68 79
60 68 79
61 69 80
61 70 80
61 69 80
61 69 79
61 70 80
61 68 79
61 69 80
61 69 80
62 70 80
61 69 80
62 70 80
60 69 80
62 70 80
61 69 80
60 69 80
61 70 80
60 69 80
62 70 80
61 70 80
62 70 80
61 70 80
62 70 80
61 69 80
61 70 80
61 70 80
62 70 80
62 70 80
61 69 80
61 70 80
61 69 80
61 69 80
61 70 80
61 69 80
61 69 80
61 69 79
61 69 80
60 68 79
60 69 80
60 68 79
61 69 80
62 70 80
61 69 80
61 69 80
61 70 80
61 69 80
61 69 80
61 69 80
62 70 80
61 70 80
60 68 80
61 69 80
61 70 80
61 70 80
62 70 80
61 70 80
62 70 80
62 70 80
61 69 80
61 69 80
61 69 80
62 70 80
61 69 80
61 70 80
61 69 80
61 70 80
61 69 80
62 70 80
61 69 80
60 69 80
61 69 80
61 69 80
62 70 80
61 70 80
60 69 80
62 70 80
60 69 80
62 70 80
62 70 80
62 70 80
61 69 80
61 69 80
60 68 80
62 70 80
62 70 80
61 70 80
61 69 80
61 69 80
61 69 80
61 70 80
60 69 80
61 69 80
62 70 80
61 70 80
61 70 80
61 69 80
61 70 80
61 69 80
62 70 80
61 69 80
60 69 80
62 70 80
62 70 80
62 70 80
61 69 80
61 69 80
60 69 80
62 70 80
61 69 80
62 70 80
61 69 80
61 70 80
62 70 80
61 69 80
61 70 80
61 69 80
61 69 80
59 68 78
59 67 78
61 69 80
61 70 80
61 70 80
61 69 80
60 69 80
61 69 80
61 70 80
61 69 80
60 69 80
60 68 79
61 69 80
60 69 80
61 70 80
61 69 80
62 70 80
61 69 80
61 69 80
60 68 79
61 69 80
62 70 80
62 70 80
61 69 80
61 70 80
61 69 80
61 69 80
61 69 80
61 69 80
61 70 80
61 69 80
61 69 80
61 69 80
61 69 80
61 69 80
60 68 79
61 69 80
61 70 80
60 68 79
61 69 80
60 69 80
61 69 80
61 69 80
60 68 79
60 68 78
60 69 80
61 69 80
60 68 79
61 69 79
59 67 78
60 69 80
62 69 80
61 69 80
61 69 80
60 68 79
61 70 80
60 67 78
60 68 79
61 69 80
61 69 80
60 68 79
61 70 80
61 68 78
59 68 78
61 69 80
60 68 79
59 68 78
61 69 80
60 68 78
60 68 79
60 68 79
60 68 78
61 69 80
61 69 80
62 70 80
60 67 78
61 69 80
60 68 78
59 67 77
61 69 80
60 68 78
57 66 76
59 67 78
58 66 76
59 68 78
61 69 80
59 67 78
60 69 80
59 67 78
58 66 76
58 66 77
60 68 78
58 66 76
59 67 78
59 67 77
58 66 76
58 67 78
59 67 78
58 66 76
58 66 77
59 67 77
60 68 78
59 67 78
59 67 78
56 64 75
58 65 76
58 65 76
60 68 79
59 67 78
58 66 76
59 67 77
56 63 73
56 64 75
56 63 73
55 62 72
55 63 73
56 64 74
59 67 78
54 62 72
54 62 72
48 55 64
33 37 43
33 37 42
36 39 45
34 38 44
34 38 44
34 38 43
36 40 45
34 38 43
34 38 43
34 38 43
34 38 43
35 39 44
34 38 44
34 38 43
35 39 44
34 38 43
34 38 43
35 39 45
34 38 44
35 38 43
35 39 44
33 37 42
35 39 45
33 37 42
32 36 42
35 39 45
33 38 43
33 37 42
31 35 40
35 39 44
34 38 43
32 36 41
35 39 45
33 37 43
34 38 44
33 36 42
33 37 42
33 37 43
34 38 44
34 38 43
33 36 41
34 39 44
34 38 43
32 36 41
34 38 43
33 37 43
35 39 44
34 38 43
36 40 45
35 39 45
36 40 46
36 40 45
32 36 41
34 37 42
34 38 43
32 36 41
35 39 44
35 39 44
34 38 44
34 38 43
35 39 44
34 38 43
33 38 43
34 38 44
34 37 43
33 37 42
34 38 44
33 36 41
33 36 41
34 37 43
32 36 41
32 36 42
34 38 43
33 37 42
36 40 45
34 37 42
34 38 43
33 37 42
33 37 42
48 54 62
55 63 73
56 64 74
56 64 74
55 62 72
57 65 75
57 64 75
57 64 74
55 62 72
56 64 75
58 66 75
58 65 75
59 67 78
57 65 75
58 66 77
58 66 77
59 67 78
58 66 75
59 67 78
59 67 78
57 66 77
57 65 75
58 66 76
57 66 76
59 67 78
59 67 78
60 68 79
59 66 77
59 67 77
60 67 78
59 68 79
58 66 76
58 66 77
60 68 79
60 68 78
60 68 78
60 68 79
61 69 79
60 68 79
59 67 78
59 67 78
60 68 78
60 68 79
61 69 79
62 70 80
60 68 79
60 68 78
59 66 77
60 69 80
60 68 79
60 69 80
60 68 78
61 69 80
62 70 80
61 70 80
61 69 80
61 69 80
61 69 80
59 67 78
60 68 79
60 68 79
61 69 80
60 68 79
61 68 78
61 69 80
61 69 79
60 68 79
60 69 80
61 69 80
61 69 80
59 67 78
61 70 80
61 69 80
61 69 80
61 69 80
61 69 80
59 67 78
61 69 80
61 69 80
62 70 80
61 69 80
60 69 80
60 69 80
60 68 79
61 69 80
60 68 79
61 69 80
61 69 80
61 69 80
60 68 79
61 69 80
61 69 80
61 69 80
61 69 80
61 69 80
61 69 80
62 70 80
60 69 80
62 70 80
61 69 80
61 69 80
60 69 80
60 69 80
59 68 80
61 69 80
61 70 80
60 68 79
60 69 80
60 69 80
63 70 80
61 70 80
61 69 80
61 70 80
61 70 80
61 69 80
61 70 80
61 70 80
61 70 80
60 69 80
61 70 80
60 69 80
61 69 80
60 69 80
62 70 80
60 69 80
61 69 80
62 70 80
61 69 80
62 70 80
61 69 80
61 69 80
62 70 80
62 70 80
61 69 80
61 69 80
62 70 80
61 70 80
61 69 80
61 69 80
61 69 80
61 69 80
61 70 80
60 69 80
61 70 80
62 70 80
62 70 80
60 69 80
62 70 80
61 69 80
61 69 80
62 70 80
62 70 80
62 70 80
61 69 80
62 70 80
62 70 80
62 70 80
62 70 80
61 69 80
61 69 80
61 70 80
61 69 80
61 69 80
61 69 80
61 69 80
62 70 80
62 70 80
61 70 80
62 70 80
61 69 80
61 69 80
61 69 80
61 70 80
61 70 80
61 70 80
61 69 80
61 70 80
62 70 80
62 70 80
62 70 80
61 69 80
60 69 80
61 70 80
63 70 80
61 69 80
62 70 80
62 70 80
62 70 80
62 70 80
61 70 80
60 69 80
61 69 80
61 69 80
62 70 80
62 70 80
62 69 80
60 68 79
61 69 80
61 69 80
62 70 80
61 69 80
62 70 80
60 69 80
60 69 80
61 69 80
62 70 80
60 69 80
60 69 80
61 69 80
60 68 78
60 69 80
60 68 79
61 69 80
60 69 80
61 69 80
61 69 80
61 69 80
61 69 79
60 68 79
59 68 79
61 69 80
61 69 80
61 69 80
61 69 80
61 70 80
61 70 80
61 70 80
61 69 80
61 69 80
61 69 80
60 69 79
61 70 80
60 69 80
60 68 79
62 70 80
59 68 79
62 70 80
60 68 79
60 68 78
60 68 78
61 70 80
61 70 80
60 69 80
61 69 80
60 68 78
58 67 77
62 70 80
61 69 80
60 68 78
61 69 80
61 70 80
60 68 79
61 69 80
61 69 79
61 69 80
59 68 79
61 69 80
61 69 80
60 68 78
60 69 80
61 70 80
61 69 80
59 68 79
60 68 78
59 67 78
61 69 80
61 69 80
60 68 79
59 68 78
60 69 80
59 67 78
57 66 76
60 69 80
60 68 78
60 68 78
60 68 79
60 68 78
61 70 80
61 69 80
61 69 80
58 66 77
59 67 78
57 65 75
59 68 78
60 68 79
60 68 78
60 68 79
60 69 80
60 68 78
60 68 79
56 64 75
57 65 75
60 68 79
58 66 77
60 68 79
59 67 78
60 68 78
56 63 73
60 67 78
57 65 75
58 65 76
58 65 75
59 67 78
59 67 77
58 66 76
58 66 77
59 67 77
58 65 75
57 65 75
54 61 71
57 65 75
58 65 76
55 63 72
58 65 75
55 63 73
57 65 75
55 63 73
55 62 72
55 63 73
53 60 69
46 52 60
33 37 42
36 40 45
36 40 45
35 39 44
33 37 42
33 37 42
33 37 42
33 36 41
33 36 41
33 37 42
34 38 43
35 39 45
33 37 43
34 38 43
33 37 42
35 39 45
32 36 41
32 36 41
34 38 44
33 37 42
31 35 40
34 37 42
32 36 42
35 39 44
33 37 42
33 36 41
31 35 40
34 38 43
33 37 42
36 40 45
33 37 42
35 38 44
33 37 43
35 39 45
35 39 44
34 38 44
33 37 42
36 40 45
35 39 44
34 37 42
35 39 44
35 39 44
34 38 43
35 39 44
35 40 45
36 40 45
33 37 42
35 39 44
34 38 43
35 39 45
35 39 44
35 39 44
33 37 42
34 38 43
32 36 41
34 38 43
34 38 44
35 39 44
32 36 41
35 39 44
35 39 44
34 37 42
34 38 43
33 37 42
35 39 44
33 37 42
36 40 45
35 39 44
33 36 41
34 38 44
35 39 44
32 36 41
36 40 45
31 35 40
34 38 43
32 36 41
33 37 42
35 39 44
34 38 43
53 59 68
53 61 70
53 61 71
57 64 74
56 64 74
56 64 73
57 64 75
57 65 75
57 65 75
56 64 74
55 62 72
56 63 73
58 66 76
57 64 75
59 67 78
57 65 76
60 68 79
57 65 76
59 66 77
58 66 76
57 65 75
58 66 77
57 65 75
60 68 79
58 66 76
58 66 77
59 68 78
58 66 77
60 68 78
60 68 79
57 65 75
59 67 78
58 66 77
58 66 76
61 69 80
61 70 80
59 67 78
62 69 80
59 68 78
62 69 80
59 68 78
60 68 78
61 69 80
60 68 79
60 68 79
60 68 79
60 68 79
61 69 79
60 68 78
60 68 78
60 68 78
59 67 77
61 69 80
60 68 78
61 69 80
61 69 80
60 68 78
58 66 77
61 69 80
60 68 79
60 68 80
61 69 80
61 69 79
61 69 80
60 69 80
61 69 80
59 67 78
60 68 79
60 69 80
61 69 80
61 69 80
62 70 80
62 70 80
61 69 80
60 68 79
61 69 80
60 68 79
60 68 78
61 70 80
60 68 79
62 70 80
60 68 79
60 69 80
61 69 80
60 68 79
60 68 79
61 70 80
60 69 80
61 70 80
60 68 78
60 68 79
61 69 80
61 70 80
62 69 80
60 69 80
61 69 80
61 69 80
61 69 80
61 70 80
61 69 80
61 69 80
62 70 80
62 70 80
62 70 80
61 69 80
61 70 80
60 68 78
60 69 80
62 70 80
62 70 80
62 70 80
60 69 80
61 70 80
61 69 80
61 69 80
61 69 80
60 69 80
61 69 80
61 69 80
61 69 80
61 69 80
61 69 80
61 70 80
61 69 80
61 70 80
61 69 80
61 69 80
61 69 80
62 70 80
61 70 80
61 69 80
61 70 80
61 70 80
60 69 80
60 69 80
60 69 80
60 69 80
61 69 80
60 69 80
60 69 80
61 70 80
61 69 80
61 70 80
61 69 80
62 70 80
61 70 80
61 69 80
62 70 80
61 69 79
61 69 80
61 70 80
61 69 80
62 70 80
62 70 80
61 70 80
61 69 80
61 70 80
61 69 80
62 70 80
61 69 80
61 69 80
61 70 80
61 69 80
62 70 80
61 70 80
61 70 80
62 70 80
61 70 80
60 69 80
62 70 80
61 69 80
61 69 80
60 69 80
61 70 80
61 69 80
62 70 80
61 69 80
62 69 80
62 70 80
61 70 80
61 69 80
62 70 80
61 70 80
61 70 80
62 70 80
62 70 80
61 69 80
61 70 80
61 70 80
61 70 80
61 69 80
62 70 80
62 70 80
61 69 80
61 69 80
60 68 79
60 69 80
60 69 80
60 69 80
61 69 80
61 69 80
61 69 80
61 69 80
62 70 80
62 70 80
61 69 80
61 69 80
62 70 80
60 68 79
61 70 80
60 68 79
62 70 80
62 70 80
61 70 80
61 70 80
62 70 80
61 70 80
61 69 80
61 70 80
61 70 80
61 69 80
61 69 80
62 70 80
61 69 80
61 69 80
61 69 80
62 70 80
61 69 80
63 70 80
59 67 78
60 69 80
61 69 80
60 68 79
61 69 80
61 69 80
61 69 79
61 70 80
61 69 80
61 69 80
61 69 80
61 69 80
60 68 79
61 69 80
59 68 79
61 70 80
62 70 80
61 69 80
58 67 78
61 69 80
61 69 80
61 70 80
59 68 78
61 70 80
59 67 78
60 68 78
62 70 80
60 69 80
59 67 78
61 69 80
61 70 80
60 68 79
60 68 78
59 68 78
60 69 80
60 68 79
61 69 79
61 69 80
58 66 77
59 68 79
61 69 80
59 67 78
60 69 80
60 68 78
62 70 80
59 67 78
58 66 77
61 69 80
60 68 79
58 66 77
60 69 79
59 68 78
61 69 79
58 66 77
59 67 78
59 67 77
57 65 76
58 66 76
59 67 77
59 67 77
60 69 80
59 67 78
59 67 78
59 67 78
59 66 76
60 68 79
60 68 79
59 67 78
60 68 78
58 65 76
60 68 78
59 66 77
58 65 75
61 70 80
59 67 78
58 65 75
58 66 76
55 62 72
55 63 73
57 65 76
58 66 76
55 62 71
54 62 72
58 65 76
57 65 75
56 64 74
53 61 71
57 64 75
54 61 71
54 61 71
58 65 76
49 56 64
34 38 44
31 35 40
35 39 44
35 39 45
35 39 45
32 36 41
33 37 42
34 38 43
32 35 40
33 37 42
34 38 43
33 37 42
35 39 44
35 39 44
34 38 43
35 39 44
34 38 42
35 39 44
35 39 44
33 38 43
36 40 45
36 40 45
34 38 43
34 38 43
32 36 41
36 40 45
34 38 43
35 39 45
33 37 42
34 38 44
33 37 42
33 37 42
31 35 39
34 38 43
34 38 43
36 40 45
34 37 43
35 39 44
34 39 44
36 40 45
33 37 43
36 40 45
32 36 41
35 39 44
35 40 45
34 38 44
33 37 42
33 37 42
36 39 45
35 39 44
35 39 44
33 37 42
33 37 42
34 38 43
34 38 44
35 39 44
34 38 43
34 38 44
35 39 45
35 40 45
33 37 42
37 41 47
34 38 43
33 37 42
34 38 43
35 39 44
34 38 44
35 39 44
35 39 44
34 38 43
34 38 43
34 38 43
34 38 43
34 37 43
35 39 44
33 37 42
34 38 43
33 37 42
32 36 42
50 57 66
55 62 72
51 58 67
57 64 75
56 63 73
55 62 72
54 61 70
54 62 72
57 64 74
56 64 73
58 66 76
60 68 78
57 66 76
54 61 71
58 65 75
57 65 75
58 66 77
56 64 74
57 65 76
55 63 73
59 67 78
59 67 78
58 66 77
57 65 75
61 69 80
57 65 76
61 68 78
58 66 76
57 64 75
59 68 78
60 69 80
60 68 80
60 68 78
59 67 78
59 67 78
58 66 76
59 67 78
59 68 79
60 68 78
60 68 78
60 68 79
58 67 78
61 69 80
60 68 79
60 69 80
60 68 79
59 67 78
60 68 79
59 67 78
58 66 77
61 69 80
59 67 78
60 69 80
59 67 78
61 69 80
61 69 80
59 68 78
61 69 80
60 68 78
61 70 80
60 69 80
61 70 80
60 69 80
59 66 77
61 69 80
60 69 80
61 70 80
60 69 80
59 68 79
60 69 80
59 68 78
59 67 78
61 69 80
60 68 79
61 69 80
62 70 80
61 69 80
62 69 80
61 69 80
61 69 80
60 68 78
60 69 80
60 69 80
60 68 79
61 69 80
62 70 80
61 69 80
60 69 80
62 70 80
61 69 80
60 68 78
60 68 79
62 70 80
60 68 79
61 69 80
61 69 80
61 69 80
60 68 79
60 69 80
61 69 80
61 69 80
61 69 80
61 70 80
60 68 79
61 70 80
60 69 80
61 70 80
61 70 80
61 69 80
60 69 79
62 70 80
61 69 80
60 69 80
62 70 80
62 70 80
60 69 80
61 69 80
61 70 80
61 69 80
61 69 80
62 70 80
60 69 80
62 70 80
61 69 80
62 70 80
61 69 80
61 70 80
61 69 80
61 70 80
61 70 80
61 69 79
60 68 79
61 69 79
60 69 80
61 69 80
61 70 80
61 69 80
62 70 80
61 70 80
61 69 80
62 70 80
62 70 80
61 69 80
61 70 80
62 70 80
61 69 80
62 70 80
61 70 80
61 70 80
61 70 80
62 70 80
62 70 80
61 69 80
61 69 80
61 69 80
60 69 80
61 69 80
62 70 80
62 70 80
61 69 80
62 70 80
61 69 80
61 70 80
61 69 80
61 69 80
62 70 80
61 70 80
61 70 80
60 68 78
61 69 80
61 70 80
61 70 80
61 69 80
62 70 80
61 69 80
61 69 80
61 69 80
60 69 80
61 69 80
61 70 80
61 69 80
61 69 80
61 69 80
61 70 80
61 69 80
62 70 80
62 70 80
61 70 80
61 69 80
62 70 80
61 70 80
61 69 80
61 70 80
61 69 80
61 69 80
62 70 80
61 69 80
61 69 80
61 69 80
60 68 80
62 70 80
61 69 80
60 68 79
61 69 80
61 70 80
60 69 80
61 69 80
61 70 80
61 69 80
60 69 80
61 69 80
61 70 80
60 69 80
61 69 80
60 68 79
62 70 80
61 69 80
61 70 80
61 69 80
61 70 80
61 70 80
61 69 80
61 70 80
62 70 80
61 69 80
60 68 79
61 69 80
61 69 80
61 69 80
60 68 79
61 69 80
60 68 79
59 68 78
60 69 80
60 68 79
61 69 80
61 70 80
61 69 80
61 69 80
61 70 80
60 68 79
62 70 80
59 68 78
62 70 80
61 69 80
61 69 80
61 69 80
61 69 80
62 70 80
61 69 79
58 66 77
61 69 79
61 69 80
61 69 80
60 68 79
61 69 80
60 68 79
62 70 80
59 68 79
60 68 79
61 69 80
60 68 79
61 69 80
60 69 80
61 69 80
59 68 78
61 69 80
62 70 80
58 67 78
60 68 79
59 67 77
59 68 78
59 67 78
60 69 80
61 69 80
61 69 80
59 67 78
59 67 78
57 65 76
60 68 78
58 66 76
60 68 78
58 66 75
60 68 78
60 68 79
60 68 79
60 68 79
59 68 79
59 67 78
60 69 80
59 66 76
60 68 78
58 66 76
59 67 78
59 67 77
58 66 77
58 66 76
58 66 77
60 68 79
58 66 76
59 67 77
59 67 77
59 67 77
56 64 74
59 67 77
58 66 77
61 69 80
55 63 72
56 63 73
58 66 76
56 64 74
58 65 76
58 66 77
56 63 73
54 62 72
54 62 72
54 61 70
52 60 69
57 65 75
57 65 75
49 56 64
34 38 43
34 38 43
33 37 42
36 40 45
34 38 43
33 37 42
35 38 43
34 38 43
35 39 44
34 38 43
34 38 43
34 37 43
33 37 43
34 38 44
32 35 40
32 36 41
33 36 42
34 38 43
34 38 43
35 39 45
33 37 43
34 38 43
34 38 44
36 40 45
34 39 44
34 38 43
34 38 43
34 38 43
35 39 45
34 38 43
33 37 42
34 38 43
34 38 43
35 39 44
32 36 41
33 37 43
32 36 41
35 39 44
34 38 44
33 37 43
35 38 44
34 38 43
35 39 45
33 37 43
33 37 42
35 39 45
33 37 42
33 37 42
37 41 46
32 35 40
35 39 44
33 37 42
34 38 43
31 35 41
35 39 44
35 39 44
34 38 43
34 38 44
34 37 42
34 38 44
34 39 44
34 38 44
33 37 43
35 39 44
36 40 45
33 37 42
34 38 43
33 37 42
32 36 41
35 39 44
32 35 40
34 38 44
33 36 41
34 38 43
33 36 41
35 39 44
34 38 43
35 39 45
34 38 44
52 59 68
56 63 73
56 64 74
58 66 77
56 63 73
55 63 73
54 61 71
59 67 77
56 63 74
57 65 75
54 62 72
57 65 75
58 66 76
57 65 75
56 63 73
57 65 75
56 63 72
58 66 76
59 68 78
56 64 75
58 66 76
58 67 78
56 65 76
58 65 75
58 65 75
58 66 77
58 66 77
59 67 78
59 67 77
59 67 77
58 66 76
60 68 79
59 67 78
60 68 78
59 68 78
58 67 77
60 68 79
58 66 76
60 68 79
60 68 79
60 69 79
58 66 77
61 69 80
60 68 79
59 67 78
61 69 79
59 67 78
60 69 80
60 69 80
59 67 78
60 68 78
59 67 78
60 69 80
61 69 80
59 67 78
59 67 78
61 69 80
61 70 80
60 69 80
61 69 80
58 67 78
59 67 78
61 69 79
60 69 80
59 67 78
61 69 79
61 69 79
61 69 80
61 69 80
61 69 80
59 67 78
61 69 80
60 68 79
60 68 80
61 69 80
62 70 80
60 68 78
61 69 80
61 69 80
61 69 80
60 68 79
61 69 80
61 69 80
61 70 80
60 69 80
61 69 79
61 69 80
61 69 80
62 70 80
60 68 79
61 69 80
61 70 80
61 70 80
61 69 80
62 70 80
61 70 80
60 69 80
60 68 79
60 68 79
61 69 80
61 69 80
61 69 80
61 70 80
61 70 80
62 70 80
61 70 80
60 69 80
62 70 80
62 70 80
62 70 80
62 70 80
61 70 80
61 70 80
61 69 80
61 70 80
61 69 80
61 70 80
60 68 79
61 70 80
62 70 80
61 69 80
61 69 80
62 70 80
62 70 80
61 70 80
62 70 80
60 69 80
60 69 80
61 70 80
62 70 80
61 69 80
61 70 80
62 70 80
61 69 80
60 68 79
61 69 80
61 70 80
61 70 80
62 70 80
61 69 80
60 69 80
60 69 80
61 70 80
62 70 80
61 70 80
61 69 80
61 69 80
62 70 80
61 69 80
61 69 80
61 70 80
61 69 80
61 70 80
62 70 80
62 70 80
62 70 80
61 70 80
62 70 80
61 70 80
61 70 80
61 69 80
61 70 80
61 70 80
61 70 80
61 70 80
62 70 80
62 70 80
60 68 79
61 70 80
62 70 80
62 70 80
62 70 80
61 69 80
61 70 80
62 70 80
61 69 80
61 69 80
61 69 80
61 70 80
62 70 80
62 70 80
61 69 80
62 70 80
62 70 80
61 70 80
62 70 80
61 69 80
61 70 80
61 69 80
62 70 80
61 70 80
62 70 80
62 70 80
62 70 80
60 69 80
61 69 80
61 69 80
61 69 80
61 69 79
60 69 80
61 69 80
61 69 80
61 70 80
60 68 78
62 70 80
61 69 80
61 70 80
61 69 80
61 69 80
61 69 80
62 70 80
61 69 80
61 69 80
62 70 80
60 68 79
61 69 80
60 68 79
60 69 80
62 70 80
61 69 80
61 69 80
61 69 80
60 68 79
61 69 80
59 67 77
60 69 80
61 69 80
61 69 80
61 69 80
60 69 80
61 69 79
60 69 80
61 69 80
61 70 80
61 69 80
60 68 79
61 69 80
61 70 80
60 69 80
60 68 79
60 69 80
60 69 80
61 69 80
60 69 80
61 69 79
61 69 80
59 68 79
60 68 79
60 69 80
61 69 80
58 67 78
59 67 78
60 68 79
61 70 80
61 69 79
60 68 79
61 69 80
61 69 79
61 69 80
60 68 79
61 69 80
60 68 79
61 69 79
61 69 80
61 69 80
59 67 77
59 68 79
60 68 78
59 67 78
60 69 79
59 67 78
60 67 78
60 68 78
60 68 79
61 69 79
60 67 78
60 68 79
60 68 78
60 68 78
59 67 78
60 68 78
59 67 78
60 68 78
59 67 77
61 69 80
59 67 78
60 68 78
59 67 77
60 68 78
59 68 78
59 67 78
58 66 77
58 66 77
59 67 78
59 67 77
57 65 75
57 65 75
57 65 76
58 66 76
57 64 75
59 67 78
60 68 79
59 67 78
57 65 75
57 66 76
58 65 75
58 66 77
58 66 77
58 65 75
57 65 75
56 64 75
56 64 74
60 68 78
59 67 77
55 63 74
57 64 74
57 66 76
55 63 73
53 60 69
51 58 68
53 61 70
34 38 43
33 37 43
35 39 44
34 38 44
35 39 43
34 37 43
32 37 42
34 38 43
34 38 43
33 37 42
35 39 44
33 37 42
35 39 44
33 37 43
33 37 42
34 38 43
34 38 43
34 38 43
33 37 42
34 38 43
35 39 44
31 35 40
31 35 40
34 38 43
33 37 42
35 38 44
34 37 42
34 38 44
34 38 43
33 37 42
35 38 44
34 38 43
34 39 44
34 38 43
35 39 44
33 37 42
34 38 43
33 37 43
35 39 44
34 38 44
34 38 44
34 38 43
34 38 44
32 36 41
34 38 44
34 38 44
34 38 43
34 38 43
34 38 43
35 39 44
34 38 44
35 39 44
33 37 42
34 38 43
35 39 44
33 37 42
32 36 41
33 37 42
33 37 43
34 38 43
34 38 43
35 39 44
35 39 44
32 36 42
34 38 43
35 39 44
35 39 45
34 38 43
33 37 42
34 37 42
34 38 43
32 36 41
35 38 43
34 37 43
34 38 43
33 37 42
35 39 44
35 39 44
34 37 43
53 60 69
55 62 71
51 58 67
55 62 72
56 63 73
56 63 73
55 62 72
56 63 73
58 65 76
56 63 73
58 66 76
55 62 71
57 65 75
59 67 78
58 66 76
55 63 73
56 64 75
58 66 77
58 66 76
55 62 72
57 65 75
60 68 78
60 69 80
58 67 78
60 68 79
60 68 78
59 67 78
57 65 76
59 68 78
58 66 77
59 67 78
57 65 75
60 68 79
61 69 80
60 69 80
59 67 78
60 68 79
59 67 77
59 68 78
60 69 80
59 68 78
60 68 78
58 67 78
61 69 79
59 68 78
59 67 77
60 68 78
59 68 79
58 66 76
60 68 80
61 69 79
59 67 78
59 67 78
60 68 78
61 69 80
60 69 79
60 68 78
61 70 80
58 67 78
59 67 77
60 68 79
62 70 80
60 69 80
60 68 78
60 69 80
61 70 80
61 69 80
60 69 80
61 69 80
62 70 80
60 68 79
60 68 79
61 70 80
61 70 80
61 69 79
59 67 78
61 69 80
61 69 79
61 70 80
61 69 80
60 68 79
61 69 80
62 70 80
61 70 80
62 70 80
62 69 80
61 69 80
62 70 80
61 69 80
60 68 78
60 69 79
60 69 80
61 69 80
60 69 80
60 68 79
61 70 80
62 70 80
61 70 80
61 69 80
61 70 80
60 69 80
60 68 79
60 68 78
61 68 78
61 69 80
62 70 80
61 69 80
61 69 80
62 70 80
61 69 80
61 69 80
61 69 80
61 69 80
61 69 80
61 70 80
61 69 80
60 68 78
61 70 80
60 69 80
61 69 80
62 70 80
62 70 80
61 69 80
60 69 80
60 69 80
61 70 80
60 69 80
61 69 80
61 69 80
61 70 80
62 70 80
61 69 80
61 69 80
61 70 80
60 69 80
61 70 80
61 70 80
61 69 80
61 70 80
61 70 80
62 70 80
61 70 80
61 69 80
62 70 80
61 69 80
61 69 80
62 70 80
61 69 80
61 69 80
61 69 80
61 69 80
61 69 80
61 69 80
61 69 80
62 70 80
62 70 80
62 70 80
61 69 80
62 70 80
61 69 80
60 69 80
62 70 80
61 69 80
61 69 80
62 70 80
61 69 80
61 70 80
62 70 80
61 70 80
61 70 80
62 70 80
61 70 80
61 69 80
61 69 80
61 70 80
61 69 80
61 70 80
60 69 80
62 70 80
61 69 80
62 70 80
61 69 80
61 70 80
61 69 80
61 69 80
61 69 80
62 70 80
61 69 80
61 69 80
62 70 80
61 69 80
62 70 80
61 69 80
61 69 80
61 70 80
61 70 80
61 70 80
61 69 80
62 70 80
61 69 80
61 70 80
61 70 80
61 69 80
60 69 80
61 69 80
60 69 80
61 70 80
61 70 80
61 70 80
60 69 80
60 68 79
61 69 80
61 69 80
61 70 80
61 69 80
60 68 79
61 70 80
60 68 79
61 69 80
61 69 80
61 69 80
61 69 80
62 70 80
61 69 80
61 69 80
61 69 80
63 70 80
61 70 80
61 69 80
61 69 80
61 69 79
61 69 80
60 68 78
61 69 80
60 69 80
62 70 80
62 70 80
60 69 80
61 69 80
61 69 79
61 69 80
60 68 79
61 69 80
61 69 80
61 69 80
62 70 80
58 66 76
59 67 78
62 70 80
60 68 78
61 69 80
60 68 79
60 68 79
60 68 79
60 69 80
59 68 79
60 67 78
61 69 80
60 68 78
60 68 78
61 69 80
61 70 80
59 67 78
61 69 80
60 68 79
61 69 80
59 68 78
60 68 79
61 70 80
61 69 80
60 68 79
59 67 77
59 67 78
60 69 80
60 68 79
61 69 80
60 68 78
60 68 78
60 68 79
61 69 79
57 64 75
60 68 79
59 67 78
59 67 78
61 69 79
60 68 79
58 67 78
58 66 76
59 67 78
59 67 78
59 67 77
60 68 78
59 67 77
59 67 78
57 64 74
59 67 77
59 66 77
59 66 77
58 66 76
58 66 76
57 65 76
55 63 73
55 63 73
58 66 77
58 66 77
54 61 71
59 67 78
59 67 78
58 66 77
57 65 75
56 63 73
59 67 77
55 63 72
57 65 75
59 66 76
53 60 70
53 60 70
58 66 76
54 62 71
55 63 73
55 62 72
34 38 44
33 36 41
33 37 43
33 37 42
34 38 43
35 38 43
34 38 43
35 39 44
33 37 42
31 34 39
33 37 42
35 39 44
33 37 42
33 36 41
35 38 43
33 37 43
33 37 42
34 38 43
32 35 40
36 40 45
35 39 45
35 39 45
34 37 43
33 37 42
32 36 42
33 38 43
31 35 40
35 39 45
35 39 44
34 38 43
34 38 43
32 36 41
33 36 41
34 38 43
34 38 43
34 38 44
33 37 43
35 39 44
36 40 45
34 38 43
35 40 45
36 40 45
35 39 44
37 41 46
34 38 43
33 37 42
35 38 44
36 40 45
32 36 42
32 36 41
34 37 43
35 38 43
34 38 43
35 39 44
33 37 42
34 37 42
34 38 43
34 38 43
34 39 44
35 38 44
35 39 44
36 39 44
32 36 42
34 38 43
34 38 43
33 37 42
34 38 44
35 39 45
34 38 43
34 39 44
33 36 42
33 37 42
35 39 44
33 37 42
33 36 41
32 36 41
33 37 42
34 38 44
34 38 43
55 63 73
54 61 70
55 62 72
57 64 75
53 60 69
55 62 71
54 62 72
55 62 72
58 66 77
57 65 76
56 64 74
58 65 76
54 61 71
58 66 76
56 64 74
59 67 78
58 66 77
56 63 73
57 64 74
55 63 73
58 66 75
57 65 75
58 65 75
60 68 78
58 66 76
59 66 75
57 66 76
59 67 77
55 63 72
59 67 78
58 65 76
59 66 77
58 66 77
58 66 77
58 66 76
59 67 78
59 67 77
59 68 78
60 68 79
58 66 76
60 69 80
59 67 78
56 64 75
59 67 78
58 66 76
59 67 78
59 67 78
59 68 78
59 68 79
60 69 80
59 67 78
59 67 77
60 68 79
58 67 78
61 68 79
60 68 79
60 68 79
60 68 79
60 69 80
61 69 80
60 68 79
59 68 78
61 69 80
61 69 80
61 69 80
60 69 80
60 69 80
59 67 78
61 69 80
60 68 78
61 69 80
60 68 78
61 69 80
60 68 79
61 69 80
59 68 78
60 68 79
62 70 80
60 68 78
61 69 80
60 68 79
62 70 80
61 69 80
60 69 80
60 68 79
61 69 80
61 69 80
61 70 80
61 70 80
61 69 80
61 69 80
61 69 80
61 70 80
61 69 80
60 68 80
63 70 80
61 69 80
61 69 80
60 69 80
61 69 80
61 69 80
61 69 80
61 69 80
61 69 80
62 70 80
62 70 80
61 70 80
61 69 80
60 68 79
62 70 80
61 70 80
61 69 80
62 70 80
61 69 80
61 70 80
62 69 80
61 69 80
62 70 80
61 69 79
62 70 80
61 69 80
61 70 80
61 70 80
61 69 80
62 70 80
62 70 80
62 70 80
60 69 80
62 70 80
60 69 80
60 69 80
61 70 80
61 70 80
61 69 80
61 69 80
62 70 80
61 69 80
61 69 80
61 70 80
61 69 80
61 70 80
62 70 80
61 70 80
62 70 80
61 69 80
62 70 80
61 70 80
62 70 80
61 70 80
62 70 80
62 70 80
61 70 80
61 69 80
60 69 79
60 69 80
61 70 80
61 69 80
63 70 80
61 70 80
61 70 80
60 69 80
62 70 80
61 70 80
60 69 80
60 69 80
61 69 80
61 69 80
61 70 80
61 69 80
61 69 80
61 69 80
61 70 80
62 70 80
61 70 80
61 70 80
62 70 80
62 70 80
62 70 80
62 70 80
62 70 80
61 70 80
62 70 80
61 69 80
62 70 80
62 70 80
60 69 80
62 70 80
61 69 80
61 69 80
61 69 80
61 69 80
61 70 80
61 69 80
62 70 80
62 70 80
61 69 80
61 69 80
60 69 80
61 70 80
61 69 80
62 70 80
60 69 80
61 69 80
61 69 80
61 70 80
60 68 79
61 70 80
61 70 80
61 70 80
62 70 80
61 69 80
62 70 80
61 69 80
61 69 80
61 69 80
61 69 80
62 70 80
61 69 80
60 69 80
62 70 80
62 70 80
61 69 80
62 70 80
61 69 80
60 68 79
61 69 80
59 67 78
61 69 80
61 69 80
60 68 79
61 69 80
61 70 80
60 68 79
60 69 80
62 70 80
61 69 80
62 70 80
61 70 80
59 68 78
60 68 79
60 69 80
61 69 79
61 70 80
60 68 80
60 68 78
61 69 80
61 69 80
60 68 79
60 68 79
61 69 80
61 69 80
61 69 80
61 69 79
59 68 79
60 69 80
60 69 80
59 67 78
60 68 79
61 69 80
60 69 80
60 68 78
61 69 80
60 68 77
60 68 78
61 69 80
60 68 78
60 68 79
59 67 78
61 69 80
60 68 78
60 69 79
59 67 78
61 69 80
59 67 78
59 67 77
60 69 80
60 68 79
61 69 80
59 67 78
61 69 80
60 68 78
60 69 80
60 68 78
59 67 78
60 69 80
59 67 78
61 69 79
57 65 76
60 68 79
60 69 80
58 66 77
57 65 76
56 64 74
58 66 77
61 68 78
61 69 80
58 66 76
57 65 76
60 68 78
57 66 76
59 67 78
55 63 73
57 65 75
55 62 72
56 63 72
57 65 75
59 67 78
56 64 74
60 68 79
57 65 75
53 61 71
58 65 76
55 62 72
56 63 73
58 65 75
55 63 73
52 59 68
56 63 73
53 60 69
57 64 75
56 64 75
34 38 43
32 36 41
35 39 44
33 37 42
32 36 41
34 38 43
33 37 42
35 39 44
32 36 42
33 37 42
34 38 43
34 38 43
31 35 40
33 37 42
35 39 45
35 39 45
34 38 43
34 38 43
35 39 45
32 35 40
34 38 43
34 37 42
33 37 43
34 38 43
36 39 45
32 36 42
33 37 42
32 36 41
33 37 42
34 38 44
34 38 43
33 37 42
32 36 41
34 38 43
33 37 42
32 36 41
34 38 43
33 37 42
34 38 44
36 40 45
35 39 44
33 37 43
34 38 43
34 38 43
32 36 41
34 38 43
34 38 44
33 37 42
33 37 42
34 38 43
34 37 42
33 37 42
34 38 43
35 38 43
35 39 44
35 39 44
34 38 44
34 38 43
34 38 44
36 39 45
33 37 42
34 38 43
32 35 40
34 38 43
32 36 41
33 37 42
32 35 40
34 38 43
34 38 43
34 38 43
33 37 42
35 39 44
34 38 44
33 37 42
33 36 41
34 38 44
34 38 43
33 36 42
34 37 42
55 62 72
55 62 71
51 58 67
56 63 73
53 60 70
56 64 74
58 66 76
56 64 73
58 66 76
56 64 73
52 59 69
56 64 73
55 63 73
55 63 72
55 63 73
57 65 75
59 67 77
58 66 76
56 64 74
58 65 75
57 65 76
55 63 74
59 67 78
58 66 75
59 67 78
59 67 77
57 65 75
60 68 78
58 66 76
58 66 77
56 64 74
59 67 78
59 67 77
59 67 78
59 67 78
58 66 76
60 68 79
57 65 75
61 69 80
60 69 80
59 68 78
61 69 80
60 68 78
61 69 79
60 68 79
60 68 79
60 68 78
58 67 78
60 68 78
59 68 78
60 68 79
61 69 80
60 68 79
61 69 80
61 69 80
59 67 78
60 68 79
61 69 80
61 69 80
58 66 77
60 68 79
60 69 80
61 69 80
59 68 78
60 68 79
61 69 80
60 68 79
60 69 80
61 69 80
59 67 78
62 70 80
61 69 79
61 69 80
61 69 80
61 69 79
60 69 80
60 69 80
61 69 80
61 70 80
60 68 79
61 69 80
60 68 78
61 69 80
60 69 80
60 69 80
61 68 78
61 69 79
61 69 80
61 70 80
60 69 80
61 70 80
61 69 80
62 70 80
60 69 80
60 69 80
61 69 80
62 70 80
61 70 80
60 68 78
62 70 80
61 70 80
60 68 79
61 69 80
61 70 80
61 69 80
60 68 79
62 70 80
61 70 80
62 70 80
60 69 80
61 70 80
61 70 80
61 69 80
62 70 80
61 70 80
61 69 80
61 70 80
61 70 80
60 69 80
61 70 80
61 69 80
61 69 80
61 69 80
61 69 80
60 68 79
61 70 80
61 69 80
61 69 80
61 69 80
61 69 80
61 69 80
61 69 80
61 69 80
61 70 80
61 69 80
61 70 80
61 69 80
60 69 80
61 69 79
61 70 80
61 69 80
62 70 80
60 69 80
61 69 80
61 70 80
61 69 80
61 69 80
61 69 80
62 70 80
61 70 80
61 69 80
61 69 80
61 70 80
61 69 80
61 69 80
61 70 80
61 70 80
60 69 80
61 70 80
61 70 80
61 70 80
60 69 80
61 69 80
61 70 80
61 70 80
62 70 80
61 70 80
61 69 80
62 70 80
61 69 80
61 70 80
61 70 80
61 70 80
61 69 80
61 70 80
60 68 79
61 70 80
62 70 80
61 70 80
61 69 80
62 70 80
62 70 80
61 69 80
62 70 80
61 69 80
62 70 80
62 70 80
61 69 80
62 70 80
61 69 80
63 70 80
61 69 79
61 69 80
61 69 80
62 70 80
61 69 80
61 70 80
62 70 80
61 70 80
61 69 80
61 69 80
61 69 80
61 70 80
60 68 79
61 70 80
61 69 79
62 70 80
61 69 80
62 70 80
60 68 78
61 69 80
61 69 80
60 69 80
61 69 80
60 68 79
61 70 80
61 69 80
59 67 78
62 70 80
60 68 79
61 69 80
61 69 80
60 69 80
61 70 80
61 69 80
60 68 78
60 68 78
61 69 80
61 69 79
61 69 80
61 69 80
61 69 80
61 69 79
61 69 80
62 70 80
59 68 79
61 69 80
61 69 80
60 68 79
61 69 80
61 69 80
61 69 80
59 68 79
60 69 80
61 69 80
61 69 80
61 69 80
61 70 80
61 69 80
61 69 80
61 69 79
61 69 79
60 68 79
61 70 80
61 69 80
61 70 80
61 69 80
61 69 80
60 69 80
60 68 79
61 69 80
61 69 79
61 69 80
60 68 79
59 67 78
61 69 80
60 68 78
60 68 79
56 65 76
61 69 80
62 70 80
59 68 79
59 67 78
61 69 80
60 69 79
60 68 79
58 66 77
58 66 76
61 69 79
58 66 77
60 68 79
58 66 77
59 67 77
58 66 76
60 68 78
59 67 78
59 67 77
57 65 75
59 67 78
58 66 77
58 65 75
56 63 73
58 66 76
61 69 80
57 65 75
60 68 78
59 68 78
57 65 75
57 66 76
59 67 78
57 65 75
59 67 78
57 65 75
58 66 77
57 64 75
58 65 75
55 62 72
55 63 73
56 64 74
55 63 73
56 63 73
57 65 75
55 63 73
59 68 78
56 64 74
58 65 75
55 62 71
57 63 73
57 64 75
53 61 70
54 61 71
34 39 44
34 37 43
33 37 42
35 39 44
33 37 42
34 38 43
34 38 43
35 39 44
34 38 43
34 38 43
36 40 46
34 38 43
33 37 42
34 38 43
34 38 42
32 36 41
34 37 43
34 38 43
33 37 42
33 36 41
33 37 42
36 40 45
33 37 42
33 37 42
33 37 42
33 37 42
34 37 42
31 35 41
34 38 43
34 38 43
36 39 45
35 39 44
33 37 42
34 38 43
34 38 43
33 37 42
35 39 44
35 39 44
34 38 44
34 38 44
34 38 44
35 39 44
36 40 45
34 39 44
37 41 46
36 40 45
34 37 42
34 38 44
35 39 45
35 39 44
34 38 42
34 38 43
33 37 42
36 40 45
34 38 43
36 40 46
36 40 45
34 38 43
32 36 41
34 38 43
32 36 42
34 38 44
34 37 42
33 37 42
34 38 43
32 36 42
35 38 43
31 35 40
35 39 45
31 34 39
35 39 45
35 39 44
35 39 44
32 35 40
34 38 43
31 35 40
33 36 41
35 38 44
40 45 51
53 60 70
54 61 71
56 63 72
56 63 73
57 64 74
56 64 75
52 59 69
57 65 75
58 65 75
57 64 74
56 64 74
57 65 76
57 65 75
60 68 78
57 65 75
57 65 75
57 65 75
59 67 78
57 65 75
54 62 73
59 67 78
61 69 80
56 63 73
60 68 78
57 65 75
58 66 76
59 67 78
59 66 76
59 66 77
59 67 78
58 66 77
61 68 78
58 66 77
59 68 78
60 68 79
60 68 78
59 67 78
60 67 78
61 69 80
59 67 78
59 67 78
60 68 78
59 67 78
58 67 78
60 68 78
60 68 78
60 68 78
60 68 78
60 68 79
59 68 78
59 68 78
60 67 78
60 69 79
60 68 79
59 67 78
62 70 80
61 69 80
59 68 78
60 68 79
60 68 79
61 70 80
61 69 80
61 69 80
61 69 79
61 70 80
61 69 79
60 68 79
60 68 78
61 70 80
60 69 79
62 70 80
61 69 80
60 68 79
61 69 80
61 69 80
61 69 80
62 70 80
61 69 80
60 68 78
60 68 79
61 69 80
62 70 80
61 69 80
61 69 80
61 69 80
61 69 80
60 69 80
61 69 80
62 70 80
61 69 80
61 70 80
62 70 80
61 70 80
61 70 80
62 70 80
61 70 80
61 69 80
60 68 79
61 69 80
61 69 80
61 69 80
62 70 80
60 68 79
61 69 80
62 70 80
61 68 78
61 69 80
61 69 80
62 70 80
60 69 80
62 70 80
61 69 80
61 69 80
61 69 80
61 69 80
60 69 80
60 68 79
62 70 80
59 68 79
61 69 80
62 70 80
61 69 80
61 69 80
61 69 80
61 70 80
61 70 80
61 70 80
61 70 80
62 70 80
60 69 80
62 70 80
61 69 80
61 69 80
61 69 80
62 70 80
61 69 80
60 69 80
61 69 80
61 69 80
62 70 80
62 70 80
61 69 80
60 69 80
61 70 80
61 70 80
61 70 80
61 69 80
61 70 80
61 69 80
61 70 80
62 70 80
61 70 80
61 69 80
60 69 80
61 69 80
60 69 80
61 69 80
61 69 80
61 69 80
62 70 80
61 70 80
61 69 80
61 69 80
61 69 80
62 70 80
62 70 80
61 69 80
61 69 80
61 69 80
61 69 80
62 70 80
61 69 80
61 70 80
61 69 80
60 69 80
61 69 80
61 70 80
62 70 80
61 70 80
61 70 80
61 69 80
61 69 80
61 69 80
60 68 79
61 70 80
61 70 80
60 68 78
60 68 80
61 69 80
61 69 80
62 70 80
61 69 80
61 70 80
61 69 80
61 69 80
62 70 80
62 70 80
61 69 80
60 69 80
60 68 79
62 70 80
61 69 80
61 69 80
61 69 80
60 68 79
60 68 79
61 70 80
61 69 80
61 70 80
61 69 79
62 70 80
62 70 80
62 70 80
61 69 80
61 69 80
61 69 80
61 70 80
61 69 80
62 70 80
60 68 79
60 67 78
62 70 80
62 70 80
61 69 80
61 69 80
62 70 80
60 69 79
62 70 80
61 70 80
60 69 80
61 69 80
61 69 80
60 69 80
61 70 80
61 69 79
60 69 80
61 70 80
60 68 79
60 68 78
61 69 80
61 69 80
61 69 80
60 68 79
61 69 80
61 69 80
59 67 77
61 70 80
59 68 79
59 68 78
60 68 79
57 66 76
61 69 80
61 69 80
61 69 80
60 69 80
60 68 79
59 67 78
60 69 80
61 69 79
60 69 80
60 68 78
61 69 79
60 69 80
59 67 77
59 67 78
60 69 80
59 68 78
60 68 79
60 68 78
58 65 74
61 69 80
59 68 78
56 64 74
59 67 78
60 68 79
59 67 78
60 68 78
59 67 78
59 67 78
60 68 79
60 69 79
59 68 79
60 68 78
61 69 80
58 66 77
58 66 76
58 66 76
58 66 77
58 66 77
60 68 78
57 65 75
58 66 77
58 67 78
60 68 78
58 66 76
58 65 75
59 66 76
58 66 76
59 67 77
58 66 77
59 68 78
56 64 74
57 64 75
58 65 74
58 65 75
57 65 75
57 64 74
57 65 75
59 67 77
55 63 73
56 64 74
57 65 75
56 64 74
54 62 71
54 61 71
54 61 70
56 64 74
56 64 73
55 62 72
51 57 66
51 58 68
36 40 46
34 38 43
33 37 42
33 37 42
36 40 45
34 37 42
33 37 42
33 37 42
33 37 42
34 38 43
35 39 44
31 35 40
36 40 45
33 36 41
34 38 43
33 37 42
34 38 43
34 38 44
33 37 42
33 37 42
33 37 43
35 39 44
34 38 43
34 38 43
35 39 44
35 39 44
35 39 44
35 39 44
34 38 43
33 37 42
35 39 44
34 38 43
34 38 43
34 38 43
32 36 42
33 37 42
35 38 44
34 38 43
35 39 45
33 37 42
34 38 44
33 37 42
34 37 42
34 38 43
32 36 41
33 36 42
32 36 41
34 38 44
35 39 45
36 40 46
35 38 44
34 37 43
34 38 43
34 38 43
36 40 46
33 36 42
35 39 44
33 37 42
35 39 45
34 38 43
34 37 42
33 37 42
33 37 42
34 38 43
34 38 43
33 37 42
34 38 43
34 38 43
35 39 44
33 36 41
34 37 42
32 36 41
33 37 42
34 38 43
33 36 41
34 37 42
34 37 42
34 38 43
38 42 49
53 61 71
54 62 71
59 66 76
55 63 73
58 65 76
57 64 73
58 66 76
56 63 73
58 65 75
54 62 72
55 63 72
53 61 70
55 62 72
56 64 74
58 65 75
59 67 77
57 64 75
58 66 76
58 66 76
56 64 74
59 67 78
57 65 75
60 68 78
57 65 75
61 69 79
57 65 75
60 67 77
60 68 78
59 67 77
59 67 78
56 64 75
59 67 78
61 69 80
60 69 80
60 67 78
58 65 75
60 68 78
58 66 77
61 69 80
60 68 79
57 65 76
59 67 78
60 69 80
61 69 79
58 67 78
60 69 80
60 68 79
61 69 79
59 67 78
59 67 78
60 68 79
59 66 76
60 69 80
60 69 80
61 69 80
60 69 80
60 68 78
60 69 80
60 68 79
61 69 80
60 68 79
59 68 78
62 70 80
60 68 79
61 69 80
61 70 80
60 68 79
61 69 79
61 69 79
60 69 80
60 68 79
61 69 79
60 68 79
61 69 80
61 70 80
60 68 79
61 69 79
61 69 79
60 68 79
62 70 80
61 70 80
60 69 80
60 69 80
60 68 78
61 69 80
61 69 80
60 68 79
60 68 79
61 69 80
61 70 80
62 70 80
61 70 80
61 69 80
61 69 80
62 70 80
61 69 79
61 69 80
61 69 80
60 69 80
61 69 80
62 69 80
61 69 80
61 69 80
61 69 80
61 69 80
60 69 80
62 70 80
60 69 80
61 70 80
60 69 80
61 69 80
62 70 80
60 68 78
61 70 80
60 69 80
60 69 80
61 69 79
60 68 79
61 70 80
60 69 80
62 70 80
61 70 80
61 70 80
61 70 80
61 69 80
62 70 80
61 70 80
61 69 80
62 70 80
62 70 80
62 70 80
62 70 80
62 70 80
60 69 80
61 70 80
61 69 80
61 70 80
61 69 80
61 69 80
62 69 80
62 70 80
62 70 80
61 69 80
61 70 80
62 70 80
62 70 80
61 70 80
62 70 80
59 68 78
61 69 80
61 70 80
61 70 80
62 70 80
62 70 80
62 70 80
62 70 80
60 69 80
62 70 80
61 69 80
62 70 80
61 70 80
61 69 80
61 70 80
61 69 80
61 69 80
61 69 80
62 70 80
61 69 80
62 70 80
60 69 80
61 69 80
61 69 80
61 69 80
61 69 80
62 70 80
61 69 80
62 70 80
61 70 80
62 70 80
62 70 80
62 70 80
61 69 80
61 69 80
62 70 80
62 70 80
61 70 80
61 69 80
61 70 80
59 67 78
61 69 80
62 70 80
60 68 79
60 69 80
62 70 80
61 69 80
62 70 80
61 69 79
60 69 80
61 69 80
61 69 80
62 70 80
62 70 80
61 69 80
61 70 80
61 69 80
61 70 80
61 69 80
60 69 80
62 70 80
62 70 80
62 70 80
59 68 79
61 69 80
61 69 80
61 70 80
62 70 80
60 69 80
60 69 80
60 68 79
61 70 80
60 69 80
61 69 80
62 70 80
61 69 80
60 68 79
61 69 80
61 69 80
62 70 80
61 69 80
61 69 80
61 69 80
60 68 79
61 69 80
60 69 80
60 68 79
61 69 80
61 69 80
61 69 79
61 69 80
61 69 79
61 69 79
62 70 80
61 69 80
60 67 78
59 67 78
61 69 80
61 69 80
61 69 80
61 69 80
61 69 80
61 70 80
60 69 80
60 68 79
59 68 78
61 69 80
59 67 78
61 69 80
61 70 80
61 69 80
61 69 80
60 68 79
60 68 78
61 69 80
60 68 78
60 68 79
60 69 80
60 68 79
59 68 78
60 68 79
59 67 77
60 68 78
61 69 80
61 70 80
61 70 80
61 69 80
60 68 79
60 68 78
61 69 80
59 67 78
58 66 76
58 65 76
61 69 80
59 68 78
58 66 77
60 68 78
57 65 75
58 66 76
58 66 76
59 67 78
59 67 78
57 65 75
59 67 77
60 68 79
58 66 76
59 67 77
60 68 79
58 66 77
60 68 78
58 66 76
57 65 75
58 66 76
54 62 72
57 65 75
60 67 78
59 67 77
59 67 77
57 65 75
59 67 77
57 65 75
57 64 75
58 65 75
54 62 72
55 62 71
55 63 74
54 61 71
51 58 67
57 64 73
55 62 72
57 64 74
52 58 67
53 61 71
41 46 53
33 37 42
32 36 41
33 37 42
35 39 45
33 38 43
34 37 42
33 37 42
34 38 43
32 36 41
34 37 43
34 38 43
34 38 44
34 38 44
33 37 43
34 39 44
34 38 43
34 38 44
34 38 43
32 36 41
35 39 44
36 39 44
33 37 42
33 36 41
34 37 42
34 37 42
35 39 44
33 37 42
34 38 43
35 39 44
35 39 44
34 38 43
33 37 42
34 38 44
32 36 41
33 37 43
34 38 44
34 38 43
33 38 43
34 38 43
32 35 40
34 38 43
35 39 44
34 38 43
34 38 43
33 37 42
35 39 44
33 37 42
35 39 44
34 38 44
34 38 43
36 40 46
35 39 44
35 39 44
34 38 43
37 41 46
35 39 44
35 38 43
35 39 44
33 37 43
34 38 44
33 37 42
33 36 41
35 39 44
35 38 44
34 37 42
35 39 44
32 36 42
32 35 40
31 35 40
34 38 43
35 39 44
34 38 44
32 36 41
33 37 42
33 37 42
34 37 43
33 37 42
39 44 50
54 61 70
55 63 73
54 61 72
55 63 72
54 61 71
54 61 71
55 63 73
59 67 77
54 61 71
58 65 75
58 66 75
57 65 75
60 68 79
59 67 77
58 66 77
56 63 73
59 67 78
56 64 74
58 66 76
58 65 75
59 68 78
58 66 76
59 67 77
60 68 79
60 69 80
57 64 74
60 68 79
60 68 78
59 67 78
58 66 77
61 69 80
59 68 78
59 67 78
59 67 78
60 68 78
61 69 80
58 66 77
61 70 80
60 68 79
59 68 79
58 66 77
59 68 78
60 68 78
60 69 80
61 69 80
58 65 75
58 67 78
60 68 79
60 68 78
61 69 79
60 68 79
59 67 77
58 66 77
60 68 79
59 67 77
59 67 78
61 70 80
60 68 79
60 69 80
61 69 80
60 68 78
61 69 80
62 70 80
60 69 80
58 66 77
60 68 79
61 70 80
61 69 80
59 68 79
61 69 79
58 66 77
59 68 78
61 69 80
61 69 80
61 69 80
60 68 78
62 70 80
61 69 80
61 69 79
61 69 80
60 68 79
60 69 80
61 69 80
61 69 80
60 68 79
61 70 80
60 69 79
60 68 79
62 70 80
61 69 80
61 69 80
61 69 80
61 69 80
59 67 78
61 69 80
61 69 79
59 68 78
61 69 80
61 70 80
59 68 78
61 69 80
61 69 80
60 69 80
61 69 80
60 68 79
61 70 80
60 68 80
61 69 80
61 69 80
61 69 80
61 69 80
61 69 80
62 70 80
61 69 79
62 70 80
61 70 80
60 69 80
60 69 80
62 70 80
62 70 80
61 69 80
62 70 80
62 70 80
60 69 80
62 70 80
62 70 80
60 69 80
61 70 80
61 69 80
60 69 80
62 70 80
60 69 80
61 69 80
61 69 80
61 69 80
61 69 80
62 70 80
62 70 80
61 69 80
62 70 80
62 70 80
61 69 80
61 69 80
61 69 80
61 69 80
61 70 80
62 70 80
62 70 80
60 68 79
61 70 80
61 70 80
61 69 80
60 69 80
61 69 80
62 70 80
61 70 80
61 69 80
61 70 80
61 69 80
61 70 80
61 70 80
61 69 80
61 70 80
62 69 80
61 70 80
62 70 80
61 70 80
61 69 80
60 69 80
61 69 80
61 69 80
61 70 80
61 69 80
61 69 80
61 69 80
61 70 80
61 69 80
62 70 80
59 67 78
62 70 80
61 69 79
61 69 80
62 70 80
61 70 80
61 70 80
62 70 80
60 68 80
61 69 80
61 70 80
61 69 80
60 68 79
61 69 80
62 70 80
61 69 80
61 69 80
61 70 80
62 70 80
61 70 80
61 69 80
61 69 79
61 70 80
61 70 80
60 68 79
61 70 80
61 70 80
61 69 80
60 69 80
61 70 80
59 68 78
61 69 80
61 69 80
61 69 80
60 69 80
61 69 80
62 70 80
60 68 79
60 69 80
61 70 80
61 70 80
62 70 80
62 70 80
60 69 80
61 68 79
61 70 80
61 69 80
61 69 79
61 69 79
59 68 79
60 68 80
61 69 80
61 69 80
62 69 80
61 69 80
60 69 80
61 69 80
61 70 80
61 69 80
61 69 80
61 69 80
61 70 80
61 70 80
61 69 80
60 68 78
61 69 80
60 69 80
61 68 79
60 68 80
60 68 79
61 69 80
61 69 80
60 68 78
61 70 80
61 69 79
60 68 79
62 70 80
62 69 80
60 69 80
61 70 80
59 67 78
59 67 78
59 67 78
60 68 79
61 69 80
60 68 78
59 67 77
60 68 78
60 69 80
57 65 76
61 69 80
59 67 78
60 68 79
61 69 80
59 67 78
60 68 79
58 66 77
60 68 78
58 66 77
58 66 76
58 65 75
57 66 77
58 66 76
61 69 80
58 66 77
61 69 80
58 66 77
58 66 76
59 67 78
59 67 78
59 67 78
60 68 78
59 68 79
57 65 75
60 68 78
59 67 78
59 67 77
60 68 79
59 67 77
58 67 77
57 65 76
57 65 76
58 66 76
56 64 75
58 65 75
56 64 74
56 64 75
60 67 77
59 67 78
59 67 78
56 64 74
58 66 76
58 66 76
58 66 76
56 64 74
54 62 71
56 64 73
55 63 73
56 63 74
53 60 70
54 61 71
55 62 72
54 61 70
39 44 50
31 35 40
29 33 38
34 38 44
33 37 42
32 35 40
33 36 42
32 35 40
34 38 43
35 39 44
35 39 44
33 36 41
33 37 42
32 36 40
33 37 42
33 37 42
32 36 42
34 38 44
34 38 43
33 37 42
32 36 41
33 37 42
35 39 44
33 37 42
34 39 44
33 37 42
33 37 42
36 40 45
36 41 46
35 39 44
35 38 43
32 36 42
31 35 40
35 39 45
36 40 45
33 37 42
34 38 43
35 39 44
34 38 43
35 39 44
33 37 42
32 36 42
34 38 43
34 38 43
34 38 43
36 40 45
34 38 43
34 38 44
34 38 44
33 37 43
32 36 41
34 38 43
33 37 42
33 38 43
33 37 43
34 38 43
33 37 42
30 34 39
33 37 43
34 38 43
33 36 41
34 38 43
34 38 43
32 36 41
31 35 40
34 38 43
33 37 42
32 36 41
37 41 46
35 39 45
30 34 39
33 37 41
33 37 42
32 36 41
31 34 39
34 38 43
32 36 41
33 37 42
37 41 47
43 49 57
54 61 71
54 61 70
53 60 70
53 61 70
51 58 68
55 63 73
56 64 74
57 65 75
55 63 73
59 67 78
54 62 72
56 64 74
57 64 74
56 64 75
59 67 78
58 66 77
58 66 76
58 66 76
57 65 75
58 66 76
58 66 77
60 68 78
59 67 78
59 67 78
58 66 77
57 66 76
61 69 80
59 67 77
59 67 78
59 68 79
60 68 78
61 69 80
59 67 77
59 68 78
58 66 76
60 68 79
58 66 77
58 66 76
58 65 75
61 69 79
58 66 76
60 67 78
58 66 76
58 66 77
58 66 77
57 65 75
60 68 79
59 67 78
60 69 79
60 68 79
61 69 79
60 67 78
59 67 78
60 69 80
60 68 79
59 67 77
60 68 79
59 67 78
60 68 78
60 69 80
59 68 80
60 68 79
61 69 80
61 69 79
61 69 80
60 69 79
60 68 78
61 69 80
60 68 78
59 68 79
61 69 80
61 69 79
60 68 79
61 69 80
61 70 80
60 68 78
60 68 78
60 69 80
61 69 80
61 70 80
59 68 78
61 70 80
60 69 80
61 70 80
60 68 79
61 69 80
61 69 80
60 69 80
60 68 79
60 69 80
60 68 78
61 69 80
59 67 78
61 70 80
61 70 80
61 69 80
60 69 80
61 70 80
61 69 80
62 70 80
61 69 80
61 70 80
62 70 80
60 68 79
61 70 80
61 69 80
59 68 79
63 70 80
61 69 80
61 69 80
61 69 80
61 69 80
61 69 80
60 68 79
61 69 80
60 69 80
60 69 79
61 69 80
61 69 80
62 70 80
61 69 80
62 70 80
61 69 80
60 68 79
61 69 80
61 70 80
62 70 80
61 69 80
61 70 80
61 69 80
62 70 80
61 69 80
62 70 80
61 69 80
61 69 80
61 70 80
61 69 80
61 70 80
61 70 80
62 70 80
61 69 80
60 69 80
61 69 80
61 69 80
61 70 80
60 69 80
61 69 80
61 70 80
62 70 80
61 70 80
61 70 80
62 70 80
61 69 80
61 69 80
62 69 80
62 70 80
61 69 80
61 69 80
61 69 80
61 70 80
62 70 80
61 69 80
61 70 80
61 69 80
61 69 80
60 69 80
61 70 80
62 70 80
61 70 80
61 70 80
61 69 79
63 70 80
61 70 80
61 69 80
60 68 79
61 69 80
62 70 80
60 69 80
62 70 80
61 69 80
61 69 80
61 69 80
61 69 80
62 70 80
62 70 80
61 70 80
61 70 80
61 69 80
61 70 80
61 70 80
61 70 80
62 70 80
61 69 80
62 70 80
60 69 80
61 69 80
60 69 80
62 70 80
61 69 80
61 69 80
61 70 80
61 70 80
60 68 79
61 70 80
61 70 80
61 69 80
60 69 79
61 69 80
62 70 80
61 70 80
61 69 80
60 69 80
62 70 80
60 68 79
61 69 80
60 68 80
61 69 80
61 69 80
62 69 80
61 69 80
61 69 80
62 70 80
62 70 80
61 69 80
60 69 80
61 69 80
61 70 80
61 69 79
61 69 80
61 69 80
61 69 80
61 70 80
60 68 78
61 70 80
60 67 78
60 68 79
60 68 79
62 70 80
61 69 80
60 69 80
60 69 80
60 69 79
61 70 80
61 69 80
61 69 80
61 69 80
61 69 80
61 69 80
59 67 77
61 69 80
61 69 80
61 69 80
59 67 78
60 69 80
60 68 79
61 69 80
61 69 80
61 69 79
62 69 80
59 67 78
60 69 80
60 69 80
61 69 80
60 69 80
61 69 79
61 69 80
61 69 79
61 69 80
61 69 79
59 68 79
60 68 79
58 66 77
61 69 80
59 67 78
61 69 80
58 66 76
59 67 78
60 68 78
59 67 78
60 68 79
60 67 78
60 69 80
60 68 79
57 65 76
60 68 79
59 67 77
60 68 78
59 67 78
57 66 76
59 67 78
60 68 78
56 63 73
58 66 76
58 66 76
59 66 77
59 67 77
56 64 75
57 65 76
59 67 77
56 63 72
55 63 73
59 67 77
58 66 76
58 66 76
61 69 80
59 67 77
55 62 72
57 64 74
58 66 77
58 66 77
56 63 73
57 65 75
55 63 72
54 61 71
55 62 71
54 61 70
53 60 70
58 66 77
54 62 71
56 64 74
41 47 55
34 38 43
34 38 43
33 37 42
32 36 41
32 36 41
32 36 41
33 37 43
34 38 43
33 36 41
32 36 41
34 38 43
33 37 42
33 37 42
33 37 42
33 37 42
35 38 44
35 39 44
34 38 43
33 36 41
35 39 44
35 39 44
33 36 41
34 38 43
33 37 42
33 36 41
33 36 41
33 37 42
35 39 45
34 38 44
32 35 40
34 37 42
31 35 40
33 37 43
34 38 43
34 38 43
33 37 42
34 38 43
34 38 43
36 40 45
33 37 42
33 36 42
34 38 42
34 38 43
34 37 43
32 36 41
35 38 43
33 36 42
34 38 44
35 39 44
34 38 43
35 38 44
32 36 41
34 38 43
32 36 41
33 37 42
35 39 45
34 38 44
33 37 42
33 36 41
33 37 42
35 39 44
33 37 42
33 37 42
31 35 40
33 37 42
32 36 42
33 37 43
32 35 40
33 37 42
34 38 43
34 38 43
35 39 44
32 36 41
32 36 41
35 39 44
32 36 41
33 37 42
43 48 55
56 65 75
54 62 72
53 60 70
55 62 72
54 61 71
52 60 69
56 64 74
56 63 73
56 63 73
56 64 74
57 64 74
56 63 72
58 65 76
56 63 73
58 66 76
59 67 77
56 64 74
55 63 73
57 64 75
56 63 73
59 68 80
58 65 75
59 67 78
59 66 76
57 65 75
56 64 74
58 66 77
60 68 78
59 67 78
57 65 75
59 67 78
58 65 75
59 67 78
58 66 77
58 66 77
59 67 78
59 67 77
58 66 77
60 68 78
57 65 76
60 68 79
59 66 76
60 68 78
58 66 76
59 67 78
59 68 78
61 69 80
60 68 79
59 67 78
59 68 78
60 68 79
60 68 79
60 69 80
59 67 77
60 69 80
59 68 78
61 69 80
61 69 80
60 68 79
60 68 78
60 68 79
60 68 79
59 67 78
59 67 78
60 69 80
61 69 80
59 68 78
60 68 79
61 69 79
61 69 80
60 68 79
61 69 80
61 69 80
61 70 80
61 69 80
61 69 80
61 69 80
62 70 80
61 69 80
61 69 80
60 69 80
60 68 79
61 70 80
60 69 80
60 68 79
61 70 80
60 68 79
60 68 79
61 69 80
60 68 79
61 69 80
61 69 80
61 69 79
61 69 80
61 69 80
61 69 80
59 67 78
60 68 79
62 69 80
61 69 80
61 70 80
60 69 80
61 69 80
61 69 80
61 70 80
60 69 80
61 69 80
60 68 79
61 69 80
61 69 80
61 70 80
62 70 80
62 70 80
62 70 80
60 68 79
60 69 80
60 68 78
61 69 80
61 70 80
61 69 80
60 69 80
60 68 79
61 69 80
61 69 80
62 70 80
60 68 79
62 70 80
62 70 80
61 69 80
60 69 80
61 70 80
60 68 79
61 69 80
61 69 80
61 70 80
61 70 80
61 70 80
61 70 80
61 69 80
61 70 80
62 70 80
62 70 80
62 70 80
60 69 80
62 70 80
61 70 80
61 69 80
61 70 80
61 70 80
61 70 80
61 69 80
61 69 80
61 69 80
60 69 80
61 69 80
61 70 80
61 69 80
61 69 80
61 70 80
60 68 80
61 70 80
61 70 80
61 70 80
60 69 80
61 69 80
62 70 80
61 70 80
60 69 80
61 70 80
61 69 80
62 70 80
61 69 80
62 70 80
62 70 80
60 69 80
61 70 80
61 69 80
61 69 80
62 70 80
62 70 80
61 69 80
62 70 80
61 69 80
62 70 80
61 70 80
61 69 80
61 69 80
60 69 80
61 70 80
61 70 80
61 70 80
61 69 80
61 69 80
61 69 80
62 70 80
61 69 80
60 68 79
61 69 80
60 68 79
61 69 80
61 69 80
61 70 80
61 69 80
61 69 80
61 69 80
61 69 79
61 70 80
61 69 80
62 70 80
62 70 80
62 70 80
61 69 80
59 68 78
61 69 80
61 69 80
60 69 80
61 70 80
60 69 80
61 70 80
62 70 80
61 70 80
59 68 78
61 69 80
62 70 80
61 69 80
60 68 79
61 70 80
61 69 80
62 70 80
61 69 80
62 70 80
61 69 80
61 70 80
61 69 80
59 67 78
61 70 80
61 69 80
62 70 80
60 69 80
61 69 80
61 69 80
62 70 80
61 69 80
61 69 80
60 68 79
60 68 79
59 68 78
61 70 80
61 69 80
58 66 77
59 68 79
60 68 79
61 69 80
61 69 80
60 68 79
60 69 80
59 67 78
60 68 79
59 67 78
60 69 80
60 69 80
60 68 78
59 67 77
60 69 80
60 68 79
60 69 80
61 69 80
60 68 79
60 68 79
60 68 78
60 68 78
60 68 78
58 66 77
61 69 80
58 66 77
60 68 78
60 69 79
58 67 78
57 65 75
57 65 76
59 67 77
58 65 75
58 66 77
59 67 78
60 68 78
58 66 76
60 68 79
58 67 78
59 67 77
56 64 75
57 65 75
60 68 78
60 68 78
59 67 77
59 68 79
59 68 78
59 67 78
62 69 80
60 68 78
57 65 76
57 65 75
58 66 76
56 64 74
60 68 78
58 66 76
59 67 78
59 67 77
56 63 73
56 64 73
58 65 75
58 66 75
56 63 74
59 66 77
59 67 77
57 65 74
55 62 72
58 66 76
55 62 72
54 61 70
56 63 73
54 62 72
48 54 63
38 42 48
35 39 44
32 36 40
32 36 40
33 37 42
34 38 43
32 36 41
33 37 42
34 38 43
33 37 41
32 36 41
32 35 40
35 39 44
34 38 43
33 37 42
33 37 42
35 39 45
35 38 44
32 36 41
33 36 41
33 37 42
34 38 43
33 37 42
34 39 44
35 38 44
33 37 42
35 39 45
33 36 41
34 38 43
34 38 43
35 38 44
35 38 43
34 38 43
33 37 42
36 40 45
33 36 41
35 39 44
35 40 45
35 39 45
36 40 45
34 38 44
36 40 46
35 39 45
35 39 44
33 37 42
32 36 41
32 36 41
32 36 41
35 39 44
33 37 42
35 39 44
33 37 42
31 35 40
33 37 43
32 35 40
33 37 43
32 36 41
32 36 41
32 36 41
34 38 43
35 38 43
33 37 42
34 38 44
33 37 42
34 38 43
34 38 43
31 34 39
34 37 42
34 38 43
31 35 40
35 39 44
33 37 41
31 34 39
32 36 42
32 36 40
34 37 42
40 45 51
50 57 66
55 62 72
53 60 69
54 61 71
53 61 71
54 61 70
52 60 69
58 65 76
56 64 74
56 64 74
56 64 74
58 66 75
60 67 78
55 62 72
56 64 73
56 64 75
58 66 76
57 65 76
59 67 77
56 64 74
58 66 76
58 66 75
58 65 76
57 65 75
59 67 78
59 66 76
57 65 75
60 68 79
56 64 74
59 68 78
59 68 78
58 66 77
61 69 80
57 66 77
60 68 78
60 68 79
58 65 75
56 64 74
57 65 75
59 67 78
59 67 78
58 66 77
59 68 78
60 68 78
60 68 78
59 67 77
59 68 78
57 65 76
60 68 78
59 67 78
57 65 75
60 67 78
61 69 79
61 69 79
61 69 80
59 67 78
61 69 79
58 66 76
58 66 77
60 68 79
61 70 80
61 69 80
61 69 80
62 70 80
60 69 79
61 69 80
60 69 80
61 69 80
60 68 79
60 68 79
61 69 80
61 69 80
62 70 80
60 69 80
61 69 80
62 70 80
60 69 80
61 69 80
60 68 79
61 69 80
61 69 80
61 69 80
61 69 80
60 68 79
59 67 78
60 69 80
60 69 80
61 70 80
62 69 80
60 69 80
61 70 80
61 70 80
60 69 80
61 69 80
61 69 80
59 68 78
61 69 80
59 68 78
61 69 80
61 70 80
62 70 80
60 69 80
61 70 80
62 70 80
61 69 80
61 69 80
59 67 77
61 69 80
61 69 80
61 70 80
62 70 80
61 69 80
61 69 80
61 70 80
61 69 80
61 70 80
60 69 80
62 70 80
61 69 79
62 70 80
61 69 80
61 69 80
61 70 80
60 68 79
62 70 80
61 69 80
62 70 80
62 70 80
62 70 80
61 69 80
62 70 80
61 70 80
61 70 80
60 69 80
61 69 80
62 70 80
61 69 80
60 69 80
61 70 80
61 70 80
61 69 80
61 69 80
62 70 80
60 69 80
61 69 80
61 69 80
61 69 80
62 69 80
61 69 80
62 70 80
61 70 80
61 69 80
60 69 80
61 70 80
61 69 80
62 70 80
61 69 80
61 69 80
62 70 80
62 70 80
61 69 80
62 70 80
62 70 80
61 69 80
61 69 80
61 69 80
61 70 80
62 70 80
61 69 80
61 70 80
62 70 80
60 69 80
62 70 80
61 70 80
61 69 80
62 70 80
60 68 79
61 69 80
62 70 80
62 70 80
61 69 80
62 69 80
61 69 80
61 70 80
61 70 80
62 69 80
60 68 79
61 69 80
61 69 80
61 70 80
61 69 80
62 70 80
61 69 80
60 69 80
62 70 80
60 69 80
61 69 80
59 68 79
60 68 79
62 70 80
60 69 80
62 70 80
60 68 79
61 70 80
61 69 80
62 70 80
62 70 80
61 69 80
61 69 80
61 69 80
61 69 80
59 67 78
61 70 80
61 69 80
60 68 79
60 69 80
61 70 80
61 69 80
61 69 80
61 69 80
61 70 80
61 69 80
60 69 80
60 68 78
61 69 80
60 68 79
61 70 80
61 69 80
60 69 80
62 70 80
61 69 80
61 69 79
61 69 80
60 69 80
61 70 80
61 69 80
60 69 80
62 70 80
61 69 80
60 69 80
60 69 79
60 68 79
59 67 78
60 69 80
61 70 80
61 69 80
61 69 80
61 70 80
59 67 78
60 67 78
59 68 80
60 69 80
61 69 80
60 68 79
62 70 80
59 67 78
60 69 80
61 69 80
61 69 79
59 68 78
61 69 80
61 69 80
61 69 79
58 66 77
60 69 80
60 68 79
60 69 80
61 69 79
60 68 79
59 68 79
62 69 80
59 67 77
60 68 79
60 68 79
58 66 77
61 69 80
62 70 80
59 67 78
58 66 77
58 66 76
60 68 79
58 67 78
61 69 80
60 68 79
60 68 79
58 66 77
59 67 78
61 69 80
60 68 79
60 68 78
60 68 79
58 66 76
58 66 77
58 66 77
59 67 77
58 65 75
60 68 78
59 67 77
57 65 75
60 68 79
60 68 78
58 66 76
58 66 77
54 62 72
55 63 74
55 63 72
55 63 74
56 64 74
55 63 73
58 65 76
58 66 76
53 60 69
59 66 76
58 66 76
58 67 78
56 64 74
55 62 72
54 61 71
56 63 72
55 62 71
51 59 68
48 55 64
48 55 64
46 52 61
42 47 54
43 49 56
34 38 43
34 38 43
32 36 41
33 37 42
34 38 43
33 36 41
32 36 41
32 35 40
35 40 45
33 37 42
34 38 43
32 36 41
35 39 45
35 39 44
35 39 44
35 38 44
33 37 42
34 38 43
33 37 42
35 39 44
33 37 42
32 36 41
32 36 41
32 36 41
35 39 45
34 38 43
34 38 43
35 39 44
33 37 42
33 37 42
33 37 42
33 37 42
34 38 43
34 38 43
34 38 43
34 38 43
32 36 41
34 38 43
34 38 43
36 40 45
33 37 42
34 38 44
32 35 40
34 38 43
33 37 42
33 37 42
34 38 43
33 36 41
33 37 42
32 36 40
34 38 43
32 36 41
34 38 43
35 39 44
34 38 43
32 36 41
32 36 41
32 35 40
33 37 42
33 37 42
35 38 44
31 35 40
32 36 41
33 37 42
35 38 44
32 36 42
34 37 42
32 35 40
32 35 40
29 33 37
31 34 39
37 41 47
43 48 55
46 52 59
46 52 61
52 59 69
55 62 72
57 64 74
56 63 73
53 60 69
58 65 75
56 63 73
57 65 75
57 65 75
56 64 73
57 65 76
56 64 74
59 67 77
58 66 76
55 62 72
55 62 72
55 62 72
59 67 77
57 65 76
57 65 75
55 62 72
57 64 75
58 66 77
58 66 76
58 66 76
60 68 78
61 69 80
55 63 73
60 67 78
59 66 77
56 64 74
57 65 75
58 67 78
58 66 76
59 67 77
59 67 78
58 66 77
60 67 78
59 67 78
58 66 76
60 68 79
58 66 77
58 66 76
60 68 78
60 68 78
59 67 78
59 66 76
61 69 80
59 67 78
60 68 79
60 67 78
60 68 79
59 67 78
60 68 79
61 69 79
60 68 78
59 67 78
60 68 79
61 69 80
61 69 80
60 68 79
60 69 80
59 67 77
60 68 79
59 68 79
60 68 79
59 68 79
59 68 78
60 68 78
60 69 80
61 69 80
61 69 80
61 70 80
60 68 78
61 69 79
60 68 78
59 67 78
61 69 80
60 68 79
61 69 80
58 66 78
60 69 80
61 69 80
61 69 80
62 70 80
61 69 80
61 69 80
61 69 80
61 69 80
62 70 80
61 70 80
61 69 80
60 69 80
61 69 80
62 70 80
62 70 80
61 70 80
60 69 80
61 69 80
61 70 80
61 69 80
61 70 80
60 69 80
62 70 80
61 69 80
60 69 80
62 70 80
59 67 77
61 69 80
62 70 80
61 69 80
60 69 80
62 70 80
60 68 79
60 69 80
62 70 80
62 70 80
62 70 80
61 69 80
62 70 80
62 70 80
62 70 80
62 70 80
61 69 80
61 69 80
61 70 80
61 70 80
61 70 80
61 69 80
60 68 79
60 69 80
60 69 80
61 70 80
61 70 80
62 70 80
61 69 80
61 69 80
62 70 80
61 70 80
60 69 80
60 69 80
61 70 80
61 70 80
62 69 80
61 70 80
61 70 80
60 69 80
61 69 80
61 69 80
62 70 80
61 69 80
61 70 80
60 69 80
62 70 80
62 70 80
60 68 79
62 70 80
61 69 80
61 69 80
60 69 80
61 69 80
61 69 80
61 69 80
61 69 80
61 69 80
62 70 80
62 70 80
61 69 80
61 70 80
60 69 80
62 70 80
62 70 80
61 70 80
61 69 80
61 69 80
61 70 80
61 69 80
61 70 80
61 69 80
61 70 80
61 70 80
61 70 80
61 70 80
61 69 80
62 70 80
61 69 80
61 69 80
61 69 80
61 69 80
61 69 80
60 68 79
61 69 80
61 69 80
61 69 80
61 69 80
62 70 80
61 70 80
62 70 80
61 70 80
60 69 80
60 69 80
61 69 80
61 69 79
61 69 80
61 70 80
62 70 80
61 70 80
61 69 80
61 69 80
61 69 80
62 70 80
61 70 80
62 70 80
62 70 80
60 68 78
61 69 79
60 69 80
60 69 80
60 68 79
61 70 80
61 69 79
61 69 80
61 69 80
61 70 80
61 69 80
62 70 80
61 69 80
61 69 80
61 69 80
61 69 80
61 69 80
61 69 80
61 69 80
59 68 79
60 68 78
61 70 80
61 69 80
62 70 80
60 68 78
60 68 79
60 69 80
61 69 80
61 70 80
61 70 80
60 68 80
61 69 80
59 67 78
61 69 80
60 68 79
60 69 79
60 68 79
60 67 78
60 69 80
61 69 80
61 69 80
60 68 79
61 69 79
61 69 79
60 68 79
61 69 80
59 67 78
59 67 78
61 69 80
58 66 76
60 68 79
61 69 80
59 67 78
61 69 80
58 66 77
59 67 77
61 69 80
60 69 80
60 68 78
61 69 79
60 68 79
60 68 78
60 68 79
60 68 78
60 68 79
58 66 76
60 68 79
59 67 78
60 67 77
58 66 76
61 69 79
58 66 76
58 67 78
57 65 75
61 69 80
59 67 78
59 67 78
59 67 78
58 67 78
56 64 75
57 65 75
57 65 76
56 63 74
58 65 76
59 67 78
58 66 76
59 67 78
58 65 74
56 64 73
58 66 76
58 66 75
54 62 72
55 62 72
58 66 76
58 65 75
58 66 77
55 63 73
53 61 71
59 67 77
56 64 75
57 65 76
56 64 74
55 63 73
54 62 71
56 64 74
52 59 68
54 62 72
49 56 64
48 55 64
46 52 61
50 56 65
46 51 59
34 38 43
34 37 43
34 38 43
31 34 39
33 37 42
32 36 40
34 38 43
34 38 43
34 38 43
32 35 40
34 38 43
32 36 41
34 37 42
33 37 42
31 35 40
32 36 41
34 38 43
33 38 43
33 37 42
32 36 40
33 37 43
32 36 40
34 38 43
34 38 43
32 36 41
34 38 43
33 37 42
35 39 44
34 38 43
34 38 44
35 39 45
33 37 42
33 37 42
35 39 45
34 39 44
35 38 43
34 38 43
35 38 43
33 36 42
31 35 40
33 37 43
32 36 42
34 39 44
35 40 45
32 36 41
35 40 45
34 38 44
34 38 43
34 38 43
36 39 45
35 38 44
32 36 41
32 36 41
32 36 41
36 40 45
33 37 42
33 37 42
34 38 43
32 36 41
32 36 41
33 37 42
32 36 41
34 38 44
34 37 42
32 36 41
30 33 38
32 36 41
32 35 40
32 35 39
47 53 62
46 52 60
51 57 66
51 58 67
54 61 70
49 56 64
53 60 69
54 61 70
54 61 70
57 64 74
53 60 70
55 63 73
55 63 73
54 62 72
55 63 72
54 61 71
57 65 75
57 65 75
58 66 76
57 64 74
58 66 77
57 65 75
58 66 76
59 67 77
55 63 72
57 65 75
57 66 76
57 65 75
58 66 77
58 66 77
58 66 76
59 67 77
60 68 79
58 66 76
57 65 75
57 65 75
59 68 78
55 63 73
59 67 78
62 70 80
60 67 77
60 68 78
60 68 79
60 69 80
60 68 79
60 68 79
58 65 76
60 68 80
60 68 78
60 68 79
60 68 79
59 68 78
59 67 78
61 69 79
59 66 77
62 70 80
60 68 79
59 67 77
60 68 78
61 69 80
61 69 79
59 67 78
60 68 79
61 69 80
60 68 78
59 67 78
60 67 78
61 70 80
59 68 78
61 69 80
59 67 78
61 69 80
59 67 78
61 69 80
59 67 78
61 70 80
59 68 78
60 68 79
59 68 78
60 68 79
61 69 80
61 69 80
59 67 78
60 69 80
61 70 80
61 70 80
61 69 80
61 70 80
59 68 78
61 69 80
60 68 79
60 69 80
59 68 79
61 69 79
61 70 80
61 70 80
60 68 79
61 69 80
61 70 80
59 68 79
61 69 80
61 69 80
61 70 80
61 70 80
62 70 80
60 68 79
60 68 78
61 70 80
61 70 80
61 70 80
61 69 80
61 69 80
61 69 80
61 69 80
61 70 80
60 69 80
62 70 80
61 70 80
60 69 80
62 69 80
61 69 80
61 70 80
62 70 80
61 70 80
61 69 80
61 69 80
60 69 80
61 70 80
62 70 80
60 69 80
62 70 80
61 69 80
61 70 80
61 69 80
61 69 80
61 70 80
61 70 80
61 70 80
61 69 80
61 70 80
61 70 80
61 69 80
62 70 80
61 69 80
61 69 80
61 69 80
61 69 80
62 70 80
61 69 80
61 69 80
61 69 80
62 70 80
61 70 80
61 70 80
61 69 80
61 69 80
62 70 80
61 70 80
61 70 80
61 69 80
61 69 80
61 69 80
61 69 80
61 69 80
61 69 80
62 70 80
61 70 80
61 70 80
61 70 80
61 69 80
62 70 80
61 70 80
62 70 80
61 70 80
61 69 80
61 70 80
61 70 80
61 70 80
61 70 80
61 69 80
60 69 80
61 69 80
60 69 80
61 70 80
61 69 80
61 69 80
61 69 80
61 69 80
61 69 80
61 69 80
61 70 80
62 70 80
61 69 80
61 70 80
62 70 80
61 69 80
62 70 80
60 69 80
61 69 80
61 69 80
60 69 79
61 70 80
61 70 80
61 70 80
61 69 80
60 69 80
62 70 80
60 69 80
61 70 80
62 70 80
61 69 80
61 70 80
61 70 80
60 68 78
60 69 80
61 69 80
61 69 80
60 68 79
61 69 80
61 69 80
61 70 80
61 69 80
62 70 80
62 70 80
61 69 80
61 69 80
62 70 80
62 70 80
60 68 78
61 70 80
61 70 80
61 69 80
60 68 79
60 68 79
60 68 79
61 69 80
62 70 80
59 67 78
61 69 80
61 69 80
61 69 80
61 69 80
61 69 80
60 68 80
61 69 80
61 69 79
62 69 80
60 68 79
61 69 80
59 67 78
61 69 80
61 69 80
60 68 79
61 69 80
61 70 80
60 69 80
61 70 80
60 68 79
60 68 79
60 69 80
59 67 78
61 69 80
59 67 78
61 69 80
62 70 80
60 68 78
60 68 78
59 67 77
59 68 78
59 67 78
60 68 79
58 66 77
60 69 80
60 67 78
61 69 79
59 67 78
60 68 79
58 66 77
60 68 79
58 66 77
59 67 78
59 67 78
57 65 76
59 68 79
58 66 76
58 66 77
58 66 76
59 67 77
58 66 76
59 67 77
59 67 77
57 65 75
59 68 78
60 68 78
58 66 77
58 66 76
59 67 77
57 65 75
57 65 75
59 67 78
58 66 76
60 68 78
59 67 77
59 67 77
56 65 75
57 64 74
57 65 75
58 66 77
60 67 78
54 62 71
59 67 77
56 63 73
59 68 78
56 63 73
54 61 71
55 63 72
56 64 73
59 66 76
54 61 71
54 61 71
53 61 70
52 60 69
53 60 69
50 57 66
52 59 68
51 58 66
51 59 68
49 56 65
46 52 60
48 54 62
47 53 61
47 53 62
46 52 60
30 34 38
35 39 44
32 36 41
30 33 38
33 37 42
32 36 41
32 36 41
34 38 43
33 37 42
32 36 41
34 37 43
33 37 42
35 39 45
34 38 43
35 39 44
33 37 43
34 38 43
34 38 43
35 39 44
34 38 43
33 36 42
33 37 42
35 39 44
31 35 41
34 38 44
34 38 44
36 40 45
34 38 43
34 38 43
34 38 42
34 37 42
32 36 41
36 40 45
33 37 42
33 37 42
34 38 44
35 39 45
33 37 41
35 38 44
35 39 44
35 39 44
34 37 43
33 36 41
34 38 43
35 39 44
34 38 43
33 36 41
35 39 44
33 37 42
32 36 41
34 37 42
32 35 40
31 35 40
33 37 43
34 37 42
31 35 39
33 37 43
35 39 44
34 38 43
31 35 39
35 39 44
34 37 42
34 38 43
34 38 43
34 38 43
40 45 52
47 54 62
47 54 62
47 54 62
53 60 69
48 55 64
49 56 65
51 58 67
53 60 69
51 58 67
52 59 68
55 63 73
56 63 72
54 62 72
56 63 73
56 64 74
59 67 77
60 68 78
56 63 72
54 62 71
56 64 75
56 63 73
61 69 80
56 64 74
57 65 75
55 62 72
56 64 74
59 67 78
57 65 75
60 67 78
59 67 77
57 65 75
60 68 78
56 64 75
60 68 78
60 68 79
58 66 75
57 65 75
60 69 80
60 68 79
58 66 76
60 68 78
61 69 80
60 68 78
57 65 76
57 65 75
59 67 78
59 67 77
60 68 78
60 68 79
59 67 78
60 68 79
57 66 76
61 69 80
60 68 79
58 66 76
60 69 80
60 68 79
60 68 78
59 68 79
60 69 79
60 69 80
61 69 79
59 68 80
60 68 79
60 68 79
59 67 78
61 69 80
61 69 80
58 66 77
61 69 79
60 68 79
62 70 80
61 69 80
61 69 79
61 69 80
62 70 80
60 69 80
60 69 79
61 69 80
60 68 79
61 69 79
60 69 80
61 69 80
62 70 80
61 69 79
60 68 79
60 68 79
61 69 80
61 69 80
60 68 78
61 69 80
61 69 80
61 69 80
62 69 80
61 69 80
61 69 80
60 69 80
61 69 80
60 69 80
60 69 80
61 69 80
61 69 80
60 68 79
61 69 80
60 68 78
61 69 80
61 69 79
61 69 80
61 69 80
61 69 80
60 69 80
61 69 80
61 70 80
61 69 80
62 69 80
61 70 80
61 69 80
61 69 80
61 69 80
61 69 80
61 70 80
60 69 80
61 70 80
61 70 80
61 70 80
61 69 80
61 69 79
61 70 80
61 69 79
61 69 80
61 69 80
60 69 80
62 70 80
61 69 80
60 69 80
61 69 80
60 69 79
61 70 80
62 70 80
60 69 80
61 70 80
62 70 80
61 70 80
61 69 80
61 70 80
61 70 80
62 70 80
62 70 80
61 69 80
61 69 80
62 70 80
60 69 80
62 70 80
60 68 78
61 69 80
61 69 80
61 69 80
61 70 80
60 68 79
62 70 80
62 70 80
61 70 80
62 70 80
61 69 80
62 70 80
61 69 80
61 70 80
61 70 80
60 68 80
62 70 80
61 69 80
61 69 80
62 70 80
62 70 80
62 70 80
60 69 80
62 70 80
61 69 80
61 69 80
60 69 80
61 70 80
62 70 80
61 70 80
61 70 80
62 70 80
62 70 80
62 70 80
61 69 80
61 70 80
61 69 80
61 70 80
61 69 80
61 70 80
61 69 80
60 68 79
60 69 80
61 69 80
61 69 80
61 69 80
62 70 80
61 70 80
61 69 80
62 70 80
61 70 80
61 70 80
60 69 80
61 69 80
62 70 80
61 69 80
61 69 80
61 69 80
61 70 80
61 69 80
61 69 80
61 69 80
61 70 80
60 69 80
61 69 80
60 69 80
61 70 80
61 69 80
61 69 80
61 69 79
62 70 80
61 70 80
61 70 80
60 68 78
60 69 80
61 69 80
61 69 80
61 69 79
61 69 80
62 70 80
60 68 79
60 69 80
60 68 78
61 69 80
61 69 79
62 69 80
60 68 79
61 69 80
60 68 78
61 69 80
61 69 79
60 68 79
60 68 78
62 70 80
61 69 80
58 66 77
61 69 80
60 68 78
61 70 80
60 68 79
61 69 80
61 70 80
61 70 80
59 68 79
61 69 80
61 70 80
60 69 80
61 69 79
61 69 79
61 70 80
60 68 79
61 69 80
59 67 78
60 68 78
60 68 78
59 66 75
61 69 80
61 69 80
61 69 80
59 66 76
60 68 79
60 68 79
60 68 79
59 67 78
60 69 80
59 68 78
60 68 78
60 69 80
60 68 78
61 69 80
61 69 79
59 66 76
59 67 78
59 66 77
59 67 78
60 68 79
59 67 77
59 66 76
55 63 73
59 67 76
59 67 77
56 64 75
58 66 77
59 68 78
60 68 79
59 67 78
57 65 75
60 68 78
58 67 77
59 67 77
59 67 77
59 66 76
58 66 78
59 67 78
59 68 78
58 66 77
58 66 76
56 63 73
56 63 73
57 65 75
53 60 70
56 64 74
56 64 74
60 68 78
56 64 74
58 66 76
53 60 70
57 64 74
54 61 71
57 64 74
53 61 70
57 64 74
52 59 68
51 57 66
54 61 70
49 55 64
52 59 68
48 55 63
52 58 67
42 48 56
47 53 61
39 44 51
42 48 55
34 37 42
33 37 42
33 37 42
31 35 40
31 34 39
34 38 43
32 36 40
32 35 40
34 38 43
33 36 41
36 40 45
33 37 42
36 39 44
33 36 41
35 39 43
33 37 42
32 36 41
34 38 43
33 36 41
35 39 44
32 36 41
34 38 43
33 37 42
32 36 40
33 37 42
33 36 41
33 37 42
32 36 42
35 39 44
32 36 41
33 37 42
35 38 44
34 38 43
35 39 45
35 39 44
34 38 43
35 39 45
34 38 43
34 38 43
36 40 45
33 36 42
36 39 45
35 39 44
35 39 44
33 37 42
33 37 42
34 38 44
33 36 42
36 40 45
33 36 41
32 36 41
34 37 43
30 33 38
33 37 42
34 38 43
33 37 42
34 37 42
33 36 41
31 35 39
32 35 40
32 36 41
40 45 52
44 50 57
48 54 62
46 52 60
44 50 58
48 55 63
50 57 65
47 53 60
50 57 67
52 59 69
50 57 65
55 63 73
54 62 72
55 62 72
52 59 69
56 63 73
55 63 73
53 60 69
53 61 70
55 62 73
56 64 74
58 65 76
57 65 76
59 67 77
58 66 76
59 67 78
56 63 73
58 66 76
59 68 78
59 66 77
57 65 75
60 67 78
58 66 76
60 68 78
59 68 78
58 65 75
59 66 76
58 66 76
57 65 75
61 69 80
58 66 77
58 66 76
56 64 75
58 66 77
59 67 78
58 66 76
59 67 78
60 67 78
61 69 80
61 69 80
60 68 78
62 70 80
59 67 78
60 68 79
60 68 79
59 68 78
60 68 79
60 69 80
58 66 76
61 69 80
60 68 79
61 69 79
58 66 77
61 69 80
60 68 78
60 68 79
61 70 80
60 68 79
59 67 78
59 68 78
61 69 80
61 70 80
61 69 80
60 68 79
61 69 80
61 69 80
59 67 77
60 68 79
61 69 80
58 67 77
59 67 78
61 69 80
60 68 79
60 69 80
60 69 80
60 67 78
62 70 80
61 69 80
61 69 80
60 68 79
61 69 80
61 69 80
59 67 78
61 69 79
61 69 79
61 69 80
61 70 80
60 69 80
62 70 80
60 68 79
61 69 80
62 70 80
62 69 80
61 69 80
61 70 80
61 69 80
61 70 80
61 69 80
61 69 80
61 69 80
61 69 80
61 70 80
61 69 80
61 69 80
61 69 80
60 68 79
62 70 80
61 69 80
61 70 80
61 69 80
62 69 80
60 69 79
61 70 80
61 69 79
61 70 80
61 70 80
60 69 80
61 70 80
62 70 80
60 68 79
61 69 80
61 69 80
61 69 80
61 70 80
61 69 80
61 69 80
61 69 80
61 69 80
63 71 80
61 69 80
62 70 80
61 69 80
62 70 80
62 70 80
61 69 80
61 70 80
60 69 79
61 69 80
62 70 80
60 68 79
61 69 80
61 70 80
61 70 80
61 70 80
61 70 80
61 69 80
60 69 80
61 69 80
61 69 80
62 70 80
62 70 80
61 69 80
62 70 80
60 69 80
60 69 80
61 70 80
60 69 80
61 69 80
61 69 80
61 69 79
60 69 80
61 70 80
61 70 80
61 69 80
62 70 80
61 69 80
60 68 79
61 69 80
61 69 80
61 69 80
61 69 80
61 70 80
61 69 80
61 69 80
62 70 80
60 69 80
61 69 80
62 70 80
61 70 80
61 69 80
61 69 80
61 69 80
62 70 80
61 69 80
61 70 80
62 70 80
61 70 80
61 70 80
61 69 80
61 70 80
60 69 80
61 69 80
61 70 80
60 68 79
61 69 80
62 70 80
61 69 80
62 70 80
61 69 80
61 70 80
61 70 80
61 70 80
61 69 80
61 69 80
61 69 79
62 70 80
61 69 80
61 69 80
60 68 79
62 70 80
61 69 80
60 68 80
61 69 79
61 70 80
60 68 79
59 67 78
61 69 80
62 70 80
61 69 80
59 67 78
60 69 80
61 69 80
59 67 78
61 69 80
61 69 80
60 68 79
60 68 80
60 68 80
61 69 80
62 70 80
61 69 80
61 69 80
61 69 80
61 69 80
61 69 80
61 69 80
61 69 80
62 70 80
60 69 80
60 69 80
60 69 80
60 68 78
58 67 77
60 68 78
60 68 79
61 70 80
60 68 79
61 69 79
60 69 80
61 69 80
59 67 78
61 69 80
61 69 80
60 68 79
59 67 78
61 69 80
60 68 78
62 70 80
60 69 80
60 67 77
60 68 79
61 69 79
60 68 79
59 67 78
61 69 80
59 67 78
60 68 78
60 69 80
62 69 80
61 69 79
61 70 80
61 69 80
60 68 79
60 68 79
59 68 79
58 66 76
60 68 79
59 67 78
58 66 77
59 68 78
60 69 79
61 69 80
58 66 76
59 68 78
59 67 77
60 68 79
57 65 75
57 65 76
57 65 75
59 67 78
59 67 78
58 65 75
58 66 76
59 67 77
58 66 76
59 66 76
57 65 75
55 63 74
55 63 72
58 66 76
60 68 78
58 66 76
58 66 76
57 65 76
55 62 72
54 61 70
57 65 75
56 63 74
56 64 74
54 62 71
57 65 75
54 61 72
57 65 75
52 59 68
54 61 71
54 61 70
57 65 75
51 58 67
50 56 64
52 59 67
51 57 66
49 56 64
48 55 64
51 58 67
47 54 62
46 52 60
52 59 69
48 55 63
51 57 66
45 51 58
35 39 44
35 38 43
32 36 40
34 37 43
31 34 39
35 39 44
33 36 42
32 36 40
34 38 43
34 38 43
31 35 39
33 37 42
35 39 44
33 37 42
34 38 44
33 37 42
34 38 43
34 38 44
34 38 43
35 38 43
33 37 42
34 38 43
33 37 42
33 37 43
34 38 43
34 38 43
35 39 44
33 37 42
33 37 42
36 40 45
33 37 42
35 39 44
35 39 45
34 38 43
34 38 43
33 37 42
32 36 41
34 38 43
32 36 41
31 35 40
33 37 42
36 40 45
32 35 40
35 39 44
32 36 41
34 38 44
34 38 43
35 40 45
31 34 39
34 37 42
31 35 39
31 35 41
34 38 43
32 36 41
32 36 41
35 39 45
33 37 42
33 36 41
38 42 48
41 46 53
45 52 60
49 55 63
46 52 60
47 53 61
47 54 62
51 58 67
48 55 64
53 60 70
52 59 68
52 59 68
52 59 68
55 62 72
51 58 68
51 58 66
56 64 74
58 65 75
56 63 73
56 64 74
53 61 70
56 64 74
52 59 68
57 65 75
56 63 73
54 62 72
56 63 73
57 65 75
59 66 76
57 66 77
57 64 75
58 66 77
56 63 73
57 65 75
56 64 74
58 66 76
60 68 79
58 66 77
59 68 79
59 66 76
60 68 78
59 67 77
59 67 78
59 67 77
59 67 78
62 70 80
59 68 78
59 67 78
58 66 76
60 68 79
59 66 76
60 68 78
60 68 78
60 67 78
60 68 79
58 66 77
59 67 78
59 67 78
60 68 78
58 66 77
61 69 79
59 67 78
60 68 79
60 68 78
60 68 78
60 68 78
61 69 80
59 68 79
60 68 79
61 69 80
60 68 79
61 69 80
61 69 80
60 68 78
62 70 80
61 69 80
61 69 80
60 69 80
61 69 79
59 67 78
61 69 80
60 69 80
61 69 80
59 67 78
61 69 80
60 68 78
60 68 79
60 69 79
59 67 78
61 69 80
61 69 79
60 69 80
61 69 80
61 69 80
59 67 78
60 69 80
61 69 80
62 70 80
61 70 80
61 69 80
61 70 80
60 68 79
60 68 79
60 68 79
61 70 80
59 68 78
60 68 80
60 68 79
62 70 80
61 69 80
60 69 80
60 68 79
61 70 80
61 69 80
61 70 80
60 68 79
61 69 80
60 69 80
61 69 80
61 69 80
60 68 79
61 70 80
62 70 80
60 69 80
61 69 80
61 70 80
60 68 79
61 70 80
61 70 80
61 69 80
61 69 80
61 70 80
61 69 80
62 70 80
61 70 80
61 69 80
61 69 80
62 69 80
61 70 80
61 69 80
61 69 80
60 68 79
61 69 80
60 69 80
61 69 80
61 70 80
61 70 80
62 70 80
61 69 80
60 69 80
61 69 80
61 69 80
62 70 80
62 70 80
62 70 80
61 70 80
61 70 80
61 70 80
62 70 80
60 68 79
62 70 80
61 69 80
61 69 80
61 70 80
61 69 80
62 70 80
61 70 80
61 69 80
61 70 80
62 70 80
61 70 80
61 69 80
60 69 79
61 69 80
62 70 80
61 69 80
61 70 80
62 70 80
61 70 80
61 69 80
61 70 80
61 69 80
60 69 80
61 70 80
61 69 80
61 69 80
61 70 80
61 69 80
61 69 80
61 69 80
61 69 80
61 69 80
61 70 80
61 69 80
60 69 80
62 70 80
60 69 80
61 70 80
62 69 80
60 68 79
60 69 80
62 70 80
61 69 79
61 69 80
62 70 80
61 69 80
62 70 80
61 69 80
61 69 80
62 69 80
62 70 80
60 68 79
61 69 80
61 69 80
61 70 80
62 70 80
61 69 80
61 70 80
60 68 78
60 69 80
61 69 80
60 68 79
62 70 80
61 70 80
62 70 80
61 70 80
61 69 80
60 69 80
62 70 80
61 70 80
61 69 80
61 69 79
62 70 80
61 70 80
61 69 80
60 69 80
61 69 80
60 69 80
60 68 79
60 68 79
61 69 79
61 69 80
60 69 80
62 70 80
61 69 80
61 69 80
60 68 79
60 68 79
60 69 80
61 69 80
61 69 80
61 69 80
61 69 80
61 69 80
61 70 80
60 68 78
60 68 79
61 70 80
61 69 80
60 68 79
60 68 79
60 69 80
61 69 80
60 68 79
58 66 77
60 68 79
60 68 79
61 69 80
60 69 80
60 68 79
61 69 80
59 67 78
60 69 80
60 68 79
61 69 79
59 67 78
60 68 78
60 68 78
59 67 78
60 69 80
59 68 78
60 68 78
60 68 79
60 68 79
60 68 78
60 68 78
57 66 76
60 68 78
60 68 80
59 68 79
59 68 78
58 66 77
58 66 76
58 66 77
60 68 78
59 67 78
59 67 77
60 67 77
60 68 79
59 67 78
58 65 75
55 63 74
56 65 75
57 64 75
60 68 78
57 64 74
59 66 76
57 65 76
55 63 72
56 64 74
58 66 76
57 65 76
59 67 78
56 64 74
57 65 75
57 64 74
56 63 73
58 65 75
57 65 75
57 64 74
56 64 74
58 65 75
57 64 75
56 63 73
54 62 71
53 60 70
58 65 75
52 59 68
55 62 72
52 60 69
52 59 68
53 60 69
54 61 71
52 59 68
46 52 60
47 54 62
46 53 61
45 51 59
51 58 68
54 61 70
47 53 62
47 53 62
49 55 63
40 45 51
33 37 42
32 36 41
33 37 43
31 35 39
33 36 41
32 36 41
33 37 42
36 40 45
35 39 44
35 39 44
33 37 42
32 36 41
32 36 40
35 39 44
34 38 43
36 40 46
33 37 42
31 35 41
34 38 43
35 38 43
34 38 44
32 36 41
32 36 41
35 39 44
35 39 44
36 39 45
34 38 43
34 38 43
34 38 43
31 35 39
33 37 42
33 37 43
32 35 40
36 40 45
35 38 43
31 35 40
32 36 42
32 35 40
35 38 44
32 36 41
32 35 40
35 39 44
33 36 41
36 40 45
32 36 41
35 39 44
33 36 41
32 35 40
34 38 43
34 37 43
32 36 40
33 37 42
34 38 43
34 38 43
35 39 44
40 45 52
44 50 58
49 56 64
51 58 67
46 52 60
47 53 61
52 58 67
51 58 67
47 54 63
53 60 69
51 58 66
50 58 67
54 62 71
51 58 67
51 58 66
51 58 67
50 57 66
54 61 70
52 59 68
57 65 75
56 63 72
55 62 72
53 61 70
54 61 71
54 61 71
58 66 76
60 68 78
58 66 76
59 66 76
57 64 74
55 62 72
59 67 77
57 65 75
57 64 75
60 69 80
56 64 74
57 65 75
58 66 77
57 66 76
58 65 76
57 65 75
60 68 79
57 65 76
59 68 78
60 68 78
56 64 74
59 68 78
60 68 78
59 67 78
59 67 78
60 68 79
61 69 79
60 68 78
60 68 79
58 66 76
60 68 78
61 69 79
59 67 77
58 66 76
61 70 80
61 69 79
60 68 78
62 70 80
57 65 76
59 68 79
60 69 80
59 67 78
62 69 80
59 67 78
59 67 78
61 69 80
59 67 78
61 69 80
60 68 79
59 66 76
60 68 78
58 67 78
60 68 79
61 69 80
61 69 80
60 68 78
60 69 80
61 70 80
60 68 78
60 68 79
61 69 80
60 69 80
61 69 80
60 69 80
60 67 78
61 70 80
60 68 78
60 68 78
60 68 78
61 69 80
59 67 78
61 69 80
61 69 80
61 69 80
61 69 80
61 69 80
60 68 78
61 70 80
61 69 80
61 69 80
61 69 80
61 69 80
60 68 79
61 69 80
62 70 80
60 67 78
60 68 79
62 70 80
61 69 80
61 69 80
60 68 79
61 69 80
61 69 80
61 69 80
60 69 80
60 69 80
61 70 80
61 69 80
60 68 79
61 69 80
61 69 80
61 70 80
60 69 80
61 69 80
61 69 80
61 70 80
61 69 80
60 68 80
61 69 80
61 69 80
61 69 80
61 69 80
60 68 78
60 69 80
62 69 80
60 68 79
61 69 80
60 69 80
61 70 80
61 69 80
61 69 80
61 69 80
62 70 80
62 70 80
61 70 80
61 69 80
60 69 80
61 69 80
61 70 80
61 70 80
62 70 80
60 69 80
61 70 80
61 69 80
62 70 80
61 69 80
61 69 80
61 69 80
62 70 80
61 69 79
62 70 80
61 70 80
60 69 80
61 69 80
60 69 80
61 69 80
61 69 80
62 70 80
61 70 80
61 69 80
61 70 80
61 69 80
61 70 80
61 69 80
61 70 80
62 70 80
61 70 80
62 70 80
61 69 80
61 69 80
60 69 80
61 70 80
60 68 78
60 69 80
62 70 80
61 69 80
61 70 80
62 70 80
60 68 79
61 69 80
62 70 80
61 69 80
61 70 80
61 70 80
61 69 80
61 69 80
59 68 79
62 70 80
62 70 80
62 70 80
61 69 80
61 70 80
62 70 80
61 69 80
61 70 80
61 69 80
61 69 80
62 70 80
61 69 80
62 70 80
62 69 80
61 69 80
60 68 78
60 69 80
61 70 80
61 69 80
61 69 80
61 70 80
62 69 80
62 70 80
61 70 80
59 68 79
61 69 80
62 70 80
61 70 80
61 69 80
61 69 80
61 69 80
61 69 80
61 69 80
61 70 80
61 69 80
61 70 80
60 69 80
61 69 80
60 69 80
61 69 80
60 68 79
61 70 80
61 69 80
61 69 80
60 68 79
60 68 79
61 69 80
61 70 80
60 68 79
61 69 80
61 69 79
60 68 79
60 68 79
60 68 78
60 69 80
61 69 80
61 69 80
61 69 80
60 68 79
59 67 78
60 68 79
60 69 80
60 69 80
61 70 80
60 68 80
58 67 78
61 69 80
61 70 80
60 68 78
60 69 80
60 69 80
60 68 79
59 68 78
59 67 78
59 67 78
59 68 79
58 67 78
60 68 78
60 67 78
58 66 77
59 66 76
58 66 77
59 66 76
59 67 78
60 68 79
60 68 79
60 68 79
57 65 75
59 67 77
58 66 77
59 68 78
58 65 75
58 66 76
57 65 75
59 67 77
58 67 78
59 67 78
59 67 77
58 66 76
60 69 80
59 66 76
60 68 79
59 68 78
58 66 76
56 64 74
57 65 75
58 65 76
56 64 74
59 66 76
58 66 76
59 68 79
57 65 76
55 62 72
58 66 76
59 67 77
56 64 74
55 63 72
57 65 76
56 64 75
55 63 73
56 64 73
53 61 71
53 60 70
54 60 69
54 61 71
52 59 68
51 58 67
53 61 70
57 65 75
57 65 75
54 61 70
54 61 70
56 63 73
53 60 69
54 60 69
49 56 64
45 50 58
47 53 62
50 57 65
50 57 66
51 58 67
50 57 65
50 56 65
46 52 60
40 45 52
31 34 39
33 37 41
32 35 40
33 36 41
34 37 42
36 39 45
34 38 43
33 37 42
35 39 44
31 35 40
34 37 42
35 38 43
34 38 44
33 37 42
33 36 42
31 35 41
33 37 42
34 37 43
33 37 42
33 37 43
33 37 42
33 37 42
34 38 43
38 42 47
35 39 44
34 38 44
35 39 45
35 39 44
34 38 43
34 37 42
33 37 42
35 39 44
33 37 42
35 39 44
34 38 43
34 38 43
34 38 43
34 38 43
32 36 41
32 36 41
32 36 41
32 36 41
35 39 44
33 37 41
33 36 41
33 37 42
31 34 39
31 34 39
33 37 41
31 34 39
33 37 42
38 42 48
43 48 55
44 50 58
54 61 71
49 55 63
49 55 64
53 59 68
48 55 64
48 55 63
50 57 65
52 60 69
52 59 68
52 59 68
52 60 69
57 64 74
51 58 66
52 59 68
52 59 67
57 64 73
53 61 70
52 60 69
56 64 73
55 62 72
54 62 72
53 60 69
55 62 72
56 64 74
55 62 72
58 66 77
58 66 76
56 64 73
56 64 74
58 66 76
59 67 77
59 67 77
57 66 76
58 66 76
58 66 77
58 66 76
56 64 74
58 66 76
59 67 77
59 67 78
57 65 75
60 67 78
57 65 76
60 68 78
59 68 78
59 67 77
57 64 73
55 63 73
60 68 79
58 66 77
59 67 78
60 67 78
61 69 80
59 67 78
60 68 79
60 68 79
60 68 78
61 69 79
59 67 78
60 68 79
59 68 78
59 67 78
59 66 76
60 68 78
58 67 77
60 69 80
58 66 77
61 69 80
60 69 79
60 68 79
60 69 80
60 68 79
61 69 80
60 68 79
58 66 76
60 69 80
59 67 78
61 69 80
61 69 80
61 70 80
60 68 79
60 68 79
61 69 80
60 68 79
60 68 79
61 70 80
60 68 79
61 69 80
60 69 80
61 69 80
60 68 78
61 69 80
61 69 79
61 69 80
61 69 80
59 67 78
61 69 80
61 69 80
60 69 79
61 69 79
59 68 79
61 70 80
60 69 80
61 69 80
61 70 80
61 69 80
61 70 80
61 70 80
61 69 80
60 68 79
61 69 80
61 69 80
60 69 80
61 69 80
61 70 80
61 69 80
61 70 80
60 68 79
61 69 80
61 69 80
61 70 80
60 68 80
60 69 80
60 69 80
60 68 79
61 69 80
60 68 79
61 69 80
61 69 80
62 70 80
61 70 80
60 69 80
62 70 80
61 70 80
61 69 80
61 69 80
62 70 80
61 69 80
61 69 80
60 68 79
61 70 80
61 69 80
61 69 80
62 70 80
60 68 80
62 70 80
61 69 80
60 69 80
61 69 80
61 69 80
61 69 80
62 70 80
60 68 78
62 70 80
60 69 80
62 70 80
61 69 80
61 69 80
61 70 80
60 68 79
61 69 80
61 69 80
62 70 80
59 67 78
61 70 80
62 70 80
61 69 80
61 69 80
60 69 80
61 69 80
62 70 80
60 69 80
62 70 80
61 69 80
60 69 80
61 69 80
62 70 80
62 70 80
62 70 80
61 69 80
62 70 80
61 70 80
62 70 80
61 69 80
62 70 80
61 69 80
62 70 80
61 69 80
62 70 80
61 70 80
61 70 80
60 68 79
62 70 80
61 69 80
61 70 80
62 70 80
62 70 80
62 70 80
62 70 80
60 68 79
61 69 80
62 70 80
59 67 78
61 70 80
60 68 78
61 69 80
61 69 80
61 69 80
61 69 80
62 70 80
61 69 80
62 70 80
60 69 80
60 69 80
62 70 80
61 69 80
61 70 80
61 70 80
61 69 80
60 68 79
60 68 79
61 70 80
61 69 80
61 69 80
60 69 80
61 70 80
61 69 79
60 69 80
60 68 79
62 70 80
60 68 79
61 70 80
60 68 79
60 68 79
61 69 80
62 70 80
60 68 79
60 69 80
61 69 79
62 70 80
61 70 80
60 68 78
61 70 80
60 68 80
60 68 79
61 70 80
60 69 80
61 70 80
61 69 80
61 69 80
61 69 80
61 69 80
61 69 80
61 69 79
61 69 79
61 70 80
62 70 80
59 68 79
59 67 78
61 69 80
60 68 79
60 68 78
61 69 80
60 68 79
61 68 79
61 69 80
61 70 80
59 67 78
61 69 80
61 70 80
60 69 80
60 68 79
60 67 78
60 68 78
61 69 80
60 68 79
61 69 80
60 68 79
58 66 77
59 67 77
59 68 79
59 68 80
59 67 78
60 68 78
60 68 79
59 67 77
59 68 78
59 68 79
61 69 79
61 69 80
60 68 79
60 69 80
60 68 79
59 67 78
59 67 78
57 65 76
59 68 78
57 65 75
60 68 78
60 68 78
59 67 77
59 67 78
59 67 77
59 67 78
57 64 74
58 66 76
57 65 75
56 64 74
58 66 76
56 63 73
57 65 75
58 66 76
58 66 76
54 62 72
57 66 76
59 66 76
59 66 76
55 63 73
55 63 73
58 66 77
56 64 74
56 64 74
53 61 70
55 62 71
53 61 70
57 65 76
53 61 70
55 63 73
55 62 72
53 61 70
53 60 69
55 62 72
52 59 68
54 60 69
51 57 66
49 55 64
49 55 64
51 58 67
54 62 72
47 54 62
49 55 63
51 58 66
47 53 61
46 53 61
50 57 66
47 53 60
41 47 54
41 46 53
33 36 41
32 35 40
32 36 41
34 38 43
30 33 38
35 39 44
33 37 42
33 37 41
33 37 42
32 35 40
33 37 42
36 40 45
31 35 40
35 39 45
34 38 43
32 36 42
36 40 45
32 36 42
34 38 44
33 37 43
34 38 43
33 37 42
34 38 43
35 39 44
33 37 42
31 35 40
32 36 40
30 34 39
34 37 42
34 37 42
35 39 45
34 38 43
34 37 42
34 37 43
32 35 40
35 39 44
34 38 43
32 36 41
34 38 43
30 34 38
31 35 40
32 36 41
34 37 42
33 36 41
31 35 40
33 36 41
34 38 44
32 36 41
43 48 56
51 58 67
47 53 61
46 52 60
49 56 64
48 54 63
53 60 69
50 57 66
54 61 70
51 58 67
47 53 61
51 58 66
52 59 69
47 53 61
52 59 68
52 59 68
55 63 72
55 63 72
52 59 68
54 61 70
53 60 69
52 59 68
54 61 70
54 61 71
49 56 65
56 65 75
55 63 73
56 63 72
57 65 75
58 65 75
58 66 77
58 66 76
58 66 77
59 67 78
54 61 70
57 65 75
55 63 72
54 61 71
60 68 78
57 65 75
57 64 75
58 67 78
57 65 76
58 65 76
59 67 77
58 66 76
58 66 75
60 68 78
60 68 78
59 67 78
58 67 78
59 67 78
58 65 75
57 65 75
59 67 77
59 67 77
60 68 79
59 67 78
59 68 78
61 69 80
57 65 75
60 68 78
57 65 76
61 70 80
60 68 79
60 68 78
59 67 78
61 69 80
59 67 77
60 68 78
60 68 79
59 68 78
61 69 80
60 68 79
60 68 79
61 69 79
61 69 80
60 68 79
59 68 78
60 67 78
60 68 79
60 68 79
60 68 79
60 68 79
60 68 78
59 68 78
62 70 80
60 68 79
61 69 80
61 69 80
61 69 80
61 69 80
59 68 79
60 69 80
62 70 80
60 68 78
62 70 80
60 69 80
60 69 79
62 70 80
59 67 78
61 69 80
60 69 80
61 69 80
62 69 80
60 68 79
61 69 80
61 69 80
59 68 78
61 70 80
61 70 80
62 70 80
60 68 79
61 69 80
62 70 80
60 69 80
61 69 80
62 70 80
60 68 79
61 70 80
62 70 80
61 69 80
61 69 80
62 69 80
60 68 79
61 70 80
61 70 80
61 69 80
61 70 80
61 69 80
61 69 79
61 70 80
61 69 80
62 70 80
61 69 80
62 70 80
61 69 80
60 69 80
61 69 80
61 70 80
61 70 80
61 69 80
61 69 80
61 70 80
60 69 80
61 69 80
62 69 80
61 69 80
61 69 80
62 70 80
61 69 79
61 69 80
62 70 80
60 69 80
60 68 79
62 70 80
62 70 80
61 70 80
61 69 80
61 69 80
62 70 80
61 70 80
61 69 80
61 70 80
61 69 80
61 70 80
61 69 80
62 70 80
61 69 79
61 69 80
61 69 80
62 70 80
61 69 80
62 70 80
61 69 79
61 69 80
61 69 80
61 69 80
62 70 80
60 69 80
61 70 80
61 70 80
61 69 80
61 69 80
61 69 80
61 70 80
61 70 80
60 69 80
61 70 80
61 69 80
61 69 80
61 70 80
61 69 80
61 69 80
61 69 80
61 69 80
61 69 80
62 70 80
62 69 80
62 70 80
61 69 80
61 70 80
61 70 80
61 69 80
62 70 80
62 70 80
61 69 80
61 70 80
62 70 80
61 69 80
61 70 80
61 69 80
60 69 80
61 70 80
62 70 80
62 70 80
62 70 80
60 68 79
60 69 80
61 69 80
61 69 80
62 70 80
60 68 78
61 69 80
60 68 79
60 69 80
62 70 80
61 69 79
60 68 78
62 70 80
61 69 80
61 69 80
61 69 80
61 69 80
61 69 80
62 70 80
60 69 80
60 69 80
61 69 80
61 69 80
61 69 80
61 69 80
60 68 78
61 70 80
60 69 80
61 69 80
61 70 80
60 68 79
60 68 78
60 69 79
61 69 80
61 69 79
60 69 80
60 68 79
61 69 80
61 69 80
61 69 80
60 68 78
61 70 80
59 67 78
62 69 80
61 69 80
60 69 80
61 70 80
60 68 79
61 69 80
59 68 79
59 67 78
59 67 78
60 68 78
60 68 78
61 70 80
60 68 79
60 68 79
58 66 77
59 67 78
61 70 80
60 69 80
60 68 79
60 68 79
58 66 77
61 69 80
59 67 77
59 67 78
59 67 78
60 68 78
59 68 78
61 69 80
60 68 79
58 66 77
59 67 78
56 64 75
58 65 76
60 68 79
58 66 77
60 68 79
61 69 80
58 66 76
59 67 77
56 64 75
61 70 80
59 67 78
59 67 78
58 67 78
58 66 77
59 67 78
59 67 77
60 67 78
56 63 73
58 66 76
58 66 76
56 65 75
61 69 80
59 67 78
56 63 72
56 63 73
55 63 73
58 65 75
58 66 76
56 64 74
56 63 73
57 65 75
54 62 72
58 66 77
56 63 73
55 63 73
56 64 75
54 61 71
53 61 71
56 64 73
53 60 69
47 53 62
55 62 72
57 64 75
49 56 64
51 58 68
52 59 69
54 60 69
51 58 68
48 55 63
54 61 71
51 58 67
49 56 66
51 58 67
48 55 63
46 52 60
48 54 62
43 49 56
49 55 64
47 53 61
50 57 66
46 51 59
43 49 56
34 38 43
30 33 38
34 38 43
32 36 41
32 36 41
33 37 42
33 38 43
34 37 43
33 37 42
33 37 41
34 38 43
35 39 44
33 37 42
33 36 41
35 39 44
32 36 41
35 39 44
34 38 44
35 39 44
36 40 45
34 38 43
35 39 44
34 38 43
35 39 45
34 38 43
33 37 42
35 39 44
32 35 40
34 38 43
33 37 42
31 35 40
33 37 43
35 39 44
35 39 44
33 37 42
34 38 43
34 38 43
29 33 37
33 37 42
34 38 43
33 36 41
35 38 43
32 36 41
34 37 42
33 37 42
42 48 55
47 54 62
49 56 65
47 54 62
47 53 62
45 51 59
52 59 69
49 55 64
48 55 64
50 56 64
54 62 71
48 54 62
49 56 65
52 58 67
49 56 64
49 56 64
48 55 64
52 59 69
52 59 68
51 58 67
53 60 69
49 55 64
54 61 71
57 65 75
52 59 68
54 61 71
51 58 68
56 64 73
54 62 72
51 57 66
55 62 72
56 63 73
59 68 78
57 65 76
56 64 74
59 67 78
55 63 72
55 62 72
60 67 78
57 65 76
58 66 76
59 67 77
58 65 75
56 64 75
59 67 77
58 66 77
60 67 77
58 66 77
59 67 78
60 68 79
58 65 75
61 69 79
59 67 77
59 67 77
60 68 79
60 67 78
61 69 80
61 69 80
60 68 79
58 65 75
58 65 76
59 67 78
58 66 76
61 69 80
60 68 78
60 68 79
59 67 77
59 67 78
61 69 80
59 68 78
59 67 78
60 69 80
61 69 80
61 69 80
61 69 79
60 68 79
59 68 78
59 68 78
58 66 77
62 70 80
60 68 79
61 69 80
59 67 78
59 68 78
60 69 80
60 68 78
61 69 80
60 68 79
59 67 78
61 69 80
61 69 79
61 69 80
61 69 80
60 69 80
61 69 80
61 69 80
59 67 78
61 69 80
62 70 80
61 69 79
59 68 79
61 69 79
61 69 80
60 69 80
60 68 79
61 69 80
60 68 79
61 69 79
60 68 79
61 70 80
60 69 80
61 69 79
61 69 80
62 70 80
62 70 80
60 68 79
60 68 79
61 69 80
60 69 80
61 70 80
61 69 80
60 68 79
61 69 80
61 70 80
61 70 80
60 68 79
61 69 80
60 68 78
61 69 79
62 70 80
60 68 79
61 69 80
60 69 80
62 70 80
61 70 80
61 70 80
61 70 80
60 69 80
61 69 80
61 70 80
61 70 80
61 70 80
61 69 80
62 70 80
60 69 80
62 70 80
60 69 80
61 69 80
60 69 80
62 70 80
60 69 80
62 70 80
61 69 80
61 69 80
61 70 80
61 69 80
61 69 80
61 69 80
61 69 80
61 70 80
60 68 79
61 70 80
61 69 80
61 70 80
61 70 80
61 69 80
60 69 80
61 70 80
61 69 80
61 69 80
61 69 80
61 69 80
60 69 80
61 70 80
61 70 80
61 70 80
61 70 80
61 69 80
62 70 80
61 69 80
62 70 80
61 69 80
62 70 80
61 70 80
61 70 80
61 69 80
62 70 80
62 70 80
61 69 80
61 69 80
61 69 80
61 70 80
61 69 80
61 70 80
61 70 80
61 69 80
62 70 80
61 70 80
61 70 80
61 70 80
60 69 80
62 70 80
61 70 80
62 70 80
61 70 80
61 69 80
62 70 80
59 68 79
62 69 80
61 70 80
61 70 80
61 69 80
60 69 80
60 69 80
61 70 80
60 68 79
61 69 80
61 70 80
61 69 80
61 69 80
61 70 80
61 70 80
61 69 80
61 69 80
60 69 80
61 70 80
62 70 80
61 69 80
61 69 80
61 69 80
62 70 80
62 70 80
61 69 80
61 69 80
60 69 80
62 70 80
60 69 80
59 67 78
61 70 80
62 70 80
61 69 80
61 70 80
61 69 80
60 68 79
60 68 78
61 69 80
61 69 80
62 70 80
61 69 80
61 69 80
61 69 80
60 68 79
59 67 78
60 69 80
59 68 78
61 69 80
60 68 79
60 69 80
62 70 80
62 69 80
60 68 79
61 69 80
60 68 79
61 69 79
60 68 78
61 69 80
61 69 80
61 69 80
61 70 80
60 69 80
60 69 80
60 68 78
60 68 79
60 69 80
59 68 78
60 68 79
59 67 78
61 69 80
60 68 79
60 69 80
60 68 78
60 68 79
61 69 80
59 66 76
62 70 80
60 68 79
61 69 80
59 68 78
60 69 80
59 67 78
60 68 79
59 67 78
59 67 78
60 68 79
59 67 78
59 67 78
59 67 78
60 69 80
60 69 80
61 69 80
58 66 77
59 67 78
60 68 78
58 67 77
59 67 78
56 64 74
59 67 77
60 68 78
59 67 77
57 66 76
57 65 76
59 67 78
59 67 77
55 63 73
58 66 77
59 67 77
59 67 78
56 64 74
57 65 76
59 67 78
59 67 77
57 64 75
57 65 75
54 61 71
58 66 76
57 65 76
57 64 75
56 63 73
56 64 75
53 61 70
55 63 72
54 61 70
55 62 72
53 60 70
54 61 71
57 64 74
53 60 69
54 61 70
51 58 67
53 60 70
52 59 68
51 58 67
49 56 64
50 57 66
49 56 65
44 50 58
47 53 62
51 58 68
46 52 60
46 52 59
49 56 65
46 52 60
46 52 59
52 58 67
48 54 62
43 48 56
41 46 53
35 39 44
33 36 42
32 36 41
33 37 43
32 36 40
34 39 45
35 39 44
33 37 41
33 37 42
35 38 43
32 35 40
33 37 43
35 39 44
33 37 42
32 36 41
33 37 42
34 38 43
33 37 42
33 37 42
34 38 43
34 38 43
34 38 43
35 39 44
32 36 41
34 38 43
32 36 41
34 38 43
34 38 43
35 39 44
33 37 42
35 39 44
33 37 42
32 35 40
33 37 42
32 36 40
35 39 44
33 37 42
33 37 42
33 37 42
32 36 41
33 37 41
41 46 52
46 53 62
50 57 66
44 50 58
48 54 63
50 57 65
45 51 59
46 52 60
48 54 62
52 58 67
47 53 62
54 62 71
49 56 65
54 61 71
50 57 66
54 61 70
52 59 69
54 61 70
51 57 66
51 58 67
52 60 69
54 62 71
53 60 70
57 64 74
52 59 67
55 62 71
55 62 71
53 60 70
52 59 68
52 59 68
57 65 76
58 66 75
54 61 70
56 64 75
56 64 74
57 65 75
59 67 78
59 68 78
58 66 77
58 66 77
58 66 77
57 65 75
57 65 75
59 66 76
59 67 78
58 65 75
58 65 76
58 66 77
60 68 78
59 66 77
55 63 73
59 66 76
59 67 77
58 66 77
59 67 78
58 66 76
58 66 76
60 67 77
60 68 78
59 68 78
59 67 77
59 67 78
59 67 78
59 67 77
59 67 77
60 68 79
60 68 79
60 67 78
60 68 79
59 67 78
60 68 78
56 64 74
59 68 78
60 68 78
60 68 79
60 68 79
60 68 79
61 69 80
59 67 77
60 69 80
59 68 78
58 67 78
60 69 80
60 68 79
60 67 78
62 70 80
59 67 78
61 69 80
60 69 80
59 67 78
61 69 80
59 67 77
60 68 78
60 68 78
60 68 79
60 69 80
61 69 80
60 68 79
60 68 79
60 68 79
61 69 79
61 69 79
60 69 80
61 70 80
62 70 80
59 67 78
61 69 80
59 68 78
61 69 80
61 69 80
60 68 79
60 68 79
61 69 80
61 70 80
60 68 80
61 69 80
61 69 80
61 69 80
61 69 80
61 70 80
62 70 80
61 69 80
61 70 80
60 68 79
60 68 79
61 69 80
60 69 80
61 69 80
62 70 80
60 69 80
61 69 80
60 68 78
60 68 79
61 69 80
61 70 80
61 70 80
61 69 80
61 69 80
61 70 80
61 69 80
61 69 80
62 70 80
61 69 80
61 69 80
61 69 80
61 69 80
61 70 80
60 68 79
61 69 80
61 69 80
61 70 80
61 70 80
61 70 80
62 70 80
60 69 80
62 70 80
60 69 80
60 68 79
61 69 80
61 69 80
60 69 80
61 70 80
60 68 79
62 70 80
60 69 80
61 69 80
61 69 80
61 69 80
61 69 80
60 69 80
61 69 80
60 69 80
62 70 80
60 69 79
62 70 80
62 70 80
60 68 79
61 69 80
61 70 80
61 69 80
60 68 79
61 69 80
61 69 80
60 69 80
61 70 80
61 69 80
61 69 80
61 69 80
61 70 80
61 70 80
61 69 80
61 70 80
62 70 80
61 69 80
61 70 80
62 69 80
62 70 80
62 70 80
61 69 80
61 69 80
61 70 80
61 70 80
62 70 80
60 68 78
61 69 80
61 69 80
59 68 78
61 69 80
61 69 80
61 69 80
61 69 80
62 70 80
61 69 80
61 69 80
62 70 80
61 69 80
61 69 80
60 69 80
61 69 80
61 69 80
61 69 80
59 68 79
62 70 80
59 68 78
60 69 80
61 69 80
60 69 80
62 70 80
61 70 80
60 69 80
61 70 80
61 70 80
60 68 79
61 69 80
61 69 80
61 70 80
61 69 80
61 69 79
60 69 80
61 69 80
61 69 80
61 69 80
61 69 80
61 69 80
62 70 80
61 69 80
62 70 80
62 70 80
60 68 78
61 69 80
60 68 78
61 70 80
59 68 79
61 70 80
62 69 80
60 69 79
61 69 80
61 70 80
61 69 80
61 69 79
60 67 78
61 69 80
60 68 79
60 68 80
62 70 80
62 70 80
61 70 80
61 69 80
60 68 78
61 70 80
59 68 79
60 68 78
60 68 79
60 68 79
59 67 78
60 69 80
60 69 80
60 68 79
61 69 79
61 69 80
60 68 78
59 67 78
61 70 80
59 68 78
58 67 78
58 66 77
60 68 78
60 68 78
60 68 79
59 66 76
59 67 78
61 69 80
59 67 77
58 66 77
60 69 79
60 67 78
57 65 76
58 67 77
60 68 78
61 69 80
59 67 78
60 67 78
60 68 78
60 68 79
57 66 76
57 65 76
60 68 78
59 67 78
59 67 78
58 66 77
59 67 77
60 68 79
58 67 78
58 66 76
55 63 73
56 64 75
59 67 77
55 63 73
57 65 75
59 67 78
57 65 74
56 63 73
56 64 74
58 66 76
58 66 76
57 65 75
57 64 74
52 59 68
57 64 75
55 62 72
56 64 74
55 63 73
58 66 76
55 62 72
52 60 69
56 64 74
49 56 65
53 60 69
52 59 68
54 61 71
54 61 71
52 59 68
51 58 68
52 59 69
46 52 60
49 55 64
47 53 61
48 54 63
48 54 63
50 58 67
47 53 61
52 59 68
45 52 61
53 60 70
51 57 65
47 53 61
53 60 69
50 57 66
45 51 58
45 51 58
38 42 48
32 36 41
32 35 40
35 39 44
33 37 42
32 35 40
34 37 42
32 35 40
31 35 40
33 37 42
30 34 39
35 39 45
33 37 43
33 37 42
34 38 43
33 37 42
34 38 43
37 41 46
32 36 41
33 37 42
34 38 44
35 39 44
33 36 41
35 38 44
33 37 42
34 38 42
36 40 45
33 37 42
34 38 43
34 38 43
33 37 43
34 39 44
33 36 41
32 36 41
34 37 43
32 36 41
32 35 40
31 35 40
35 39 44
48 54 61
50 57 66
47 53 61
51 58 67
46 53 61
50 57 67
47 53 61
48 54 62
47 53 61
46 52 60
48 54 63
45 51 59
48 54 63
51 58 67
52 59 69
52 59 68
49 56 65
50 57 66
55 62 71
55 62 71
51 58 67
53 60 69
55 62 72
52 59 68
49 56 65
53 61 71
55 62 72
56 64 74
56 64 73
56 64 75
53 60 69
57 64 73
57 66 76
56 64 74
56 64 74
57 64 74
55 62 71
58 66 76
55 62 72
58 66 76
58 66 76
60 68 79
58 65 76
59 67 78
56 64 74
55 62 72
58 66 76
57 65 75
58 65 75
58 66 77
59 67 78
57 64 75
58 66 76
58 66 76
59 68 78
58 66 77
58 65 76
59 67 78
59 68 78
60 69 80
59 67 78
60 68 78
59 67 78
60 68 79
56 64 75
58 66 77
59 67 78
59 68 78
58 66 76
59 67 78
60 68 78
61 69 80
60 68 78
60 68 78
60 68 79
60 68 78
60 68 79
60 68 79
59 66 77
61 69 80
59 68 78
60 68 79
59 67 77
60 68 78
60 68 79
61 69 80
59 68 78
62 70 80
60 68 79
60 68 79
61 69 80
58 66 76
61 69 80
61 69 80
61 69 80
61 69 80
61 70 80
61 69 80
61 69 80
60 69 80
61 69 80
61 69 80
61 69 80
61 69 80
60 68 79
60 68 78
61 69 80
60 68 78
61 69 80
61 69 80
60 68 79
60 69 80
60 68 78
61 69 80
61 69 80
61 69 80
61 69 80
60 68 79
60 68 79
60 69 80
61 69 79
60 69 80
61 69 80
61 70 80
61 69 80
61 69 80
61 70 80
61 70 80
61 69 80
59 68 78
62 70 80
60 68 80
60 69 80
61 69 80
60 69 80
60 69 80
61 70 80
61 69 80
60 69 80
62 70 80
61 69 80
62 70 80
62 70 80
61 69 80
60 69 80
62 70 80
60 68 79
60 68 79
61 70 80
61 70 80
61 69 80
62 70 80
62 70 80
61 69 80
61 69 79
61 70 80
61 69 80
61 69 80
60 69 80
60 69 80
60 69 80
60 68 79
61 70 80
62 70 80
61 69 80
61 70 80
60 69 80
62 70 80
60 68 79
62 70 80
60 69 80
62 70 80
62 70 80
61 70 80
61 70 80
61 69 80
61 70 80
61 69 80
62 70 80
61 70 80
61 70 80
61 69 80
61 70 80
61 70 80
61 70 80
61 69 80
62 70 80
60 69 80
61 69 80
61 69 80
61 70 80
60 69 80
61 69 79
60 69 80
60 68 79
61 69 80
61 69 80
60 68 79
61 69 80
62 70 80
61 69 80
61 69 80
61 69 80
61 70 80
61 69 80
61 70 80
61 70 80
61 69 80
60 69 80
61 69 80
60 69 80
61 69 80
61 69 80
62 70 80
61 69 80
61 69 80
62 70 80
62 70 80
61 69 80
61 70 80
61 70 80
62 69 80
60 69 80
61 70 80
60 69 80
61 69 80
60 68 79
60 68 79
60 69 80
61 69 80
61 70 80
60 69 80
61 70 80
59 68 79
61 70 80
60 68 79
62 70 80
60 68 79
60 68 79
60 69 80
61 69 80
61 69 80
60 69 79
61 69 80
61 69 79
61 69 80
60 68 79
61 69 80
60 68 79
60 68 79
60 68 79
60 69 80
61 70 80
61 70 80
60 68 79
61 69 80
60 68 78
60 68 79
61 70 80
62 70 80
60 69 80
61 70 80
60 68 78
61 70 80
61 69 80
61 69 79
61 69 79
61 70 80
60 69 80
61 69 79
58 66 77
60 69 80
61 69 80
59 67 78
59 67 77
62 70 80
60 68 79
60 68 79
60 69 80
60 68 79
60 68 78
61 69 80
61 69 80
61 69 80
59 67 78
60 68 79
61 69 80
60 67 78
60 68 79
59 67 78
59 67 78
60 68 79
60 68 78
61 69 80
59 67 77
61 69 80
61 69 80
61 69 79
59 66 76
60 68 79
60 68 79
60 69 79
60 69 80
56 64 74
59 67 77
58 66 77
61 68 79
59 68 78
58 67 78
60 68 79
59 67 78
60 67 78
59 67 78
58 66 77
55 63 74
57 65 76
57 65 75
57 65 76
57 65 74
59 67 78
56 63 73
59 68 78
58 66 76
56 64 74
58 66 76
53 61 70
57 65 76
57 64 74
54 61 70
57 65 75
56 63 73
56 64 74
56 64 74
55 62 72
57 65 76
53 60 69
52 60 69
55 62 72
52 60 69
52 59 67
51 58 68
56 64 73
56 64 74
46 53 62
53 60 69
52 59 68
51 58 67
50 56 64
50 56 65
50 57 66
50 57 66
46 52 60
50 57 66
51 58 67
48 55 63
51 58 68
50 57 66
49 55 64
50 56 65
46 52 59
47 53 61
46 52 59
45 51 57
37 42 48
33 36 42
34 37 42
32 36 40
31 35 41
31 34 39
34 37 42
35 38 43
34 38 43
35 39 44
34 37 42
34 38 43
33 36 41
35 39 45
34 38 43
33 37 42
33 36 41
31 35 41
34 38 44
34 38 43
33 37 42
33 37 42
33 37 42
33 37 42
32 36 41
35 39 43
35 38 43
34 38 43
32 36 41
31 35 40
34 38 43
33 37 42
29 32 36
31 34 39
33 37 41
41 46 53
48 54 62
41 47 54
50 57 65
50 56 65
51 57 66
50 57 66
49 56 65
45 51 59
51 57 66
48 54 62
47 53 61
48 54 62
49 56 64
50 57 66
50 56 66
49 56 65
52 60 69
53 61 70
51 58 67
51 58 67
55 63 72
54 62 72
54 61 70
57 64 74
54 62 71
53 61 71
53 60 70
56 63 73
55 62 72
56 64 74
54 62 72
57 65 75
54 61 71
56 64 74
55 63 72
57 65 75
57 65 75
55 63 73
56 64 74
56 64 74
58 66 77
54 62 71
58 66 76
59 67 78
59 67 78
59 66 76
58 67 78
60 69 79
56 64 74
59 67 78
58 66 77
58 66 76
60 68 78
56 64 75
58 66 77
57 65 75
60 68 78
57 65 75
60 68 79
61 69 80
59 67 78
60 68 78
59 67 78
58 66 77
58 66 77
57 65 76
60 68 78
57 66 76
60 68 79
58 66 76
59 67 77
57 65 75
57 66 76
60 68 79
60 69 80
59 67 78
59 67 78
61 69 80
60 68 79
59 68 79
59 67 78
61 69 80
59 67 78
60 68 78
60 69 80
59 68 78
60 68 79
60 68 79
62 70 80
59 67 77
60 69 80
60 68 79
60 68 79
60 68 78
61 69 79
60 68 79
60 68 79
61 69 80
60 69 80
61 69 80
61 70 80
61 70 80
61 70 80
61 69 80
62 70 80
61 69 80
60 69 80
60 69 80
60 68 79
61 70 80
60 69 80
61 69 80
60 69 80
60 69 80
61 69 80
61 69 79
62 70 80
61 70 80
61 69 80
61 69 80
61 70 80
61 69 80
61 69 80
61 70 80
60 69 80
62 70 80
59 68 78
60 68 78
62 70 80
61 69 79
61 69 80
61 69 80
61 70 80
60 69 80
60 68 79
61 69 80
60 69 80
61 70 80
60 69 80
61 70 80
61 69 80
60 68 79
61 69 79
62 70 80
61 69 80
61 70 80
61 69 80
60 68 79
61 69 80
61 70 80
60 69 80
62 70 80
61 69 80
61 69 80
60 69 80
61 69 80
62 70 80
61 69 80
62 70 80
61 69 79
61 70 80
61 69 80
60 69 80
61 69 80
61 69 80
60 68 79
61 70 80
61 69 80
60 69 80
61 69 80
61 70 80
62 70 80
61 69 80
61 70 80
61 70 80
62 70 80
61 69 80
61 69 80
61 69 80
62 70 80
62 70 80
61 69 80
61 69 80
61 69 80
61 69 80
62 70 80
62 70 80
61 69 79
62 70 80
62 70 80
62 70 80
62 70 80
62 70 80
61 70 80
62 70 80
61 69 80
61 69 80
62 70 80
61 69 80
61 69 80
61 70 80
62 70 80
61 70 80
61 70 80
61 69 80
61 69 80
61 70 80
62 70 80
61 69 80
61 69 80
62 70 80
61 69 80
62 70 80
61 69 80
61 69 80
61 69 80
62 70 80
60 69 80
61 69 80
61 69 80
61 69 80
62 70 80
61 69 80
61 69 80
62 70 80
61 69 79
61 70 80
61 69 80
62 70 80
60 68 79
61 70 80
61 69 80
61 70 80
60 68 79
62 70 80
60 69 80
61 69 80
61 69 80
61 69 80
61 70 80
61 69 80
61 70 80
61 69 80
62 69 80
62 70 80
59 67 78
61 69 80
62 70 80
61 69 80
60 68 79
61 69 80
59 67 78
61 69 80
61 69 80
62 70 80
61 69 80
59 67 78
60 69 80
59 68 79
59 68 79
61 69 80
60 68 79
60 68 79
60 68 79
60 68 78
60 68 79
61 69 79
60 68 79
61 69 80
61 69 80
60 68 79
60 68 79
60 68 78
59 68 80
60 69 80
61 70 80
61 70 80
60 68 78
60 68 79
59 67 78
61 70 80
60 69 80
59 68 79
59 67 78
61 69 80
59 68 78
61 69 80
59 67 77
61 69 80
58 66 77
60 68 78
60 68 79
58 66 77
61 69 79
62 69 80
60 68 79
60 69 80
60 67 78
59 67 77
60 68 78
60 68 78
60 68 79
58 66 77
60 68 79
58 66 77
57 65 75
58 66 77
60 68 79
57 65 75
58 66 76
58 66 76
59 66 76
59 67 78
56 63 74
59 67 77
59 66 77
59 67 77
62 70 80
56 63 74
57 64 74
57 65 76
60 68 78
56 64 74
58 67 78
56 64 74
54 62 72
57 65 76
56 63 73
60 67 78
54 61 71
55 63 72
57 64 74
55 62 72
57 64 74
57 64 74
53 60 70
51 58 66
54 61 71
54 61 70
55 63 73
51 58 67
53 60 68
54 61 71
57 64 74
50 58 67
52 58 67
48 55 64
54 61 71
48 54 63
51 58 67
55 63 73
51 58 68
53 60 70
51 58 67
48 55 63
52 59 68
50 57 66
47 53 61
52 59 67
49 56 65
48 54 63
46 52 60
48 55 63
45 51 59
46 52 59
43 48 55
36 40 46
34 38 43
33 37 42
33 37 42
35 39 44
33 37 42
34 38 43
35 39 44
33 36 41
33 36 41
33 37 42
34 37 43
34 38 43
33 36 42
32 36 41
34 38 43
32 35 40
34 38 44
32 36 41
33 37 42
32 36 41
34 37 43
35 39 44
32 36 41
34 38 43
34 38 43
34 37 42
31 35 40
32 36 40
34 38 43
38 43 48
42 47 54
46 52 59
48 55 64
45 51 58
48 54 63
49 56 65
49 56 64
51 57 66
51 58 67
52 59 68
49 56 65
47 54 62
50 57 66
51 57 66
52 59 68
53 61 71
52 59 69
51 58 67
49 56 65
46 52 60
51 59 68
49 56 65
56 63 73
52 59 68
52 59 68
53 60 70
50 56 65
56 64 73
56 63 73
49 55 64
54 62 72
54 62 71
55 62 72
56 63 73
51 57 66
54 61 71
57 64 74
57 65 76
55 63 72
57 65 76
56 63 73
54 62 71
54 61 71
53 61 70
58 66 77
57 65 76
58 66 76
58 65 75
57 65 75
58 66 76
59 67 78
59 67 77
58 66 76
59 67 77
58 66 77
56 64 74
57 65 75
59 67 77
57 65 76
59 67 78
58 66 77
59 68 79
58 66 77
59 67 77
59 67 78
60 68 78
59 67 78
58 66 76
57 65 75
60 68 78
60 68 78
60 68 79
59 67 78
60 68 79
60 68 78
58 66 76
60 69 80
60 67 78
58 67 78
60 69 80
59 68 78
60 69 80
61 70 80
59 67 78
59 67 78
61 69 80
60 68 78
60 68 79
61 69 80
60 68 78
60 68 78
60 68 78
60 68 78
60 69 80
60 68 79
60 69 80
61 69 79
60 68 79
59 67 78
61 69 80
62 70 80
60 68 79
59 67 78
61 69 80
61 69 80
60 69 80
61 69 80
59 67 78
61 69 80
59 67 78
60 68 79
61 69 80
62 70 80
61 69 80
61 69 79
61 69 80
60 68 78
61 70 80
62 70 80
61 70 80
61 69 80
61 69 79
61 69 80
61 69 79
61 69 80
61 69 80
60 68 79
60 69 80
62 70 80
61 69 80
61 70 80
60 68 79
61 69 79
60 68 79
61 69 80
62 69 80
61 70 80
61 70 80
61 69 80
61 69 80
61 69 80
61 69 79
60 68 79
60 68 79
61 69 80
62 70 80
61 69 80
60 69 80
60 68 79
60 69 79
61 70 80
61 70 80
61 70 80
61 70 80
60 68 78
61 69 79
60 69 80
61 70 80
61 70 80
62 70 80
61 69 80
61 69 80
61 69 80
61 69 80
61 70 80
61 70 80
61 69 79
60 69 80
61 69 80
62 70 80
62 70 80
62 70 80
61 69 79
61 69 80
61 69 80
62 70 80
61 69 80
61 69 80
61 70 80
60 69 80
61 70 80
61 69 80
60 69 80
62 70 80
60 68 79
61 69 80
62 70 80
61 69 80
61 69 80
61 69 80
60 68 78
61 70 80
62 70 80
62 69 80
62 70 80
61 69 80
61 70 80
61 69 80
60 68 79
61 70 80
61 69 80
62 70 80
61 69 80
61 70 80
62 70 80
61 69 80
61 69 80
61 69 80
61 70 80
61 69 80
61 69 80
61 69 80
62 70 80
61 69 80
60 68 79
62 70 80
62 70 80
62 70 80
61 69 80
62 70 80
61 69 80
61 70 80
61 69 80
62 70 80
60 69 80
61 69 80
61 69 80
60 68 79
60 69 80
61 69 80
61 69 80
62 70 80
61 69 80
61 69 80
61 69 80
62 70 80
60 69 80
61 69 80
61 69 80
61 69 80
61 69 80
62 70 80
59 67 78
62 70 80
60 68 79
61 69 80
61 69 80
60 68 80
61 69 80
60 68 79
60 68 78
61 69 80
61 69 80
61 69 79
61 69 80
60 68 79
61 69 80
60 68 79
60 68 79
60 68 78
61 69 80
60 68 79
61 69 80
61 69 80
61 69 80
61 69 79
61 69 80
60 69 80
60 69 80
61 69 80
61 69 80
61 69 80
60 68 79
62 70 80
61 69 80
60 68 79
58 67 78
59 67 78
60 68 78
60 68 79
60 69 79
59 67 77
61 69 79
60 68 79
59 68 79
59 67 78
60 68 78
59 68 78
61 70 80
60 68 78
58 67 78
59 68 78
59 67 78
61 70 80
60 68 79
60 68 78
59 67 78
60 68 78
59 67 78
59 67 77
60 68 79
58 66 77
60 69 80
59 67 78
59 67 78
57 65 75
59 67 77
59 67 78
57 65 75
60 68 78
60 68 78
59 68 78
60 67 78
60 68 79
57 65 76
60 68 79
57 66 76
59 67 78
57 65 75
55 63 72
59 67 77
57 65 75
58 66 77
54 61 71
57 65 75
58 66 77
57 65 75
55 63 73
58 66 77
58 65 75
56 64 74
57 65 76
57 64 74
53 60 69
53 61 70
53 61 70
56 63 73
55 63 73
55 63 72
53 60 70
55 62 72
56 64 73
53 60 69
54 62 73
53 60 70
53 61 70
53 61 70
49 55 64
49 56 65
54 62 71
48 55 64
51 58 67
53 61 71
51 57 66
54 61 70
47 54 62
50 57 65
50 57 66
50 56 65
49 55 64
46 52 60
47 53 62
50 57 65
47 53 61
50 57 66
46 52 59
50 57 66
45 52 60
50 56 65
48 54 62
39 44 50
33 37 42
32 36 41
32 36 41
32 36 40
31 35 41
33 37 42
31 34 39
33 37 42
33 37 42
32 36 40
33 37 42
31 35 40
33 36 41
33 37 42
34 37 42
34 38 43
34 38 43
32 36 41
32 36 41
33 37 42
32 36 41
35 39 44
31 35 40
35 39 44
32 35 40
33 37 42
33 37 42
40 45 52
42 47 55
49 56 64
50 56 65
48 54 62
50 57 66
51 58 67
50 56 65
47 53 62
52 59 68
51 58 67
46 53 61
50 56 65
49 57 66
49 55 64
52 59 68
52 58 67
51 57 66
52 59 68
51 58 66
52 59 68
53 59 68
53 60 70
51 58 68
55 63 74
51 58 67
53 61 71
55 62 71
53 60 70
53 60 70
54 62 71
55 62 72
56 64 74
56 64 74
56 64 75
55 62 72
55 63 73
55 63 72
55 63 72
56 64 74
58 65 74
56 63 73
55 63 72
58 66 76
59 67 78
58 66 77
56 64 74
54 61 71
55 63 73
52 60 70
55 63 73
59 67 78
59 66 76
58 65 76
60 67 77
56 64 73
59 67 77
57 65 75
59 67 78
58 65 75
57 65 75
57 65 76
59 67 78
59 68 78
58 65 76
58 66 76
60 67 78
58 65 75
58 66 76
60 68 79
58 66 77
59 67 78
59 68 78
60 68 78
59 67 78
61 69 80
59 68 79
60 69 80
59 68 78
60 68 79
61 70 80
58 66 77
59 67 78
60 68 79
59 67 78
61 69 80
60 68 79
60 68 78
61 69 79
60 68 79
60 68 79
60 68 79
61 70 80
61 69 80
60 68 78
61 70 80
61 69 80
61 69 79
61 69 80
60 69 80
61 69 80
60 69 80
59 67 78
62 70 80
61 69 80
59 67 78
61 69 80
61 69 79
59 67 78
62 70 80
61 69 80
61 69 80
61 69 80
60 68 79
61 69 80
61 69 80
61 70 80
60 69 80
61 70 80
61 69 80
61 69 80
60 68 80
61 69 80
61 70 80
61 69 80
61 69 79
61 69 80
61 69 80
61 70 80
60 68 79
61 69 79
62 70 80
61 69 80
60 69 80
61 69 80
61 70 80
60 69 80
61 69 80
60 69 80
60 69 80
61 70 80
61 70 80
61 69 80
62 70 80
61 70 80
61 69 80
62 70 80
61 69 80
61 69 79
62 70 80
61 69 80
60 69 80
61 69 80
60 68 78
61 70 80
61 69 80
61 69 80
60 69 80
62 70 80
63 70 80
61 70 80
61 69 80
60 69 80
61 69 80
61 69 80
62 70 80
61 70 80
61 70 80
61 69 80
60 69 80
62 70 80
61 69 80
60 69 80
62 70 80
61 69 80
61 69 80
61 69 80
61 69 80
61 69 80
60 69 80
61 69 79
61 69 80
61 70 80
61 70 80
61 69 80
60 69 80
62 70 80
61 69 80
62 70 80
61 70 80
62 70 80
62 70 80
61 69 79
61 69 80
61 69 79
61 69 80
62 70 80
62 70 80
61 69 80
61 70 80
60 68 79
61 69 80
61 70 80
61 69 80
61 70 80
61 69 80
61 69 80
61 69 80
61 69 80
61 69 80
62 70 80
61 69 80
59 67 78
62 70 80
61 69 80
61 69 80
60 68 79
62 70 80
61 69 80
60 68 79
61 69 80
62 70 80
61 69 80
60 69 80
60 68 79
61 69 80
62 70 80
61 69 80
62 69 80
61 69 80
61 69 80
62 70 80
61 69 80
60 69 80
61 70 80
60 69 80
61 69 80
62 70 80
59 67 78
60 68 78
61 69 79
61 70 80
61 70 80
59 68 78
60 69 80
60 68 79
62 70 80
62 70 80
60 69 80
61 70 80
61 69 80
60 69 79
60 69 80
61 69 80
61 70 80
60 68 79
60 68 79
61 69 80
61 69 80
60 68 79
61 69 80
61 69 80
61 69 80
61 69 79
61 69 80
60 68 79
61 69 80
61 69 80
60 68 79
61 69 80
57 66 76
60 68 79
60 68 79
61 69 80
61 69 80
59 67 78
59 68 78
60 68 78
59 67 78
60 68 79
61 69 80
59 67 78
59 67 78
59 67 78
59 67 78
61 69 79
60 68 78
58 66 77
59 67 78
60 68 78
61 69 80
60 68 78
61 69 80
59 68 79
60 68 79
61 69 80
60 68 79
60 68 79
60 68 79
59 68 79
59 67 78
60 67 78
58 67 77
59 68 78
61 70 80
60 68 78
60 68 79
56 64 74
59 67 78
60 68 79
58 66 76
58 66 76
59 67 78
60 69 80
59 67 78
59 67 77
58 66 76
57 65 76
59 67 78
58 66 77
59 67 77
56 64 74
55 62 72
58 65 76
59 67 77
57 64 74
58 66 76
58 66 76
59 67 77
56 63 73
56 64 75
56 64 75
56 63 73
56 64 74
55 63 72
53 61 70
58 66 77
55 62 72
58 66 76
56 64 75
54 62 72
56 63 73
56 64 74
56 64 74
54 61 70
52 59 67
55 62 72
51 57 66
50 57 66
55 62 72
56 64 74
52 59 69
47 54 62
52 58 67
48 54 62
52 59 68
55 62 72
47 54 62
53 60 70
52 59 68
46 53 61
51 58 67
49 55 64
52 59 68
54 62 72
54 61 71
49 55 64
50 57 66
49 56 65
49 55 62
45 51 60
46 52 61
49 56 64
47 52 60
40 45 51
31 34 39
31 35 40
31 34 39
33 37 42
33 37 42
33 37 42
31 35 40
33 37 42
34 38 43
36 40 45
32 36 41
34 38 44
34 38 43
35 39 44
34 38 43
33 37 42
31 35 40
33 36 42
32 36 41
32 36 41
32 35 40
32 35 40
32 36 40
35 39 45
48 54 62
49 56 65
51 57 66
48 54 63
45 51 60
47 54 62
48 55 64
47 53 61
53 60 68
51 58 68
49 56 64
52 59 68
54 61 70
54 61 70
50 56 65
48 55 63
51 57 66
51 58 68
47 53 61
54 61 71
51 57 66
50 57 67
54 61 71
52 59 69
52 59 68
48 55 64
49 56 65
54 61 71
55 63 73
54 61 71
56 64 73
54 62 72
55 62 72
57 65 75
53 61 71
57 65 75
54 62 72
52 59 69
58 66 76
54 62 72
55 63 73
55 62 72
57 65 75
55 63 73
54 62 71
58 66 76
57 64 74
57 65 74
58 66 77
56 64 75
58 66 77
59 67 78
57 64 74
58 66 76
56 64 73
58 66 77
57 65 75
57 65 75
61 69 79
58 66 77
59 67 77
57 65 75
59 66 77
58 66 76
58 66 75
60 68 78
59 67 77
58 67 78
57 65 76
60 68 78
60 68 79
60 68 78
58 67 78
60 68 79
62 70 80
60 67 78
60 67 78
59 68 78
60 68 79
59 68 78
59 67 78
59 67 77
60 68 79
59 67 78
58 66 77
61 69 79
61 69 80
61 70 80
60 68 79
61 69 80
61 69 80
61 69 80
60 68 79
60 68 79
60 69 79
60 68 79
57 65 75
61 69 80
61 70 80
60 69 80
59 68 78
60 69 80
60 68 79
61 69 80
61 70 80
61 69 80
61 69 80
61 69 80
59 68 79
60 68 79
59 67 78
62 70 80
61 69 80
60 68 79
61 69 80
61 70 80
61 70 80
62 70 80
61 69 80
61 69 80
62 70 80
61 70 80
61 69 80
60 68 79
61 70 80
60 69 80
61 69 80
60 69 80
61 69 80
59 68 79
60 68 80
61 68 79
61 69 80
62 70 80
60 68 79
60 68 79
61 69 80
61 69 80
60 69 80
61 69 80
61 69 80
61 70 80
62 70 80
60 69 80
61 69 79
62 70 80
61 70 80
60 68 78
61 70 80
60 69 79
60 69 80
62 70 80
61 69 79
61 69 80
61 69 80
61 69 80
61 69 80
61 69 79
61 70 80
61 70 80
61 69 80
61 69 80
60 69 80
61 69 80
61 69 80
62 70 80
61 69 80
61 69 80
61 70 80
62 70 80
61 69 80
61 69 80
61 70 80
61 69 80
61 70 80
61 69 80
61 69 80
62 70 80
61 69 80
61 69 79
61 69 80
60 69 80
61 69 80
61 69 80
61 69 80
62 70 80
61 70 80
62 70 80
61 69 80
61 70 80
61 70 80
62 70 80
61 70 80
62 70 80
61 69 80
60 68 80
61 70 80
61 70 80
61 69 80
61 70 80
62 70 80
61 69 80
61 70 80
62 70 80
61 69 80
62 70 80
61 69 80
61 69 80
62 70 80
61 70 80
62 69 80
62 70 80
62 70 80
61 69 80
62 70 80
62 70 80
62 70 80
61 69 80
61 69 80
61 69 80
60 68 79
61 69 80
61 69 80
62 70 80
61 69 80
61 69 80
61 69 80
61 69 80
60 68 79
62 70 80
61 69 80
61 69 80
61 69 80
61 69 80
61 69 80
59 68 78
60 69 80
61 69 80
60 68 79
62 70 80
61 69 80
61 69 80
62 70 80
60 69 80
61 69 80
60 69 80
61 69 80
61 69 80
60 68 79
62 70 80
61 70 80
60 68 79
60 69 80
61 68 78
61 69 80
61 70 80
61 69 80
60 69 80
60 69 80
61 70 80
61 69 80
60 68 79
61 69 80
61 69 80
60 68 78
61 69 80
62 70 80
61 69 80
61 69 80
60 68 79
61 69 80
60 68 78
61 69 80
60 68 79
59 67 78
61 69 80
62 70 80
61 69 80
60 69 80
61 69 80
60 68 79
60 68 78
60 69 79
61 69 79
61 69 79
60 69 80
60 69 79
60 68 80
61 69 79
61 69 79
61 69 79
60 68 79
60 68 78
61 69 80
59 68 79
61 69 79
59 67 78
58 65 75
60 68 78
60 68 79
59 67 77
61 69 80
59 67 78
60 69 79
59 67 77
60 68 78
57 65 76
62 70 80
61 70 80
58 66 76
59 67 78
59 67 77
59 67 78
58 66 76
59 67 78
58 66 77
59 67 78
59 67 78
57 65 75
59 67 78
59 67 77
55 63 74
58 66 76
58 67 78
55 63 73
58 67 78
59 68 78
56 64 74
59 67 78
53 60 69
60 67 78
58 66 76
55 63 72
54 62 71
55 63 73
54 61 70
53 61 71
57 64 75
53 60 70
55 62 72
54 61 71
54 60 68
52 60 69
54 61 70
54 61 71
54 62 72
51 58 67
57 65 75
50 56 65
54 61 70
54 61 70
52 59 68
53 60 69
52 59 68
55 63 73
53 61 70
54 61 71
47 53 61
47 54 62
49 56 65
54 61 70
51 58 66
48 54 62
48 55 63
51 57 66
48 54 63
53 60 69
47 53 61
46 52 60
50 56 65
50 57 66
46 52 60
50 57 66
43 49 56
43 49 57
47 53 61
43 48 55
34 37 42
33 36 41
34 37 42
34 38 43
32 36 41
33 37 42
33 37 42
34 38 43
35 39 44
33 37 42
35 39 45
33 36 41
35 39 44
34 38 43
33 37 41
34 38 43
35 39 44
32 36 41
32 36 41
32 35 40
32 36 41
44 49 57
53 59 68
50 57 66
49 55 64
47 53 61
47 53 62
45 51 59
48 54 63
50 57 66
46 52 60
46 52 59
48 54 62
50 57 66
50 56 65
50 56 65
49 56 64
52 59 69
53 60 69
52 59 68
46 52 60
50 57 66
54 61 71
50 57 66
51 59 68
50 57 65
53 60 69
52 59 68
52 60 69
55 62 71
60 68 78
53 60 70
53 61 70
56 63 73
55 63 73
51 58 68
56 64 74
56 63 73
55 62 72
54 62 72
56 64 73
57 65 75
57 64 74
57 65 75
54 62 72
53 60 69
56 64 74
59 67 77
57 65 75
56 63 73
59 67 77
59 67 78
56 64 74
56 64 74
57 65 75
59 67 78
57 65 75
55 63 72
58 67 78
58 66 76
58 66 76
56 64 75
58 66 76
60 69 80
61 69 79
57 65 75
59 67 78
59 67 78
57 66 76
61 69 79
58 65 76
60 68 78
60 67 78
60 68 79
59 67 78
58 66 76
59 67 78
61 69 80
60 68 79
58 66 77
57 65 76
60 69 80
60 69 80
61 69 79
60 68 79
61 69 80
59 67 78
60 69 80
60 68 79
59 67 78
58 66 76
60 69 80
62 70 80
59 67 78
61 70 80
60 68 78
59 67 78
60 68 78
61 69 80
60 68 78
60 68 78
60 68 78
60 68 79
60 69 80
59 68 78
60 68 79
61 69 80
59 68 79
60 68 78
61 70 80
60 69 80
60 69 80
61 69 80
61 69 79
61 69 80
61 69 79
60 68 79
61 69 80
62 70 80
60 68 79
59 68 79
60 69 80
60 68 78
61 69 80
61 70 80
62 70 80
61 69 79
61 70 80
61 69 80
61 69 80
60 69 80
59 67 77
61 69 80
61 70 80
61 69 80
60 68 79
62 70 80
60 69 80
60 68 78
62 70 80
61 69 80
61 69 80
60 68 79
60 68 79
59 68 79
61 70 80
61 69 80
61 69 80
61 70 80
62 70 80
61 69 80
61 70 80
61 70 80
61 69 80
61 69 80
60 69 80
61 69 80
61 69 80
60 68 78
61 70 80
61 69 79
60 69 80
62 70 80
60 68 79
62 70 80
61 69 80
60 69 80
61 69 80
61 70 80
61 70 80
61 69 80
61 70 80
60 69 80
61 69 80
60 69 80
61 69 80
62 70 80
61 69 80
62 70 80
61 70 80
61 69 80
61 70 80
61 70 80
60 69 80
61 70 80
61 70 80
61 69 80
61 70 80
61 70 80
61 69 80
62 70 80
61 69 80
61 69 80
61 70 80
61 70 80
61 70 80
61 70 80
61 69 80
61 69 80
61 69 80
61 69 80
62 70 80
61 70 80
62 70 80
61 69 80
62 70 80
61 70 80
60 68 79
61 69 80
60 69 80
61 69 80
60 68 80
61 69 80
61 70 80
61 69 80
61 70 80
61 70 80
62 70 80
62 70 80
61 69 80
60 68 79
61 70 80
62 70 80
61 69 80
61 70 80
61 69 80
61 69 80
61 69 80
61 69 80
62 70 80
61 70 80
61 69 80
61 70 80
61 69 80
61 69 80
61 69 80
60 69 80
61 69 80
59 68 79
60 69 79
60 68 78
61 69 80
62 70 80
60 68 79
60 68 78
60 68 79
60 69 80
60 68 79
60 69 80
60 68 79
60 68 79
62 70 80
61 69 80
60 69 80
60 68 79
60 68 79
60 69 80
60 68 78
60 69 80
61 69 80
61 70 80
60 69 80
60 69 80
61 69 80
61 69 79
62 70 80
62 70 80
60 68 79
61 69 80
60 69 80
60 68 79
60 68 79
59 68 79
61 69 80
61 69 80
59 68 78
59 67 77
61 70 80
61 69 80
59 67 78
61 69 79
61 69 80
61 69 80
60 68 79
61 69 80
60 69 80
59 67 78
57 65 75
60 68 79
61 69 80
60 68 78
60 68 78
60 68 78
59 67 78
60 69 80
62 70 80
60 68 79
60 68 78
60 68 79
60 67 77
60 69 80
61 69 80
58 67 77
60 68 78
59 67 78
59 67 77
60 68 79
59 67 78
60 68 79
58 67 78
59 67 78
60 68 79
58 66 77
60 68 78
60 68 79
58 66 76
58 66 77
58 67 77
60 69 80
60 67 78
60 68 78
57 65 75
59 67 77
56 64 75
59 68 78
60 67 78
59 67 77
58 66 76
58 66 76
57 66 76
58 66 76
57 65 75
54 62 72
59 67 77
57 65 76
59 67 77
57 65 75
58 65 76
56 64 73
54 62 72
56 64 73
56 64 74
57 65 75
54 62 71
55 62 72
56 64 73
56 63 73
55 62 72
54 62 72
54 61 71
54 62 71
55 63 72
55 62 72
52 59 69
55 62 72
52 59 68
54 62 72
47 54 63
53 60 69
50 56 64
50 57 65
58 66 76
50 57 66
53 60 69
49 55 64
53 60 68
48 55 65
53 60 69
52 59 68
49 55 64
50 57 66
51 57 66
53 60 70
50 57 67
52 59 67
43 50 58
45 51 59
52 59 67
43 49 57
49 56 64
44 50 57
39 44 50
32 35 39
31 35 40
30 33 38
31 34 38
35 38 43
35 39 44
34 37 42
34 38 44
34 38 44
29 33 37
34 38 43
34 37 42
34 38 43
32 35 40
32 36 41
34 37 42
34 38 43
39 44 50
47 54 62
42 48 56
49 55 63
48 55 65
48 55 63
48 55 64
48 54 63
47 54 63
54 61 70
51 58 67
50 56 65
50 57 66
48 55 63
51 58 67
49 56 64
48 55 63
50 57 66
53 60 70
53 60 69
52 58 67
54 61 71
54 61 71
55 62 72
51 58 68
51 58 66
51 58 67
53 60 68
56 64 73
55 63 73
51 58 67
54 62 72
54 61 70
55 63 73
56 63 73
56 64 74
55 62 71
56 63 72
55 62 72
56 63 73
55 62 72
53 60 69
55 63 73
58 66 77
57 65 75
58 65 75
58 66 77
55 63 73
55 62 72
58 65 75
54 62 72
55 63 73
58 66 76
57 64 74
58 65 75
59 67 78
56 64 74
59 67 78
58 66 77
58 67 78
58 66 76
55 63 73
59 67 78
59 66 77
59 67 78
60 67 78
58 66 77
57 65 76
59 68 78
59 68 78
61 69 80
61 70 80
60 68 79
57 65 76
59 67 78
60 68 79
59 67 77
58 66 76
60 68 79
58 67 78
58 67 77
59 67 78
59 68 79
60 68 78
60 69 79
59 67 78
58 66 76
60 68 78
60 68 79
60 68 79
58 66 77
61 69 80
59 67 77
60 69 80
59 68 79
61 70 80
60 69 80
62 70 80
60 68 79
60 69 80
60 69 80
60 68 78
61 70 80
60 68 79
61 69 80
60 68 79
59 67 78
59 67 78
61 69 80
61 69 79
61 69 80
61 69 80
60 68 79
59 67 78
61 69 80
60 69 80
60 68 79
61 69 80
61 69 79
59 67 78
61 70 80
61 69 80
61 69 80
61 69 80
59 67 78
61 70 80
60 69 80
61 69 80
61 69 80
61 70 80
61 70 80
61 69 79
61 70 80
60 68 79
61 69 79
61 69 80
61 69 80
61 69 80
62 70 80
61 69 80
61 69 80
61 69 80
61 70 80
62 70 80
61 69 80
61 69 80
61 69 80
60 68 79
61 70 80
60 68 78
61 69 80
62 70 80
62 70 80
62 70 80
61 69 80
61 69 80
61 69 80
61 69 80
61 69 80
61 70 80
61 69 80
61 70 80
62 70 80
62 70 80
60 69 80
61 70 80
61 69 80
61 69 80
61 69 80
61 69 80
62 70 80
60 69 80
61 69 80
61 70 80
62 70 80
61 70 80
60 68 79
61 69 80
61 69 80
61 69 79
61 70 80
61 69 80
61 70 80
62 70 80
61 70 80
61 69 80
61 69 80
61 69 80
60 69 80
60 69 80
62 70 80
61 70 80
61 69 80
62 70 80
62 70 80
61 70 80
61 70 80
59 68 79
60 68 79
62 70 80
61 70 80
61 70 80
61 70 80
61 69 80
62 70 80
61 69 80
61 69 80
60 69 80
61 69 80
61 70 80
62 70 80
61 69 79
61 69 80
62 70 80
61 69 80
59 68 78
60 69 80
60 69 80
61 69 80
61 70 80
62 69 80
61 69 80
61 69 80
60 68 79
61 69 80
61 69 80
62 70 80
60 68 79
61 69 79
61 69 80
61 70 80
61 70 80
62 69 80
60 68 79
59 68 79
61 69 80
61 69 80
61 69 80
61 70 80
61 70 80
60 69 80
60 69 80
60 68 78
60 69 80
60 69 80
61 69 80
60 68 79
61 69 80
61 69 80
62 70 80
60 69 80
61 69 80
61 69 80
62 70 80
60 69 80
59 67 77
61 69 80
60 68 80
60 69 80
62 70 80
61 69 80
58 67 78
60 69 80
61 69 80
60 69 80
61 69 80
62 70 80
61 69 80
59 67 78
60 69 79
61 69 80
61 69 80
60 68 79
61 69 79
60 69 80
61 70 80
61 69 80
62 70 80
60 68 79
61 69 80
59 67 78
60 68 79
59 68 79
60 67 78
59 67 78
61 69 80
60 68 78
59 67 78
61 69 80
60 68 80
60 68 79
60 69 80
60 68 78
60 68 79
59 67 78
61 69 79
59 67 78
60 68 79
60 68 79
59 68 78
59 67 78
60 68 78
59 68 78
60 68 78
61 70 80
60 68 79
61 69 80
59 67 78
61 69 80
59 67 78
60 68 78
60 68 79
61 70 80
59 67 78
59 67 77
59 67 78
60 68 78
60 69 80
60 67 78
60 68 79
58 66 77
60 68 79
57 65 76
59 67 77
59 67 77
57 65 76
59 67 77
59 67 78
59 67 78
57 65 74
59 66 76
57 65 75
60 67 78
59 67 78
57 65 75
56 64 75
55 63 72
56 63 73
56 64 73
58 65 76
56 63 73
55 62 72
56 64 75
54 61 71
55 63 73
52 59 68
54 61 71
55 63 73
57 65 75
55 63 72
53 61 71
54 62 73
52 59 68
54 61 71
52 60 69
55 62 72
50 56 65
55 62 72
51 58 68
53 61 71
52 59 68
51 58 67
53 61 70
52 59 68
52 59 68
54 62 72
50 57 66
48 55 63
52 58 67
49 55 64
53 61 70
48 55 64
48 55 63
52 58 67
49 56 64
44 51 59
54 61 70
49 55 64
45 51 59
49 55 63
49 55 63
47 53 60
52 59 68
43 49 57
35 38 44
29 33 37
33 37 42
32 36 41
33 37 41
33 37 43
34 38 44
35 39 44
34 38 43
32 36 41
31 34 39
34 37 42
35 38 43
33 37 42
41 46 53
47 53 62
46 52 61
44 50 58
51 58 67
47 53 61
50 56 65
49 55 64
52 59 68
50 57 66
55 63 72
50 57 66
47 53 62
49 56 65
51 58 66
53 60 69
52 59 68
54 61 70
50 57 66
51 58 67
52 60 69
55 63 73
44 50 58
54 62 71
52 59 69
54 61 70
57 64 73
56 63 73
52 59 69
53 60 70
53 60 69
55 62 72
54 61 71
57 65 75
52 60 69
54 61 71
54 62 71
54 62 72
52 59 69
58 66 77
54 62 72
58 66 76
56 64 73
56 64 74
57 64 75
57 65 76
56 64 74
54 62 72
59 66 77
59 66 76
57 65 75
58 65 75
58 66 77
56 64 75
57 64 75
57 64 75
59 67 77
57 65 75
60 68 78
59 67 78
58 66 77
58 66 76
58 66 76
58 65 75
60 67 78
57 65 75
58 66 76
60 68 78
58 65 75
60 68 79
59 68 78
59 67 78
58 66 76
59 67 78
58 66 77
60 68 79
59 67 77
60 68 78
59 67 78
59 67 77
60 67 78
60 68 78
59 68 79
60 68 79
61 70 80
60 69 79
60 68 78
60 68 80
61 69 80
60 68 79
61 69 79
61 69 80
59 67 77
57 65 75
59 67 78
61 69 80
61 70 80
61 69 80
61 69 80
60 68 78
61 69 79
61 69 80
60 68 79
61 69 80
61 70 80
60 68 79
61 69 80
62 70 80
59 68 78
60 68 79
61 69 80
60 69 80
60 67 78
60 69 79
61 69 80
60 69 80
60 68 79
60 69 80
60 68 79
61 69 80
60 68 78
61 69 80
60 69 80
61 69 80
59 67 77
62 70 80
61 70 80
61 69 80
62 70 80
61 70 80
61 70 80
61 69 80
61 69 79
60 68 78
59 68 79
61 69 80
61 69 80
61 70 80
61 69 80
61 69 80
61 69 80
61 70 80
60 68 79
62 70 80
61 70 80
61 69 80
62 70 80
62 70 80
61 69 80
61 70 80
60 68 79
61 70 80
60 69 80
61 69 80
61 70 80
62 70 80
61 69 80
60 69 80
61 69 80
61 69 80
61 70 80
62 70 80
61 69 80
61 69 80
61 69 80
61 70 80
61 70 80
60 68 79
60 69 80
61 69 80
60 68 79
61 69 80
62 70 80
61 69 80
61 70 80
61 70 80
61 69 80
61 69 80
61 69 80
61 69 80
61 70 80
61 70 80
61 69 80
62 70 80
62 70 80
62 70 80
61 69 80
61 69 80
61 70 80
61 70 80
62 70 80
62 70 80
61 69 80
61 69 80
62 70 80
62 70 80
61 69 80
61 70 80
61 69 80
61 69 80
61 70 80
61 69 80
60 69 80
60 69 80
61 69 80
60 68 79
62 70 80
60 69 80
61 69 80
61 69 80
61 69 79
61 69 80
62 70 80
62 70 80
62 70 80
61 70 80
62 70 80
62 70 80
61 69 80
61 69 80
61 69 80
61 69 80
61 69 80
62 70 80
60 69 80
61 69 80
62 70 80
61 69 80
61 69 80
61 69 80
61 70 80
61 69 80
62 70 80
60 68 79
61 69 80
61 69 80
62 70 80
61 70 80
60 69 80
61 70 80
61 69 80
61 70 80
60 69 80
60 68 79
61 69 80
62 69 80
60 68 79
60 68 79
60 68 80
61 69 79
61 69 80
61 69 80
60 69 80
62 70 80
61 69 80
60 69 80
61 69 80
60 68 78
60 69 80
61 69 80
61 69 80
61 70 80
61 69 80
61 69 80
61 69 80
60 68 78
61 69 79
62 70 80
61 69 80
62 70 80
60 68 79
61 69 79
61 70 80
61 69 80
61 69 79
60 68 79
61 69 80
60 68 79
62 70 80
61 69 80
61 69 80
60 68 79
60 68 79
61 69 80
60 68 78
61 69 79
59 67 77
61 69 80
61 69 79
60 68 78
61 69 80
62 70 80
60 68 79
61 69 80
61 69 80
60 69 80
60 68 79
60 68 78
59 67 78
61 69 80
60 68 78
61 69 80
58 66 77
60 69 80
59 67 78
60 68 78
59 68 78
60 68 78
60 68 78
61 69 80
60 68 79
59 67 77
59 67 78
61 69 79
58 67 78
58 65 75
60 68 79
60 68 79
59 67 78
58 66 77
59 67 78
57 65 76
60 68 79
57 65 75
57 65 76
58 66 76
58 66 76
58 66 77
56 64 74
55 63 74
59 67 78
55 63 73
58 65 76
56 64 75
56 64 74
58 65 75
57 65 76
56 64 75
57 64 74
57 66 76
59 67 78
55 63 74
56 63 73
55 63 73
55 63 72
57 65 75
56 63 73
58 66 76
52 58 67
56 63 73
57 64 75
57 65 75
52 60 70
57 65 75
57 65 75
52 59 69
54 61 71
55 62 72
54 61 70
52 60 70
51 58 68
50 56 65
48 54 63
51 58 68
52 59 68
49 55 64
55 63 73
56 64 74
52 59 69
49 55 64
50 57 65
51 58 67
50 57 65
52 59 68
46 52 60
51 58 67
43 49 57
47 54 63
51 58 67
48 55 63
51 57 66
47 53 61
50 57 65
48 54 63
44 50 58
47 53 61
48 54 62
41 47 53
34 38 43
32 36 41
32 35 40
35 39 44
34 38 43
34 38 43
32 36 41
33 37 42
33 37 42
31 35 40
34 38 44
45 51 59
48 55 64
49 55 64
42 48 56
45 51 58
49 56 65
48 55 63
50 57 65
46 52 60
48 54 62
48 55 63
50 57 66
47 54 63
52 59 67
49 56 65
50 57 67
50 57 66
50 57 65
49 56 65
54 61 70
52 59 69
54 62 72
53 60 70
54 62 71
54 61 70
49 56 64
51 58 67
51 59 68
51 58 67
52 59 69
57 65 75
54 62 71
55 63 73
53 61 71
54 61 71
54 61 71
57 64 74
59 67 78
56 64 74
58 65 76
57 65 75
55 62 72
57 65 76
56 64 75
56 64 74
55 63 74
56 64 75
55 63 73
58 66 77
60 68 79
55 64 75
56 64 75
59 67 78
58 66 77
60 68 78
58 66 76
54 61 71
59 68 78
55 62 72
57 65 75
56 64 74
57 65 75
57 64 74
57 65 75
59 67 77
57 66 76
57 66 77
59 67 78
59 66 77
61 69 79
61 69 80
60 67 78
57 66 76
58 66 77
61 69 80
60 68 78
60 68 78
59 67 78
61 69 79
59 67 78
60 69 80
58 67 77
60 68 78
60 68 78
59 67 78
59 68 78
59 67 78
60 68 79
60 68 79
58 66 76
60 68 78
60 68 78
61 69 80
61 69 80
61 69 80
58 67 78
60 68 80
59 67 78
61 69 79
59 68 79
60 68 78
61 69 80
61 69 80
59 67 78
59 67 78
60 68 79
60 68 78
60 69 80
61 70 80
61 69 80
61 69 80
60 68 79
61 69 80
62 70 80
60 69 80
61 69 79
61 69 80
62 70 80
58 67 78
60 69 80
61 69 80
61 69 80
61 69 80
59 67 78
60 68 79
61 69 80
61 69 80
61 69 80
61 69 80
61 69 79
60 69 80
61 69 80
62 70 80
59 68 78
61 69 80
61 69 80
60 68 79
61 69 79
61 69 79
60 68 79
61 69 80
60 68 79
60 69 80
61 69 80
62 70 80
60 69 80
61 69 80
61 70 80
61 69 80
62 70 80
62 70 80
61 69 80
61 69 80
61 69 80
61 69 80
61 69 80
60 68 79
61 69 80
61 69 80
60 69 80
60 68 78
62 70 80
61 69 80
62 70 80
60 69 79
62 70 80
60 69 80
61 69 80
61 70 80
61 69 80
62 69 80
60 69 80
61 69 80
61 69 80
61 70 80
62 70 80
60 68 79
61 69 80
60 69 80
60 69 80
61 69 80
61 70 80
61 69 80
62 70 80
61 69 80
61 69 80
61 70 80
61 69 80
61 70 80
61 70 80
62 70 80
61 70 80
61 69 80
60 69 80
61 69 80
61 70 80
61 70 80
60 69 80
61 69 80
61 69 80
61 69 80
61 69 80
61 69 80
61 70 80
61 70 80
61 69 80
61 69 80
61 69 80
61 70 80
61 70 80
61 69 80
61 69 80
61 70 80
61 69 80
60 68 79
60 69 80
61 70 80
61 69 80
61 69 80
61 70 80
61 70 80
61 69 80
61 69 80
60 68 79
60 69 80
60 69 80
61 70 80
61 69 80
62 70 80
60 69 80
61 70 80
61 70 80
60 69 80
60 68 79
61 70 80
61 69 80
62 70 80
60 69 80
61 69 80
60 69 80
61 69 80
60 69 80
61 69 80
61 69 80
60 69 80
61 70 80
61 69 80
61 70 80
61 69 79
61 69 80
61 69 80
62 70 80
59 68 78
60 68 79
61 69 80
62 70 80
61 70 80
61 69 80
60 68 78
60 68 79
61 69 80
61 69 80
61 69 80
59 68 78
61 69 80
59 67 78
60 68 79
60 69 80
61 69 80
61 69 80
62 70 80
60 68 78
61 69 80
60 68 79
60 68 79
61 69 80
61 69 80
60 69 80
61 69 80
59 67 78
61 70 80
61 70 80
59 68 78
60 69 80
60 67 78
60 69 79
60 68 78
61 69 80
60 68 79
59 68 78
60 69 80
61 69 80
60 68 78
59 68 78
61 69 80
60 69 80
59 68 78
60 68 79
60 68 79
61 69 80
60 69 80
60 68 79
59 67 78
61 70 80
59 67 77
59 67 78
60 68 78
58 66 77
59 68 78
61 69 79
60 68 79
60 69 80
59 67 78
58 66 77
59 67 77
60 68 78
60 68 79
58 65 75
58 66 77
58 67 77
59 68 78
60 67 78
59 68 79
57 66 76
60 68 78
57 65 75
57 65 75
58 66 76
57 64 74
59 67 78
57 65 75
59 66 76
57 65 76
60 68 79
58 66 76
59 67 77
57 65 75
57 65 76
56 64 74
58 65 74
57 64 75
53 60 70
55 62 72
55 63 73
58 66 77
55 63 73
56 63 73
58 65 75
56 64 74
58 66 76
56 63 72
56 64 74
56 64 75
54 61 71
58 65 75
52 60 69
57 65 75
52 60 70
54 62 72
52 59 68
56 64 75
54 61 70
54 61 71
51 57 66
53 60 70
53 60 69
52 59 68
50 57 66
52 59 68
50 57 66
54 62 72
53 59 68
50 57 66
50 57 65
51 58 67
52 60 69
49 55 64
53 61 70
49 56 65
51 58 67
52 58 67
49 56 64
48 54 63
46 52 60
48 55 63
46 53 61
47 53 62
52 58 68
46 52 61
50 56 65
41 46 53
35 39 44
32 36 41
35 39 45
31 35 40
34 38 43
33 37 42
35 38 44
43 48 55
49 56 64
46 52 61
50 57 66
49 56 65
48 54 62
46 51 59
48 55 63
51 57 66
52 59 68
50 57 66
50 56 65
52 59 68
45 51 59
52 59 69
48 54 63
56 64 73
52 60 69
54 61 71
52 59 68
51 59 68
55 62 72
52 59 68
49 56 66
50 56 65
55 62 71
55 62 72
53 59 68
52 59 68
51 59 68
54 61 71
56 64 74
56 64 74
52 59 68
54 61 70
55 62 72
52 59 69
55 62 72
54 62 73
55 63 73
57 65 76
56 64 73
56 64 75
57 65 76
57 64 74
55 63 73
55 62 71
58 67 77
55 62 73
55 62 72
55 63 73
57 65 75
55 63 73
56 64 74
56 64 74
58 66 76
55 63 73
59 66 76
55 63 74
55 63 73
55 62 72
56 64 75
56 64 75
59 67 78
58 67 78
58 66 77
58 66 76
58 66 77
57 65 75
57 65 75
59 67 78
60 68 78
58 65 75
60 68 79
56 64 74
60 68 78
59 67 78
60 68 78
60 68 79
60 68 78
60 68 78
60 68 78
59 68 78
58 66 76
61 69 79
61 69 80
60 68 79
60 68 78
60 69 80
60 68 78
58 66 77
60 69 79
60 69 80
59 67 77
60 68 78
62 70 80
57 65 75
59 67 78
60 68 79
60 68 78
60 68 79
61 69 79
60 69 80
59 68 78
61 69 80
60 68 78
61 69 80
61 69 80
61 69 80
61 69 80
60 68 78
60 68 79
61 70 80
60 68 79
60 68 80
59 68 80
60 69 80
59 67 78
59 67 78
60 68 79
59 68 78
60 68 79
60 69 80
59 68 79
61 69 80
59 68 78
59 68 78
61 69 80
60 69 80
61 69 80
61 69 79
60 69 80
61 69 80
60 69 80
61 70 80
62 70 80
60 69 80
60 69 80
60 68 78
61 69 80
60 69 80
61 70 80
60 68 79
61 70 80
61 69 80
61 69 80
62 70 80
61 69 80
61 69 80
61 70 80
61 69 80
61 69 80
61 69 80
61 69 80
61 69 80
61 70 80
61 69 80
59 67 78
60 69 80
61 69 80
62 70 80
61 70 80
61 69 80
61 70 80
61 69 80
61 69 80
61 69 80
61 70 80
61 69 80
60 68 79
61 70 80
61 69 80
61 70 80
62 70 80
61 69 80
61 70 80
61 69 80
61 69 80
60 68 79
61 70 80
61 69 80
62 70 80
61 70 80
61 69 80
61 70 80
62 70 80
60 69 80
61 69 80
61 70 80
61 69 80
61 70 80
61 69 80
61 69 80
61 69 80
60 69 80
61 69 80
62 70 80
62 69 80
60 68 79
62 70 80
61 69 80
61 70 80
61 69 80
60 69 80
60 68 78
61 70 80
61 69 80
61 69 80
61 69 80
61 69 80
62 70 80
61 69 80
61 70 80
60 68 79
60 69 80
61 69 80
61 69 80
61 69 80
61 69 80
61 69 80
61 69 80
61 70 80
61 69 80
61 69 80
60 68 79
61 70 80
61 69 80
62 70 80
60 69 80
61 69 80
62 70 80
60 69 80
61 70 80
62 70 80
61 70 80
61 69 80
61 69 80
62 70 80
61 69 80
60 68 79
60 69 80
62 70 80
61 69 80
61 69 80
61 69 80
61 69 80
60 68 78
60 69 80
61 70 80
61 69 80
61 69 80
61 69 80
60 68 79
62 70 80
59 67 78
59 68 78
61 69 80
61 70 80
61 69 80
61 69 80
62 70 80
62 70 80
61 70 80
62 70 80
62 70 80
62 70 80
61 69 80
61 69 80
61 70 80
61 69 80
60 69 80
61 70 80
61 70 80
62 70 80
61 69 80
60 69 80
60 68 78
60 68 79
61 69 80
61 69 80
61 69 79
60 68 78
60 69 80
60 68 79
59 67 77
59 67 78
61 69 80
60 69 80
61 70 80
61 69 80
60 68 79
60 68 79
58 66 77
61 70 80
61 69 80
61 70 80
61 69 79
60 68 79
60 68 79
60 68 79
58 66 77
61 70 80
60 68 78
60 68 79
61 69 79
60 67 78
60 69 80
61 70 80
58 66 78
61 70 80
58 65 76
59 67 77
59 67 78
60 68 79
59 68 79
59 67 77
60 68 79
60 68 78
59 68 78
56 64 75
59 67 78
60 67 78
60 69 79
57 65 76
60 69 79
57 66 77
58 65 76
58 66 76
58 66 77
59 67 78
61 70 80
59 67 78
59 67 77
59 67 78
57 65 75
59 67 78
57 65 76
57 65 76
60 68 79
59 67 78
59 67 77
58 66 77
56 63 73
58 66 77
59 67 78
58 65 75
57 64 74
56 64 75
56 63 73
55 63 73
56 64 74
54 61 71
56 64 74
55 63 73
54 61 70
57 65 75
56 63 73
56 63 73
58 66 76
55 63 72
56 64 73
56 64 74
55 63 73
54 61 70
54 62 71
53 60 70
55 63 73
53 60 70
55 63 72
50 57 66
56 63 73
54 61 71
52 59 69
53 61 71
51 58 67
54 61 70
50 57 67
55 61 71
48 55 63
51 58 67
52 59 69
46 52 60
50 57 66
48 55 63
50 57 65
52 59 68
50 56 65
46 52 59
55 63 72
52 59 69
48 54 63
47 54 62
44 50 57
45 51 59
35 39 45
34 38 43
33 36 41
31 34 39
38 42 48
47 53 61
47 53 62
48 54 62
53 61 70
49 55 64
52 59 68
48 54 62
50 57 65
54 61 70
52 59 68
51 58 67
52 59 68
53 60 70
48 55 64
51 58 66
46 53 61
49 56 65
52 58 68
51 58 68
56 64 74
52 59 68
54 62 72
50 57 66
50 57 66
51 58 68
56 63 72
55 62 72
55 63 73
54 62 72
52 59 68
55 62 72
55 63 73
54 62 71
55 63 73
51 58 67
53 60 70
55 62 72
60 67 78
54 62 72
54 61 70
56 63 73
56 64 74
53 61 71
58 66 76
58 65 75
59 67 78
57 64 74
55 62 72
56 63 73
57 65 76
55 62 72
57 65 75
58 66 76
58 65 75
56 64 73
58 66 77
53 60 70
58 66 77
58 66 76
58 66 77
59 68 79
58 66 77
59 67 77
58 66 76
57 65 76
56 64 74
59 67 77
58 66 77
58 65 75
60 68 78
57 66 76
57 66 76
57 65 76
57 65 75
60 68 79
60 68 79
59 67 77
61 69 80
60 69 80
60 68 79
59 68 79
60 68 78
60 68 78
61 68 78
60 68 79
61 69 79
61 69 80
61 69 79
60 68 79
60 68 78
60 68 78
59 67 78
60 68 79
62 70 80
61 69 80
59 67 78
61 69 79
60 69 80
61 69 80
60 69 80
61 69 80
59 67 78
60 68 79
60 69 80
60 68 79
60 69 80
60 69 80
60 68 79
59 68 78
61 69 80
60 69 80
61 69 80
59 68 78
60 68 79
61 69 80
60 68 78
61 69 80
60 68 79
60 68 78
60 68 79
61 69 80
59 68 78
60 69 80
61 69 80
60 68 79
61 70 80
60 68 79
61 69 79
61 69 80
62 70 80
60 68 79
61 69 80
61 69 80
61 69 80
61 69 80
62 70 80
61 69 80
60 68 79
60 69 80
61 69 80
62 70 80
61 69 80
61 69 80
61 69 80
62 70 80
61 70 80
61 70 80
61 69 80
61 69 80
61 70 80
61 69 80
61 70 80
61 69 80
61 69 80
61 70 80
59 68 78
61 70 80
61 70 80
60 69 80
61 69 80
61 68 78
61 69 80
61 69 80
61 70 80
61 70 80
61 70 80
61 70 80
62 70 80
60 69 80
61 69 80
61 69 80
62 69 80
62 70 80
61 69 80
62 70 80
62 70 80
61 69 80
61 69 80
60 68 78
61 69 80
61 70 80
61 69 80
61 69 80
61 69 80
61 69 80
61 69 80
61 69 80
62 70 80
61 70 80
60 68 79
61 69 80
61 69 80
61 69 80
61 69 80
60 69 80
61 69 80
61 70 80
61 69 80
62 70 80
61 70 80
61 69 80
61 69 80
61 69 80
62 70 80
61 69 80
62 70 80
61 70 80
61 69 80
60 68 80
61 70 80
61 70 80
61 69 80
61 69 80
61 69 80
62 70 80
61 69 80
61 69 80
62 70 80
62 70 80
62 70 80
61 69 80
62 70 80
61 70 80
61 70 80
60 69 80
61 70 80
61 69 80
60 69 80
62 70 80
61 70 80
61 69 80
61 69 80
61 70 80
61 69 80
61 69 80
60 69 79
61 69 80
61 69 80
60 68 79
62 70 80
61 69 80
62 70 80
60 68 79
61 69 79
61 69 80
62 70 80
61 70 80
61 69 80
61 69 80
61 70 80
61 69 80
61 70 80
60 69 80
60 69 80
62 70 80
61 69 80
60 69 80
61 69 80
60 69 80
61 69 80
61 70 80
61 70 80
61 70 80
60 68 79
61 69 80
61 70 80
61 69 80
60 68 79
62 70 80
60 69 80
60 68 79
60 69 80
60 69 80
60 68 79
60 69 80
60 68 78
61 69 80
61 69 80
61 69 80
61 69 80
59 67 78
58 66 77
59 68 78
60 68 79
60 68 78
61 69 80
60 69 80
61 69 80
60 68 79
60 68 79
59 67 78
60 68 78
59 68 78
61 69 80
61 69 80
60 68 79
60 68 78
61 69 80
61 69 79
60 68 79
60 68 78
60 68 78
60 68 78
60 68 79
62 70 80
58 67 78
60 68 78
60 68 78
61 69 79
61 69 80
59 68 78
59 68 78
60 68 79
59 67 78
58 67 78
59 67 78
60 68 78
59 67 78
56 64 74
59 67 78
59 67 78
58 65 75
59 67 77
60 68 78
61 69 80
58 66 77
59 68 78
58 66 77
58 66 76
58 67 78
57 66 77
60 68 79
59 67 78
57 65 75
56 64 75
58 66 76
54 62 72
60 68 79
59 67 78
57 65 75
58 66 76
57 65 75
57 65 76
55 62 72
60 68 79
56 65 75
56 64 75
56 64 75
59 67 77
56 63 73
53 60 70
55 63 72
58 66 77
59 67 77
55 63 73
55 63 72
54 62 72
55 62 72
57 65 75
54 62 71
56 63 72
55 63 72
53 61 70
54 61 71
59 67 77
55 63 73
53 60 70
55 62 72
53 60 69
53 60 70
57 64 74
50 56 65
52 59 68
50 58 67
53 61 70
56 63 73
54 62 72
53 60 69
54 61 71
51 57 66
51 57 66
53 60 69
51 58 68
52 60 69
56 63 72
53 60 69
53 60 70
50 56 65
52 59 68
49 55 63
50 56 65
56 63 73
49 56 64
52 59 68
50 56 65
49 55 62
47 53 61
39 44 51
46 52 60
48 54 62
52 60 69
47 53 61
52 60 69
53 60 70
54 61 70
54 61 70
50 56 65
52 59 68
50 57 67
53 60 70
50 57 65
54 61 70
53 59 68
53 61 70
52 59 68
51 57 66
53 60 69
51 57 66
52 59 68
52 59 69
56 64 74
53 61 70
54 61 70
52 59 68
52 59 68
53 60 69
55 62 72
52 59 68
54 61 70
54 61 70
54 61 71
56 64 74
58 66 75
55 63 73
57 65 76
52 60 69
56 64 74
58 66 76
57 64 75
58 66 76
57 64 75
54 62 72
57 65 75
56 63 73
56 64 74
60 68 79
55 63 73
55 63 73
56 64 74
58 66 76
57 65 76
59 67 78
59 67 77
57 65 75
55 63 73
58 66 76
56 64 75
58 66 77
58 66 76
55 63 73
58 66 77
57 65 76
56 64 75
59 67 77
57 65 75
58 66 76
56 64 75
59 67 77
58 66 77
59 67 77
60 68 79
59 67 78
59 68 78
59 67 77
59 67 78
61 69 80
60 68 79
60 69 80
59 67 78
60 69 80
58 67 78
59 67 78
58 67 78
60 68 79
57 66 76
59 67 78
59 67 78
58 66 77
59 68 78
61 69 80
60 68 79
59 67 77
61 69 80
60 68 79
61 69 79
58 66 77
60 68 78
61 69 80
60 69 80
61 69 79
61 69 80
59 68 79
61 69 80
61 69 79
61 69 80
61 70 80
61 70 80
61 69 80
61 69 80
59 67 77
60 68 78
59 68 78
61 69 79
59 68 78
61 69 80
59 67 78
60 68 79
61 69 79
61 69 80
61 69 80
60 68 79
61 69 80
61 69 80
61 69 80
61 69 80
61 69 80
61 69 79
61 69 80
61 69 79
61 69 80
61 69 80
60 68 79
61 69 80
61 69 80
60 68 78
60 69 80
61 69 80
62 70 80
61 69 80
60 69 80
61 70 80
61 69 80
63 70 80
60 68 79
61 69 79
61 69 80
62 70 80
62 70 80
60 69 80
60 68 79
60 69 80
61 69 80
61 69 80
61 69 79
61 69 80
61 69 80
60 69 80
61 69 80
60 68 79
60 68 79
61 69 80
60 68 79
61 70 80
61 69 80
62 70 80
61 70 80
61 69 80
61 69 80
61 69 80
62 70 80
61 70 80
61 70 80
61 69 80
61 69 80
61 69 80
62 70 80
60 69 80
61 69 80
61 70 80
61 70 80
61 70 80
61 69 80
62 70 80
60 69 80
60 69 80
61 69 80
61 69 80
61 69 80
61 69 80
61 69 80
62 70 80
61 69 80
61 69 80
60 69 80
61 69 80
61 69 80
59 67 78
62 70 80
61 70 80
61 70 80
61 69 80
61 70 80
61 70 80
60 69 80
61 69 80
60 69 80
61 70 80
61 69 80
61 69 80
61 70 80
61 69 80
61 69 80
61 69 80
61 70 80
61 69 80
60 69 80
61 70 80
61 70 80
61 69 80
61 69 80
61 69 80
61 69 80
61 70 80
61 69 80
61 70 80
61 69 80
61 70 80
58 67 78
60 69 80
61 69 79
61 70 80
61 70 80
61 69 80
61 69 80
60 68 79
61 69 80
61 69 80
61 69 80
61 70 80
62 70 80
61 69 80
60 69 80
61 69 79
61 69 79
59 68 78
62 70 80
62 70 80
61 69 80
61 69 80
61 70 80
60 68 79
60 69 80
61 69 80
60 68 79
60 69 80
61 69 80
61 69 79
60 69 79
61 69 80
61 69 80
60 69 80
61 70 80
60 67 78
60 68 79
61 69 80
61 69 80
60 68 79
60 69 80
61 69 80
61 69 80
60 68 79
60 68 79
60 69 80
60 68 79
62 70 80
61 69 80
61 69 80
60 69 80
60 68 79
59 67 78
62 70 80
61 69 80
60 69 80
60 69 80
60 68 78
61 69 80
60 67 78
62 70 80
61 69 80
60 69 80
60 68 78
60 68 79
61 69 80
60 69 80
60 68 78
60 68 79
60 68 79
59 67 77
60 68 79
60 68 79
58 66 77
58 66 77
61 69 80
61 69 80
58 66 77
59 67 78
59 68 78
61 69 80
61 69 79
60 69 80
61 69 80
59 68 79
61 69 80
58 65 75
60 68 78
59 67 78
59 67 77
58 66 77
59 67 78
59 67 77
57 65 76
59 67 78
60 68 79
60 68 79
58 66 76
60 68 78
57 65 76
58 66 77
59 67 78
59 67 77
56 64 74
58 67 78
58 66 77
58 67 78
59 67 77
56 64 74
57 65 76
56 63 72
59 67 78
57 65 75
54 61 71
56 64 74
58 66 77
57 65 75
60 68 79
57 64 75
58 65 75
59 67 77
60 68 78
57 65 75
56 63 73
54 61 71
57 64 74
56 64 74
56 64 74
56 64 73
55 62 72
55 62 72
56 64 74
51 58 67
53 61 71
56 63 73
56 64 73
53 60 69
56 64 74
55 62 72
52 60 69
52 59 68
57 65 75
54 61 71
57 65 75
55 62 71
53 60 69
53 60 69
53 60 70
48 54 62
49 56 65
52 59 69
56 63 73
54 61 70
54 60 69
50 57 66
52 59 68
57 64 74
51 58 68
51 58 68
54 61 71
55 62 72
53 60 70
50 57 66
56 63 72
54 61 70
51 57 66
55 63 73
54 61 71
56 64 73
55 62 72
57 64 74
52 59 67
52 60 69
52 59 68
55 62 72
53 59 68
56 63 73
52 59 68
52 59 68
51 59 68
54 62 72
54 61 70
53 60 69
51 59 68
54 61 70
50 57 66
54 61 71
52 59 68
54 61 71
55 62 72
52 59 68
51 58 67
55 63 72
55 63 72
53 61 70
51 58 67
54 62 71
57 65 75
56 63 72
56 63 73
57 65 76
56 64 74
54 62 71
56 63 73
51 58 67
57 65 75
57 64 73
55 62 72
52 59 68
56 64 74
55 63 72
58 66 76
56 64 75
57 65 75
56 63 73
57 65 75
60 68 78
59 66 76
57 65 76
56 64 75
57 65 76
59 67 77
57 65 75
57 65 75
57 66 76
57 64 74
59 67 77
57 64 75
58 66 76
58 67 78
57 65 75
58 65 76
60 67 78
58 66 77
57 64 75
60 68 79
59 67 78
60 68 78
57 64 75
59 67 78
59 67 78
59 67 77
58 66 76
58 66 77
59 67 77
58 65 75
59 68 78
60 68 78
58 66 77
58 66 77
56 64 74
60 68 78
58 67 77
60 68 78
60 69 79
59 68 79
59 67 77
59 67 77
61 69 80
60 68 79
60 68 79
62 69 80
60 69 80
59 67 78
60 68 78
59 68 78
60 69 80
60 68 79
62 70 80
60 68 79
59 68 78
57 65 76
59 67 78
61 69 79
61 70 80
62 70 80
61 70 80
62 70 80
60 69 80
59 67 78
58 66 76
60 69 80
59 68 79
61 69 80
62 70 80
61 69 80
60 68 79
60 68 79
59 68 78
60 68 79
61 69 80
60 68 78
61 70 80
61 70 80
60 68 79
61 70 80
60 69 80
62 70 80
61 69 80
60 68 79
61 69 80
61 69 80
60 68 79
60 69 80
61 69 80
60 68 79
60 69 80
60 68 79
61 69 80
61 70 80
62 70 80
59 68 79
60 68 79
60 68 79
61 70 80
61 69 80
60 68 79
61 69 80
61 69 80
61 69 80
61 69 80
61 69 80
62 70 80
61 70 80
61 69 80
61 70 80
60 69 80
61 70 80
61 70 80
60 68 79
61 69 80
61 69 80
62 70 80
61 69 80
61 69 80
60 68 79
61 70 80
61 69 80
60 68 79
61 69 80
61 69 80
61 69 80
62 70 80
61 68 78
61 69 80
62 70 80
61 69 80
61 69 80
61 70 80
61 69 80
60 69 79
61 70 80
61 69 80
61 69 80
61 69 80
61 69 80
61 69 80
62 70 80
61 69 80
61 69 80
61 70 80
61 70 80
61 69 80
61 69 80
62 70 80
61 69 80
61 69 80
61 69 80
60 69 80
61 69 79
60 69 80
61 69 80
61 69 80
61 69 80
62 70 80
61 70 80
60 68 79
61 69 80
60 69 80
62 70 80
62 70 80
61 69 80
61 69 80
61 69 80
60 68 79
62 70 80
62 70 80
61 69 80
61 69 80
61 69 80
63 70 80
61 69 80
61 70 80
60 69 80
61 69 80
61 69 80
60 68 78
61 70 80
62 70 80
61 70 80
61 70 80
60 69 80
60 68 78
61 69 80
62 70 80
61 69 80
63 70 80
61 69 80
61 69 80
60 69 80
60 68 79
62 70 80
62 70 80
61 69 80
60 68 79
61 69 80
60 69 80
60 68 78
61 69 80
61 69 80
61 69 80
62 70 80
61 69 80
62 70 80
61 69 80
61 69 80
62 70 80
61 70 80
60 68 79
61 69 80
60 68 78
60 69 80
61 70 80
61 69 80
60 69 80
60 68 78
62 70 80
60 68 79
61 69 80
61 69 80
60 68 79
61 69 79
59 67 78
59 67 78
60 69 80
62 70 80
61 69 79
60 68 79
59 67 78
61 69 80
59 68 79
60 68 79
61 69 79
61 70 80
60 69 80
59 67 78
61 70 80
59 68 78
61 69 79
58 66 76
60 69 80
61 69 80
60 69 79
59 67 78
60 68 78
59 67 78
60 68 79
60 68 78
61 70 80
61 69 80
60 68 78
59 68 78
61 69 80
59 67 78
61 69 80
60 68 78
59 68 79
60 68 78
61 69 79
59 67 78
59 68 79
58 66 77
60 68 78
60 68 79
59 67 78
60 68 79
60 68 78
60 68 79
59 68 78
61 69 79
58 66 76
61 69 80
59 67 77
58 66 77
60 68 78
59 67 77
57 65 75
59 68 78
58 67 78
58 67 77
56 64 75
56 65 75
59 67 77
58 65 76
60 68 78
57 65 76
59 68 78
57 65 75
58 66 77
57 65 75
58 66 77
58 66 76
59 67 77
58 66 77
56 64 74
55 62 71
55 63 73
58 66 76
58 66 76
58 66 77
55 62 72
56 65 75
54 62 71
58 66 77
57 64 75
55 62 72
58 66 77
59 67 78
57 65 76
54 61 70
57 65 75
57 65 74
55 63 72
56 64 74
56 64 73
55 63 73
57 65 75
55 62 72
55 63 73
57 65 75
57 64 74
53 60 70
54 61 71
55 62 72
55 62 71
57 65 76
51 58 68
58 66 76
57 64 74
55 63 72
54 62 72
58 65 76
54 61 71
56 63 73
52 59 68
54 62 72
53 60 70
54 62 72
54 61 70
53 61 70
55 62 72
54 61 71
53 60 70
54 61 71
55 63 72
54 61 70
56 63 73
54 62 71
50 57 66
57 64 73
55 62 71
53 61 70
53 60 70
53 60 70
50 57 66
56 63 73
52 59 68
53 60 69
52 59 68
54 62 72
52 59 68
53 61 70
56 63 73
55 63 73
52 59 68
54 61 71
55 62 72
51 58 67
50 57 66
57 65 75
56 64 74
54 61 69
51 58 67
54 61 69
53 61 70
55 63 73
55 62 72
52 59 69
54 62 72
55 63 73
54 62 71
56 63 73
52 59 69
52 59 69
56 63 73
56 64 74
55 63 72
55 62 72
55 63 72
56 63 73
54 62 71
56 64 74
56 64 73
59 68 78
57 65 75
57 65 75
56 63 73
58 65 76
57 65 76
56 64 74
57 64 74
58 66 76
57 64 75
57 66 77
57 65 75
59 67 78
57 65 75
57 65 75
60 68 78
59 67 78
59 67 77
56 64 74
56 64 74
60 68 78
59 67 77
59 66 76
61 69 79
58 66 77
58 66 76
60 68 78
59 67 78
59 67 78
57 65 75
59 66 76
60 68 78
61 69 79
59 68 78
59 67 77
59 66 77
59 67 78
61 69 79
60 68 78
57 65 76
60 68 79
60 68 78
61 69 80
59 68 78
58 66 77
61 69 80
59 68 78
58 66 77
60 68 79
60 68 79
59 67 78
60 68 78
60 68 79
60 68 79
61 69 80
60 68 79
61 69 80
61 70 80
61 69 80
60 68 78
60 68 78
60 68 79
61 69 80
59 67 78
60 68 78
60 69 80
61 69 79
59 67 78
61 69 80
62 70 80
61 69 80
61 69 80
61 69 80
60 68 79
61 69 80
59 67 78
62 70 80
60 68 79
62 70 80
62 70 80
61 69 80
60 69 80
61 69 80
62 70 80
60 68 78
61 69 80
61 69 79
62 70 80
60 68 79
61 69 80
61 69 79
61 69 80
61 69 80
61 69 80
60 68 79
62 70 80
61 70 80
60 68 79
61 69 80
61 70 80
59 68 79
60 68 79
61 69 80
62 70 80
61 69 80
61 69 80
59 67 77
61 69 80
61 69 80
61 69 80
60 69 80
61 69 80
61 70 80
60 68 78
61 69 80
61 69 80
61 69 80
60 69 80
61 70 80
60 68 79
61 69 80
62 70 80
61 70 80
60 68 79
61 69 80
61 69 80
61 69 80
61 69 80
60 68 79
61 70 80
62 70 80
62 70 80
61 70 80
60 69 80
61 69 80
61 70 80
62 70 80
61 69 80
62 70 80
61 70 80
61 69 80
61 69 80
60 68 79
62 70 80
61 69 80
61 70 80
61 69 80
62 70 80
60 68 79
61 69 80
62 70 80
61 70 80
61 69 80
61 70 80
61 69 80
62 70 80
61 70 80
62 70 80
60 69 80
62 70 80
60 69 80
61 69 80
59 67 78
61 69 80
60 69 80
62 70 80
59 68 79
60 69 80
61 70 80
62 69 80
61 69 80
61 70 80
61 70 80
61 70 80
61 69 80
60 69 80
61 69 80
62 70 80
61 69 80
62 70 80
62 70 80
61 70 80
61 69 80
60 69 80
61 70 80
61 69 80
60 69 80
61 70 80
61 69 80
61 69 80
61 69 80
62 70 80
61 69 80
62 69 80
61 70 80
62 70 80
61 69 80
61 69 80
62 70 80
61 69 80
61 69 80
60 68 79
62 70 80
61 69 80
61 69 80
61 69 79
61 69 79
60 69 80
61 70 80
61 70 80
62 70 80
61 70 80
61 70 80
61 69 80
61 69 80
61 69 80
61 70 80
60 69 80
61 69 80
61 69 80
60 69 80
60 68 79
61 69 80
60 69 80
60 68 79
60 68 79
60 68 79
61 70 80
60 68 78
62 70 80
60 69 80
60 68 79
60 68 79
62 70 80
60 68 79
60 69 79
61 69 80
60 68 78
60 68 78
60 68 79
60 67 78
61 69 80
59 68 78
60 68 79
62 70 80
61 70 80
60 68 79
60 68 78
60 68 79
60 68 79
60 68 78
61 69 80
62 70 80
59 67 77
61 69 80
59 67 78
61 69 79
62 70 80
60 68 78
58 66 77
61 69 80
61 69 79
60 68 78
59 67 77
60 69 80
60 68 78
60 68 78
61 69 79
61 69 79
59 68 79
59 68 78
59 68 79
60 68 78
57 66 76
59 67 77
61 69 80
59 68 78
60 68 78
59 68 78
59 67 78
60 68 78
60 68 78
60 69 80
60 67 78
61 69 80
60 69 79
58 65 75
59 66 77
58 66 76
58 66 76
60 68 79
58 66 76
60 68 79
58 65 75
58 65 75
59 66 76
57 65 75
59 67 78
57 64 75
57 65 76
58 66 77
57 65 75
55 63 73
55 62 72
58 66 75
57 65 75
56 64 75
54 61 71
55 63 73
52 59 69
54 62 72
57 64 74
57 64 74
58 66 77
52 59 69
54 62 71
56 63 73
54 61 71
55 63 74
54 62 71
57 66 76
55 63 73
54 62 72
56 64 73
55 63 73
58 65 74
55 62 72
55 62 72
52 59 68
54 62 72
56 63 72
54 62 72
55 62 72
56 63 73
56 63 73
54 61 71
56 64 75
54 61 70
53 61 71
51 58 68
52 60 69
55 62 72
58 65 75
55 62 72
55 62 73
51 58 67
56 63 73
55 62 72
55 63 74
55 62 71
54 62 71
57 65 75
55 62 72
57 65 75
56 63 73
55 63 73
54 62 71
55 63 73
55 62 72
55 62 72
55 62 72
57 65 75
55 62 72
52 60 69
53 60 69
53 60 70
53 61 70
52 59 68
54 61 71
54 61 70
55 63 72
48 55 64
55 63 73
53 59 68
51 58 66
54 61 70
57 64 74
54 61 70
52 59 68
54 61 71
60 67 78
54 61 71
54 61 70
55 62 72
51 58 68
55 63 72
57 65 75
55 63 73
54 62 72
57 64 75
56 63 73
59 67 78
56 64 75
56 64 75
57 64 73
56 64 75
55 62 72
55 63 73
56 63 72
57 64 75
56 63 73
57 65 75
58 66 77
57 64 74
54 62 72
59 67 78
57 65 75
54 62 72
56 64 74
57 65 75
59 67 78
59 67 78
58 66 76
58 65 75
59 67 77
57 65 76
59 67 77
57 65 75
58 66 76
56 64 75
58 65 75
60 68 78
56 64 74
59 67 77
57 65 75
59 67 77
58 66 77
59 67 77
59 67 78
59 67 78
58 66 77
59 67 77
59 67 78
59 67 77
60 68 78
60 68 78
59 67 78
60 68 79
61 69 80
59 68 79
61 69 80
58 66 76
58 66 77
59 67 78
59 67 78
59 67 78
60 68 79
60 69 80
61 69 80
59 67 78
60 68 79
61 70 80
60 68 79
61 69 80
60 68 79
59 67 78
60 69 80
59 67 78
59 67 78
59 67 77
61 69 80
60 69 80
59 67 78
60 69 80
60 69 80
62 70 80
59 67 77
60 68 79
60 68 78
60 68 78
59 67 78
61 69 80
60 69 80
61 69 80
61 69 79
61 69 80
61 69 80
60 69 79
61 69 80
61 69 80
62 70 80
60 68 78
60 68 78
62 70 80
60 68 79
60 69 79
62 70 80
61 69 80
61 69 79
61 70 80
61 69 79
61 69 80
59 68 79
62 69 80
61 69 80
61 69 80
61 69 80
60 68 79
61 69 80
60 69 80
62 69 80
61 69 79
60 68 78
62 70 80
61 69 80
61 69 80
61 69 80
59 68 79
60 68 79
60 68 79
61 70 80
61 69 80
60 69 79
61 69 79
62 70 80
62 70 80
60 69 80
61 69 80
62 70 80
61 70 80
60 68 80
62 70 80
61 69 79
61 69 80
62 70 80
60 68 79
61 69 80
61 70 80
60 69 80
62 70 80
61 70 80
61 69 80
60 68 79
61 69 80
61 69 80
62 70 80
62 70 80
62 70 80
61 69 80
62 70 80
61 70 80
61 69 80
61 69 80
60 68 79
61 70 80
62 70 80
60 69 80
61 69 80
61 70 80
61 69 80
61 69 80
61 69 80
61 69 80
60 69 80
61 70 80
62 70 80
61 69 80
60 68 80
60 69 80
62 70 80
60 69 80
61 70 80
61 69 80
60 68 79
60 69 80
60 69 80
61 69 80
62 70 80
62 70 80
61 69 80
61 70 80
61 70 80
62 70 80
61 69 80
61 69 80
60 68 79
61 70 80
61 69 80
61 69 80
62 70 80
62 70 80
61 69 80
61 69 80
61 69 80
61 69 80
59 68 78
61 69 80
62 70 80
62 70 80
60 68 79
61 70 80
61 69 80
61 69 80
62 70 80
61 69 80
62 70 80
60 69 80
61 70 80
59 67 78
62 70 80
61 70 80
61 69 80
59 68 79
61 69 80
61 69 80
61 69 79
61 69 80
61 69 80
60 69 80
60 69 80
60 69 80
60 69 80
61 70 80
62 70 80
60 69 80
61 69 80
61 70 80
61 69 80
60 68 79
60 68 79
60 68 79
61 69 80
62 70 80
62 70 80
61 69 80
59 68 78
61 69 80
61 70 80
60 69 80
61 69 80
60 68 79
61 69 80
58 66 76
61 69 80
61 69 79
61 69 80
61 69 80
60 67 78
59 68 79
60 68 79
60 67 78
60 68 79
60 69 80
59 68 79
59 67 78
61 69 80
61 69 79
61 69 80
62 70 80
61 69 79
61 69 80
60 69 80
59 67 78
58 66 76
59 68 79
61 69 79
60 68 78
60 69 80
60 68 79
61 69 80
60 68 79
61 69 80
60 68 78
58 66 77
61 69 80
61 69 80
61 69 79
59 67 77
59 67 77
59 67 78
60 68 79
60 68 78
60 68 79
60 68 79
59 67 78
60 68 78
60 68 79
60 69 80
60 68 79
60 68 78
58 66 76
57 65 76
60 68 78
59 68 78
58 65 75
58 66 77
59 67 77
59 67 78
59 67 78
59 67 77
59 66 76
59 67 78
57 64 74
58 66 76
58 66 76
60 68 78
57 65 76
58 66 77
56 64 74
58 66 76
56 64 74
57 65 75
60 68 79
56 64 74
55 62 72
58 66 77
60 67 78
56 64 74
58 65 75
59 68 78
56 63 74
57 64 74
54 61 71
58 66 77
57 64 74
56 63 73
55 62 71
57 65 76
56 64 73
57 65 75
55 62 72
56 64 75
57 65 75
58 65 75
55 62 71
59 67 78
53 61 70
55 63 73
58 65 76
55 62 72
54 61 71
58 66 76
53 61 72
53 59 69
55 62 72
53 61 71
53 60 70
51 58 68
53 60 69
54 61 70
54 62 72
54 61 70
59 66 77
54 61 70
56 63 73
56 63 73
55 62 72
53 61 70
54 61 71
56 64 73
55 63 73
54 62 72
54 61 70
55 63 73
55 62 72
53 60 70
57 64 75
58 65 75
55 62 72
55 63 74
56 64 75
59 67 77
56 63 73
57 64 75
52 59 68
54 61 71
55 62 72
57 65 75
55 62 72
50 57 66
56 64 74
54 62 72
55 62 71
56 64 73
53 61 70
55 62 72
55 62 72
54 62 72
56 63 72
55 63 73
54 62 71
51 58 67
55 63 73
51 58 68
55 63 73
55 63 72
57 64 75
58 65 76
56 64 74
52 58 67
55 63 73
57 65 75
55 62 72
56 64 74
57 65 75
56 63 73
54 62 72
56 63 73
58 66 76
58 65 75
58 66 76
58 65 76
57 65 75
57 64 74
55 63 73
57 65 75
57 65 76
58 66 76
54 62 72
57 65 75
58 66 76
57 65 76
58 66 76
58 66 77
59 67 77
58 65 76
58 66 77
59 67 77
60 67 78
56 64 73
59 67 78
55 63 73
59 67 78
59 67 77
58 66 76
59 67 77
57 66 76
59 66 77
57 65 76
57 65 76
59 67 78
59 67 78
59 67 78
59 67 78
59 67 78
59 68 78
59 67 78
59 67 78
59 67 78
61 69 79
59 67 78
60 68 78
61 69 80
61 69 80
61 69 80
61 69 78
59 67 78
58 66 77
58 66 77
60 68 79
60 68 79
60 68 79
59 67 78
61 70 80
58 66 76
60 68 79
59 67 78
61 69 80
60 68 79
60 68 79
61 69 80
60 69 80
61 69 80
60 68 79
60 68 79
60 68 78
59 67 78
61 69 80
61 69 80
60 68 78
59 67 78
61 70 80
61 70 80
60 69 80
61 69 79
61 69 80
61 69 80
62 70 80
60 68 79
61 69 80
61 69 80
60 69 80
61 70 80
60 68 79
61 69 79
61 70 80
61 69 80
61 69 80
62 70 80
60 68 78
61 69 80
61 69 80
61 69 80
60 68 79
60 68 78
61 69 80
60 69 79
61 69 80
61 70 80
60 69 80
62 70 80
58 67 78
61 69 80
59 68 79
61 70 80
60 68 79
60 68 79
61 70 80
61 69 80
61 70 80
58 67 77
60 69 80
60 69 80
61 69 80
61 69 80
62 70 80
61 70 80
61 70 80
61 69 80
62 70 80
61 69 80
61 69 80
60 69 80
60 69 80
61 69 80
61 69 80
61 69 80
61 70 80
61 69 80
61 69 80
60 68 79
61 69 80
61 70 80
62 70 80
61 70 80
62 70 80
60 69 80
61 70 80
61 69 80
61 69 80
61 70 80
61 70 80
61 69 80
61 70 80
61 69 80
61 69 80
61 69 80
61 70 80
61 69 80
61 69 80
61 69 80
61 69 80
61 70 80
61 70 80
61 69 80
61 69 80
61 69 80
61 69 80
62 70 80
61 69 80
61 70 80
61 69 80
61 69 80
61 69 80
62 70 80
61 69 80
60 69 80
61 70 80
62 69 79
62 70 80
61 70 80
61 69 80
62 70 80
61 69 80
61 70 80
61 69 80
62 70 80
60 69 80
60 69 80
61 69 80
61 69 80
61 69 80
61 70 80
61 70 80
60 68 79
62 70 80
62 70 80
61 69 80
61 69 80
62 70 80
61 69 80
61 69 80
61 69 80
61 69 80
61 70 80
61 70 80
62 70 80
60 69 80
62 70 80
61 69 80
59 67 78
62 70 80
62 70 80
61 69 80
61 69 80
61 69 80
61 69 80
62 70 80
61 69 80
61 70 80
61 69 80
62 70 80
60 69 80
62 70 80
61 70 80
62 70 80
61 70 80
61 69 80
62 70 80
60 68 79
60 69 80
60 69 80
60 69 80
61 69 80
60 68 79
62 70 80
61 69 80
61 70 80
61 69 80
61 69 80
61 69 80
60 69 80
61 70 80
61 69 80
60 68 78
62 70 80
60 69 80
61 70 80
62 70 80
62 70 80
61 69 80
60 69 79
61 69 80
62 70 80
62 70 80
59 68 79
59 67 78
61 69 80
60 68 78
60 69 80
61 69 79
60 68 79
60 67 78
59 67 78
61 69 80
61 69 80
61 69 80
60 69 80
61 69 80
59 67 78
60 68 78
60 69 79
60 69 80
61 69 80
59 68 79
59 67 78
59 67 78
61 69 80
60 68 79
60 68 79
61 69 80
60 68 79
61 69 80
60 68 78
60 68 79
60 68 78
60 68 78
59 67 77
59 67 78
59 68 78
60 68 79
60 68 79
60 67 78
57 65 75
60 68 79
61 69 80
59 68 78
61 69 79
59 68 78
58 66 77
60 68 79
58 66 77
55 63 73
58 66 76
60 68 79
58 66 76
57 65 75
60 68 79
57 64 75
59 67 78
58 66 77
59 67 78
58 66 77
60 68 78
59 67 78
57 65 76
57 65 75
57 65 75
55 62 72
57 64 74
56 64 74
58 65 75
58 66 76
57 66 77
59 67 78
57 65 75
56 64 74
58 65 75
56 64 74
55 63 74
54 62 72
56 64 74
58 66 76
55 62 72
53 60 70
56 64 74
55 63 72
55 62 72
55 62 72
57 64 73
56 64 74
53 61 70
53 60 70
54 62 72
54 62 72
55 63 73
53 60 69
53 60 69
55 63 74
53 61 71
53 59 69
49 56 65
55 62 72
54 61 70
57 64 74
53 61 70
54 61 70
54 61 71
53 60 70
58 66 76
55 63 72
57 65 75
53 60 69
57 64 74
57 65 76
53 60 70
55 62 72
56 64 74
56 64 73
57 64 74
56 63 73
53 60 69
55 63 73
58 66 76
56 64 74
58 66 76
57 65 75
56 63 73
57 64 74
56 63 72
56 63 73
56 63 73
55 63 73
56 64 73
53 61 70
57 64 74
54 61 71
57 65 76
54 61 71
53 61 70
58 66 76
57 64 73
58 66 76
55 62 71
55 63 73
52 59 68
54 61 71
54 61 71
56 64 74
53 61 71
56 64 74
56 63 72
57 65 75
57 65 75
56 63 73
59 67 77
59 67 77
54 62 71
58 66 76
54 61 72
56 63 73
59 68 78
55 63 74
56 64 74
57 65 76
59 66 77
56 63 73
58 66 76
57 65 75
55 63 74
59 68 78
57 64 74
58 66 76
54 62 72
58 66 76
56 64 74
58 67 78
59 67 77
58 66 77
59 67 78
58 66 77
57 65 75
59 68 78
58 66 77
58 66 77
60 69 80
59 67 78
59 67 78
58 66 76
59 68 79
59 68 78
59 67 77
59 67 78
59 67 77
58 67 78
62 70 80
56 64 75
61 69 79
60 68 79
60 69 79
58 66 76
59 67 77
60 68 79
58 66 77
60 68 78
60 69 80
61 69 80
60 68 78
60 68 79
60 68 79
59 67 78
61 69 79
61 69 79
59 67 78
59 68 78
59 67 77
60 69 80
58 66 77
60 68 78
61 69 80
60 68 79
60 68 78
61 69 80
60 68 79
60 68 79
61 69 80
60 69 80
61 69 80
61 69 80
61 69 80
60 68 78
60 69 80
60 68 78
61 69 80
61 69 80
60 69 80
60 68 79
61 69 80
60 68 79
60 68 79
61 70 80
60 68 78
61 69 80
60 68 79
60 68 80
61 69 80
61 69 80
60 69 80
61 69 80
60 69 80
61 69 80
60 68 79
61 69 80
59 67 78
60 68 78
61 70 80
60 68 80
61 69 80
62 69 80
61 69 80
61 69 80
60 68 78
60 69 79
61 70 80
62 70 80
62 70 80
62 69 80
61 69 80
61 70 80
60 69 80
61 69 80
62 70 80
62 70 80
60 68 79
60 69 80
61 69 80
61 69 80
62 70 80
61 69 80
61 69 80
61 69 80
62 70 80
62 70 80
62 70 80
62 70 80
61 69 80
62 70 80
61 69 80
61 70 80
62 70 80
62 70 80
61 69 80
61 70 80
61 69 80
62 70 80
61 69 80
60 69 80
61 69 80
62 69 80
61 69 80
61 70 80
61 69 80
61 69 80
61 70 80
62 70 80
61 70 80
61 69 80
61 69 80
61 70 80
61 70 80
61 70 80
61 69 79
62 70 80
61 69 80
61 70 80
61 69 80
61 70 80
61 70 80
61 70 80
60 68 79
61 70 80
61 70 80
62 70 80
61 69 80
61 69 80
61 70 80
62 70 80
61 70 80
60 69 80
61 69 80
61 69 80
61 69 80
62 70 80
61 69 80
61 70 80
61 70 80
60 68 79
61 70 80
60 68 79
61 70 80
61 69 80
62 70 80
61 69 80
62 70 80
60 69 80
60 69 80
61 70 80
60 68 79
61 70 80
62 70 80
62 70 80
61 69 80
60 69 80
61 69 80
60 68 79
60 69 80
61 69 80
61 69 80
61 69 80
62 70 80
60 68 79
61 69 80
61 70 80
61 69 80
61 69 80
61 70 80
61 69 80
60 69 80
61 70 80
60 69 80
60 68 79
61 69 80
60 69 80
60 69 80
62 70 80
61 69 80
61 69 80
60 68 79
61 70 80
61 69 80
60 68 78
62 70 80
60 69 80
62 70 80
61 69 79
60 68 79
61 69 80
62 69 80
61 69 80
61 69 80
61 69 80
60 69 80
61 70 80
60 69 79
61 69 80
61 69 80
60 68 79
62 70 80
61 69 80
61 69 80
61 69 80
60 68 79
59 67 78
59 67 78
60 68 79
60 68 78
61 70 80
60 68 79
60 68 79
60 69 80
60 69 80
60 68 78
61 69 80
60 68 78
60 68 79
59 67 78
58 66 76
61 69 80
60 68 79
62 70 80
62 69 80
60 68 79
59 68 78
59 67 77
61 69 80
61 69 79
60 68 78
58 67 78
59 67 78
61 69 80
60 68 79
60 68 78
60 68 79
60 68 78
61 69 80
58 66 77
59 67 77
58 66 77
60 67 78
59 67 78
59 67 78
62 70 80
59 67 77
60 68 78
61 69 80
56 64 74
61 69 80
58 66 76
59 67 78
59 67 78
58 66 76
58 65 75
57 65 75
59 67 77
57 65 75
55 63 73
57 64 75
58 66 76
57 65 75
58 66 76
58 66 76
55 62 72
57 64 75
59 67 77
59 66 77
56 64 75
59 67 78
59 67 77
53 61 71
57 66 76
57 65 76
56 64 74
56 64 74
56 64 74
56 63 73
57 65 75
57 65 75
57 65 75
60 68 78
58 66 76
58 66 76
56 63 72
57 65 75
58 67 77
57 65 75
55 62 72
58 66 76
55 62 72
59 67 77
57 65 75
55 63 73
56 65 75
57 64 74
58 66 76
55 62 72
59 66 76
56 64 73
55 62 73
54 61 71
53 60 69
53 61 70
55 62 72
54 61 70
57 65 76
56 63 73
54 62 71
55 63 73
55 62 72
54 62 72
56 63 73
55 62 72
56 63 72
57 64 74
56 63 73
57 64 75
55 62 71
55 62 72
57 65 75
55 62 71
57 64 74
56 64 74
57 65 75
56 64 74
57 65 75
57 64 74
54 61 71
55 63 72
56 63 73
58 67 78
53 60 69
58 66 77
55 63 73
57 65 75
58 66 77
56 63 73
55 62 71
56 64 74
56 63 73
55 63 73
53 60 69
55 62 71
54 62 72
51 58 67
53 60 70
55 63 73
60 68 78
55 62 72
55 62 72
58 65 76
57 65 75
56 64 74
57 64 75
55 63 73
56 64 74
57 64 75
56 64 74
57 65 75
55 62 72
57 64 75
56 64 74
60 68 78
56 64 74
56 64 74
56 64 74
57 64 75
59 67 77
59 67 78
57 65 75
57 64 73
58 65 75
58 66 76
58 66 76
57 65 76
57 65 75
57 65 76
57 65 76
59 67 77
59 67 77
56 64 74
56 64 74
59 67 78
60 68 78
58 66 76
58 66 77
56 64 74
58 66 76
58 66 77
60 68 78
60 69 79
60 68 78
61 69 79
59 67 77
56 64 75
61 69 80
56 64 74
59 67 78
59 68 78
57 65 75
59 67 77
60 69 80
60 68 79
60 68 78
60 68 78
59 67 78
60 68 79
60 67 78
60 68 79
62 70 80
61 70 80
59 68 79
60 68 79
60 68 78
59 67 77
58 67 78
61 69 80
60 68 78
61 69 80
61 69 80
61 69 80
59 67 78
60 68 78
60 69 80
59 67 77
61 69 80
61 69 80
60 69 80
61 69 80
60 68 79
61 69 80
59 67 78
61 69 80
61 69 79
62 70 80
60 68 79
60 69 80
61 69 80
61 69 80
62 70 80
61 69 80
60 69 80
60 68 79
60 68 79
60 69 80
61 69 79
59 67 78
62 70 80
60 68 79
60 69 80
61 70 80
61 69 80
60 68 79
60 68 78
61 69 80
61 69 80
61 70 80
60 69 80
59 68 79
60 69 80
59 67 78
60 69 80
60 68 79
60 69 80
60 68 79
61 69 80
62 69 80
61 69 80
60 68 79
61 69 80
61 70 80
61 70 80
60 69 80
60 68 79
61 69 80
62 70 80
61 69 79
62 70 80
61 70 80
61 69 79
59 68 79
60 68 79
61 69 80
61 69 80
60 69 80
61 69 79
62 69 80
60 69 80
61 70 80
61 69 80
60 69 80
61 69 79
61 69 80
61 69 80
60 69 80
61 69 80
62 70 80
61 69 79
62 70 80
60 68 79
61 69 80
61 69 80
61 69 80
62 69 80
61 70 80
61 70 80
60 69 80
61 69 80
60 69 80
61 70 80
60 68 79
61 69 80
61 69 79
60 69 80
61 70 80
60 69 80
61 69 80
61 70 80
60 69 80
61 70 80
61 70 80
61 69 80
62 70 80
61 69 80
60 68 79
61 69 80
61 69 80
61 69 80
61 69 79
62 70 80
61 69 80
62 70 80
62 70 80
61 69 80
61 69 80
61 69 80
60 68 79
62 70 80
61 69 80
61 69 80
61 69 80
61 69 80
61 69 80
61 70 80
61 69 80
61 69 80
61 70 80
61 69 80
62 70 80
60 69 80
60 69 80
61 69 80
61 69 80
61 70 80
61 69 80
61 69 80
62 70 80
60 69 80
61 69 80
61 69 80
61 69 80
61 69 80
60 68 78
61 70 80
61 70 80
61 69 80
61 69 80
61 69 80
60 69 80
60 69 80
62 70 80
61 69 80
61 70 80
62 70 80
60 68 79
61 69 80
61 70 80
60 69 80
62 70 80
61 70 80
60 68 79
61 69 80
59 67 78
59 67 78
60 69 80
59 68 79
61 69 80
60 68 79
61 69 80
61 69 80
60 69 80
61 69 80
59 67 78
61 69 80
60 68 78
60 69 80
61 69 80
60 69 80
62 70 80
61 69 80
61 70 80
60 69 79
59 68 78
60 69 80
61 70 80
60 69 80
61 69 80
60 68 78
59 68 79
61 69 80
60 68 79
61 69 80
59 68 79
61 69 79
59 67 77
60 68 79
60 68 79
61 69 79
59 68 79
60 69 80
59 68 78
59 68 78
60 68 79
60 68 79
60 68 78
59 67 77
60 68 79
58 66 77
60 68 79
60 68 79
60 68 78
58 66 77
61 69 80
60 69 80
57 66 76
61 69 80
58 67 78
60 68 78
59 67 77
58 66 76
59 67 77
59 68 79
59 68 78
58 66 76
59 67 78
59 67 78
61 69 80
57 65 75
59 67 78
60 68 78
58 67 78
59 67 78
57 64 74
57 65 76
56 64 75
56 64 75
61 69 79
58 66 77
60 68 79
59 67 78
58 66 76
59 67 78
59 67 77
59 66 76
59 67 77
56 64 74
57 65 75
58 66 77
57 65 75
57 65 74
59 67 78
56 64 73
57 65 75
57 65 76
55 62 72
55 62 71
56 63 73
58 66 76
57 65 76
57 64 74
54 62 71
56 64 74
54 61 71
55 63 73
55 63 72
59 67 77
57 64 74
56 63 73
58 65 75
58 66 76
57 65 75
55 63 73
57 65 75
56 64 75
55 63 72
55 63 73
56 63 73
55 63 73
57 65 74
57 65 76
53 60 69
58 66 76
53 61 70
56 63 73
57 65 76
55 62 72
58 66 76
56 63 73
54 62 71
58 66 76
55 62 72
59 67 77
57 65 76
56 64 73
59 67 78
53 61 71
55 62 71
54 61 71
57 65 74
56 63 73
57 64 74
58 66 77
56 63 73
56 64 74
55 63 72
55 62 72
54 60 69
59 67 78
56 64 74
57 65 76
55 62 72
57 65 75
57 64 74
59 66 76
58 65 75
55 63 72
55 62 73
54 61 71
56 64 74
56 64 74
54 61 71
56 64 74
57 65 75
55 63 72
56 63 73
57 65 75
54 62 71
58 66 76
57 65 75
56 64 74
55 63 73
56 64 74
55 62 72
56 64 74
58 66 76
56 63 73
55 63 74
55 63 73
57 65 76
57 65 75
59 67 78
59 67 78
57 65 75
58 66 76
57 64 75
55 63 72
58 66 76
58 66 76
59 67 78
56 64 74
60 68 78
57 66 76
57 65 75
58 66 76
59 67 78
59 67 78
58 66 76
58 66 76
57 66 76
57 65 75
58 67 77
57 65 75
55 63 73
59 67 77
59 67 77
58 66 76
60 68 78
56 64 74
60 68 78
59 67 78
59 68 78
57 65 75
58 66 76
59 67 78
59 67 78
60 68 79
61 69 79
58 67 77
59 67 78
57 65 75
60 69 80
59 68 79
60 68 78
58 66 76
59 68 79
59 67 78
59 68 78
60 68 79
59 67 78
59 67 78
58 66 77
59 67 78
61 69 80
60 69 80
60 67 78
59 67 78
59 67 77
61 70 80
59 67 78
62 69 79
61 69 80
61 69 80
60 68 79
61 70 80
61 69 80
60 68 78
61 70 80
60 69 80
60 68 78
60 68 79
61 69 80
59 68 78
60 69 80
61 70 80
60 68 79
61 69 79
61 69 80
60 68 80
61 69 80
61 69 79
61 69 80
61 69 79
61 69 80
61 69 80
61 69 80
61 70 80
58 66 77
61 69 79
62 70 80
61 69 80
61 69 80
61 69 80
60 68 79
62 69 80
60 69 80
61 69 80
62 70 80
61 69 80
60 69 80
61 70 80
60 68 79
60 69 80
61 70 80
61 70 80
61 70 80
61 69 79
60 69 80
61 69 80
61 69 80
62 70 80
60 69 80
61 69 80
60 69 80
61 69 80
61 69 80
61 69 80
60 69 80
61 70 80
60 69 80
60 69 80
60 68 79
60 69 80
60 69 80
61 70 80
62 70 80
61 69 80
61 69 80
61 69 80
61 69 80
62 70 80
61 69 80
61 70 80
60 69 80
62 70 80
61 70 80
61 69 80
61 69 80
61 69 80
61 69 80
61 70 80
61 69 80
61 70 80
61 69 80
61 70 80
62 70 80
61 69 80
61 70 80
61 69 79
62 70 80
61 69 80
61 69 80
62 69 80
61 69 80
62 70 80
62 70 80
60 68 79
61 70 80
61 70 80
62 70 80
62 70 80
61 69 80
60 69 80
61 69 80
62 70 80
60 69 80
62 70 80
60 69 80
61 69 80
61 69 80
61 69 80
61 70 80
62 70 80
62 70 80
61 69 80
60 68 79
61 70 80
60 68 79
62 70 80
59 68 79
61 70 80
62 69 80
61 70 80
60 68 79
61 69 80
62 70 80
61 70 80
61 69 80
61 70 80
61 70 80
60 69 80
60 69 80
62 70 80
61 69 80
61 69 80
59 67 78
61 69 80
61 69 80
61 69 80
60 68 80
61 69 80
61 69 80
61 70 80
61 69 80
60 69 79
61 70 80
60 69 80
61 69 80
59 68 78
62 70 80
62 70 80
59 68 78
61 70 80
61 69 80
61 69 80
60 69 80
60 69 80
60 68 79
61 70 80
62 70 80
61 70 80
60 68 79
62 70 80
60 68 79
61 70 80
61 69 80
60 69 79
61 69 80
59 68 79
59 67 78
61 69 80
61 69 80
60 68 79
62 70 80
61 69 80
60 69 80
61 69 80
60 68 78
60 68 79
61 69 80
60 68 79
59 67 78
60 68 79
60 68 79
61 69 80
61 69 80
61 69 80
59 67 78
60 68 78
60 68 79
61 70 80
59 67 78
59 68 79
60 68 78
60 68 79
61 69 79
61 69 80
60 68 78
61 69 80
59 67 77
60 68 78
60 68 80
60 68 79
60 68 79
60 69 80
61 69 80
60 68 79
62 70 80
60 68 79
59 68 78
59 67 78
59 67 77
60 68 79
59 67 78
60 68 78
59 67 78
58 65 75
60 68 79
59 67 77
58 66 77
58 66 76
59 67 78
59 68 79
59 67 78
59 67 78
58 66 77
58 66 76
59 68 78
58 67 78
60 68 78
58 67 77
58 66 76
60 68 79
60 69 80
60 68 79
60 68 78
59 67 78
57 65 75
59 66 76
59 67 78
60 69 80
60 68 78
57 65 76
58 66 76
56 64 74
58 66 77
56 64 74
59 67 78
55 62 72
58 66 76
60 68 79
57 65 75
58 67 78
58 66 76
57 64 75
58 66 76
57 64 75
55 62 72
57 66 76
57 65 75
55 62 71
52 60 70
57 65 75
55 63 73
58 67 77
57 65 76
58 66 76
55 62 72
55 62 72
57 65 75
56 64 74
57 64 74
56 64 75
56 64 73
56 63 73
58 66 77
55 62 72
57 65 75
52 60 69
58 65 75
56 64 74
56 64 73
57 65 75
56 64 75
54 60 69
58 66 77
55 62 72
61 69 79
57 65 74
57 65 75
58 65 75
59 67 78
54 62 72
56 63 73
58 66 76
56 64 74
58 66 75
56 63 72
58 66 76
57 65 75
58 66 76
54 61 71
56 64 74
54 62 71
57 65 76
55 62 72
57 65 75
55 63 73
55 62 72
62 69 80
58 66 76
53 60 69
59 67 77
56 63 73
57 65 75
54 62 72
58 65 75
58 66 76
56 63 73
56 64 74
58 65 74
55 63 73
59 67 78
52 59 68
56 63 73
59 66 76
59 67 78
57 65 75
56 64 74
56 64 75
57 65 76
53 60 70
57 65 75
57 65 75
57 65 75
57 65 75
55 62 72
57 65 75
57 65 75
58 66 77
58 66 76
57 65 75
58 66 76
56 64 74
58 66 76
55 63 72
56 63 73
56 64 74
56 63 74
57 65 75
60 67 78
60 67 78
60 68 78
60 68 79
59 67 77
59 67 78
57 65 76
57 65 75
56 64 74
59 68 78
59 67 77
60 68 79
59 67 78
57 65 75
59 67 78
58 66 76
59 66 77
58 65 76
57 65 76
57 65 75
60 68 78
57 64 75
59 68 78
57 65 76
59 67 78
58 66 77
58 66 77
58 66 75
58 66 76
60 68 79
61 69 80
60 68 79
57 65 76
60 68 78
59 67 77
59 66 76
60 68 78
61 69 80
61 69 80
59 68 78
59 67 78
60 68 79
61 69 80
58 66 77
59 68 78
60 68 78
60 68 79
60 68 79
59 67 77
59 67 78
60 68 78
59 68 78
58 66 77
59 67 78
59 67 78
60 68 78
61 69 80
61 69 80
62 70 80
60 69 80
61 69 80
60 68 78
61 69 79
61 69 80
61 69 80
60 68 79
61 69 80
61 69 80
62 70 80
62 69 80
61 69 80
60 68 79
61 70 80
61 69 79
60 68 79
60 68 79
61 70 80
60 68 80
62 70 80
61 69 80
61 69 80
60 68 79
61 69 80
60 68 78
60 69 80
61 69 80
61 69 80
62 70 80
60 68 79
61 69 80
60 68 79
61 70 80
61 69 80
61 69 80
61 70 80
61 69 80
61 69 80
62 70 80
62 70 80
61 69 80
61 70 80
60 68 79
61 69 80
61 69 80
60 68 79
61 69 80
61 69 80
61 69 80
61 69 80
60 69 80
60 68 78
60 68 79
61 70 80
61 69 80
61 69 80
61 69 80
62 70 80
60 69 80
61 69 80
62 70 80
61 70 80
62 70 80
61 70 80
61 70 80
61 69 80
60 68 79
62 69 80
61 69 80
61 69 80
60 69 80
62 70 80
61 69 80
60 68 79
60 68 80
61 70 80
62 70 80
61 69 80
61 70 80
61 69 80
61 69 80
62 70 80
61 70 80
61 70 80
62 70 80
61 70 80
61 69 80
61 69 80
61 69 80
62 70 80
62 70 80
60 69 80
61 69 80
62 70 80
60 69 80
61 69 80
61 69 80
61 69 80
60 69 80
62 70 80
61 69 80
61 69 80
61 69 80
61 69 80
62 70 80
62 70 80
61 69 80
62 70 80
61 69 80
61 70 80
61 69 80
62 70 80
61 69 80
60 68 79
61 69 80
60 69 80
61 69 80
61 69 80
61 70 80
59 67 78
60 69 80
61 69 80
61 70 80
61 69 80
61 69 80
62 70 80
61 70 80
60 69 80
60 69 80
62 70 80
62 70 80
61 69 80
61 70 80
61 69 80
61 69 80
60 69 80
60 68 79
60 68 79
61 69 80
62 70 80
61 69 80
61 69 79
61 69 79
61 69 80
60 69 80
62 70 80
61 69 80
61 69 80
61 69 80
61 69 80
61 69 80
61 69 80
61 70 80
61 69 80
61 69 80
60 68 78
61 70 80
61 69 80
59 67 78
61 70 80
60 68 79
61 69 80
61 69 80
60 68 79
61 69 79
61 69 80
61 69 79
57 66 76
61 70 80
61 70 80
60 68 79
60 68 79
60 68 80
60 69 80
60 68 78
60 68 79
60 68 80
59 68 78
61 69 80
60 69 80
60 68 79
60 69 80
61 69 80
60 68 79
61 69 80
60 69 80
61 69 79
60 68 79
60 67 78
60 68 78
61 69 79
60 68 79
59 67 78
59 67 78
60 68 78
61 69 80
60 69 80
60 69 79
60 68 79
61 69 80
60 68 80
60 68 78
61 69 80
60 67 78
60 68 78
60 68 78
58 66 77
59 67 78
58 66 76
60 68 78
60 68 79
59 67 77
58 66 76
59 67 78
60 68 79
59 67 78
60 68 78
59 67 76
59 67 78
59 67 77
59 67 78
61 70 80
58 66 76
57 65 76
57 65 75
58 66 76
58 65 76
59 67 78
59 67 78
56 64 74
52 59 68
58 66 77
55 63 73
58 66 76
58 65 76
57 65 75
57 65 76
59 67 78
58 66 76
61 69 79
60 67 78
59 67 77
59 67 78
58 66 76
59 67 77
56 64 74
57 65 76
58 66 76
56 64 74
58 66 76
59 67 78
57 65 75
55 62 72
57 65 75
58 66 77
59 67 78
55 63 73
57 66 76
59 67 77
56 63 73
57 65 75
58 66 76
55 63 73
53 61 70
59 66 77
57 66 76
54 62 72
58 65 75
56 64 75
54 62 71
56 64 73
53 60 69
54 61 71
57 65 76
56 64 73
56 64 74
57 65 76
58 65 75
55 63 72
57 64 74
58 66 76
56 64 74
57 65 75
57 65 75
58 66 76
57 65 75
57 65 75
58 65 76
58 66 77
57 65 75
55 63 72
55 63 72
54 62 72
57 65 75
55 62 72
58 66 77
55 62 72
56 63 73
60 68 78
53 61 70
56 64 74
55 62 72
57 66 76
57 64 74
55 62 71
57 65 75
57 65 75
56 63 73
54 61 71
55 63 72
59 67 77
57 65 75
59 67 78
56 64 75
56 64 74
57 65 75
56 64 74
58 66 76
59 67 77
55 63 73
57 65 75
58 66 76
58 65 76
56 64 74
55 63 72
58 66 76
58 66 76
54 61 70
57 65 75
56 64 74
56 64 74
58 65 75
59 66 76
59 67 77
55 63 73
58 66 76
57 65 75
59 67 77
57 65 75
60 67 78
56 64 75
57 65 75
59 67 78
58 66 77
59 67 77
59 67 77
57 65 75
57 65 75
58 66 76
60 69 80
57 66 76
56 64 74
59 67 77
58 66 77
57 65 76
60 68 79
59 67 77
59 67 78
59 68 78
58 67 77
59 66 76
57 65 75
62 70 80
59 67 78
60 68 78
58 66 76
60 68 79
59 67 77
61 69 80
57 65 76
59 68 78
60 68 79
59 67 78
60 68 78
59 67 78
60 68 79
59 67 78
61 69 79
59 66 76
58 66 76
59 67 77
59 67 77
62 70 80
59 68 78
60 68 79
60 68 78
60 68 78
59 67 78
61 69 80
60 68 79
60 68 78
59 67 78
60 69 80
61 69 80
60 69 80
59 68 78
62 69 80
60 68 79
60 68 79
61 69 80
63 70 80
59 68 78
60 68 79
61 69 80
61 69 80
61 69 80
60 68 78
61 70 80
61 69 80
61 70 80
61 69 80
59 67 78
59 68 79
60 68 78
60 69 80
61 69 80
60 68 80
58 66 77
62 70 80
60 69 80
62 70 80
59 68 79
61 69 80
61 69 80
61 69 80
61 69 80
60 69 80
59 67 78
60 67 78
61 69 80
61 69 80
60 69 80
61 69 80
62 70 80
61 70 80
61 69 80
60 69 80
60 69 80
61 70 80
61 70 80
61 69 80
62 70 80
60 68 79
60 68 79
61 69 80
62 70 80
61 69 80
60 68 80
61 69 80
61 69 80
62 70 80
61 69 80
61 69 80
61 69 80
61 70 80
62 70 80
62 70 80
58 67 78
61 69 80
61 70 80
61 69 80
59 68 79
60 69 80
61 69 80
60 69 80
61 69 80
61 69 80
61 70 80
60 68 78
61 69 80
61 70 80
61 70 80
60 68 79
61 69 80
61 69 80
62 70 80
61 69 80
61 70 80
60 68 80
61 70 80
62 70 80
61 70 80
62 70 80
61 69 80
61 70 80
62 70 80
61 69 80
61 69 80
61 69 80
60 69 80
61 69 79
60 69 80
61 70 80
61 69 80
62 70 80
60 68 79
61 70 80
60 68 79
60 68 79
62 70 80
60 68 79
61 70 80
62 70 80
61 70 80
61 70 80
62 70 80
60 69 79
61 69 80
60 68 78
61 69 80
61 69 80
61 70 80
61 69 80
60 69 80
61 69 80
61 69 80
62 70 80
61 70 80
62 70 80
60 69 80
60 68 79
61 70 80
61 69 80
61 69 80
61 69 80
60 68 79
61 69 80
61 69 80
62 70 80
61 69 80
61 70 80
61 70 80
61 70 80
61 69 80
62 70 80
60 69 80
62 70 80
62 70 80
61 69 80
62 70 80
61 69 80
61 69 80
61 69 80
61 70 80
61 69 80
60 69 80
59 68 79
62 70 80
61 69 80
61 69 79
62 70 80
60 68 79
61 69 80
60 68 78
61 69 80
60 68 78
61 69 80
61 70 80
62 70 80
60 69 80
60 68 79
60 69 80
61 69 80
60 69 80
61 69 80
60 68 79
61 69 80
61 70 80
60 68 78
61 69 80
61 69 80
61 70 80
59 67 78
61 69 80
61 69 80
60 68 79
59 67 78
59 67 77
61 69 79
60 69 79
61 70 80
60 68 79
61 69 80
61 69 80
61 69 80
60 68 78
61 69 80
60 69 80
61 69 80
61 69 80
59 67 78
59 68 78
60 68 79
59 67 77
61 69 80
60 68 79
59 67 77
62 70 80
60 68 78
59 67 78
60 69 80
61 69 80
61 70 80
58 66 76
60 68 78
61 69 79
60 69 80
59 67 78
58 66 77
59 67 78
58 66 76
59 68 79
61 69 80
60 68 79
59 68 78
58 66 77
60 67 78
58 66 77
60 68 78
59 67 78
60 68 79
60 68 78
59 67 78
59 68 78
60 69 80
59 67 78
58 66 76
58 66 77
57 65 75
59 67 78
58 66 77
57 65 76
59 67 77
58 67 78
59 67 77
59 67 78
56 64 75
59 67 78
59 67 77
58 66 76
57 65 76
58 66 77
57 65 76
59 67 78
55 63 73
58 66 76
56 63 73
59 68 78
59 67 78
57 65 75
59 67 78
58 66 77
57 65 76
56 63 73
56 64 75
59 67 77
54 61 71
58 66 76
55 63 73
59 67 77
58 65 75
57 66 76
58 66 76
59 67 78
57 65 76
59 67 77
55 62 72
60 69 80
59 67 77
56 64 75
57 64 74
56 63 73
55 63 73
57 64 74
58 66 76
57 65 75
57 64 73
56 64 74
58 66 76
56 64 74
55 62 72
56 64 74
58 66 77
58 66 76
57 64 74
56 64 74
57 65 76
56 64 74
55 62 72
54 61 70
53 60 70
57 64 74
56 64 73
57 65 75
54 61 71
58 66 77
57 64 74
57 65 75
56 63 73
55 62 72
56 64 75
56 64 73
59 67 77
52 59 68
57 64 74
56 64 74
55 63 73
59 67 77
58 67 78
57 65 76
59 67 77
55 63 72
56 63 73
56 64 74
57 65 75
53 60 69
57 65 75
58 66 77
56 64 74
58 66 76
57 65 76
59 68 78
58 66 77
59 67 78
57 65 75
57 65 75
58 66 77
56 63 74
57 65 76
60 68 78
58 66 77
57 64 75
57 65 75
59 67 78
56 64 74
59 67 78
57 65 75
58 66 77
56 64 74
58 66 76
57 65 76
57 65 76
57 65 75
57 66 76
59 67 77
59 67 78
58 66 77
58 66 77
58 66 76
59 67 78
58 66 76
60 68 79
58 66 77
60 68 78
61 69 79
61 69 80
59 67 77
57 65 75
59 68 79
58 66 77
60 69 80
59 67 77
61 69 80
59 67 77
57 65 75
60 68 78
59 67 78
60 68 79
59 68 79
59 68 79
60 68 78
59 68 79
60 68 78
60 68 80
61 69 79
57 65 76
59 67 78
61 69 80
60 67 78
61 70 80
61 68 78
61 70 80
59 68 78
60 67 78
59 68 79
61 69 79
60 68 78
59 67 78
60 68 79
61 70 80
61 69 79
60 69 80
60 68 79
58 66 77
60 68 79
61 69 80
60 68 79
60 68 79
61 69 80
61 69 80
59 67 77
60 68 78
61 69 80
61 69 80
62 70 80
60 68 79
60 68 79
60 69 80
61 70 80
61 69 80
59 68 78
60 68 79
61 70 80
62 70 80
62 70 80
60 68 79
61 69 80
59 68 78
60 69 80
61 69 80
61 69 80
61 69 80
59 67 78
59 68 79
61 69 79
60 68 79
60 68 79
61 69 80
62 70 80
61 69 80
61 70 80
62 70 80
60 69 80
60 68 79
61 69 80
61 69 79
60 69 80
61 69 80
60 68 79
61 70 80
62 70 80
61 69 80
62 70 80
61 69 80
60 69 80
61 69 80
59 67 78
60 69 80
60 69 80
61 69 80
62 70 80
59 68 79
61 69 80
61 69 80
61 70 80
61 69 79
60 69 80
61 70 80
61 69 80
61 70 80
60 68 79
61 70 80
62 70 80
61 69 80
62 69 80
60 68 79
60 69 80
60 69 80
62 70 80
62 70 80
62 70 80
60 69 80
61 69 80
61 69 80
61 69 80
61 70 80
61 69 80
61 69 80
61 69 80
61 69 79
61 70 80
62 70 80
60 68 80
62 70 80
61 69 80
60 68 79
61 69 80
61 69 80
61 69 80
60 69 80
61 70 80
61 69 80
61 69 80
61 69 80
62 70 80
62 70 80
60 69 80
61 70 80
61 70 80
61 70 80
61 69 80
62 70 80
61 69 80
60 69 80
61 69 80
62 70 80
61 69 80
61 69 80
60 69 80
60 68 79
62 70 80
61 69 80
61 70 80
61 69 80
61 70 80
62 70 80
61 69 80
62 70 80
61 69 80
60 69 80
62 70 80
61 69 80
61 69 80
62 70 80
62 70 80
61 69 79
62 70 80
60 68 78
61 69 80
62 70 80
61 69 80
61 69 80
61 70 80
60 68 79
61 69 80
61 69 80
60 69 80
61 69 80
60 69 80
61 69 80
60 68 79
61 69 80
60 68 79
62 70 80
61 70 80
61 69 79
60 68 79
61 69 80
61 69 79
61 69 79
60 69 80
59 67 78
61 69 80
61 70 80
60 68 79
61 70 80
60 68 79
61 70 80
60 69 80
60 68 79
61 69 80
59 68 78
61 70 80
62 70 80
60 69 80
61 69 80
59 68 79
61 69 80
61 69 80
61 69 80
60 69 80
61 69 80
60 68 79
62 70 80
61 69 80
60 68 79
61 69 80
60 69 80
60 68 79
61 69 80
60 68 79
60 68 78
60 68 79
61 69 79
59 67 78
60 68 78
61 69 80
61 70 80
61 69 80
58 66 77
60 69 80
61 69 80
59 68 78
59 67 78
60 68 78
60 68 78
61 69 80
60 68 79
60 68 79
61 68 78
60 68 78
61 69 79
60 68 78
61 69 79
60 68 79
60 68 79
58 67 78
58 66 77
61 69 80
61 69 80
58 66 77
58 66 77
60 68 78
60 68 79
60 69 80
59 67 78
59 67 78
57 65 76
59 67 78
60 67 78
60 69 80
57 65 75
59 67 77
60 68 78
59 67 78
61 69 79
57 65 75
57 65 75
57 65 76
58 65 75
57 65 76
59 68 78
56 64 75
57 65 76
59 67 78
59 67 78
57 65 75
56 64 74
59 67 77
58 66 76
60 68 79
58 66 76
58 65 76
55 63 73
59 67 78
57 64 74
59 67 77
58 65 75
59 66 77
57 66 76
59 67 78
58 66 77
57 65 75
56 64 75
57 65 75
57 65 76
58 66 77
57 65 76
58 66 78
59 67 77
58 66 76
55 62 72
56 64 73
57 65 75
55 63 72
56 63 73
54 62 72
58 66 76
54 62 71
57 65 76
58 66 77
55 63 73
54 61 71
56 64 75
55 63 73
57 65 75
59 67 77
55 63 72
59 66 76
57 65 75
59 68 78
58 66 76
58 66 76
60 67 78
59 66 77
57 65 75
56 63 73
59 67 77
55 63 73
57 64 74
57 65 75
56 63 74
59 67 78
56 64 74
59 67 77
56 64 74
58 66 76
58 66 76
56 63 72
58 66 77
59 68 78
57 64 74
59 67 78
57 65 75
56 64 75
59 66 76
57 64 73
58 66 76
59 67 77
55 63 73
55 63 72
59 67 78
55 63 73
53 60 70
58 67 77
57 65 75
58 66 77
54 62 72
56 64 74
57 65 75
56 63 73
59 67 77
54 62 72
55 63 74
55 62 72
57 64 74
57 64 75
58 66 76
58 66 76
60 68 79
56 64 74
58 66 76
58 66 76
57 65 75
58 66 76
57 65 75
56 64 74
59 67 78
58 66 77
59 67 78
56 64 74
57 64 74
57 65 75
55 62 72
58 67 78
59 67 78
57 65 75
57 65 76
58 66 77
58 65 75
59 68 78
60 68 78
60 69 80
58 66 77
58 66 76
58 66 76
58 66 77
59 68 78
59 67 78
59 68 78
61 69 80
60 68 78
58 67 78
59 67 78
56 64 74
60 68 79
57 65 75
59 68 78
59 67 78
58 66 76
61 69 80
59 67 78
60 68 79
59 67 78
60 68 79
58 66 76
58 67 78
60 68 78
61 69 79
59 67 78
60 68 79
60 68 79
57 65 75
59 67 78
59 68 78
59 67 78
60 68 79
61 69 80
59 67 78
61 69 80
59 67 77
61 69 80
60 69 80
61 69 79
59 67 78
60 69 79
60 69 80
61 69 80
60 67 78
61 69 80
60 68 79
61 69 79
61 69 79
60 68 79
61 70 80
60 69 80
60 68 79
61 69 80
60 68 79
61 69 79
61 69 79
62 70 80
60 68 79
61 69 80
61 69 80
61 70 80
60 68 79
61 69 80
61 69 80
61 70 80
59 68 79
61 69 80
61 69 79
59 67 77
61 70 80
61 69 80
60 69 80
61 70 80
61 69 80
60 69 80
60 69 80
62 70 80
62 70 80
60 68 79
61 69 80
61 69 80
60 68 79
61 69 80
61 70 80
60 69 80
61 69 80
59 68 79
62 70 80
60 68 79
62 70 80
61 70 80
60 69 80
60 68 79
61 69 80
61 69 80
60 69 80
60 69 80
61 69 80
61 69 80
61 69 80
60 69 80
60 69 80
61 69 80
62 70 80
62 70 80
61 69 80
61 69 80
62 70 80
61 70 80
61 69 79
61 69 80
61 69 80
61 70 80
60 69 80
62 70 80
60 69 80
61 70 80
62 70 80
61 69 80
60 68 80
61 69 80
61 69 80
60 69 80
62 70 80
62 70 80
61 70 80
61 69 80
60 69 80
61 69 80
61 70 80
61 69 80
61 70 80
61 69 80
61 70 80
61 70 80
61 69 80
61 70 80
61 69 80
61 69 80
61 69 80
61 69 80
62 70 80
61 69 80
61 69 80
61 69 80
62 70 80
62 69 80
61 70 80
60 69 80
61 69 80
61 69 80
61 69 80
61 69 80
61 69 80
60 69 80
60 68 79
61 69 80
61 70 80
61 69 80
61 69 80
59 67 78
61 69 80
60 69 80
60 68 79
62 70 80
62 70 80
60 68 79
61 69 79
62 70 80
61 69 80
61 69 80
61 69 80
61 69 79
62 70 80
61 69 80
61 70 80
61 70 80
61 69 80
61 69 80
61 70 80
61 69 80
61 69 80
62 70 80
60 68 79
60 69 80
61 70 80
61 69 80
61 69 80
60 69 80
61 69 80
61 70 80
61 69 80
61 69 80
60 69 80
60 68 79
61 69 80
61 69 80
60 68 79
61 69 80
60 69 79
61 69 80
60 68 79
60 69 79
61 70 80
62 70 80
60 69 80
61 69 80
60 69 80
60 68 78
60 69 80
61 69 80
60 68 79
60 68 79
61 69 80
62 69 80
59 68 78
59 67 77
61 69 80
60 69 80
61 69 80
61 70 80
61 69 80
60 68 78
62 70 80
61 70 80
62 70 80
60 69 80
60 68 79
60 68 79
61 69 80
60 69 80
59 67 78
61 69 80
59 67 78
59 67 77
61 69 80
59 67 78
59 68 78
58 66 76
59 68 79
60 68 78
59 67 78
61 70 80
58 66 76
59 67 78
60 68 78
59 68 78
60 68 79
61 69 79
60 68 78
61 69 79
58 67 77
59 67 77
60 68 78
62 70 80
60 68 78
58 66 76
58 66 77
59 67 78
60 68 78
59 67 77
61 69 80
59 68 79
58 66 76
60 69 79
59 68 78
58 66 76
58 65 75
61 69 80
61 69 80
59 67 78
59 67 78
58 66 76
58 66 76
59 68 78
58 66 76
60 68 79
59 67 78
59 67 78
58 66 77
58 66 76
57 65 76
62 70 80
59 67 78
58 66 76
59 67 78
59 66 76
57 65 75
58 66 77
57 66 76
60 68 79
57 65 75
57 65 75
58 65 75
57 65 75
56 64 74
59 66 76
57 64 74
57 65 75
56 65 76
57 65 75
58 66 77
56 65 76
57 66 76
59 67 78
59 68 78
60 68 79
57 65 75
58 67 78
57 66 76
57 65 75
59 67 76
55 63 73
60 67 77
57 65 75
59 67 77
57 65 75
59 66 76
56 64 74
57 65 75
57 65 76
57 64 75
55 63 74
56 64 74
60 68 78
57 64 74
59 66 77
57 65 76
57 64 75
56 64 74
57 64 74
57 65 75
57 65 75
59 68 78
58 66 77
59 67 77
60 68 78
57 65 76
56 63 72
59 67 77
56 64 74
54 61 71
59 67 77
56 64 75
53 61 71
59 68 78
56 63 73
56 64 75
56 64 74
55 63 73
56 63 73
57 65 76
54 62 71
57 65 75
57 64 74
60 68 79
58 66 76
56 64 74
57 65 75
59 67 76
58 66 76
58 66 76
57 65 75
57 65 76
61 69 80
59 66 76
58 66 76
58 66 76
56 65 75
59 67 78
57 65 75
55 63 73
57 65 75
57 65 75
59 68 78
55 63 73
58 66 76
58 66 76
59 67 78
56 64 74
59 67 78
56 63 73
58 65 76
59 67 78
56 64 74
59 67 77
58 66 76
58 66 77
56 64 75
60 67 78
58 66 77
59 67 78
57 64 74
59 68 78
58 66 76
59 67 77
59 67 78
59 66 77
59 67 78
59 67 78
59 67 78
60 68 79
57 65 75
60 69 80
61 69 80
59 66 76
61 69 79
57 65 75
60 68 79
60 69 80
60 68 78
59 67 78
61 69 79
60 67 78
58 66 76
61 69 80
58 67 78
59 67 78
60 68 78
60 68 78
60 68 79
59 67 78
58 67 78
60 69 80
59 67 77
59 67 78
61 69 80
59 67 78
59 68 79
60 69 80
61 69 80
59 68 78
62 70 80
61 69 80
62 70 80
59 67 78
60 69 80
60 68 79
60 68 79
59 66 76
60 68 78
59 67 78
61 69 80
59 67 78
62 70 80
60 68 78
60 69 80
61 69 80
59 67 78
60 68 79
62 70 80
60 68 79
60 69 80
60 68 79
61 69 80
60 68 79
62 70 80
61 69 79
60 68 79
60 69 80
61 70 80
60 69 80
61 70 80
61 69 80
61 69 80
60 69 80
61 69 80
60 68 79
60 68 79
61 69 80
61 70 80
59 67 78
61 70 80
61 69 80
61 69 80
61 69 79
61 69 80
61 69 79
60 69 80
60 69 80
62 69 80
61 70 80
60 68 79
61 70 80
60 69 80
61 69 80
60 69 80
59 68 79
61 69 80
60 68 79
60 69 80
61 69 80
61 69 80
61 69 80
61 69 80
61 69 80
60 69 80
61 69 79
61 69 80
62 70 80
61 69 80
61 69 79
62 70 80
60 69 80
61 69 80
61 69 80
61 69 80
60 68 80
60 68 79
61 70 80
61 69 80
61 69 80
60 68 79
61 70 80
61 69 80
62 70 80
62 69 80
61 70 80
61 69 80
61 70 80
61 69 80
61 69 80
61 69 80
62 70 80
61 70 80
61 70 80
62 70 80
61 69 80
61 69 80
62 70 80
60 69 80
61 70 80
60 69 80
61 69 80
61 69 80
62 70 80
62 70 80
61 69 80
62 70 80
62 70 80
61 69 80
62 70 80
61 69 80
61 69 80
61 70 80
60 69 80
61 69 80
61 70 80
59 67 78
61 69 80
62 70 80
62 70 80
60 69 80
61 69 80
61 70 80
61 70 80
60 69 80
62 70 80
62 70 80
61 69 80
61 69 80
61 69 80
61 69 80
61 70 80
61 70 80
62 70 80
61 69 80
61 69 80
60 68 79
61 70 80
60 69 80
62 70 80
60 69 80
61 69 80
61 69 80
61 70 80
61 69 80
61 69 80
62 70 80
60 69 80
61 70 80
61 69 80
61 70 80
61 69 80
61 70 80
62 70 80
61 70 80
61 69 80
61 69 80
61 70 80
61 69 80
61 69 80
61 70 80
61 69 80
60 68 79
61 69 80
61 70 80
61 69 80
60 69 80
60 68 79
61 70 80
60 69 80
61 69 80
60 68 79
60 68 78
61 69 80
60 68 79
61 69 80
60 68 79
60 69 80
60 68 79
60 69 80
60 69 80
61 69 80
60 69 80
60 68 79
61 69 80
60 69 80
61 69 79
61 69 79
60 69 80
62 70 80
61 69 80
59 68 79
61 69 80
60 69 80
59 68 78
60 68 79
61 69 80
62 70 80
61 69 80
61 69 80
60 68 78
60 68 78
60 68 79
60 68 78
61 69 80
58 66 77
60 69 80
59 67 78
61 69 80
60 68 78
61 69 80
61 69 80
60 67 78
61 69 80
61 69 80
61 69 79
60 68 78
60 68 79
58 66 77
59 67 77
59 67 78
59 68 78
59 67 78
60 68 78
59 67 78
61 68 78
60 68 79
59 67 78
58 66 76
58 66 76
60 68 78
60 68 79
61 69 79
59 67 78
60 68 79
58 67 77
59 67 78
59 67 78
58 66 77
58 66 76
60 68 78
58 66 76
58 66 76
60 69 80
60 68 78
56 64 75
59 67 78
59 67 77
60 68 78
59 67 78
60 68 79
57 65 75
59 67 78
59 67 77
59 68 78
57 65 75
58 66 77
60 67 78
59 67 78
58 65 75
60 68 78
56 64 75
59 67 77
53 61 71
59 67 78
57 65 75
56 64 74
61 69 80
60 67 78
55 62 72
56 63 73
59 67 78
60 67 78
57 65 76
55 63 73
59 67 78
56 64 74
58 66 77
57 64 74
61 68 78
58 65 76
57 66 76
58 66 76
55 62 72
58 66 76
57 65 75
59 67 77
57 65 75
57 65 75
57 65 75
56 63 73
58 66 76
58 67 77
58 66 76
57 64 75
55 63 73
60 68 79
56 64 75
56 64 74
56 64 74
58 66 77
59 68 78
56 64 75
57 65 76
57 65 75
57 65 75
60 68 78
57 65 74
59 67 78
56 64 74
56 63 73
58 66 76
59 67 78
60 68 79
56 64 74
58 66 77
55 63 72
60 67 78
57 65 76
56 63 74
58 66 76
60 68 78
59 67 77
57 64 74
57 65 76
58 65 75
59 66 77
56 64 74
59 67 77
57 65 75
56 64 74
58 66 76
56 64 74
57 65 75
58 65 75
57 65 76
57 66 76
57 65 75
59 68 78
57 65 76
58 65 75
59 66 76
58 66 77
56 63 74
57 64 74
57 66 76
59 67 78
58 66 76
58 65 75
61 69 80
57 66 76
59 67 77
58 66 76
59 67 77
57 65 75
58 66 77
59 67 78
60 69 80
58 66 78
57 65 75
59 68 79
59 67 78
60 67 78
57 65 76
57 65 75
60 68 79
61 68 78
58 65 75
55 63 73
59 67 77
60 68 79
61 69 80
60 67 78
61 69 79
61 69 80
60 68 79
60 68 78
61 69 80
58 66 76
61 69 80
60 68 79
59 67 78
59 67 78
61 69 80
60 68 79
59 68 78
61 70 80
59 68 78
58 66 77
60 68 78
60 68 79
60 69 80
59 67 78
59 67 77
60 69 80
60 67 78
57 65 76
58 66 77
59 68 78
60 68 79
60 68 79
61 68 78
59 67 78
59 67 78
58 65 76
59 67 77
61 69 80
60 68 80
60 68 79
59 67 78
61 69 80
62 70 80
61 69 80
60 69 80
59 67 78
60 68 79
61 69 80
60 68 78
61 70 80
59 67 78
61 69 80
60 69 80
60 68 80
59 67 78
62 70 80
61 69 80
61 69 79
61 69 80
61 69 79
61 69 80
61 69 79
59 67 78
61 69 80
59 67 78
62 69 80
61 70 80
62 69 80
62 69 80
61 69 80
61 69 80
60 68 79
61 69 80
61 69 80
60 68 78
60 68 79
61 69 80
60 69 80
61 69 80
60 68 79
61 69 80
60 69 80
61 69 80
61 70 80
61 69 80
61 69 80
61 69 80
61 70 80
61 69 80
60 69 80
61 69 80
61 69 80
61 69 80
62 70 80
62 70 80
60 69 80
61 69 80
61 69 80
61 69 80
61 69 80
61 69 80
61 69 80
62 70 80
60 69 80
61 69 80
61 69 80
61 69 80
60 69 80
61 69 80
59 67 77
61 69 80
62 70 80
62 70 80
62 70 80
60 69 80
61 69 80
61 69 80
61 70 80
61 70 80
61 69 80
61 69 80
61 70 80
61 70 80
61 69 80
61 69 80
62 70 80
62 70 80
61 69 80
61 70 80
61 69 80
61 69 80
61 69 80
61 70 80
62 70 80
62 70 80
61 69 80
61 70 80
61 69 80
61 69 80
60 68 79
61 70 80
61 69 80
61 69 80
61 69 80
61 69 80
61 69 80
61 69 80
60 69 80
61 69 80
61 70 80
60 69 80
62 70 80
61 70 80
61 70 80
61 69 80
60 69 80
61 69 80
61 69 80
60 68 79
61 69 80
61 69 80
61 69 80
62 70 80
61 70 80
61 69 80
60 69 80
61 69 80
61 69 80
61 69 80
60 68 79
60 68 79
60 68 78
61 69 80
61 70 80
61 70 80
61 69 79
60 67 78
60 69 80
60 68 78
60 68 78
60 68 79
61 69 80
61 69 80
61 69 80
60 69 80
62 70 80
62 70 80
60 68 79
61 69 80
61 70 80
60 68 80
61 69 80
61 70 80
59 68 79
62 70 80
60 69 80
61 69 80
60 68 78
60 69 80
61 69 80
61 69 80
61 69 80
61 69 80
60 68 79
61 69 80
60 69 80
62 70 80
61 70 80
60 69 80
61 70 80
59 67 78
61 69 80
61 69 80
59 68 78
61 69 80
60 68 79
60 69 79
60 69 80
61 70 80
59 67 78
60 68 78
61 69 80
60 69 80
60 68 79
61 69 80
61 69 80
61 70 80
60 68 79
59 68 78
61 69 80
61 69 80
61 69 80
60 68 79
61 69 80
61 69 80
62 70 80
61 69 79
60 68 78
61 69 79
61 69 80
60 68 79
60 68 78
61 70 80
59 68 78
59 67 77
60 68 79
58 66 77
60 68 78
61 69 79
61 69 80
58 66 76
59 67 78
60 68 79
60 68 78
59 67 77
59 67 78
60 68 79
60 68 78
58 66 76
59 67 78
60 68 78
58 66 76
60 68 78
59 67 78
57 65 76
59 68 79
59 67 78
58 67 77
60 68 78
59 68 78
59 67 77
58 66 77
60 68 78
59 67 78
61 69 80
58 66 76
60 67 78
58 66 76
60 68 78
57 65 75
58 65 75
57 66 76
58 66 76
59 67 77
59 67 78
58 66 76
59 67 78
57 65 75
56 64 74
60 68 78
56 63 73
60 68 79
59 67 77
58 66 77
59 67 77
58 66 76
58 66 76
59 66 76
58 66 76
58 66 76
58 65 76
59 68 78
56 64 74
57 65 75
59 67 78
57 64 74
59 67 77
56 63 73
59 67 78
59 67 78
57 65 76
59 67 78
61 69 79
59 68 78
58 66 76
58 66 77
57 65 75
57 65 75
56 64 74
56 64 75
59 67 77
56 64 74
57 65 75
59 66 77
57 65 75
56 63 73
57 65 75
56 64 74
58 66 76
57 65 75
56 64 75
54 62 72
57 65 75
60 68 79
57 65 76
59 67 77
57 65 75
58 65 75
61 69 80
56 64 74
57 64 74
57 65 75
57 64 74
60 68 78
59 67 78
58 66 76
57 65 75
57 65 75
59 67 77
55 63 73
56 63 73
57 64 75
58 66 76
57 65 75
58 67 78
60 68 78
59 67 78
57 65 75
58 66 76
56 64 74
56 63 73
58 67 78
58 66 77
56 64 75
59 68 78
56 64 75
59 67 78
60 68 79
57 65 75
58 65 76
57 64 74
58 66 76
57 65 75
57 65 76
59 67 78
58 66 77
59 67 77
59 68 78
58 66 76
59 66 77
58 66 77
59 68 78
57 65 75
55 63 73
56 64 74
59 67 77
57 65 75
57 65 75
61 69 79
58 65 75
60 68 78
57 65 75
59 67 78
59 67 78
61 69 80
59 67 78
57 64 75
61 69 79
59 67 78
60 67 77
59 67 77
57 65 75
60 68 78
60 68 78
59 67 78
58 66 76
58 67 78
60 68 78
59 67 78
59 67 78
61 69 80
60 68 79
60 68 79
60 68 79
60 68 78
60 68 79
60 68 78
60 68 78
61 69 79
59 68 78
58 66 76
60 68 78
60 69 80
59 67 77
60 68 79
61 69 80
60 68 78
60 69 80
61 69 80
59 68 78
59 68 79
61 69 80
61 70 80
60 68 78
58 66 76
61 69 79
61 70 80
59 68 78
60 68 79
61 69 80
61 69 80
61 69 80
61 69 79
60 68 79
60 67 78
61 69 80
61 69 80
62 70 80
61 69 80
60 69 80
61 69 80
60 69 80
60 69 80
61 69 80
61 69 80
58 67 78
59 68 78
61 69 79
60 68 79
61 69 80
61 69 80
61 69 80
61 69 80
61 70 80
59 67 77
61 70 80
61 69 80
61 69 80
61 69 80
60 68 79
61 69 80
62 70 80
61 69 80
62 70 80
61 69 80
61 69 80
61 69 80
61 69 80
60 69 80
61 69 80
61 69 80
61 69 80
62 70 80
60 69 79
60 69 79
62 70 80
61 70 80
61 70 80
61 70 80
61 70 80
60 69 80
61 69 80
61 69 80
61 69 80
61 69 80
61 69 79
61 70 80
61 69 80
61 70 80
60 68 79
61 70 80
60 69 80
61 70 80
61 69 80
61 69 80
61 69 80
60 69 80
60 69 80
62 70 80
61 70 80
61 70 80
62 70 80
61 69 80
61 69 80
61 70 80
62 70 80
62 70 80
60 69 80
61 69 80
61 70 80
61 70 80
60 69 80
62 70 80
61 69 80
61 70 80
60 68 80
61 70 80
61 69 80
60 68 79
61 69 80
62 70 80
62 70 80
60 69 80
61 69 80
61 69 80
61 70 80
61 69 80
61 70 80
61 69 80
62 70 80
60 68 79
61 69 80
61 70 80
61 69 80
61 69 79
61 70 80
60 68 79
61 69 80
60 69 80
61 69 80
61 69 80
61 69 80
61 69 80
62 70 80
60 69 80
62 70 80
61 69 80
62 70 80
60 69 80
60 69 80
61 69 80
61 70 80
60 69 80
60 68 79
61 70 80
61 70 80
60 69 80
60 68 79
62 70 80
61 69 80
61 69 80
61 69 80
62 70 80
61 69 80
62 70 80
61 69 80
61 69 80
61 70 80
62 70 80
61 69 80
62 70 80
61 70 80
61 69 80
61 69 80
61 69 80
62 70 80
60 68 79
60 68 79
61 69 80
61 69 80
61 70 80
61 69 79
61 69 80
61 70 80
60 69 80
61 69 80
61 70 80
62 70 80
60 68 79
61 69 80
60 68 79
61 69 80
60 69 80
60 69 80
61 69 80
60 68 79
60 68 78
61 69 80
62 70 80
59 68 78
62 70 80
60 69 80
61 69 80
60 68 79
60 69 80
61 69 79
62 70 80
59 67 78
59 67 78
61 70 80
61 69 80
61 69 80
61 70 80
60 68 78
61 69 80
61 69 80
60 68 78
60 68 79
61 69 80
61 69 80
61 69 80
60 69 80
60 68 79
59 67 78
60 68 79
61 69 79
61 69 80
61 69 80
61 69 80
59 67 78
60 69 80
60 68 79
61 69 80
60 68 78
61 69 80
59 66 76
61 69 80
60 68 78
61 69 80
60 68 78
60 68 79
58 67 77
58 66 77
60 68 78
61 69 80
60 69 80
60 68 79
58 65 75
59 67 78
60 67 77
60 68 78
60 68 78
58 65 75
59 68 78
59 68 78
59 67 77
60 68 79
58 66 76
59 68 79
59 68 78
60 68 79
60 68 78
60 68 78
59 67 78
56 64 74
58 66 76
57 66 76
59 67 78
60 68 78
61 69 80
59 68 78
59 67 78
59 67 78
58 66 76
59 67 78
59 67 77
58 66 76
57 65 76
59 67 78
58 66 76
57 65 75
60 67 78
55 63 73
57 66 76
58 66 77
56 64 73
57 64 74
60 68 78
57 65 75
58 66 76
58 65 76
57 65 75
59 67 78
57 66 76
58 66 76
58 66 78
55 63 72
59 67 77
57 64 75
58 66 76
57 65 75
58 66 77
56 64 75
56 64 75
59 67 77
58 65 75
59 67 78
57 65 76
57 64 75
60 68 79
57 65 75
60 68 78
56 63 72
60 68 79
59 67 77
58 65 75
55 62 72
57 65 75
59 66 77
57 64 74
60 67 78
58 65 75
57 64 75
57 65 76
55 63 73
59 67 77
57 65 75
59 67 77
57 65 76
56 63 73
57 65 75
56 64 74
56 64 74
56 64 74
58 66 77
58 66 76
55 62 72
56 64 75
60 68 79
55 62 72
55 63 73
59 66 77
55 63 73
56 64 74
56 63 74
59 67 78
55 63 72
59 67 77
58 66 77
59 67 77
57 64 75
56 64 74
59 67 78
59 66 77
57 65 76
58 66 76
59 67 78
59 68 78
57 64 75
58 66 76
57 65 75
58 66 77
58 66 77
59 67 78
60 68 79
58 66 77
58 67 78
57 65 76
60 68 78
57 65 75
60 69 80
59 67 78
56 64 74
59 67 78
57 65 76
58 66 76
60 67 78
60 67 78
60 67 78
60 68 78
58 66 77
59 67 78
59 67 77
58 66 75
59 67 78
60 68 78
60 67 77
60 68 78
59 67 77
58 67 78
60 68 78
60 68 78
59 67 77
59 68 78
59 67 77
58 66 76
58 66 77
59 68 78
60 68 79
60 68 79
60 68 78
61 69 80
61 69 80
59 67 77
59 68 78
60 68 78
60 68 78
60 68 78
58 66 77
59 67 78
59 68 78
58 66 76
60 68 79
59 67 78
60 68 78
60 68 79
60 68 79
61 69 80
61 69 80
58 67 78
58 66 78
60 69 80
62 69 80
60 68 78
60 68 79
60 68 79
60 69 80
59 68 78
61 69 80
61 69 79
59 68 78
60 68 79
60 68 79
61 69 80
60 68 79
60 69 79
61 69 79
60 68 79
61 69 80
61 69 80
61 69 80
60 68 79
61 69 80
60 68 79
61 69 80
60 68 79
62 70 80
61 70 80
62 70 80
59 67 78
61 69 80
60 69 80
60 69 80
60 68 79
62 70 80
61 69 80
61 70 80
61 69 80
61 69 80
61 69 80
61 69 80
61 69 80
61 70 80
61 69 80
59 68 79
60 69 80
60 69 80
59 68 78
61 69 80
60 68 80
62 70 80
61 70 80
62 70 80
60 68 79
60 69 80
60 69 80
60 69 80
61 69 80
61 69 80
60 68 78
60 69 79
61 69 80
61 69 80
61 69 79
60 68 79
61 69 80
61 69 80
61 70 80
61 70 80
61 69 80
60 68 78
61 70 80
61 69 80
61 69 80
60 68 79
60 69 80
60 69 80
60 69 80
61 69 80
61 70 80
61 69 80
61 69 80
61 69 80
62 70 80
61 70 80
61 69 80
61 69 80
62 70 80
60 69 80
61 69 80
60 69 80
62 70 80
62 70 80
62 70 80
61 70 80
60 69 80
61 69 80
60 69 80
60 69 80
61 69 80
61 69 80
62 70 80
62 70 80
61 70 80
61 70 80
60 68 79
61 69 80
60 69 80
61 69 80
62 70 80
60 69 79
60 68 79
61 69 80
61 69 80
62 70 80
60 69 80
61 70 80
61 69 80
61 69 80
61 69 80
62 70 80
61 69 80
60 69 80
61 69 80
61 69 80
61 70 80
60 69 80
60 68 79
61 69 80
61 69 80
60 68 79
61 70 80
62 70 80
61 70 80
61 70 80
60 69 80
61 70 80
62 70 80
61 70 80
62 70 80
61 69 80
61 69 80
61 69 80
61 69 80
61 69 80
61 69 80
61 69 80
61 69 80
61 69 79
61 69 80
60 68 79
61 69 80
61 70 80
61 70 80
61 69 80
61 70 80
62 70 80
60 68 80
61 69 80
62 70 80
61 70 80
61 69 80
61 69 80
61 69 79
60 68 79
62 70 80
60 69 80
60 69 80
60 68 79
62 70 80
61 69 80
61 69 80
61 70 80
61 69 79
60 69 80
61 70 80
61 69 80
61 70 80
61 69 80
62 69 80
61 69 80
60 68 79
58 66 77
60 68 78
61 69 80
59 68 78
61 69 79
61 69 80
60 68 79
60 69 80
61 69 79
61 69 80
61 68 78
61 69 79
59 67 78
60 68 79
60 68 78
61 69 80
61 69 79
62 70 80
61 69 79
60 69 80
60 68 79
60 68 79
60 68 78
59 67 78
58 66 77
59 67 78
57 65 75
61 69 79
59 67 78
60 67 78
60 68 79
61 69 79
61 69 80
60 68 80
59 67 78
60 68 79
59 67 78
60 68 78
59 68 78
60 68 79
59 67 78
60 68 79
58 66 76
61 69 79
60 67 78
59 68 79
59 67 78
60 69 80
60 68 78
61 69 80
58 66 77
60 68 79
59 67 78
58 65 75
57 65 76
59 67 77
58 66 76
62 70 80
61 69 80
58 66 78
60 68 78
60 69 80
58 65 75
59 67 78
59 67 78
57 66 76
59 67 78
59 68 78
60 68 78
58 66 76
60 67 78
59 67 78
57 64 75
59 68 78
59 67 78
57 65 75
60 68 79
59 66 76
59 67 78
60 68 79
59 67 78
59 67 77
58 66 76
55 63 72
60 67 78
58 66 77
59 67 77
56 64 74
57 64 75
58 66 76
59 67 78
59 68 78
58 67 77
55 63 73
59 67 78
59 67 78
60 68 78
57 65 75
58 66 76
58 66 76
57 65 75
60 68 78
61 69 80
60 68 78
54 62 71
58 67 78
60 68 79
60 68 79
57 65 75
60 68 78
54 61 71
56 64 74
60 68 78
57 65 75
59 67 78
57 65 75
61 69 79
58 65 76
56 64 73
60 68 78
59 66 77
58 66 77
58 66 76
58 66 77
55 63 73
56 64 74
56 63 72
59 66 76
57 65 76
58 66 77
60 68 79
57 66 76
59 67 77
59 67 78
59 67 77
57 64 75
58 66 76
58 65 76
59 67 77
57 65 75
57 65 75
58 66 76
56 64 75
60 68 78
56 63 73
60 68 78
57 65 75
59 67 78
57 65 75
57 65 75
58 66 77
57 65 75
58 67 78
56 64 74
58 66 76
58 65 75
59 66 76
58 66 77
59 67 78
58 66 75
57 65 76
59 67 78
56 64 74
59 67 77
59 67 78
59 67 77
57 65 75
58 65 75
58 66 76
59 67 77
58 66 77
60 68 78
59 68 78
59 67 78
57 66 76
59 67 77
58 66 76
59 67 77
59 67 78
59 67 78
59 67 78
59 67 78
57 65 75
57 65 75
58 66 76
60 68 78
60 69 80
60 68 78
59 68 78
59 67 78
60 68 78
57 65 76
58 66 76
60 68 79
60 68 79
58 65 76
60 68 79
58 66 76
59 67 78
58 66 76
60 67 78
58 65 75
60 68 79
59 67 78
57 65 76
59 67 78
59 67 78
60 68 78
59 68 79
59 67 78
59 67 78
60 69 80
57 65 75
59 67 78
59 67 78
60 69 80
60 68 79
61 70 80
60 69 80
59 68 78
59 68 78
59 67 78
60 69 80
61 69 79
60 69 80
60 68 79
60 68 79
61 69 80
59 68 78
60 69 80
60 69 80
59 68 78
60 69 80
61 69 80
60 68 79
60 69 80
60 68 80
59 67 77
60 68 78
61 69 80
61 69 80
61 69 79
60 68 79
60 69 80
60 68 79
61 69 80
60 68 78
60 69 79
59 67 78
61 69 80
61 69 80
61 70 80
61 69 80
61 69 80
61 70 80
60 68 79
60 69 80
61 69 79
61 70 80
61 69 79
61 69 80
61 69 80
61 69 80
61 70 80
61 69 80
61 69 80
60 69 80
60 69 80
61 69 80
61 70 80
60 69 80
60 69 80
61 69 80
60 68 79
62 70 80
60 68 79
61 69 80
61 69 80
60 69 80
61 69 80
61 70 80
61 69 80
61 70 80
61 70 80
60 68 79
61 70 80
60 68 78
61 69 80
61 69 80
61 69 80
61 70 80
60 69 80
61 69 80
60 69 80
60 68 79
61 69 80
60 69 80
61 69 80
63 70 80
61 69 80
61 69 80
61 69 80
61 70 80
61 69 80
61 69 80
61 69 79
62 70 80
61 69 80
61 69 80
60 69 80
61 69 80
61 69 80
61 69 80
61 70 80
61 70 80
61 69 80
61 69 80
61 70 80
61 69 80
61 70 80
61 70 80
61 69 80
61 69 80
61 70 80
61 69 80
62 70 80
61 69 80
61 70 80
61 69 80
61 70 80
61 69 80
62 70 80
61 69 80
61 69 79
62 70 80
61 70 80
62 70 80
60 69 80
61 69 80
61 70 80
61 70 80
61 70 80
61 70 80
61 69 80
61 69 80
61 69 80
62 70 80
61 69 80
61 69 80
61 69 80
60 69 80
61 69 80
61 69 80
60 69 80
61 69 80
60 68 78
61 69 79
60 68 79
61 69 80
60 69 80
60 69 80
62 70 80
60 69 80
61 69 80
62 70 80
60 69 80
60 68 78
60 69 80
61 69 80
61 69 80
62 70 80
62 70 80
61 70 80
61 69 80
60 68 79
61 69 80
60 68 79
60 68 79
61 70 80
61 69 80
60 68 78
62 70 80
61 69 80
59 68 78
60 68 79
60 69 80
61 69 80
60 68 79
61 69 80
61 69 80
61 69 80
60 68 79
61 69 79
60 69 80
61 69 80
61 69 80
61 69 80
60 68 79
61 69 80
60 69 80
61 70 80
60 69 80
61 69 80
61 70 80
60 69 79
62 70 80
60 69 80
59 67 78
59 68 79
60 69 80
61 69 79
61 69 80
60 69 80
61 69 80
60 69 80
60 68 79
60 68 78
58 65 75
60 68 78
59 68 79
61 69 80
59 67 78
59 68 78
62 70 80
61 69 80
61 69 80
61 69 79
58 66 77
60 68 78
61 69 79
61 69 80
61 69 80
60 68 79
60 68 79
62 70 80
59 67 77
61 69 80
60 69 80
61 70 80
61 69 80
60 68 78
60 67 78
61 69 79
61 69 79
61 69 79
60 68 78
59 67 78
58 66 76
59 67 78
60 68 79
60 68 79
60 68 78
59 67 78
60 69 80
60 69 80
60 68 79
61 70 80
59 67 78
59 68 78
59 67 77
60 69 80
60 68 78
58 67 78
60 68 78
59 67 77
60 68 79
57 65 75
59 67 78
60 68 78
58 66 76
58 67 78
58 66 76
60 68 79
60 68 78
56 63 74
60 67 77
59 67 77
60 68 78
60 68 78
59 67 78
59 67 78
56 64 74
59 67 77
58 66 75
60 67 78
57 65 75
58 66 77
59 67 77
61 69 79
56 64 74
60 68 78
58 66 76
60 68 78
60 68 78
59 67 77
61 69 80
59 67 77
57 65 75
60 69 80
59 67 78
60 68 79
57 64 74
57 66 76
57 64 75
58 66 76
56 63 73
59 68 78
61 69 79
58 66 76
56 64 75
58 66 76
58 66 76
55 63 73
56 64 74
56 63 73
58 66 77
57 66 76
56 64 75
59 67 77
59 67 77
57 65 75
56 64 74
56 64 74
55 63 72
59 67 78
60 68 78
56 63 74
60 68 78
54 61 71
57 65 75
58 66 77
60 68 79
57 65 75
57 65 75
60 68 78
58 66 76
57 65 75
59 67 78
60 68 78
58 66 77
58 66 76
58 66 76
61 68 78
59 67 78
57 64 74
59 67 77
57 65 76
58 66 76
60 68 78
59 68 78
60 69 80
59 67 78
57 64 75
56 64 74
59 67 77
57 65 75
57 65 75
58 66 76
58 66 76
60 68 79
58 66 77
57 66 76
57 65 75
57 64 74
61 69 80
58 66 76
60 68 78
59 67 78
61 69 80
58 66 77
58 66 77
58 65 76
60 68 79
58 66 76
58 66 76
59 68 78
58 66 77
60 68 79
58 66 77
57 65 76
60 68 79
59 67 78
60 68 79
58 65 76
59 66 77
59 67 77
60 68 78
59 67 77
60 67 78
58 65 76
59 67 78
58 66 77
60 69 80
58 67 78
60 68 79
59 67 77
60 69 79
61 69 80
60 68 78
57 65 76
60 68 78
59 67 78
59 67 78
60 68 79
60 68 79
60 68 78
59 68 78
61 69 80
60 68 78
58 66 77
60 68 80
61 70 80
58 66 75
60 68 79
60 69 80
60 69 80
57 65 75
59 67 78
60 68 78
61 68 78
61 69 80
61 70 80
60 68 79
60 68 79
58 66 77
60 68 79
61 69 80
61 70 80
61 69 80
61 70 80
60 68 79
61 69 80
62 69 80
61 69 80
60 68 79
60 68 79
61 69 80
60 68 79
61 69 80
59 68 78
61 69 80
60 68 78
59 67 78
58 66 78
60 68 78
61 69 80
59 68 78
59 68 78
61 69 80
62 70 80
62 70 80
60 68 78
60 69 80
62 69 80
60 68 79
61 69 80
61 69 80
61 69 80
61 69 80
61 70 80
61 70 80
61 70 80
60 68 79
59 68 79
62 70 80
60 68 79
60 69 80
60 69 80
60 68 78
60 69 80
62 69 80
61 69 79
60 69 80
60 69 79
59 68 78
60 68 79
61 70 80
61 69 80
61 69 80
61 70 80
61 69 80
61 69 79
61 70 80
62 70 80
60 68 79
61 70 80
60 68 79
61 69 80
61 70 80
61 69 80
60 68 79
62 70 80
61 70 80
61 69 80
60 69 80
60 69 80
61 69 80
61 70 80
61 68 79
61 69 80
61 70 80
61 70 80
61 69 80
61 70 80
60 69 80
61 69 80
62 70 80
61 69 80
61 69 80
62 70 80
61 69 80
61 69 80
61 69 80
60 69 80
61 69 80
61 69 80
62 70 80
62 70 80
60 69 80
61 70 80
60 69 80
62 70 80
61 69 80
60 68 79
62 70 80
61 69 80
61 70 80
62 70 80
61 70 80
62 70 80
61 69 80
61 69 79
61 69 80
60 69 80
62 70 80
61 69 80
59 68 80
61 70 80
61 69 80
61 69 80
61 70 80
62 70 80
60 69 80
62 70 80
61 69 80
61 70 80
61 69 80
62 70 80
61 69 80
62 70 80
62 70 80
61 69 80
61 69 80
60 69 80
60 68 78
61 69 80
61 69 80
62 70 80
61 70 80
60 68 78
61 69 80
61 69 80
61 69 80
60 68 79
61 69 80
61 69 80
61 70 80
61 70 80
62 70 80
61 69 80
60 69 80
61 69 80
61 70 80
61 69 80
61 69 80
61 69 80
61 69 80
61 69 80
60 68 79
61 69 80
61 69 80
60 69 80
61 69 80
60 69 80
61 69 80
62 70 80
62 70 80
61 70 80
59 67 78
59 68 78
61 70 80
61 70 80
61 70 80
62 69 80
61 69 80
60 68 79
61 69 79
61 70 80
61 69 80
60 68 78
61 69 80
60 68 79
61 69 80
61 69 80
61 69 80
59 67 78
61 70 80
62 70 80
59 67 78
59 67 78
59 67 77
60 68 78
59 67 77
60 68 79
60 68 78
61 70 80
60 68 79
59 68 79
60 68 79
59 67 78
59 67 78
59 67 78
60 68 79
61 69 80
59 68 78
59 67 78
60 68 79
61 69 80
61 69 80
60 68 79
61 69 79
59 67 77
60 69 80
59 67 78
61 69 80
61 69 79
59 66 77
60 68 78
60 68 78
61 69 80
59 67 78
59 67 78
59 67 78
58 66 77
60 68 79
59 67 77
60 68 79
61 69 80
60 68 79
58 66 76
58 66 77
60 68 79
59 67 78
60 68 79
59 67 77
60 68 78
60 69 80
60 68 79
60 69 79
58 66 76
60 68 78
59 68 78
59 66 77
59 67 78
60 68 79
57 65 76
56 64 75
59 67 78
57 66 76
59 67 78
59 67 77
60 68 78
59 67 77
60 68 79
56 64 74
57 65 75
57 66 76
60 69 80
58 66 76
58 65 75
58 66 77
58 67 78
57 65 75
58 66 76
59 67 78
58 66 77
60 68 79
60 67 77
59 67 78
59 67 78
59 67 78
57 65 75
58 65 75
60 69 80
59 67 78
57 65 75
57 65 75
59 67 78
59 67 78
61 69 80
57 65 75
59 67 77
59 67 78
57 65 75
57 65 75
57 64 75
57 65 76
58 66 76
58 65 75
58 66 77
58 66 76
59 67 78
58 66 77
59 67 78
57 66 76
59 67 78
57 65 75
59 67 78
60 68 78
56 64 74
57 65 76
59 67 77
59 66 76
58 66 77
57 64 74
58 66 76
60 68 79
53 60 70
60 68 78
59 67 77
58 67 78
57 65 76
57 65 76
59 68 78
57 65 75
57 65 75
59 67 78
58 65 75
56 64 74
58 66 76
58 66 75
58 65 75
58 66 77
59 67 78
58 66 76
57 65 76
60 68 78
57 65 76
58 66 76
57 64 74
59 66 76
57 66 76
60 68 79
57 65 75
59 68 79
57 65 75
59 67 78
58 65 76
60 68 78
57 65 76
60 68 78
58 66 76
58 66 76
60 68 80
58 66 76
57 65 75
56 64 74
58 66 77
59 67 77
59 67 78
58 65 75
58 66 76
59 67 77
57 64 75
59 67 78
60 68 78
56 64 74
61 69 80
58 66 76
58 66 77
59 67 77
58 66 76
59 67 78
59 67 77
59 68 78
60 68 79
60 69 80
60 69 80
59 67 78
59 67 78
61 70 80
60 68 79
59 67 77
60 69 79
58 66 77
59 67 77
59 67 78
59 68 78
60 68 79
61 69 80
58 66 77
61 69 80
60 68 79
60 68 79
59 67 77
61 69 80
61 69 79
61 69 80
60 68 79
60 68 79
60 68 78
61 69 80
59 67 78
61 69 80
59 67 78
61 69 80
61 70 80
59 67 78
60 68 78
60 69 80
60 68 79
61 69 80
60 68 79
62 69 80
59 68 79
60 68 78
60 69 79
60 69 80
60 69 80
60 69 80
60 68 80
59 67 78
61 69 80
61 69 80
60 69 79
61 69 80
60 68 78
60 68 78
60 68 79
61 69 80
61 69 79
60 69 80
61 69 80
61 69 80
60 68 79
62 70 80
60 68 79
61 69 80
60 69 80
60 68 79
62 70 80
61 69 80
60 68 78
61 69 80
59 67 77
60 69 80
61 69 80
62 70 80
61 69 80
61 70 80
61 69 80
61 69 80
61 69 79
61 69 80
60 69 80
60 69 80
62 70 80
61 69 80
60 68 79
61 69 80
60 69 80
61 69 80
61 69 80
61 69 80
62 70 80
60 69 80
61 69 80
61 70 80
61 69 80
60 69 80
61 69 80
61 69 80
61 69 80
61 69 80
62 70 80
61 69 80
61 69 80
61 70 80
61 70 80
61 69 80
61 69 80
60 68 79
60 69 80
61 69 80
61 69 80
62 70 80
61 69 80
62 70 80
62 70 80
61 70 80
61 69 80
62 70 80
61 69 80
61 69 80
60 69 80
61 69 80
61 69 80
61 70 80
62 70 80
62 70 80
61 70 80
60 69 80
61 70 80
61 69 80
61 70 80
60 69 80
61 70 80
62 70 80
62 70 80
60 69 80
61 69 80
61 70 80
61 69 80
60 69 80
61 69 80
61 69 80
61 69 80
61 69 80
61 70 80
61 69 80
60 69 80
60 69 80
61 70 80
60 69 80
61 69 80
62 70 80
61 70 80
61 69 80
60 69 80
60 68 80
60 68 80
61 69 80
61 69 80
61 69 80
61 69 80
61 69 80
62 70 80
61 69 80
62 70 80
61 70 80
61 69 80
62 70 80
60 69 80
61 70 80
60 69 80
61 69 80
61 69 80
61 69 80
60 69 80
62 70 80
61 69 79
62 70 80
61 69 80
60 69 80
61 69 79
62 70 80
61 70 80
61 70 80
61 70 80
61 69 80
60 69 80
62 70 80
61 69 80
61 70 80
61 69 79
60 69 79
62 70 80
61 69 80
60 68 79
61 69 80
61 70 80
61 69 79
59 68 79
62 70 80
61 69 80
60 69 80
61 69 80
62 70 80
62 70 80
60 68 78
59 67 78
61 69 80
61 69 79
61 69 80
61 69 80
61 69 80
59 67 78
61 69 80
60 68 79
60 68 78
60 68 79
61 69 80
62 70 80
60 68 79
60 69 80
62 70 80
61 70 80
61 69 79
60 68 79
61 69 80
61 69 80
61 69 80
61 69 80
61 70 80
60 68 78
60 68 79
60 68 80
61 69 80
59 68 78
59 68 78
60 68 78
59 67 77
60 68 79
59 67 78
60 69 80
60 69 80
61 69 80
60 68 79
58 66 77
59 68 78
60 68 79
61 69 79
61 69 80
60 69 80
58 66 76
59 67 78
60 68 79
59 67 78
61 69 80
61 69 79
60 68 79
60 68 79
60 68 79
60 68 79
59 67 78
60 68 79
59 68 79
60 68 78
60 68 78
58 67 77
60 68 79
59 67 77
59 68 78
59 68 78
57 65 75
58 66 77
60 68 79
59 67 78
59 67 78
59 67 78
60 67 78
59 67 77
57 65 76
57 64 75
60 68 78
61 69 80
58 67 77
60 68 79
60 68 78
57 65 76
57 65 75
58 67 78
58 66 76
59 67 77
59 67 78
60 68 79
58 67 78
60 68 78
58 66 76
59 67 77
57 65 75
58 66 76
57 65 76
59 67 77
59 68 78
61 69 80
59 68 79
58 66 77
58 65 76
59 67 77
59 68 78
61 69 79
59 67 77
58 67 78
57 65 75
58 66 76
59 68 78
59 67 78
60 68 78
58 66 76
59 67 78
55 62 72
61 69 79
57 65 75
56 64 74
58 66 77
58 66 77
61 69 79
58 65 75
57 65 76
59 67 77
59 67 78
60 68 79
58 66 77
58 66 77
58 66 77
60 68 79
58 66 76
57 65 76
56 64 74
57 65 75
58 67 77
61 69 79
60 68 78
59 67 77
58 66 77
58 66 77
59 67 78
57 65 75
57 65 76
57 66 76
58 66 76
57 66 76
56 64 74
56 64 73
58 65 75
59 68 78
59 67 78
58 66 76
58 66 77
59 67 78
58 66 77
58 66 76
58 66 76
58 66 76
57 65 75
58 66 77
58 66 76
59 67 78
57 64 74
60 68 79
57 65 76
60 68 79
57 64 75
55 62 72
57 65 76
57 65 75
59 67 78
61 69 79
58 66 76
59 67 78
59 67 78
57 64 74
59 68 78
59 67 78
57 66 76
60 68 78
58 65 76
60 69 79
59 67 78
56 64 75
58 66 77
61 69 80
60 69 80
57 65 76
59 67 77
59 67 77
58 66 76
59 67 78
60 68 78
59 68 78
60 68 79
61 69 79
58 66 76
60 68 79
60 68 78
58 66 76
60 68 79
61 69 80
60 67 78
59 67 78
60 69 79
59 67 78
60 68 78
60 68 79
59 67 78
60 68 79
60 68 79
58 67 78
58 66 77
59 67 77
61 69 79
58 66 76
59 68 78
60 68 80
60 68 79
59 67 78
60 69 80
58 66 77
60 69 80
58 67 77
61 70 80
60 68 78
60 68 78
60 68 79
61 69 80
61 69 80
60 69 80
61 69 80
60 68 79
61 69 79
59 67 78
61 69 80
59 68 78
61 69 80
61 70 80
61 69 80
61 69 80
61 69 80
59 67 78
60 69 80
59 67 78
60 67 78
61 69 80
60 68 79
61 69 80
58 66 77
60 68 79
61 69 80
61 70 80
60 69 80
61 69 80
60 68 79
62 69 80
61 69 80
61 69 79
61 69 79
61 70 80
60 68 78
61 70 80
61 69 80
60 69 80
60 69 80
61 69 80
61 69 79
61 69 80
62 69 80
61 69 80
60 69 80
61 70 80
61 69 79
61 69 80
60 69 80
61 70 80
61 69 80
60 69 80
60 69 80
61 69 80
61 69 80
61 69 80
61 69 80
61 69 80
62 70 80
61 70 80
61 69 80
60 68 79
60 68 79
61 69 80
62 70 80
61 69 80
61 70 80
60 68 78
60 69 80
61 70 80
61 69 80
60 68 79
61 69 80
61 69 80
61 69 80
61 69 80
63 70 80
61 69 80
61 70 80
61 70 80
61 69 80
62 70 80
61 69 80
61 70 80
61 70 80
61 70 80
61 70 80
61 69 80
62 70 80
61 69 80
61 69 80
60 68 79
61 69 80
61 70 80
61 69 80
61 69 80
61 69 80
61 69 80
59 68 78
61 69 80
61 70 80
62 70 80
61 69 80
61 69 80
61 70 80
61 69 80
62 69 80
62 70 80
60 69 80
62 70 80
61 70 80
61 70 80
61 70 80
61 69 80
61 70 80
61 69 80
61 70 80
62 70 80
61 69 79
61 70 80
61 69 80
61 70 80
61 70 80
60 69 80
60 69 80
62 70 80
60 69 80
61 69 80
61 70 80
61 70 80
62 70 80
60 68 79
61 69 80
62 70 80
61 70 80
61 69 80
60 69 80
61 69 79
60 68 79
62 70 80
61 70 80
61 69 80
61 69 80
60 68 79
61 69 80
61 70 80
60 69 80
60 69 80
60 69 80
61 69 80
59 68 78
61 69 80
61 70 80
61 70 80
60 68 80
60 68 79
61 69 80
61 69 80
60 68 78
61 69 80
61 69 80
59 67 77
61 70 80
61 69 80
60 68 79
60 69 80
61 69 79
61 70 80
61 69 80
61 70 80
61 69 80
62 70 80
61 69 80
59 67 78
61 70 80
61 69 79
62 70 80
62 69 80
60 68 79
61 69 80
60 68 79
60 68 78
61 69 80
60 68 78
61 69 80
61 70 80
60 69 79
62 70 80
62 70 80
60 68 80
62 70 80
60 68 79
61 69 80
60 68 79
60 69 80
59 68 79
60 68 79
62 70 80
60 68 79
61 69 79
61 69 80
60 68 79
59 67 78
60 69 80
62 70 80
59 67 78
61 70 80
61 70 80
60 68 79
60 69 80
59 67 78
60 69 80
60 68 78
59 68 79
60 68 78
58 66 77
60 69 80
60 68 79
60 69 79
61 70 80
62 70 80
61 69 80
61 69 79
60 69 80
61 69 79
58 66 77
60 69 79
60 68 78
60 69 80
59 67 78
61 69 80
60 68 79
60 68 78
59 67 78
59 67 77
59 67 77
60 68 78
60 69 80
59 67 77
59 67 78
60 68 79
59 67 78
57 66 76
58 66 77
59 68 78
60 68 78
60 68 79
60 68 79
58 67 78
58 66 77
56 64 74
58 66 76
59 68 78
61 70 80
58 67 78
61 68 78
58 66 78
59 67 77
57 65 75
60 68 78
58 66 77
60 68 79
59 67 78
59 67 78
57 65 76
58 66 77
59 67 77
58 66 77
60 68 78
60 68 79
56 64 74
59 68 78
59 67 78
57 65 76
57 65 75
59 67 77
59 67 77
60 68 78
61 69 80
59 67 78
59 67 77
60 68 79
56 64 75
57 65 75
58 66 77
60 68 79
61 69 80
59 68 78
56 64 75
57 65 75
56 64 73
59 67 78
60 68 79
57 64 75
58 66 76
57 65 75
58 66 77
58 66 76
58 66 76
57 65 75
59 66 77
58 66 76
60 67 78
57 64 74
59 67 77
58 65 75
57 65 75
58 66 76
61 69 79
59 67 78
59 67 77
58 66 76
56 64 74
56 63 74
58 65 76
59 68 78
59 67 78
56 64 75
59 66 77
58 66 77
58 66 76
56 64 74
59 67 78
58 66 77
57 65 75
58 65 75
59 68 78
58 66 76
59 67 77
59 67 77
59 67 77
58 66 77
57 65 75
58 66 76
57 65 76
60 68 78
60 68 78
59 67 77
59 67 78
57 65 75
60 68 78
59 67 78
59 67 78
59 67 78
57 65 75
57 65 76
59 67 78
58 66 77
60 68 78
61 68 78
58 67 78
59 67 78
60 68 79
59 67 78
61 69 80
60 69 79
58 65 76
57 65 76
59 67 78
58 66 77
59 67 78
58 66 77
60 69 80
60 69 80
58 66 76
60 68 78
59 67 78
61 69 79
59 67 78
59 67 77
59 67 78
61 69 80
57 65 76
59 67 78
60 68 78
60 68 78
58 66 76
59 67 77
59 67 78
60 68 79
58 66 76
60 68 79
57 65 76
59 67 78
58 66 77
60 67 78
58 67 78
60 68 79
59 67 78
59 67 78
60 68 78
59 68 78
60 68 79
60 68 79
59 67 78
61 69 80
59 67 78
60 68 78
61 70 80
61 69 79
61 69 80
61 69 79
60 68 79
59 68 78
60 69 79
61 69 80
58 66 77
59 68 78
60 68 78
60 68 79
61 69 80
61 70 80
62 70 80
60 68 79
61 70 80
60 69 80
62 70 80
61 70 80
61 69 80
61 69 80
60 69 80
60 69 80
60 69 80
61 69 80
61 69 80
61 69 80
61 69 80
60 68 78
60 68 78
60 68 78
61 69 80
60 69 80
60 69 80
61 69 80
58 66 77
61 69 80
60 68 79
60 68 80
60 68 79
60 68 79
60 68 79
62 70 80
60 68 79
61 69 80
61 69 80
61 69 80
61 70 80
60 69 80
60 69 80
60 69 80
60 69 80
61 69 80
61 69 80
60 68 79
62 69 80
61 69 80
61 69 80
61 69 80
60 68 78
61 70 80
60 69 80
61 70 80
61 70 80
61 69 80
61 70 80
61 69 80
60 69 80
60 69 80
62 70 80
61 69 80
61 69 80
60 69 80
61 69 80
62 70 80
61 69 80
61 69 80
62 70 80
60 68 79
61 69 80
61 69 80
61 69 80
61 69 80
61 69 80
61 69 80
60 68 79
61 69 80
61 69 80
60 69 80
61 70 80
61 70 80
62 70 80
62 70 80
60 69 79
62 70 80
62 70 80
60 69 80
60 68 80
60 69 80
61 69 80
61 69 80
60 68 79
61 69 80
61 70 80
61 69 80
60 68 79
62 70 80
61 69 80
61 70 80
61 69 80
61 69 80
61 69 80
61 70 80
62 70 80
61 70 80
61 69 80
62 70 80
61 69 79
61 69 79
62 70 80
61 70 80
62 70 80
61 69 80
61 69 80
62 70 80
61 70 80
60 69 80
62 70 80
62 70 80
61 70 80
60 69 80
61 70 80
61 69 80
61 69 80
61 69 80
61 69 80
62 70 80
61 69 80
61 70 80
61 69 80
60 69 80
61 69 79
60 68 79
62 70 80
61 70 80
61 69 80
61 69 80
60 68 78
61 70 80
61 70 80
61 70 80
59 68 79
60 69 80
61 69 80
61 69 80
61 70 80
61 69 80
60 68 79
61 69 80
60 68 79
60 69 80
61 69 80
61 69 80
61 70 80
61 69 80
61 69 80
60 68 78
61 70 80
60 69 80
61 69 80
60 68 79
61 69 80
62 70 80
61 70 80
60 68 79
60 69 80
61 69 80
61 69 79
61 70 80
61 69 80
61 70 80
61 69 80
60 68 78
61 69 80
60 69 79
61 69 80
59 68 79
61 69 80
60 68 80
61 69 80
60 68 80
61 69 80
61 69 80
61 69 80
61 69 80
60 68 78
61 69 79
60 68 78
60 68 78
61 69 80
60 68 78
60 68 79
58 67 78
61 69 80
60 68 79
60 68 79
61 69 80
60 68 79
61 69 80
60 68 79
59 67 78
62 70 80
62 70 80
60 69 80
60 68 78
61 68 78
60 68 78
61 69 80
60 69 80
61 69 80
58 66 77
61 69 80
60 69 80
61 69 80
59 67 78
60 68 78
59 67 77
60 68 79
58 66 76
59 67 78
59 67 78
59 67 78
60 68 78
59 67 78
59 67 78
60 69 80
60 69 80
61 69 80
59 67 78
61 69 80
61 69 80
59 68 78
57 66 76
60 68 79
60 68 78
59 67 77
60 68 79
60 68 78
60 68 78
60 68 78
58 67 77
60 69 80
58 66 75
59 67 77
60 68 79
60 68 78
58 66 77
59 67 78
60 68 79
60 68 78
60 68 78
60 68 79
61 69 80
58 66 76
57 65 76
60 68 79
60 68 79
61 69 80
58 67 78
57 65 75
58 66 77
57 65 76
61 70 80
60 68 79
59 67 78
58 67 77
59 67 78
58 66 76
57 65 75
56 64 75
57 64 75
60 68 78
57 66 76
59 67 78
58 66 77
57 64 75
59 67 78
57 65 76
59 67 77
60 68 78
59 66 76
58 66 76
56 64 74
58 66 77
60 69 79
57 65 75
57 64 74
59 68 78
60 68 78
59 67 77
59 67 77
58 66 76
58 66 76
58 65 75
58 65 76
59 67 77
59 67 78
57 66 76
59 67 77
58 66 76
57 65 75
57 65 75
57 65 75
55 63 73
59 68 78
56 63 73
58 65 75
60 67 78
58 66 77
59 67 77
58 67 78
55 63 73
59 67 77
58 66 76
58 66 76
57 65 76
61 69 79
58 66 76
57 65 76
59 67 77
58 66 76
59 67 77
58 66 77
60 68 79
58 66 77
59 67 78
59 67 78
58 66 77
59 68 78
57 65 75
60 68 78
60 68 79
58 66 76
58 66 77
58 67 78
60 68 78
58 66 76
59 67 78
61 69 79
61 69 79
57 65 76
59 68 79
59 67 77
59 68 78
59 67 78
60 69 80
57 64 74
60 69 80
58 67 78
60 68 79
59 67 77
60 68 78
59 68 78
59 68 79
59 67 78
58 66 76
59 68 78
60 68 78
60 68 78
59 67 78
61 69 79
58 66 77
58 66 77
60 68 79
60 69 80
58 66 76
59 67 78
61 69 79
60 68 79
61 68 78
61 69 80
58 66 76
60 68 79
57 66 76
61 69 80
60 68 78
60 68 78
60 68 79
61 69 80
59 67 77
61 69 80
61 69 79
59 67 78
60 68 78
57 65 75
59 67 78
60 68 78
61 69 80
59 67 78
60 68 79
58 66 76
60 69 80
62 70 80
59 67 77
61 70 80
62 70 80
58 66 77
61 69 80
60 69 80
60 68 79
60 68 78
61 69 80
60 68 79
59 68 78
59 68 79
60 68 79
60 68 79
59 67 78
61 69 80
60 68 78
61 69 80
60 68 78
61 69 80
59 67 78
60 68 79
61 70 80
61 69 80
60 69 80
61 69 80
60 69 80
60 69 80
60 68 79
60 68 79
60 68 79
61 69 80
61 69 79
60 68 79
60 68 79
60 69 80
62 70 80
61 69 80
61 69 80
60 68 78
60 69 80
61 70 80
61 69 80
61 69 80
61 69 80
60 68 79
62 70 80
61 69 80
59 68 78
61 69 80
61 69 80
61 70 80
60 69 80
60 68 79
61 69 80
61 69 79
61 70 80
61 69 79
62 70 80
60 68 79
62 70 80
60 69 80
61 69 80
60 69 80
61 69 80
60 68 79
62 70 80
62 70 80
60 69 80
60 69 80
62 70 80
60 69 80
60 68 79
61 70 80
61 69 80
61 69 80
61 70 80
60 68 79
61 69 80
60 68 79
62 70 80
61 69 80
60 69 80
62 70 80
61 69 80
60 68 79
61 69 80
61 69 79
62 70 80
61 69 80
60 68 79
61 70 80
61 69 80
61 69 80
61 69 80
62 70 80
61 69 80
60 68 79
61 69 80
62 70 80
62 70 80
61 69 80
62 70 80
61 70 80
61 69 80
61 70 80
61 70 80
61 70 80
61 70 80
61 69 80
61 69 80
60 68 80
60 68 79
62 70 80
61 69 80
61 69 80
62 70 80
62 70 80
61 69 80
61 69 80
60 69 80
61 69 80
61 69 80
61 70 80
61 70 80
61 70 80
61 69 80
61 69 80
61 69 80
61 69 80
62 70 80
61 69 80
61 69 80
61 69 80
61 69 80
61 69 80
61 69 80
60 69 80
61 69 80
60 69 80
61 69 80
61 70 80
60 69 80
61 69 80
62 69 80
60 68 79
61 69 80
62 70 80
61 69 80
61 69 80
61 69 80
61 70 80
62 70 80
61 69 80
61 69 80
61 69 79
60 69 80
61 69 80
61 69 80
60 69 80
61 69 80
61 69 80
60 68 78
61 70 80
60 69 80
60 68 79
60 68 78
61 70 80
60 69 80
61 69 80
61 70 80
61 69 80
60 69 80
58 67 78
61 69 79
60 69 80
61 69 80
61 69 80
60 68 78
61 69 80
61 69 80
60 69 80
61 69 79
62 70 80
60 68 79
61 69 80
59 68 78
61 69 80
61 69 80
60 68 79
61 69 80
60 67 77
61 70 80
60 68 79
60 68 79
60 69 80
62 70 80
60 69 80
60 68 78
61 69 80
61 69 80
59 68 78
61 69 79
61 69 80
61 70 80
61 69 80
60 68 79
61 69 79
60 69 80
60 68 79
60 67 78
61 69 79
60 68 78
61 69 80
60 69 80
60 68 78
59 67 78
59 66 77
58 67 77
60 69 80
61 69 80
61 69 80
60 68 78
60 68 78
60 68 79
61 69 80
60 69 80
60 68 78
58 66 77
59 67 78
60 68 79
59 67 77
59 67 78
61 69 80
59 66 77
60 68 78
61 69 80
58 66 76
61 69 79
61 69 80
60 69 80
59 67 78
58 66 76
58 67 78
59 68 79
59 67 78
58 67 78
58 66 77
60 68 78
60 68 78
61 69 80
60 67 77
60 67 78
59 67 78
58 66 76
61 69 80
60 68 78
59 67 78
58 67 78
59 67 77
58 66 76
58 67 77
59 66 76
59 66 76
58 66 77
58 66 77
59 67 77
58 66 77
60 68 79
58 67 78
59 68 79
60 68 78
58 66 77
58 66 77
59 67 77
59 67 78
58 66 77
59 67 77
59 67 77
58 66 76
58 66 76
60 68 79
60 68 78
60 68 79
58 65 76
57 65 75
58 66 76
58 66 76
59 67 77
58 66 77
59 67 78
59 67 77
61 69 79
59 68 78
60 67 78
55 63 73
56 64 75
57 65 76
60 68 79
59 67 77
57 65 75
57 65 75
58 65 75
61 69 80
59 68 78
59 67 77
58 66 76
56 64 74
59 67 77
57 65 75
59 67 77
59 66 76
59 67 77
57 65 75
58 66 76
59 67 78
60 68 78
58 66 76
57 64 75
57 64 75
59 68 79
57 65 76
58 66 77
62 70 80
58 66 77
59 68 78
58 66 76
62 69 80
59 67 78
57 65 76
61 69 79
59 67 78
59 68 79
58 66 77
59 67 78
60 68 79
59 67 78
57 65 75
58 65 76
59 67 78
60 68 79
61 69 79
59 68 78
59 67 77
59 68 78
57 65 76
59 68 78
58 66 76
59 67 78
57 65 76
62 70 80
59 68 78
57 65 75
62 70 80
61 69 80
59 67 77
59 67 78
61 68 78
59 67 78
60 68 79
60 68 79
60 69 80
59 67 78
61 69 80
57 65 76
60 68 78
60 68 78
59 67 78
61 69 80
59 68 78
58 65 76
61 69 79
61 69 80
60 68 78
61 70 80
58 65 76
60 68 78
59 67 78
59 67 78
59 67 77
59 68 79
59 67 77
60 68 78
60 68 78
58 67 78
60 68 79
60 68 78
59 67 77
62 69 80
60 68 80
60 69 80
60 68 79
59 68 78
62 70 80
59 67 77
58 65 75
60 68 79
61 69 80
61 69 79
61 69 80
61 69 80
58 67 78
56 64 74
59 68 79
61 70 80
59 68 79
59 67 78
61 69 79
60 68 78
60 68 78
60 69 79
60 68 78
59 67 78
59 67 78
60 69 80
61 69 80
60 68 78
60 68 79
61 69 80
60 69 80
61 69 79
60 69 79
61 69 80
59 67 78
61 69 79
61 69 80
60 69 80
62 70 80
60 68 79
61 70 80
61 69 80
60 69 80
61 69 80
62 70 80
59 67 78
60 68 80
59 68 78
61 69 80
60 68 78
60 68 79
61 69 80
61 69 80
61 69 80
62 70 80
61 68 78
61 69 80
61 69 80
62 69 80
62 70 80
62 70 80
60 68 79
61 70 80
61 69 80
61 69 80
61 69 80
61 69 80
61 69 79
61 69 80
61 70 80
61 70 80
60 68 79
60 69 79
61 70 80
61 70 80
61 69 80
61 70 80
61 69 80
62 70 80
61 69 80
61 70 80
61 70 80
61 69 80
62 70 80
61 69 80
61 69 80
61 69 80
61 69 80
62 70 80
61 69 80
60 69 80
61 69 80
62 70 80
60 69 80
62 70 80
61 69 80
59 68 79
61 70 80
60 69 80
62 70 80
61 69 80
61 70 80
61 69 80
62 70 80
61 69 80
60 68 79
61 70 80
62 70 80
60 68 79
61 69 80
62 70 80
61 69 80
61 69 80
61 69 80
62 70 80
62 70 80
61 69 80
62 69 80
61 69 80
62 70 80
63 70 80
60 69 80
61 70 80
62 70 80
61 70 80
61 69 80
61 70 80
61 69 80
60 68 79
61 69 79
61 69 80
61 70 80
61 69 80
61 69 80
61 69 80
61 69 80
61 69 80
61 69 80
61 69 80
59 68 78
61 70 80
62 70 80
62 69 79
62 70 80
61 69 80
61 70 80
61 69 80
61 70 80
61 69 80
61 69 80
60 69 80
62 70 80
61 69 80
61 69 80
61 70 80
60 68 78
61 70 80
62 70 80
60 69 80
61 70 80
61 70 80
61 69 79
60 69 80
62 70 80
61 69 80
61 69 80
60 68 79
61 69 80
60 69 80
60 68 79
61 69 79
61 69 80
62 70 80
61 70 80
61 69 80
60 67 78
61 69 80
62 70 80
61 69 79
60 69 80
61 69 80
62 70 80
61 70 80
61 69 80
60 68 79
60 68 79
60 68 79
60 68 78
61 69 80
60 69 80
61 69 80
60 68 79
60 68 78
62 70 80
61 70 80
61 69 80
61 70 80
60 68 78
60 69 80
60 69 80
62 70 80
61 69 80
61 69 80
60 69 80
61 69 80
59 68 78
61 69 79
61 69 80
59 67 78
60 68 79
61 69 80
59 67 78
61 69 80
60 68 78
61 69 80
62 70 80
59 68 79
61 69 80
59 68 78
60 68 78
60 68 79
61 69 80
59 67 78
58 67 78
59 67 78
59 67 78
60 68 79
60 69 80
60 68 79
61 70 80
61 69 80
60 68 79
61 70 80
60 69 80
60 67 78
59 68 78
62 70 80
60 69 80
61 69 80
59 67 78
61 69 80
59 67 78
58 66 76
59 67 77
58 66 76
60 69 80
61 69 79
60 68 79
58 67 78
60 69 80
58 66 77
60 69 79
57 65 76
61 68 78
59 67 78
59 68 79
60 69 80
60 69 80
60 69 80
57 65 76
61 69 80
60 68 79
58 67 78
59 67 78
60 69 80
59 67 78
60 69 80
61 68 79
60 69 80
60 69 80
61 69 80
61 69 79
61 69 80
61 69 80
59 68 79
59 66 77
60 68 79
58 66 77
59 68 78
58 66 76
60 68 79
61 69 79
59 68 78
59 66 76
58 66 77
57 64 75
58 66 77
55 63 74
58 66 77
58 66 76
56 64 74
60 68 78
61 69 79
58 66 77
58 66 76
60 68 79
59 68 78
59 68 78
57 66 76
58 66 77
59 67 78
57 64 74
60 68 79
61 69 79
58 65 76
58 66 76
58 66 76
57 64 74
58 66 76
60 68 79
58 66 76
60 68 78
58 66 76
59 67 78
58 66 77
59 67 78
59 67 77
58 66 77
59 66 76
59 67 78
58 65 76
60 68 79
59 67 78
56 64 75
59 68 78
60 68 78
57 65 76
59 67 78
57 65 76
60 67 77
60 68 79
60 68 79
59 67 78
59 67 78
58 66 75
59 67 78
58 65 75
58 66 77
57 66 76
58 67 78
58 66 77
58 66 77
58 66 77
59 67 78
60 68 79
58 66 76
59 68 79
58 66 76
62 70 80
59 67 77
59 67 78
59 67 78
58 66 76
60 68 79
61 69 80
60 68 79
60 68 79
60 68 79
59 66 76
60 69 80
58 66 77
60 68 78
61 69 80
59 67 78
59 68 78
56 64 75
58 66 76
59 67 77
59 67 78
60 68 79
60 68 79
60 69 79
60 68 78
60 68 79
61 69 80
59 68 78
59 67 78
60 68 78
59 67 78
59 67 77
60 68 78
61 69 80
59 68 79
60 68 79
60 68 79
60 68 79
61 69 80
59 67 78
59 67 77
59 67 78
58 66 77
60 68 78
57 65 75
59 67 77
58 66 77
60 68 78
60 68 79
59 67 78
58 66 76
61 69 80
62 70 80
62 69 80
60 68 78
61 69 79
61 69 80
61 69 80
59 67 77
61 69 80
61 69 80
61 69 80
60 69 80
61 69 80
61 69 79
60 69 80
60 68 79
61 69 80
61 69 80
60 68 79
60 68 79
61 69 80
59 68 79
60 68 78
60 68 79
60 69 80
61 69 80
60 69 80
60 69 80
61 69 80
62 70 80
60 68 79
59 68 79
60 69 80
61 69 80
60 69 80
61 69 80
60 69 80
60 69 80
61 69 79
61 69 80
60 69 80
61 69 80
59 67 78
62 70 80
61 69 80
60 68 79
62 70 80
61 69 79
60 69 80
60 69 80
61 69 80
61 69 80
60 69 80
61 70 80
60 68 79
59 67 78
61 69 80
61 69 80
61 69 80
61 69 80
60 68 78
61 69 80
61 69 79
61 70 80
62 70 80
61 69 80
61 70 80
61 69 80
61 69 80
61 70 80
61 69 80
61 69 80
61 69 80
61 69 80
61 69 80
61 70 80
60 68 79
61 70 80
61 69 80
60 68 78
61 70 80
61 70 80
60 69 80
62 70 80
61 69 80
60 69 79
61 69 80
61 69 80
61 70 80
62 70 80
62 70 80
62 70 80
61 69 80
61 69 80
61 69 80
61 69 80
61 70 80
60 69 80
61 69 80
61 69 80
61 69 80
60 69 80
61 69 80
61 70 80
61 69 80
62 70 80
61 69 80
60 69 80
61 69 80
61 70 80
61 69 80
60 69 79
61 70 80
61 70 80
61 69 80
60 68 79
62 70 80
61 69 80
60 69 80
62 70 80
62 70 80
61 69 80
60 68 79
62 70 80
61 69 80
62 70 80
61 69 80
61 70 80
61 69 80
62 69 80
60 68 79
61 70 80
60 68 78
61 69 79
61 69 80
61 69 80
61 69 80
61 69 80
61 70 80
61 70 80
62 70 80
61 69 80
61 69 79
60 69 80
62 70 80
61 70 80
61 69 80
61 69 80
61 70 80
61 69 80
60 68 79
61 69 80
62 70 80
61 70 80
61 69 79
62 70 80
61 69 80
61 70 80
61 69 80
62 70 80
61 69 80
61 69 80
61 69 80
61 69 80
62 70 80
61 69 80
62 70 80
62 70 80
59 68 79
61 69 80
61 70 80
61 70 80
59 67 78
60 68 80
61 69 80
61 69 80
59 67 78
62 70 80
61 69 80
61 69 80
61 69 79
61 70 80
58 66 78
61 69 80
61 69 80
61 69 80
61 70 80
62 70 80
62 70 80
60 69 80
60 69 79
60 69 80
59 67 78
59 67 78
61 70 80
61 69 80
60 68 79
61 69 80
61 69 79
60 68 79
61 69 80
61 69 80
61 69 80
60 69 80
60 69 79
61 70 80
61 69 80
61 69 80
61 69 80
60 69 80
60 69 80
60 69 80
59 68 79
61 69 79
61 69 80
61 69 80
61 69 80
60 68 78
60 69 80
62 69 80
60 67 78
60 68 78
59 67 78
60 68 79
60 68 79
60 68 79
61 69 80
60 68 78
60 68 79
61 69 80
59 68 78
60 68 79
57 66 77
60 68 80
60 68 78
58 66 77
60 68 79
59 67 78
59 67 78
61 69 79
61 69 80
61 70 80
61 69 79
60 68 79
60 68 79
57 65 76
59 67 78
60 68 79
60 68 78
61 69 80
60 68 79
60 68 78
60 68 78
60 68 78
57 64 74
58 67 78
60 68 78
60 68 79
59 68 78
60 68 78
59 67 78
58 66 77
58 66 76
60 68 79
59 67 78
57 65 75
60 68 78
60 69 80
61 69 80
58 66 77
58 66 77
59 67 78
59 67 77
60 68 78
58 66 76
60 68 78
61 69 80
59 68 79
60 69 80
59 66 77
60 68 78
60 68 79
60 68 79
60 68 78
58 66 76
59 66 76
57 65 75
60 68 78
59 68 78
59 67 78
60 68 79
60 68 78
60 68 78
57 66 76
57 65 76
59 67 78
58 66 76
59 67 78
59 67 77
62 70 80
61 69 80
60 68 78
60 68 79
59 67 77
58 66 77
59 67 78
57 65 75
60 68 79
59 67 78
56 64 76
58 66 76
60 68 79
59 67 77
61 69 79
60 68 79
59 66 77
58 66 77
59 67 78
59 67 78
60 68 78
58 66 77
60 68 79
59 67 78
60 68 78
58 66 76
60 68 78
58 67 78
58 66 76
57 65 75
58 66 77
61 69 79
61 69 79
58 66 76
58 66 77
57 65 76
57 65 75
58 66 77
58 67 78
58 66 77
58 66 76
58 66 77
59 68 79
59 67 77
60 68 78
59 67 77
61 69 79
61 69 80
59 67 77
57 65 76
59 67 77
58 65 75
58 66 77
60 68 78
60 68 78
60 69 80
60 68 79
58 66 77
58 66 76
61 69 80
59 67 77
60 67 78
61 69 80
57 65 75
60 68 79
59 67 77
60 68 79
58 66 76
59 67 77
59 68 78
60 68 78
59 67 78
61 69 79
59 66 76
60 68 78
59 68 78
59 67 78
58 66 77
59 67 78
60 68 79
60 68 78
60 69 79
58 66 76
61 69 79
59 68 79
59 66 77
59 67 77
60 67 78
61 69 80
61 69 80
60 69 80
59 67 78
60 68 79
60 69 80
59 68 79
59 68 78
59 67 78
61 69 80
61 69 80
61 69 79
60 68 79
60 68 79
60 69 80
59 68 78
61 69 80
62 70 80
62 70 80
59 67 78
58 66 77
60 68 79
59 67 78
60 68 78
59 67 78
62 70 80
60 68 78
61 69 80
58 67 78
61 69 80
59 68 78
60 69 80
60 68 79
60 68 79
61 69 80
60 68 79
60 69 80
61 69 80
60 68 79
62 70 80
61 69 79
59 67 78
62 70 80
59 67 78
61 69 80
60 68 78
61 69 80
61 70 80
59 68 78
58 66 77
60 69 80
60 68 79
61 69 80
61 69 80
61 69 80
60 68 79
60 68 79
60 68 79
59 67 78
61 69 80
61 69 80
61 69 80
62 70 80
60 68 79
60 68 78
62 70 80
61 69 80
61 69 79
61 70 80
61 70 80
60 68 79
62 70 80
61 70 80
61 69 80
61 70 80
61 70 80
62 70 80
60 68 79
61 69 80
60 68 79
61 70 80
60 69 80
60 68 79
61 70 80
62 70 80
61 69 80
62 70 80
61 69 80
60 69 80
61 69 80
61 70 80
61 69 79
61 70 80
60 69 80
62 70 80
61 69 80
60 69 80
61 69 80
60 68 80
61 69 80
61 70 80
61 70 80
60 69 80
60 69 80
61 69 80
60 69 80
61 70 80
61 69 80
61 70 80
61 69 79
61 69 80
61 69 80
62 70 80
61 70 80
60 69 80
60 69 80
62 70 80
61 70 80
61 69 80
61 69 80
61 69 80
60 68 79
61 69 80
61 69 80
61 69 80
61 70 80
62 70 80
62 70 80
61 69 80
61 70 80
62 70 80
60 68 79
61 70 80
61 69 80
62 70 80
61 69 80
61 70 80
61 70 80
61 69 80
60 69 80
61 69 80
60 69 80
62 70 80
61 69 80
60 69 80
62 69 80
61 70 80
60 69 80
60 68 79
61 69 80
60 69 80
61 70 80
61 70 80
61 69 80
60 69 80
61 69 80
61 70 80
61 69 80
61 69 79
62 69 80
62 70 80
61 70 80
61 69 80
61 69 80
61 70 80
61 69 80
60 68 79
61 69 80
61 69 80
61 69 80
61 69 80
61 70 80
62 70 80
61 69 80
61 69 80
60 68 79
60 68 79
60 69 80
61 69 80
61 69 80
60 68 79
61 69 80
60 69 80
60 68 79
60 69 80
62 70 80
61 70 80
60 69 80
61 70 80
62 70 80
61 69 80
62 70 80
59 68 79
61 69 80
60 68 79
60 68 79
61 70 80
61 69 80
62 70 80
60 69 80
61 69 80
61 68 79
60 69 80
60 68 78
61 70 80
61 69 80
60 69 80
60 69 80
61 69 80
60 69 80
61 69 80
60 68 78
61 69 80
58 67 78
61 69 80
60 68 80
59 67 77
60 68 79
60 69 80
61 69 80
60 68 78
62 70 80
59 67 78
61 69 80
60 68 79
60 68 79
61 69 79
61 69 80
60 69 79
61 69 80
61 69 79
60 69 80
61 69 80
61 70 80
60 68 79
60 68 78
60 68 78
59 67 78
59 67 78
61 69 80
61 69 79
61 69 80
61 69 80
59 67 78
60 68 79
60 68 78
60 68 79
60 68 79
57 65 76
59 67 78
59 67 78
61 69 80
60 68 78
60 67 78
58 66 77
59 68 78
60 68 79
60 68 78
59 67 78
60 68 79
60 68 78
61 69 80
60 68 79
59 67 77
61 69 80
61 68 79
60 68 78
59 68 79
58 66 77
60 67 78
59 68 78
59 67 77
59 67 77
61 69 79
58 67 78
60 68 78
61 69 80
60 68 79
60 67 78
59 67 78
61 69 79
59 67 77
59 67 78
60 68 78
58 65 75
60 68 79
60 69 80
61 69 80
60 68 79
60 69 80
60 68 79
59 67 77
59 67 77
57 65 75
59 67 77
59 67 78
58 66 77
60 68 78
60 69 79
60 68 79
58 66 77
60 68 78
58 66 76
59 68 78
59 67 78
61 68 78
59 67 78
60 68 79
59 66 76
58 67 78
59 67 77
58 67 78
60 67 78
57 65 75
60 69 80
60 68 78
59 67 78
59 67 78
58 66 77
59 67 77
59 67 77
60 68 79
60 68 79
56 64 73
58 66 76
59 66 76
58 66 76
59 67 77
61 69 80
60 68 78
59 67 78
59 67 78
58 66 76
59 67 78
58 67 78
59 68 78
60 69 79
60 68 79
60 68 79
58 65 75
58 66 76
59 67 78
59 66 76
58 66 76
58 67 78
59 67 77
58 67 78
58 67 78
58 66 77
60 68 79
60 69 80
58 67 78
60 68 78
60 69 80
58 66 77
58 66 77
59 67 78
58 66 77
60 68 78
58 66 77
60 68 79
61 69 80
59 67 78
58 66 76
62 69 79
56 64 74
59 67 78
59 67 77
56 64 74
59 67 78
59 68 78
60 68 78
58 66 77
59 67 78
61 69 80
60 68 79
60 68 78
60 68 79
58 67 78
60 68 79
61 69 79
60 68 78
59 67 78
58 66 77
61 68 78
59 67 77
60 69 79
59 68 78
59 68 78
60 69 80
60 68 79
59 67 77
61 69 79
60 67 78
59 67 77
58 66 77
61 69 80
59 67 77
58 65 75
61 69 80
61 69 80
60 68 78
59 67 77
60 68 79
59 67 78
60 68 79
61 69 80
60 68 78
61 69 80
61 70 80
60 67 78
60 68 78
59 68 80
60 69 80
60 68 78
61 69 80
61 69 79
59 67 78
59 68 78
60 68 79
59 68 78
60 68 79
60 68 78
60 68 79
60 68 78
61 69 80
61 69 80
60 69 80
59 67 78
58 66 77
61 69 80
61 69 80
60 68 78
60 68 79
60 68 79
61 69 80
61 69 80
60 68 79
61 69 80
60 69 80
59 67 78
60 68 79
61 69 80
61 69 80
60 68 79
60 68 79
59 67 78
61 69 80
61 70 80
61 69 80
59 67 78
61 69 79
60 68 79
60 68 79
61 70 80
60 68 79
61 69 80
60 69 80
61 70 80
60 69 80
61 69 80
61 69 80
61 70 80
61 69 80
61 69 80
60 68 79
61 70 80
61 69 80
61 69 80
59 67 78
60 69 80
60 68 78
61 69 79
62 70 80
60 67 78
62 70 80
61 69 80
61 69 80
61 69 80
60 68 78
61 69 80
61 70 80
61 69 80
61 69 79
62 70 80
61 70 80
60 68 79
60 69 80
61 70 80
61 70 80
60 69 80
62 70 80
60 68 79
61 69 80
60 68 79
60 69 80
60 69 80
61 69 80
61 69 80
61 70 80
60 69 80
61 69 80
62 70 80
61 69 80
61 69 79
61 69 80
60 69 80
61 69 80
62 70 80
60 68 78
60 69 80
61 69 80
61 69 80
61 69 80
62 70 80
62 70 80
59 68 79
62 70 80
61 70 80
61 69 80
60 69 80
60 69 80
59 68 79
62 70 80
61 69 80
61 70 80
61 69 80
61 70 80
61 69 80
60 69 80
62 70 80
61 69 80
61 70 80
61 69 80
61 69 80
62 70 80
61 69 80
61 70 80
62 70 80
61 69 80
62 70 80
61 69 80
61 70 80
61 69 80
60 69 80
59 68 78
61 70 80
61 70 80
60 69 80
61 70 80
61 69 80
62 70 80
61 69 80
60 68 80
62 70 80
61 69 79
60 69 80
60 69 80
61 69 80
61 69 80
61 69 80
61 70 80
61 70 80
59 67 78
61 70 80
60 69 79
59 68 78
61 69 80
61 69 80
60 68 79
61 69 80
61 70 80
60 68 78
62 70 80
61 69 80
61 70 80
62 70 80
61 69 80
59 68 79
62 70 80
60 68 78
61 69 79
60 69 80
60 68 78
60 68 79
59 67 78
61 69 80
60 68 78
61 69 80
61 69 80
62 70 80
61 69 80
61 69 80
60 68 79
62 69 80
60 69 80
61 69 80
61 69 80
61 69 80
61 70 80
60 69 80
60 68 79
61 69 80
61 69 80
61 69 80
61 69 80
60 68 78
61 69 80
60 69 79
61 69 80
61 69 80
61 69 80
61 69 80
61 69 80
60 68 78
60 68 78
60 68 78
60 68 79
60 68 79
59 68 79
59 67 77
61 69 80
60 69 80
60 68 79
61 69 80
61 69 80
60 68 79
61 69 80
60 68 79
61 69 80
58 66 77
60 69 80
59 67 78
61 69 80
60 68 79
61 69 79
59 66 76
60 68 79
59 67 78
61 69 80
61 69 80
59 67 78
60 68 78
58 66 77
60 69 79
60 68 79
58 66 76
59 68 78
61 69 80
61 69 80
60 67 78
59 67 77
61 69 79
59 67 78
59 68 78
59 67 77
61 69 80
62 70 80
58 66 76
62 70 80
59 67 77
58 67 78
60 68 78
60 68 79
59 67 78
58 66 76
58 66 77
61 69 80
60 68 78
60 68 79
59 67 78
59 67 77
61 69 80
59 67 78
58 67 78
59 67 78
60 68 78
60 68 78
59 68 78
61 69 79
59 67 78
60 68 79
59 66 76
61 69 80
59 67 78
59 67 77
59 67 78
60 68 78
58 66 76
58 66 77
59 68 78
60 68 79
60 68 78
59 67 78
55 63 74
58 66 76
58 66 77
58 66 77
59 67 78
60 68 78
57 66 77
58 65 76
59 67 78
58 66 76
59 67 78
59 67 78
60 68 78
61 69 80
60 69 80
59 67 77
58 65 75
60 68 79
59 67 78
58 65 75
58 66 76
60 68 78
60 68 79
59 67 77
58 65 76
60 67 78
58 66 76
58 66 76
59 67 77
60 68 79
57 66 76
60 68 78
60 68 79
57 65 76
58 66 78
59 67 78
60 68 78
60 68 78
61 69 80
57 65 75
57 66 76
57 65 75
59 67 77
58 66 76
58 66 77
58 66 77
57 65 76
59 67 78
57 65 75
59 67 78
59 67 78
59 67 78
61 69 80
59 67 77
58 66 77
58 65 75
59 68 78
57 66 76
60 68 79
60 69 80
57 66 76
59 67 78
59 68 78
58 66 76
59 67 78
58 66 76
60 68 78
60 68 79
58 66 76
60 68 78
60 68 78
59 68 78
58 66 77
59 67 78
59 67 78
57 65 76
60 68 78
57 65 75
58 67 77
59 67 77
60 68 78
60 67 78
60 68 78
59 68 78
59 67 77
59 67 78
59 67 77
59 68 78
59 67 78
58 66 77
60 69 80
59 68 78
58 67 77
60 69 80
60 68 79
58 66 76
59 67 78
60 68 79
60 68 78
60 68 78
59 68 78
59 67 78
60 68 80
60 68 79
59 67 78
60 68 79
59 67 78
60 68 79
61 69 80
60 69 80
59 67 77
61 69 79
60 68 79
59 68 78
60 68 78
60 69 80
59 67 77
60 68 78
61 69 79
60 68 78
59 68 78
60 68 78
61 69 80
61 69 80
61 69 80
59 67 78
60 67 78
60 68 79
59 67 77
60 68 79
60 68 79
60 68 79
60 68 79
60 69 80
60 68 79
61 69 79
61 69 80
60 69 80
60 68 79
61 69 80
60 68 78
61 69 80
61 69 80
60 68 78
60 68 78
61 69 80
60 68 78
61 69 80
61 69 80
60 68 79
59 68 78
61 69 80
61 69 80
60 68 79
60 69 80
61 69 80
59 68 78
61 69 79
59 67 77
61 69 80
61 69 80
61 69 80
60 68 78
61 69 80
61 70 80
61 69 80
61 69 80
59 68 79
61 70 80
61 69 80
59 68 78
60 69 79
60 68 79
61 69 80
59 67 78
61 70 80
60 68 78
60 69 79
61 69 80
60 69 80
59 67 78
62 70 80
60 69 80
60 68 79
62 70 80
60 68 79
62 70 80
61 69 79
61 69 80
60 68 79
60 69 80
62 70 80
62 70 80
60 69 80
62 70 80
61 69 80
61 69 80
61 69 80
62 70 80
61 69 80
61 69 80
61 69 80
60 69 80
62 70 80
61 69 80
61 69 80
62 70 80
61 69 80
62 70 80
61 69 80
61 70 80
59 68 79
62 70 80
62 70 80
61 69 80
61 69 80
60 68 79
60 67 77
61 69 80
60 69 80
61 69 80
61 69 80
61 70 80
60 69 80
60 69 80
61 69 80
60 69 80
61 70 80
62 70 80
62 70 80
60 68 79
62 69 80
62 69 80
59 68 79
60 69 80
61 69 80
62 70 80
61 69 79
61 69 80
61 69 80
62 70 80
62 70 80
61 69 80
62 70 80
61 69 80
61 69 80
61 69 80
60 69 80
61 69 80
62 70 80
61 70 80
62 70 80
61 69 80
61 69 80
62 70 80
61 69 80
61 69 80
61 70 80
62 70 80
61 70 80
61 69 80
60 69 80
61 69 80
62 69 80
61 69 80
61 69 80
60 69 79
62 70 80
62 70 80
60 68 79
61 69 80
61 69 80
60 69 80
60 68 79
60 69 80
61 69 80
61 69 80
62 70 80
61 69 80
62 70 80
62 70 80
62 70 80
61 69 80
61 69 80
61 69 80
58 66 77
60 69 80
61 69 80
61 69 80
61 70 80
61 69 80
62 70 80
61 69 80
61 69 80
61 69 80
61 69 79
62 70 80
59 68 78
60 69 80
62 70 80
60 69 80
61 70 80
61 70 80
60 69 80
61 69 80
62 70 80
60 68 78
61 69 80
60 69 80
61 69 80
61 69 80
61 69 80
61 69 80
61 69 80
61 69 80
62 70 80
60 69 80
60 68 79
61 70 80
61 69 80
61 69 80
61 69 80
59 67 78
60 69 80
60 69 80
60 68 79
60 68 78
60 69 80
61 69 79
61 69 80
61 68 78
60 68 79
60 68 79
59 67 77
61 69 80
61 69 80
61 69 80
59 68 79
60 68 78
61 69 80
61 69 80
61 69 80
60 68 78
60 68 80
60 68 79
61 69 80
61 70 80
61 69 79
59 67 78
60 68 78
60 68 79
60 68 78
59 68 78
59 67 77
61 70 80
61 69 80
59 68 78
61 69 80
60 68 78
60 69 79
60 68 79
60 68 79
59 67 78
59 67 77
58 66 77
60 68 78
60 68 79
60 68 79
60 68 78
60 68 79
60 69 80
59 67 77
61 69 80
61 69 79
60 68 79
59 67 78
59 68 78
58 67 78
60 68 78
59 67 78
60 69 80
60 68 79
60 67 78
59 66 77
59 67 78
60 68 79
59 67 77
60 68 78
61 69 80
60 68 79
59 67 77
61 69 79
57 65 75
58 66 76
61 69 79
61 69 79
59 67 78
60 68 79
61 69 80
59 67 77
58 66 78
60 68 78
59 67 78
61 69 79
59 67 78
59 67 78
60 68 78
59 67 78
61 69 80
61 69 80
58 66 76
58 66 76
58 66 77
58 66 76
58 66 77
58 66 76
58 66 76
59 67 78
58 66 77
57 65 76
57 65 76
59 67 78
58 66 76
60 68 79
57 65 75
60 68 78
60 69 80
58 66 77
57 65 75
60 68 78
59 67 78
60 68 78
59 68 79
58 67 78
59 67 77
60 69 80
58 66 76
59 67 77
59 67 77
59 67 78
58 66 77
60 68 78
57 65 75
58 66 77
60 68 79
60 68 79
61 69 79
60 68 79
58 66 77
57 65 75
57 65 75
61 69 80
60 68 78
58 66 77
57 65 76
59 67 77
57 65 75
60 68 79
60 68 79
60 68 78
59 67 78
55 63 73
56 64 75
59 68 78
59 67 78
61 69 79
57 65 75
60 69 79
60 68 79
58 66 77
58 67 77
59 67 77
59 67 77
57 65 75
59 66 77
60 68 78
59 67 78
59 68 78
61 69 80
60 68 78
58 66 77
59 67 78
61 69 80
62 70 80
60 69 80
60 68 78
59 68 79
60 68 79
58 66 76
60 68 79
59 67 78
60 68 78
60 68 78
61 69 80
59 67 78
60 68 79
60 68 78
60 67 78
60 68 79
60 68 79
58 66 76
59 68 78
60 68 78
57 65 75
61 69 79
60 69 80
58 66 76
58 67 78
60 69 80
58 67 78
62 70 80
60 68 79
59 67 78
61 69 80
59 67 77
61 69 80
61 69 80
59 67 78
60 69 80
61 69 79
60 68 78
62 70 80
60 68 79
61 69 80
60 68 79
60 68 79
61 69 80
62 70 80
61 70 80
61 69 79
59 67 78
60 69 80
61 69 80
60 68 79
59 67 78
60 68 79
61 69 80
61 69 80
60 69 80
61 69 80
61 69 80
60 69 80
60 69 80
60 67 78
60 68 78
60 68 79
61 69 79
61 69 79
60 69 80
62 69 80
60 68 79
61 70 80
60 68 78
59 68 78
60 69 80
61 69 79
61 69 80
61 69 80
61 69 80
61 69 79
60 68 79
61 70 80
60 68 78
60 69 80
61 69 80
61 69 80
60 69 80
61 69 80
60 69 80
62 70 80
61 69 80
62 70 80
61 70 80
61 69 79
61 69 80
62 70 80
60 68 79
61 69 80
60 68 78
60 69 80
61 69 80
61 69 80
61 69 80
61 69 80
62 70 80
60 68 79
61 69 80
61 69 79
60 68 79
61 70 80
61 69 80
60 69 80
61 70 80
61 70 80
61 69 80
61 69 80
61 69 80
61 69 80
61 69 80
61 69 80
60 68 79
61 70 80
61 69 80
61 69 80
61 69 80
61 70 80
61 69 80
61 69 80
61 70 80
61 69 80
60 69 79
61 70 80
61 69 80
61 69 80
61 70 80
61 69 80
61 70 80
60 68 80
61 69 80
61 69 80
61 69 80
61 70 80
60 68 79
62 70 80
61 70 80
62 70 80
61 69 80
62 70 80
61 69 80
61 69 80
61 69 80
62 70 80
61 69 80
60 69 80
62 70 80
61 69 80
60 69 80
61 70 80
61 70 80
61 70 80
61 70 80
62 70 80
60 69 80
61 69 80
61 69 80
61 69 80
62 70 80
62 70 80
60 69 80
60 69 80
61 70 80
61 69 80
61 69 80
61 70 80
61 69 79
60 68 80
62 70 80
62 70 80
61 69 80
61 69 80
61 69 80
61 70 80
61 69 80
61 69 80
62 70 80
61 69 80
61 69 80
61 70 80
60 68 79
62 70 80
62 69 80
61 70 80
61 69 80
62 70 80
59 67 78
61 69 80
61 69 80
60 69 80
62 70 80
62 70 80
61 69 80
61 69 80
62 70 80
61 69 80
61 69 79
61 69 80
61 69 80
61 69 80
61 70 80
60 69 80
60 69 80
61 69 80
61 69 80
62 70 80
61 69 80
62 70 80
62 70 80
60 68 78
59 67 77
62 70 80
61 69 80
61 69 80
61 69 80
60 68 78
61 69 80
60 68 79
61 69 80
61 69 79
61 69 80
60 68 79
61 70 80
62 70 80
60 68 79
61 70 80
60 69 80
61 70 80
61 69 80
61 69 80
58 67 78
60 69 80
60 68 78
62 70 80
62 69 80
59 67 77
62 70 80
61 70 80
61 69 80
61 70 80
61 69 80
61 70 80
59 67 78
61 70 80
60 68 80
62 70 80
61 69 79
59 67 78
59 67 78
59 67 77
61 69 80
60 68 79
58 67 78
60 68 79
60 68 78
60 69 80
61 69 80
60 68 79
62 69 80
60 68 78
59 67 78
60 69 79
59 67 78
60 68 79
61 69 80
61 69 80
62 70 80
59 67 78
61 69 80
58 66 76
59 68 78
59 67 78
61 69 79
59 66 77
60 68 79
60 69 80
60 68 78
62 69 80
58 66 76
60 68 79
60 68 79
60 68 79
58 66 77
60 68 79
60 68 78
62 70 80
61 69 80
61 69 80
60 68 78
62 70 80
60 68 78
59 68 78
60 69 80
60 69 80
60 68 79
58 66 76
61 69 80
59 67 77
60 68 79
61 69 80
60 68 78
59 67 78
60 68 79
60 69 80
59 67 78
56 64 74
60 69 79
59 67 78
58 67 77
59 68 78
58 67 78
60 68 78
59 67 77
60 68 78
61 69 80
57 65 76
59 67 78
61 69 80
60 69 80
58 65 76
60 68 78
56 64 75
58 66 77
60 67 78
60 68 78
58 66 77
59 67 78
59 67 77
60 68 78
61 69 79
59 68 79
57 65 75
59 67 78
60 68 79
59 67 77
58 66 76
61 69 79
61 69 80
60 68 79
60 68 79
59 68 78
59 67 77
59 68 78
59 67 78
60 68 78
57 65 75
59 68 79
60 68 78
58 67 77
60 69 80
61 69 79
60 68 79
59 67 78
58 67 77
61 69 80
58 66 77
59 67 78
60 68 78
58 66 76
59 67 78
59 67 77
60 69 80
60 68 78
60 68 79
59 67 77
61 69 79
60 68 78
60 68 79
59 68 78
60 69 80
58 66 77
59 67 78
59 67 77
60 68 79
58 66 76
60 68 78
60 69 80
58 67 78
58 66 77
59 68 78
59 67 77
60 68 79
60 68 78
60 68 79
58 67 77
61 69 80
58 67 77
58 66 76
61 69 80
59 67 77
60 68 78
60 68 79
60 68 79
59 68 78
59 67 77
59 67 78
59 67 78
60 69 80
60 67 78
60 68 78
59 67 78
61 69 80
60 67 78
58 67 78
60 68 79
59 67 78
60 68 79
61 69 80
60 68 79
60 68 79
61 69 80
58 67 78
60 69 80
57 65 76
59 67 78
59 68 78
60 68 79
60 69 80
56 64 74
61 69 80
60 69 80
59 67 78
59 67 78
61 69 80
60 68 78
60 68 79
60 67 78
61 69 79
60 69 80
60 68 78
61 69 80
58 66 77
61 69 80
62 70 80
59 67 77
58 65 76
61 70 80
60 68 78
59 67 78
60 69 80
61 69 80
60 69 80
58 67 78
61 69 80
61 69 79
60 68 78
61 69 80
60 68 78
60 69 80
59 67 78
60 68 79
60 69 80
59 68 78
61 69 80
60 68 79
61 70 80
61 69 80
58 67 78
60 69 80
60 69 80
60 68 79
59 68 78
61 70 80
61 70 80
60 69 80
58 66 77
60 69 80
61 69 79
60 69 80
59 68 78
62 70 80
61 70 80
60 68 78
61 69 80
60 68 79
61 69 80
61 69 80
62 70 80
60 69 80
60 68 79
59 68 79
62 70 80
61 69 80
61 69 80
60 69 80
60 68 79
60 69 80
61 70 80
61 70 80
61 69 80
62 70 80
61 69 80
61 69 80
61 70 80
61 69 80
61 69 80
61 70 80
61 69 80
61 69 80
60 69 80
61 69 80
60 69 80
61 69 80
61 69 80
61 69 80
62 70 80
62 70 80
61 69 80
61 69 80
62 70 80
60 69 80
61 70 80
60 68 79
63 70 80
60 68 79
60 69 80
61 70 80
61 69 79
60 69 80
61 70 80
61 69 80
61 70 80
61 69 80
61 70 80
61 69 80
61 69 80
60 69 80
62 70 80
61 69 80
61 70 80
61 69 80
61 70 80
61 70 80
61 69 80
61 70 80
61 69 80
61 70 80
61 69 80
61 70 80
62 70 80
62 70 80
60 69 80
61 69 80
61 69 80
61 70 80
61 70 80
62 70 80
60 68 79
61 69 80
61 70 80
61 69 80
61 69 80
61 69 80
60 69 80
61 69 80
61 69 80
61 70 80
61 69 80
61 69 80
60 68 79
62 70 80
61 69 80
61 69 80
61 69 80
61 69 80
60 68 79
61 69 80
61 69 80
61 70 80
61 70 80
60 68 80
60 69 80
60 69 80
60 68 79
61 69 80
60 69 80
62 70 80
61 69 80
61 70 80
60 69 80
61 70 80
60 69 80
61 69 79
61 69 80
62 70 80
61 69 80
61 70 80
61 70 80
60 69 79
62 70 80
60 68 79
61 69 80
61 70 80
61 69 80
61 69 80
61 69 80
60 69 80
62 70 80
62 70 80
61 69 80
62 70 80
61 69 80
60 68 79
60 69 80
60 68 79
61 69 80
62 70 80
60 69 80
61 69 80
61 70 80
60 68 79
61 69 80
61 69 79
59 68 78
60 69 80
60 69 80
61 70 80
61 69 80
61 70 80
60 69 80
61 69 80
59 68 79
60 69 80
59 67 78
60 68 79
61 69 80
62 69 80
61 69 80
61 69 80
60 68 78
61 69 80
60 68 79
60 69 80
60 69 80
61 69 80
61 70 80
60 68 80
61 69 79
61 69 80
60 68 79
60 68 78
61 69 80
61 69 80
62 70 80
59 68 78
60 68 79
61 69 80
60 69 80
60 68 79
60 68 78
59 68 79
59 68 78
61 69 80
59 68 78
58 66 77
60 68 78
60 69 79
61 69 79
60 68 79
61 69 79
61 69 80
61 69 80
60 68 78
59 68 78
60 68 79
60 67 78
59 67 78
59 67 77
60 68 78
60 68 79
60 68 79
60 68 78
60 68 78
60 69 80
59 67 78
60 68 78
61 69 79
59 67 78
58 66 77
59 67 77
61 69 80
60 68 79
60 68 78
61 69 80
61 70 80
58 67 78
60 69 80
60 68 79
59 68 79
60 68 79
62 69 80
59 67 78
59 67 78
59 68 78
60 68 79
60 69 80
59 67 77
59 67 77
61 69 80
61 69 80
59 68 78
60 68 79
61 69 79
60 69 80
60 68 79
59 67 78
59 68 78
58 66 76
61 69 80
58 66 77
57 64 74
59 67 77
58 66 77
60 68 78
57 65 75
61 69 80
60 68 78
60 68 79
61 69 79
59 67 78
59 67 78
60 68 78
59 67 77
59 68 79
57 65 75
60 68 78
61 69 80
59 67 78
58 66 77
61 69 80
59 68 78
59 67 78
59 67 78
58 67 77
59 67 78
59 67 78
59 68 78
59 67 78
59 67 78
59 67 78
59 67 78
60 68 78
60 68 79
59 67 78
59 67 78
55 63 74
58 66 76
58 66 76
61 69 80
55 63 72
60 68 78
59 67 78
59 67 78
58 66 76
61 69 79
59 67 78
56 64 75
59 67 78
60 68 79
59 68 78
58 65 76
59 68 78
59 67 77
60 68 78
60 68 78
60 68 79
58 67 78
59 67 77
59 67 78
61 69 79
61 69 80
57 66 76
58 66 77
61 69 80
58 66 76
58 66 76
59 67 78
59 67 78
60 68 78
57 66 77
58 66 77
59 67 78
60 68 79
60 69 80
60 69 80
61 69 80
62 69 80
59 68 79
60 69 80
60 68 78
60 68 79
59 67 78
60 68 79
60 68 79
60 69 80
57 65 76
60 68 79
59 67 77
59 67 77
59 67 78
60 68 79
58 65 76
58 66 77
61 69 79
61 69 80
60 69 80
61 69 80
58 66 76
60 68 79
60 68 78
60 67 78
61 69 80
60 68 78
59 67 78
60 68 79
59 67 78
61 69 80
61 69 80
61 69 80
60 68 79
60 69 80
61 69 80
62 70 80
61 69 80
59 67 77
59 67 78
60 68 78
60 68 79
61 69 80
61 69 80
60 69 80
59 68 78
61 69 80
60 68 79
61 69 80
60 68 79
60 69 80
59 68 78
61 69 80
61 69 80
60 69 80
60 68 79
60 68 79
59 67 78
61 70 80
61 69 80
58 66 77
60 68 79
61 69 79
60 68 79
60 69 80
60 67 78
60 68 79
60 69 80
62 70 80
60 68 78
61 69 79
60 68 79
61 69 80
61 69 80
61 69 80
59 67 78
61 69 80
60 68 79
61 69 80
61 69 80
62 70 80
60 69 80
61 69 80
61 69 80
60 69 80
61 69 80
60 68 79
60 69 80
60 69 80
61 69 80
61 69 80
61 69 80
61 69 80
60 68 79
60 68 79
61 69 80
61 69 80
60 68 78
59 67 78
60 69 80
61 69 80
59 68 78
61 69 80
62 70 80
61 70 80
60 68 79
62 70 80
60 68 78
61 69 80
61 70 80
61 69 80
60 69 80
62 70 80
60 69 80
60 68 79
60 68 79
61 69 80
60 69 80
60 68 79
61 69 80
62 70 80
61 69 80
60 68 78
62 70 80
61 69 80
61 69 80
61 69 80
61 69 80
62 70 80
60 69 80
61 70 80
61 69 80
61 70 80
61 70 80
61 69 80
60 68 79
59 68 78
61 69 80
61 70 80
61 69 79
61 70 80
61 70 80
60 69 80
61 69 80
60 69 80
61 69 80
61 69 80
61 69 80
60 69 80
61 70 80
60 68 79
60 69 80
60 69 80
61 69 80
60 69 80
60 69 80
61 70 80
61 70 80
61 70 80
61 69 80
61 69 80
60 69 80
61 69 80
61 69 80
61 69 80
61 70 80
61 69 80
61 69 80
60 69 80
61 70 80
62 70 80
61 70 80
61 69 80
61 69 80
61 69 80
61 69 80
61 69 80
61 69 80
62 70 80
60 68 79
61 69 80
61 70 80
62 70 80
59 67 78
60 69 80
61 70 80
62 70 80
62 70 80
61 69 80
62 70 80
62 70 80
61 70 80
61 69 80
61 69 80
61 69 80
61 70 80
60 69 80
60 68 79
61 70 80
62 70 80
61 70 80
61 70 80
61 70 80
60 69 80
61 70 80
62 70 80
61 69 79
61 69 80
61 69 80
61 69 80
62 70 80
61 69 80
61 69 80
61 69 80
61 70 80
61 69 80
60 69 80
61 69 80
60 68 79
61 69 79
62 70 80
61 69 80
61 70 80
61 69 80
61 70 80
62 70 80
60 69 80
60 69 80
61 69 80
61 70 80
61 70 80
61 69 80
61 69 80
62 70 80
61 69 79
60 68 79
61 69 80
61 69 80
62 70 80
60 68 78
62 70 80
62 70 80
61 69 80
61 70 80
60 68 79
60 69 80
62 70 80
60 69 79
60 68 79
60 68 79
61 70 80
59 67 78
60 69 80
61 69 80
61 69 80
60 68 79
61 69 80
60 69 79
59 67 78
60 68 79
60 68 79
59 67 78
58 66 77
59 67 78
61 69 80
60 68 78
60 68 79
61 69 80
62 70 80
61 70 80
59 67 78
59 67 77
60 68 79
60 68 79
60 69 80
61 69 80
59 67 77
62 70 80
60 69 79
60 69 80
57 66 76
58 67 78
61 70 80
60 69 80
62 70 80
59 68 78
60 69 80
59 67 78
61 69 80
60 68 78
61 69 79
59 67 77
60 69 80
59 68 78
60 69 80
61 69 80
59 68 78
60 68 79
60 68 79
59 67 77
60 69 80
60 68 78
60 68 79
60 67 78
59 67 78
61 69 79
59 67 78
60 68 79
61 69 80
60 67 78
58 67 78
61 70 80
59 67 78
61 69 80
57 66 76
60 69 80
60 69 80
60 68 78
60 68 79
57 65 75
59 67 78
59 67 77
58 66 77
59 67 77
58 66 76
60 67 78
60 68 78
60 68 79
60 68 79
60 68 78
60 68 78
60 68 79
60 68 79
60 68 79
61 69 80
59 68 78
59 67 78
57 66 76
61 69 80
59 67 77
60 68 79
59 67 78
60 68 79
58 66 77
60 68 79
59 67 78
61 69 80
60 69 80
62 70 80
59 67 77
61 69 80
60 68 79
58 66 76
59 67 78
60 69 80
62 70 80
59 67 78
57 65 75
61 69 79
59 68 78
60 68 78
59 66 77
59 68 78
57 65 75
60 68 78
60 68 78
59 66 76
60 68 79
59 67 78
59 67 78
61 69 80
58 66 77
59 67 78
59 67 78
60 67 77
57 65 75
61 69 80
60 68 78
57 65 76
60 68 78
61 70 80
59 67 78
59 67 78
58 66 77
58 65 75
59 68 78
60 68 79
61 69 79
59 67 78
56 64 73
59 67 78
61 69 80
61 69 79
60 68 79
57 65 75
58 66 75
60 68 79
57 65 75
59 67 78
60 68 78
60 69 80
58 65 76
60 68 79
60 68 79
59 67 78
59 68 79
61 69 80
60 68 79
57 65 76
59 67 78
59 67 77
61 69 80
61 69 80
60 67 78
60 68 78
60 69 80
59 67 77
59 67 77
60 68 79
61 69 80
60 68 78
60 67 77
60 68 78
59 67 78
59 67 77
61 69 80
60 68 78
60 69 80
61 69 79
60 68 79
61 69 80
59 68 79
58 67 78
59 67 78
60 68 79
60 68 79
60 68 79
61 69 80
59 68 79
61 69 80
60 68 79
59 67 77
59 68 78
59 67 78
60 68 79
61 69 80
60 68 79
59 67 77
60 68 79
60 69 79
61 70 80
60 68 79
60 68 79
59 68 78
61 69 80
60 68 79
61 69 80
61 69 80
61 69 80
59 67 78
60 68 78
59 67 78
60 68 79
60 68 78
59 67 78
61 69 80
60 68 79
60 69 80
60 68 78
61 69 80
61 69 80
62 70 80
60 68 79
60 68 79
60 68 78
61 69 80
60 69 80
59 67 77
61 69 80
61 69 80
61 69 80
61 69 80
60 68 79
61 69 80
60 68 78
59 68 79
61 69 80
61 69 80
60 68 78
61 69 80
61 69 80
60 68 78
60 68 79
60 69 80
62 69 80
61 70 80
61 69 80
61 70 80
61 70 80
62 70 80
61 69 80
60 69 80
61 69 80
60 69 80
60 69 80
61 69 80
61 70 80
61 69 80
62 70 80
60 68 79
61 69 80
60 69 80
61 69 80
59 67 78
61 69 80
60 69 80
61 69 80
61 69 80
59 67 78
61 69 80
60 68 79
61 70 80
62 70 80
61 69 80
61 70 80
61 69 80
60 68 79
61 69 80
60 69 80
61 70 80
61 69 80
62 70 80
60 69 80
62 70 80
61 69 80
61 69 80
62 70 80
61 69 80
61 69 80
60 68 79
62 70 80
61 69 79
61 69 80
61 70 80
60 69 80
61 69 80
60 69 80
61 70 80
61 69 79
61 69 80
61 69 80
62 70 80
61 69 80
61 69 80
61 70 80
62 70 80
61 70 80
60 69 80
61 70 80
61 69 80
61 70 80
60 69 80
61 69 80
61 69 80
61 69 80
62 70 80
61 69 80
60 68 79
61 69 80
61 70 80
62 70 80
61 70 80
61 70 80
61 69 80
60 69 80
61 69 80
61 69 80
61 70 80
60 69 80
62 70 80
61 69 80
61 70 80
61 70 80
60 69 80
62 70 80
60 68 79
62 70 80
61 69 80
62 69 80
61 69 80
60 68 79
59 68 78
61 69 80
61 69 80
61 69 80
61 70 80
61 69 79
61 69 80
61 69 80
61 70 80
61 69 80
61 69 80
61 69 80
61 70 80
61 69 80
61 69 80
60 69 80
60 68 79
62 70 80
62 70 80
61 69 80
61 70 80
61 69 80
61 69 80
61 69 80
60 68 79
61 69 80
61 70 80
61 69 80
61 69 80
61 69 79
59 68 78
61 69 80
60 68 79
60 69 80
60 69 80
62 70 80
61 69 79
59 68 79
60 69 80
60 68 79
60 69 80
60 69 80
62 70 80
60 69 80
61 69 80
61 70 80
60 69 80
62 70 80
60 68 78
61 70 80
61 69 80
61 69 80
61 70 80
61 70 80
60 68 79
60 69 80
60 68 79
61 69 80
62 70 80
60 69 80
61 69 80
59 67 77
61 69 80
61 69 80
61 69 80
61 70 80
62 70 80
61 69 80
61 69 80
60 69 80
60 68 79
60 68 79
60 69 79
60 68 80
61 69 80
61 69 80
60 69 80
59 68 78
61 69 80
59 67 78
61 69 80
59 68 78
61 70 80
60 69 80
61 69 80
60 68 78
61 69 79
58 66 77
61 69 80
60 68 79
59 67 78
61 69 80
60 68 78
61 70 80
62 70 80
61 69 80
59 67 78
60 68 78
60 67 78
59 67 77
60 68 79
61 69 80
61 69 79
58 66 76
61 69 80
60 68 78
61 69 79
60 68 79
61 69 80
60 68 79
59 67 78
60 68 78
59 67 78
60 68 79
59 67 77
60 69 80
59 67 78
61 69 80
60 68 78
60 68 79
59 67 78
58 66 76
59 68 79
61 70 80
62 70 80
59 67 78
60 67 78
60 68 78
61 69 80
58 66 77
60 68 79
59 67 78
60 68 78
60 68 78
60 68 79
60 69 80
60 69 80
60 68 78
59 68 78
61 69 79
57 65 75
60 68 79
59 68 78
59 67 77
59 67 78
58 66 76
56 64 75
60 68 79
59 67 78
60 68 78
59 67 77
60 68 79
58 66 76
61 69 79
60 68 79
61 69 79
59 68 78
59 67 77
57 65 76
59 67 78
59 67 78
60 68 79
58 67 78
57 66 76
60 68 79
57 65 75
59 67 78
60 68 78
58 66 76
60 67 78
59 67 78
59 67 78
59 67 78
59 68 78
57 65 75
60 68 78
61 69 79
57 66 76
59 67 77
59 68 78
60 68 78
60 68 78
57 65 76
59 67 78
61 70 80
59 67 78
59 67 77
58 66 76
60 68 79
60 68 79
59 67 77
57 65 76
60 68 78
58 65 75
60 69 80
62 69 80
60 68 78
56 64 74
59 67 78
58 66 76
59 67 78
60 68 78
59 67 77
59 67 78
59 68 78
58 66 77
58 66 77
61 69 80
60 68 78
60 68 79
59 67 78
58 66 76
57 65 75
58 66 77
61 69 80
59 67 77
59 67 78
60 68 78
60 68 79
60 68 79
60 68 80
59 67 78
61 69 80
61 69 79
61 69 80
62 70 80
59 66 77
59 67 78
61 69 80
59 66 76
60 68 78
60 68 79
61 69 80
59 67 77
60 68 79
60 69 80
60 68 79
59 68 79
60 68 79
60 68 79
58 66 76
60 68 79
59 67 78
59 67 78
61 70 80
60 68 79
60 68 79
60 68 79
60 68 78
62 70 80
60 68 79
61 69 80
60 68 79
61 69 80
59 67 78
59 66 77
60 68 79
60 68 79
60 69 80
60 68 78
60 68 78
60 69 79
60 68 79
60 68 79
60 69 80
61 69 80
59 67 78
61 70 80
59 68 79
60 68 79
60 68 79
60 69 80
58 67 78
59 67 77
61 69 80
61 70 80
61 69 80
61 69 80
61 69 80
62 69 80
60 68 79
60 68 78
60 69 80
61 69 80
61 69 80
61 69 80
60 68 79
61 69 80
60 68 79
62 70 80
61 69 79
62 70 80
59 67 77
62 70 80
60 68 79
60 69 80
59 68 79
60 68 79
61 70 80
61 69 80
59 68 78
61 70 80
60 68 79
61 69 80
59 67 78
60 68 79
61 70 80
61 70 80
61 69 80
61 69 80
61 70 80
61 69 80
60 68 79
59 68 78
61 69 80
61 69 79
61 70 80
60 68 79
60 69 80
61 69 80
61 69 80
62 70 80
62 70 80
60 69 80
61 70 80
62 70 80
62 69 80
62 69 80
61 69 80
60 69 80
60 69 80
61 69 80
60 69 80
60 68 78
62 70 80
61 69 80
61 69 80
60 69 80
61 69 80
61 69 80
61 70 80
60 68 79
61 69 80
60 69 80
61 69 80
61 69 80
61 70 80
61 69 80
62 70 80
61 70 80
60 69 80
60 69 80
61 70 80
61 69 80
60 69 80
62 70 80
61 69 80
60 68 79
60 69 80
61 70 80
61 69 80
61 69 80
61 69 80
60 69 80
62 70 80
60 69 80
61 69 80
62 70 80
61 69 80
62 69 80
61 70 80
61 69 80
61 70 80
61 69 80
61 69 80
61 69 80
60 69 80
61 70 80
61 70 80
62 70 80
61 69 80
61 69 80
61 70 80
60 69 80
58 66 77
61 70 80
60 68 79
62 70 80
61 69 80
61 69 80
61 69 80
62 69 80
60 68 79
61 70 80
61 69 80
60 69 80
60 69 80
61 70 80
61 69 80
59 68 79
61 70 80
61 70 80
61 70 80
61 70 80
61 69 80
62 70 80
61 69 80
60 69 80
61 69 80
61 69 80
61 69 80
61 69 80
61 69 80
61 69 80
61 70 80
61 69 80
61 69 80
61 69 80
61 69 80
61 70 80
61 69 79
61 69 80
61 69 80
60 68 79
60 68 78
61 69 80
61 70 80
61 69 80
61 69 80
62 70 80
61 69 80
61 69 80
61 69 80
60 68 79
61 70 80
61 69 80
61 69 80
61 69 80
61 69 80
61 69 80
61 69 80
60 69 80
61 69 80
61 69 79
60 68 79
59 67 78
61 69 80
61 70 80
61 70 80
61 69 80
61 69 80
60 68 78
62 69 80
61 69 80
60 69 80
61 70 80
61 69 80
61 69 80
61 69 80
60 68 79
60 69 80
60 69 80
60 68 79
61 70 80
59 67 78
61 69 79
62 69 80
61 70 80
61 69 79
61 69 80
61 69 80
60 68 78
60 69 80
60 68 79
60 68 78
61 69 80
60 69 80
60 69 80
59 68 79
59 68 78
60 69 80
60 68 79
60 68 79
60 69 80
61 69 79
60 68 79
60 68 79
60 68 79
61 69 80
60 68 79
58 66 76
60 68 79
61 70 80
61 70 80
61 69 80
60 68 79
60 68 79
60 69 80
61 70 80
60 68 78
60 68 79
59 68 79
59 67 78
61 69 80
61 69 80
59 68 80
61 69 80
60 68 78
61 69 80
59 67 78
61 70 80
59 67 78
59 68 78
60 68 78
60 68 79
60 68 79
62 70 80
61 69 80
60 69 80
61 69 79
61 69 80
61 69 80
59 67 78
60 67 78
61 69 80
59 68 79
60 68 78
59 67 78
60 67 78
57 65 76
59 68 79
60 68 79
59 67 77
58 67 78
59 67 78
59 67 78
57 65 75
61 69 79
58 67 78
57 65 75
59 67 78
58 66 76
58 66 76
59 68 78
59 68 78
60 68 79
59 68 78
59 68 79
61 69 80
61 69 79
57 65 75
60 68 79
61 69 80
61 69 80
60 68 78
59 67 78
59 68 78
59 67 78
59 66 76
58 66 77
60 68 78
60 68 78
59 67 78
61 69 79
59 67 78
59 67 78
60 68 78
60 68 79
58 66 76
61 69 79
60 68 79
59 67 78
61 69 79
60 69 80
59 67 78
58 66 76
60 68 78
60 68 78
58 66 76
59 67 77
57 65 75
59 67 78
60 68 79
60 68 79
58 66 76
60 68 78
58 67 78
59 67 77
60 68 79
60 68 78
59 68 78
59 67 78
59 67 77
56 64 75
58 66 76
59 67 78
58 66 77
59 68 78
58 66 77
58 67 78
60 68 79
61 70 80
60 68 79
58 66 77
58 66 77
60 68 79
60 69 80
60 68 78
60 68 78
59 67 78
59 67 78
60 68 78
59 67 78
61 69 80
61 70 80
59 67 78
58 66 77
59 67 78
59 68 79
59 68 78
60 68 79
60 68 80
60 68 78
59 67 78
60 68 78
60 69 80
60 67 77
61 69 80
59 67 78
61 69 80
60 68 78
60 68 78
59 67 78
61 69 80
60 68 78
61 69 80
60 68 78
60 67 78
60 68 79
60 69 80
60 69 80
60 69 80
60 68 78
58 67 77
59 67 78
61 69 79
60 68 78
60 68 79
60 69 79
59 67 77
60 69 80
59 67 78
60 67 78
60 69 80
62 69 80
60 68 79
61 69 80
59 67 78
60 68 79
59 67 78
60 68 78
60 68 79
61 69 79
61 69 80
61 69 80
60 69 80
61 69 80
61 69 79
60 69 80
59 67 78
60 68 79
60 69 80
59 68 78
61 69 79
59 67 78
61 69 79
60 68 79
60 68 80
59 68 78
60 68 78
60 68 79
60 69 80
60 68 78
60 68 79
61 69 79
59 68 78
60 68 78
60 69 80
62 70 80
61 69 80
60 68 80
61 69 80
60 69 80
59 68 78
62 70 80
60 68 79
60 68 79
63 70 80
62 70 80
61 69 80
61 69 80
61 70 80
60 68 79
61 69 80
61 69 80
60 68 79
60 69 80
60 68 78
61 69 79
61 69 80
60 68 79
61 69 80
62 70 80
59 67 78
59 67 78
61 69 80
61 69 80
61 69 80
62 70 80
61 70 80
62 70 80
60 68 79
62 70 80
60 69 80
61 69 80
61 70 80
60 69 80
61 70 80
61 69 80
60 69 80
61 69 80
61 69 80
60 68 78
60 68 79
60 68 79
61 69 80
60 69 80
61 70 80
61 69 80
61 70 80
61 69 80
60 69 80
61 70 80
61 69 80
61 70 80
61 69 80
61 69 80
62 70 80
61 70 80
61 69 80
61 70 80
60 68 79
62 70 80
60 69 80
60 69 80
62 70 80
61 69 80
62 70 80
61 70 80
62 70 80
62 70 80
61 70 80
62 70 80
62 70 80
62 70 80
61 70 80
61 69 80
60 68 79
61 69 80
61 70 80
62 70 80
62 70 80
61 69 80
61 69 80
61 69 80
61 69 80
61 68 79
62 70 80
61 69 80
61 70 80
62 70 80
61 69 80
61 70 80
60 69 80
61 69 80
61 70 80
61 70 80
61 69 80
61 69 80
61 69 80
60 69 80
61 70 80
61 69 80
61 70 80
61 69 80
61 70 80
60 69 80
61 69 80
61 69 80
61 69 80
61 69 80
60 68 79
60 69 80
61 69 80
61 69 80
61 69 80
62 70 80
61 70 80
61 69 80
61 70 80
62 70 80
61 69 80
61 70 80
61 69 80
61 69 80
61 70 80
62 70 80
61 69 80
61 69 80
62 70 80
61 69 80
60 69 80
60 68 79
60 68 79
61 70 80
61 69 80
61 69 80
61 69 80
60 68 79
61 69 80
61 69 80
61 69 80
61 70 80
61 70 80
62 70 80
60 69 80
61 69 80
61 69 80
60 68 79
60 68 79
61 69 80
61 69 80
62 70 80
62 70 80
61 69 80
61 69 80
61 69 80
61 69 80
61 69 80
61 69 80
60 68 78
60 69 80
61 69 80
60 68 78
60 68 79
60 68 79
61 69 80
59 68 79
61 68 78
62 70 80
60 68 79
61 70 80
60 68 79
61 69 79
60 68 79
61 69 80
61 69 79
61 69 80
61 69 80
62 69 80
60 68 78
60 68 78
60 68 78
60 69 80
61 69 80
60 69 80
61 68 78
60 68 79
61 69 80
61 70 80
61 69 79
61 69 80
60 68 79
61 69 79
61 69 80
60 68 78
61 69 80
61 69 80
59 67 78
60 68 78
61 69 79
60 68 78
59 68 78
60 68 79
61 69 80
59 67 77
60 67 78
61 69 79
62 70 80
60 69 79
60 68 79
61 69 79
62 70 80
60 68 78
60 68 78
59 67 77
60 69 80
59 67 77
61 69 80
59 68 78
59 67 78
61 69 80
60 68 79
60 68 79
58 67 78
60 68 79
62 70 80
57 65 75
59 67 78
58 66 76
60 67 78
59 67 78
58 67 78
60 68 78
60 68 78
59 67 78
61 69 80
60 68 79
59 68 78
60 68 78
60 68 78
59 68 78
60 68 79
60 68 78
59 67 78
59 68 78
57 65 75
59 68 78
60 68 78
59 68 78
60 68 79
58 66 76
59 67 78
59 68 78
59 67 77
59 67 78
60 68 79
58 66 77
57 65 75
60 68 79
57 65 75
60 68 78
61 69 79
59 67 78
61 69 79
59 67 78
58 65 76
59 67 78
59 66 76
57 65 75
57 66 77
60 68 79
59 68 78
59 68 79
61 69 79
60 68 79
58 66 76
60 68 79
60 68 78
59 67 78
58 66 76
60 68 79
60 68 79
58 66 76
58 66 76
59 67 78
59 67 78
61 69 80
59 68 78
59 67 78
60 68 78
57 66 76
60 68 79
60 68 78
59 67 78
58 66 76
58 66 76
59 67 78
59 67 78
57 65 75
59 68 78
56 64 74
59 67 78
60 68 78
60 68 79
59 67 78
61 69 79
59 68 78
59 67 78
59 67 78
59 67 78
60 68 79
61 69 79
61 69 80
61 69 80
60 68 78
58 66 76
58 66 76
60 69 80
59 67 78
60 68 79
59 68 79
59 67 78
61 69 80
60 68 78
61 69 80
59 67 78
59 67 78
59 68 78
58 67 78
59 67 78
59 68 80
58 66 77
59 67 77
61 69 80
60 68 79
58 66 77
58 67 77
59 67 78
61 69 79
61 69 80
60 69 80
59 67 77
59 68 78
60 69 80
61 69 80
59 68 78
60 68 80
60 68 78
60 68 78
61 69 80
60 68 78
59 67 77
59 67 78
60 68 79
60 68 79
61 69 79
62 70 80
61 69 80
59 68 79
60 68 78
60 68 79
60 69 80
59 67 78
61 69 80
60 69 80
60 69 80
62 70 80
60 68 78
61 69 80
61 70 80
60 67 78
60 68 78
59 68 79
61 69 80
60 68 79
61 69 80
61 70 80
60 68 78
61 69 80
61 70 80
61 69 80
61 69 79
59 67 78
62 70 80
60 68 79
61 69 80
61 69 80
59 68 79
61 69 79
60 69 80
59 68 78
60 68 79
61 69 80
62 70 80
59 68 78
59 67 77
59 68 79
61 69 80
60 68 78
61 69 80
61 69 80
62 70 80
60 68 78
61 69 80
61 70 80
60 69 80
61 69 80
61 69 80
60 69 80
60 69 80
61 69 80
61 70 80
61 69 80
60 69 80
60 68 79
60 69 80
60 69 80
60 68 79
61 69 80
61 69 80
61 70 80
59 67 78
60 69 79
60 69 80
60 69 80
61 69 80
60 68 79
60 69 80
61 70 80
61 70 80
61 69 80
62 70 80
61 69 80
60 69 80
61 69 80
61 69 80
62 70 80
61 70 80
60 68 79
60 69 80
60 69 79
61 70 80
61 69 80
61 69 80
62 70 80
61 69 80
62 70 80
60 68 78
61 69 80
61 70 80
60 68 79
61 69 80
60 68 79
61 69 80
61 69 80
61 70 80
61 69 80
59 68 80
62 70 80
62 69 80
60 68 79
61 70 80
61 69 80
62 70 80
61 70 80
62 70 80
62 70 80
61 70 80
61 69 80
61 70 80
61 69 80
60 68 80
60 69 80
62 70 80
61 70 80
60 68 78
61 69 80
60 68 79
62 70 80
62 70 80
60 69 80
62 70 80
61 69 80
61 69 80
60 68 79
61 69 80
61 69 80
60 69 80
61 69 80
61 69 80
61 70 80
61 69 80
61 69 80
61 69 80
61 70 80
61 69 80
60 69 80
61 69 80
61 69 80
61 70 80
61 69 80
61 69 80
61 69 80
61 69 80
61 69 80
62 70 80
60 68 78
62 70 80
61 69 80
61 70 80
61 70 80
61 70 80
61 69 80
61 69 80
61 70 80
61 70 80
58 66 77
61 69 80
61 70 80
61 70 80
61 69 80
61 69 80
61 70 80
62 70 80
61 69 80
60 69 80
61 70 80
61 69 80
61 69 80
61 69 80
59 67 78
62 70 80
61 69 79
61 69 80
61 69 80
62 70 80
62 70 80
62 70 80
60 69 80
62 69 80
62 70 80
61 69 80
60 69 80
61 70 80
62 70 80
61 69 80
61 70 80
61 70 80
61 69 80
61 69 80
60 68 79
59 68 78
60 69 80
61 69 80
61 69 80
61 69 79
61 69 80
61 69 80
61 70 80
61 69 79
61 69 80
61 69 80
60 68 79
60 68 79
61 69 79
61 69 80
60 68 79
61 69 80
61 70 80
61 69 80
61 69 80
61 69 80
60 69 80
61 69 80
60 69 80
62 70 80
61 69 80
60 68 78
60 68 79
61 69 80
61 69 80
60 69 80
61 70 80
60 68 80
60 68 79
61 69 79
61 70 80
60 68 78
61 69 80
60 68 79
61 69 80
60 68 79
59 67 78
61 69 80
58 66 77
60 68 79
61 69 80
60 68 78
60 68 78
59 67 78
62 70 80
59 67 78
60 68 79
59 68 78
60 68 78
59 67 78
58 65 75
59 68 78
61 69 80
59 67 78
60 68 78
59 67 77
61 68 78
59 67 78
60 68 79
62 70 80
58 67 77
60 68 78
60 68 79
60 68 78
61 69 79
58 66 77
60 68 79
61 69 80
60 68 78
60 68 78
59 67 78
60 68 79
59 68 78
61 69 79
60 68 78
59 67 78
61 69 80
61 69 80
61 69 79
58 66 76
60 68 78
59 68 78
60 69 80
60 68 79
60 68 78
60 68 78
58 66 77
59 68 78
60 68 78
59 67 77
60 68 79
59 67 78
60 68 79
60 68 78
60 68 79
60 68 78
61 69 79
58 67 77
58 66 77
60 68 78
60 69 80
58 66 77
60 68 79
60 68 78
60 68 78
57 66 77
60 68 78
60 68 78
61 69 80
60 68 78
58 67 78
60 69 80
57 65 75
57 65 75
57 65 76
61 69 80
59 67 78
60 69 79
59 67 77
59 68 78
58 66 77
61 69 80
60 68 79
57 65 75
58 66 77
60 68 79
60 68 78
60 68 78
59 67 77
60 68 78
60 68 79
59 67 77
60 68 78
59 67 77
60 68 78
60 67 78
58 66 77
59 68 78
59 67 78
57 65 75
59 67 77
58 66 77
61 69 79
60 68 78
60 67 78
60 69 80
58 66 77
60 68 79
59 67 78
59 67 78
59 67 78
59 67 77
61 69 80
60 68 79
59 68 79
61 69 80
61 69 80
61 69 80
59 67 77
60 68 79
58 66 76
60 68 79
60 68 78
61 70 80
59 67 78
60 68 79
59 67 78
58 66 76
60 68 78
59 67 77
58 66 76
58 66 77
60 68 79
59 66 76
60 69 80
59 68 78
59 67 78
60 68 79
58 66 77
60 68 79
59 67 78
60 68 79
60 68 78
60 68 78
61 70 80
61 69 80
60 69 80
61 69 80
61 69 79
59 67 78
60 68 79
58 66 77
60 68 79
60 68 80
61 69 80
59 67 76
61 69 80
60 68 79
61 69 80
60 68 79
59 67 78
61 69 79
59 68 79
59 68 78
61 69 80
58 67 78
61 69 80
61 69 80
60 68 79
59 67 77
60 68 79
61 68 78
61 69 80
59 67 78
60 68 79
60 68 79
61 69 80
60 68 78
60 69 80
60 67 78
60 69 80
60 69 79
60 68 79
60 68 79
61 69 80
59 68 79
60 69 80
61 70 80
60 68 79
60 68 79
60 68 78
61 70 80
59 68 78
60 68 80
59 67 78
61 70 80
61 69 80
61 70 80
62 70 80
60 69 80
61 69 80
60 68 79
60 68 79
60 68 79
61 69 80
62 70 80
60 68 78
60 69 79
58 67 78
60 68 79
60 69 80
61 69 80
61 69 80
60 68 80
61 69 80
61 69 80
62 70 80
60 67 78
61 69 80
62 70 80
60 68 79
61 69 80
60 68 79
61 69 80
60 69 79
60 69 80
61 69 80
60 69 80
60 68 79
61 69 80
61 70 80
61 69 80
60 68 79
60 69 79
60 68 79
61 69 80
61 70 80
61 69 80
61 69 80
61 69 80
61 69 80
61 69 79
61 70 80
61 69 80
60 69 80
62 70 80
60 68 78
61 70 80
62 70 80
61 70 80
61 69 80
60 68 80
61 70 80
61 69 80
61 69 80
60 68 79
60 69 80
61 69 80
60 69 80
62 69 80
60 69 80
61 69 80
61 70 80
60 68 79
61 70 80
60 69 80
62 70 80
62 70 80
61 69 80
61 69 80
61 69 80
62 70 80
60 68 78
60 69 80
62 70 80
61 69 80
61 69 80
61 69 80
59 68 79
61 69 80
61 69 80
61 69 79
61 70 80
61 70 80
61 70 80
62 70 80
62 70 80
62 70 80
61 70 80
61 69 80
61 70 80
61 69 80
61 69 80
61 70 80
61 70 80
61 69 80
61 69 80
62 70 80
61 69 80
60 69 80
61 70 80
61 69 80
62 70 80
61 69 80
62 70 80
61 69 80
62 70 80
60 69 80
61 69 80
61 70 80
61 69 80
61 70 80
61 70 80
61 69 80
60 68 79
60 69 80
61 70 80
61 69 80
61 70 80
61 69 79
61 69 80
62 70 80
61 69 80
60 68 79
60 69 80
62 69 80
60 69 80
61 69 80
61 69 80
62 70 80
61 69 80
61 69 80
61 69 80
61 70 80
61 69 80
61 70 80
62 70 80
59 67 78
60 68 79
61 70 80
61 69 80
61 69 80
61 69 80
61 70 80
60 68 79
61 70 80
59 67 78
62 70 80
60 69 80
61 70 80
61 69 80
61 69 80
61 69 80
61 69 80
61 69 80
61 69 80
60 68 79
62 70 80
60 69 80
61 70 80
59 67 78
61 69 80
61 69 80
61 70 80
60 69 80
60 68 79
61 69 79
59 67 77
60 68 79
60 69 80
58 67 78
62 70 80
60 69 80
61 69 79
60 68 78
61 69 79
61 69 80
61 69 80
61 69 79
61 70 80
62 70 80
61 69 80
61 69 80
59 67 78
61 69 80
61 69 80
59 67 78
61 69 80
59 67 78
61 69 80
61 70 80
60 68 79
61 70 80
60 68 79
60 68 79
61 69 80
60 68 79
60 69 80
61 69 80
58 67 77
61 69 80
60 68 79
60 68 79
61 70 80
60 68 79
59 67 78
60 68 78
61 69 79
61 69 79
59 67 77
60 69 80
59 67 77
61 69 80
59 67 78
60 68 78
60 68 79
60 68 79
61 69 80
60 68 79
61 69 80
60 68 78
59 67 78
61 69 80
61 70 80
61 69 80
60 68 78
61 70 80
59 67 78
59 68 78
60 68 78
61 70 80
61 69 80
58 66 77
61 69 80
61 69 79
60 68 78
59 68 78
60 68 79
59 68 79
60 68 79
60 68 79
60 69 80
59 68 79
59 67 78
61 69 80
58 66 77
59 66 77
59 67 78
59 68 78
59 67 78
59 67 78
58 66 77
59 68 78
59 68 78
60 69 79
59 67 78
60 68 79
59 68 79
60 68 78
59 67 78
60 68 78
58 66 78
60 67 78
58 66 76
61 69 79
59 68 79
60 68 79
59 68 78
60 68 79
59 67 78
58 66 77
59 67 77
60 68 78
60 68 78
60 68 79
58 66 76
57 65 75
61 69 80
61 69 80
60 68 78
58 66 76
58 66 77
59 67 78
61 70 80
61 69 80
60 68 79
60 68 78
59 67 78
59 68 78
60 68 78
57 65 75
61 70 80
60 68 78
59 67 78
60 69 80
60 68 79
57 65 75
58 66 76
60 68 79
60 67 78
59 67 78
60 69 80
58 66 77
60 68 78
59 67 78
60 68 78
60 68 78
61 69 79
58 66 77
59 67 77
61 70 80
60 68 79
60 68 78
60 68 79
60 68 78
60 68 79
59 67 78
59 68 78
60 68 78
60 68 78
61 70 80
58 66 76
60 68 79
57 65 75
61 70 80
60 68 79
59 67 77
58 66 76
60 68 80
61 69 79
58 67 77
60 69 80
56 64 75
60 68 78
60 68 79
60 68 79
59 67 78
60 68 78
60 68 79
59 67 77
62 70 80
58 66 77
58 67 78
60 68 79
61 69 80
59 67 78
60 68 79
60 69 80
59 68 78
61 69 79
60 68 78
60 68 79
58 67 78
58 66 76
60 68 79
60 68 79
61 69 80
61 69 79
60 69 80
61 69 80
62 70 80
59 67 78
60 69 80
61 70 80
59 67 78
58 66 77
59 67 77
60 68 79
60 68 78
61 69 80
61 69 80
61 70 80
60 68 78
60 68 78
62 70 80
61 69 80
59 67 78
60 68 79
61 69 80
60 69 80
61 69 80
59 68 78
60 69 80
61 70 80
61 69 80
61 69 80
60 69 80
61 69 80
59 68 79
61 69 80
62 70 80
61 69 79
61 69 80
61 69 80
61 69 80
59 67 77
61 69 80
60 69 80
61 69 80
61 69 80
61 69 80
60 68 79
61 69 80
60 69 80
61 70 80
60 68 79
60 68 79
62 70 80
61 69 80
59 67 78
60 68 78
61 69 79
61 69 80
60 69 80
60 68 79
59 68 79
61 69 80
60 69 80
60 69 79
61 70 80
62 70 80
61 69 80
59 68 78
61 69 80
61 69 80
61 69 80
61 69 80
60 69 80
61 69 80
62 70 80
61 69 80
62 70 80
62 70 80
62 70 80
62 70 80
61 69 80
60 69 80
61 69 80
62 70 80
61 69 80
60 68 79
61 69 80
62 70 80
62 70 80
60 68 78
61 70 80
61 70 80
61 69 80
60 69 80
61 70 80
61 69 80
61 69 80
61 69 80
62 70 80
60 69 80
60 69 80
61 69 80
61 70 80
61 69 80
61 69 80
61 69 80
61 69 80
61 69 80
61 69 80
61 69 80
61 69 80
61 70 80
61 70 80
61 69 80
61 69 80
61 70 80
61 70 80
61 70 80
62 70 80
60 69 80
62 70 80
61 69 80
62 70 80
62 70 80
60 68 79
61 69 80
61 70 80
61 70 80
61 69 80
61 69 80
61 69 80
61 69 80
61 69 80
61 69 80
61 69 80
62 70 80
60 69 80
60 69 80
61 70 80
61 69 80
61 69 80
60 69 80
61 70 80
61 70 80
60 69 80
61 69 80
61 69 80
61 70 80
61 69 80
61 69 80
62 70 80
60 68 79
61 69 79
61 69 80
61 69 80
61 69 79
62 70 80
61 69 80
61 70 80
61 70 80
61 69 80
61 69 80
62 70 80
61 70 80
61 69 80
62 70 80
61 69 80
60 68 78
62 70 80
62 70 80
61 69 80
61 69 80
61 69 80
62 70 80
61 70 80
62 70 80
60 68 79
62 70 80
61 69 80
61 69 80
60 68 78
60 68 79
61 69 80
62 70 80
60 68 79
61 69 79
60 69 80
61 69 80
60 69 80
60 69 80
61 70 80
62 70 80
61 69 80
61 70 80
61 69 80
60 69 80
61 70 80
60 69 80
62 70 80
60 69 80
61 69 80
61 69 80
60 68 79
61 70 80
61 69 80
59 68 79
58 67 78
60 67 78
60 69 80
60 69 80
61 70 80
60 69 80
61 69 80
61 69 80
60 68 79
60 68 79
60 69 80
61 69 80
60 68 79
62 70 80
60 68 78
60 68 79
61 69 79
59 68 78
61 69 80
60 69 80
60 68 79
60 68 78
60 68 78
61 69 80
60 69 80
60 69 80
60 68 79
60 68 79
61 69 80
61 69 80
60 68 79
61 69 80
59 67 77
60 68 78
61 69 79
60 68 79
61 69 80
60 68 78
62 70 80
60 68 78
60 68 79
61 69 80
61 69 80
60 68 79
59 67 78
59 68 79
61 70 80
60 68 79
59 68 78
60 68 79
60 68 79
59 68 78
60 68 79
61 69 80
59 68 78
59 67 78
61 69 80
61 69 80
59 68 78
60 68 78
59 67 78
60 68 79
59 67 77
58 66 76
60 69 79
61 70 80
59 67 78
61 69 79
60 68 78
60 68 79
60 68 78
59 67 78
61 69 80
60 68 79
60 68 78
60 68 79
61 69 80
60 68 79
60 68 79
58 67 78
60 68 78
61 69 79
61 69 79
61 69 80
59 67 78
59 67 78
60 68 79
58 66 76
61 70 80
59 67 77
60 68 78
59 67 78
59 67 78
60 68 79
59 68 78
59 68 78
59 67 78
61 70 80
60 68 79
60 68 78
60 68 78
60 69 80
61 69 79
59 67 78
60 69 80
59 67 77
60 68 79
60 68 78
60 68 79
59 67 78
59 67 78
59 68 78
60 68 79
60 68 80
58 67 78
59 68 78
59 66 76
58 66 77
59 67 78
60 69 80
61 69 79
58 66 76
60 68 79
59 67 78
61 69 79
59 67 78
60 68 78
60 69 80
59 67 78
58 65 75
60 68 78
59 67 78
61 69 80
60 68 79
60 68 78
60 68 79
60 67 77
60 68 78
61 69 79
60 69 79
59 67 78
59 67 78
59 67 77
60 69 80
57 65 76
56 64 75
61 69 79
61 70 80
60 68 78
59 67 78
60 68 78
60 69 80
59 67 78
61 69 80
61 69 80
60 68 78
60 69 80
60 68 78
61 69 80
59 67 78
60 69 80
60 68 79
60 68 78
61 69 79
58 66 77
60 69 80
60 69 80
61 69 79
59 67 78
60 68 78
60 68 79
60 69 79
60 68 78
60 68 79
61 68 79
59 67 77
61 69 80
60 68 79
59 68 78
59 67 77
60 68 79
60 68 78
59 68 79
61 69 80
58 66 77
61 70 80
58 66 76
61 70 80
61 69 80
61 68 78
61 69 79
61 69 80
60 68 79
59 68 78
61 69 80
59 67 78
61 69 79
60 67 78
60 69 80
60 68 78
61 69 80
61 69 80
59 68 78
62 69 80
59 67 78
62 70 80
60 68 79
61 69 80
60 69 80
60 69 80
59 67 78
61 69 80
60 69 80
59 68 78
61 69 80
59 67 78
61 70 80
61 70 80
60 68 78
59 67 78
60 69 80
60 69 80
61 70 80
61 69 80
62 70 80
61 70 80
61 69 80
61 69 79
59 67 78
62 70 80
61 69 80
61 69 80
59 68 78
62 70 80
60 68 79
60 69 80
60 68 79
61 69 80
61 70 80
61 69 80
61 69 80
61 70 80
61 69 80
62 70 80
61 69 80
61 69 79
60 69 80
61 69 80
61 69 80
60 68 79
59 67 78
60 68 79
61 69 80
61 69 79
61 69 80
61 69 80
60 69 80
60 68 79
61 70 80
62 69 80
61 70 80
60 69 80
61 70 80
61 69 80
60 68 78
61 70 80
62 70 80
59 68 78
61 70 80
61 69 80
61 69 80
60 68 79
61 69 80
62 69 80
61 69 80
61 69 79
60 69 80
61 69 79
61 70 80
61 69 80
62 70 80
61 69 80
60 69 80
61 69 80
61 69 80
62 70 80
61 69 80
61 69 80
61 69 80
60 68 79
61 69 80
61 70 80
61 69 80
61 69 80
61 69 80
59 68 79
61 70 80
61 69 80
61 69 80
61 69 80
61 69 80
61 69 80
62 70 80
61 69 80
62 70 80
60 68 79
61 69 80
61 69 80
61 70 80
60 68 79
61 69 80
62 70 80
61 69 80
62 70 80
61 69 80
62 70 80
61 69 80
61 70 80
61 69 80
61 69 80
62 70 80
62 70 80
61 69 80
61 69 80
61 69 80
61 69 80
61 69 80
62 70 80
62 70 80
61 70 80
60 69 80
62 70 80
61 69 80
61 70 80
61 69 80
61 69 80
60 69 79
61 69 80
61 69 80
62 70 80
61 70 80
60 69 80
60 69 80
62 70 80
61 69 80
60 69 80
62 70 80
60 69 80
60 68 79
62 70 80
61 70 80
61 69 80
61 70 80
61 69 80
61 69 80
61 70 80
62 70 80
61 69 80
60 68 79
61 69 80
61 69 80
59 68 78
59 68 78
61 69 80
61 70 80
60 68 79
61 69 80
61 69 80
61 69 80
61 69 80
61 69 80
61 69 80
60 68 79
61 69 80
61 69 80
60 69 80
62 70 80
61 69 79
61 70 80
61 70 80
61 69 80
60 68 79
60 68 79
61 69 79
61 69 80
61 70 80
62 70 80
61 69 80
59 67 78
60 69 80
61 69 80
61 69 80
60 68 79
60 68 80
62 69 80
61 69 80
61 69 80
61 69 80
61 69 80
61 70 80
60 68 79
61 69 80
59 67 78
61 69 80
61 70 80
59 67 78
60 68 78
60 69 80
61 69 80
61 70 80
61 69 80
61 69 80
61 69 80
61 69 80
60 68 78
60 68 79
62 70 80
61 69 79
59 68 78
61 70 80
61 69 80
61 69 80
62 70 80
59 68 78
58 66 76
61 69 80
61 69 80
61 70 80
61 69 79
60 68 79
60 68 79
60 68 79
59 67 77
60 69 79
61 70 80
60 68 79
60 68 79
60 68 79
61 69 80
60 68 79
61 70 80
60 68 79
59 67 78
61 69 80
61 69 80
60 68 78
61 69 80
60 68 79
60 68 79
61 69 80
61 69 80
59 67 77
60 68 79
61 69 80
61 70 80
59 68 78
61 70 80
60 68 78
60 68 79
59 68 78
62 70 80
60 68 79
59 67 77
59 68 78
60 69 80
61 69 80
61 69 80
61 69 79
58 66 77
59 68 78
60 69 80
61 70 80
60 68 78
60 68 79
59 67 78
59 67 78
60 68 78
57 66 76
60 69 80
61 68 79
59 67 78
59 66 76
60 68 78
60 68 79
60 68 79
59 67 78
62 70 80
61 69 79
59 67 78
59 67 78
59 67 78
59 68 78
60 68 79
60 68 78
60 68 78
60 68 78
60 68 79
60 68 79
59 68 79
60 69 80
61 69 79
61 69 79
58 66 77
60 68 78
59 67 78
60 69 80
59 67 77
59 67 78
60 68 78
60 68 79
59 68 78
60 68 78
61 68 78
59 67 78
60 69 80
59 67 78
61 69 80
59 67 77
60 68 79
59 68 79
58 67 78
60 68 79
59 67 78
59 68 79
57 66 76
56 64 74
61 69 79
59 68 78
58 67 78
60 68 79
60 68 78
58 66 77
62 70 80
60 68 78
60 69 80
60 68 79
61 70 80
58 66 77
58 67 78
60 68 78
60 68 79
58 67 78
61 69 79
58 67 78
59 67 78
57 65 76
61 69 79
61 69 80
58 67 78
59 68 79
59 67 78
58 66 77
57 65 76
61 70 80
61 69 80
58 66 77
60 68 79
61 69 80
60 68 78
59 67 78
60 68 78
60 68 78
60 67 77
60 68 79
59 68 79
59 67 78
59 67 77
61 69 79
59 67 77
60 68 79
61 69 80
60 68 79
59 68 78
60 69 80
59 67 78
61 69 80
60 68 78
60 68 78
59 67 78
60 69 79
61 69 80
59 67 78
59 68 78
61 69 79
61 70 80
61 69 80
59 67 78
59 68 78
59 68 79
59 68 78
60 69 79
61 69 80
60 68 79
60 68 79
61 69 80
59 67 78
59 68 79
61 69 80
60 68 79
60 68 79
60 69 80
59 68 79
61 69 80
59 68 78
60 69 80
60 68 79
60 68 78
59 67 78
60 69 80
61 69 79
60 68 78
59 67 78
61 69 80
61 69 80
62 70 80
61 69 79
60 68 78
60 68 79
61 69 80
62 70 80
59 67 78
60 69 80
59 67 78
59 68 78
61 69 79
59 67 78
60 69 80
60 68 79
61 69 80
60 68 78
60 69 80
59 68 79
61 69 80
61 69 80
61 69 80
60 68 79
61 70 80
62 70 80
60 69 80
60 68 79
62 70 80
60 69 80
60 68 78
62 70 80
59 68 78
60 68 78
61 70 80
61 69 79
60 68 79
59 68 78
60 68 79
61 69 79
60 68 79
61 69 80
61 69 80
62 70 80
61 69 79
62 70 80
61 70 80
60 68 79
60 68 79
61 70 80
62 70 80
61 69 80
61 69 80
62 70 80
60 69 80
60 69 80
61 69 80
60 69 80
61 70 80
62 70 80
61 69 80
61 69 80
61 69 80
61 69 80
61 69 80
61 70 80
61 69 80
61 69 80
61 70 80
60 68 79
60 69 80
61 69 79
61 69 80
61 69 80
61 69 80
60 69 80
61 69 80
60 68 79
61 70 80
62 70 80
61 69 80
60 68 79
60 69 80
61 70 80
61 69 80
61 70 80
61 69 80
61 69 80
61 69 80
60 69 80
60 68 79
61 70 80
60 69 80
61 69 80
60 69 80
61 69 80
61 69 80
61 70 80
61 69 80
61 70 80
61 69 80
60 69 80
61 69 80
61 69 80
60 69 80
60 69 80
61 69 80
61 70 80
62 70 80
61 70 80
61 70 80
61 69 80
60 69 80
60 69 80
61 69 80
61 69 80
61 69 80
62 70 80
61 70 80
62 70 80
62 70 80
61 69 80
61 69 80
61 69 79
61 70 80
60 69 80
61 69 80
61 69 80
62 70 80
61 70 80
61 69 80
61 69 80
60 69 80
60 69 80
61 70 80
60 69 80
62 70 80
61 69 80
62 70 80
61 69 80
60 69 80
62 70 80
60 68 79
62 70 80
61 69 80
60 68 79
61 69 79
60 68 79
61 70 80
61 69 80
61 69 80
62 70 80
60 69 80
61 70 80
60 69 80
61 69 80
60 69 80
61 70 80
61 70 80
60 68 79
60 69 80
61 69 80
60 69 79
61 69 80
59 67 78
62 70 80
61 69 80
61 69 80
60 69 80
61 69 80
61 69 80
60 68 79
59 68 79
61 69 80
61 69 80
60 68 79
61 70 80
61 70 80
59 68 78
61 69 79
62 69 80
59 67 77
60 68 79
61 69 79
61 69 80
60 69 80
60 69 80
59 67 78
60 68 79
61 70 80
60 68 79
61 70 80
61 70 80
60 68 79
61 69 80
61 69 80
60 68 79
61 70 80
61 69 80
61 69 80
61 70 80
60 68 79
60 69 80
61 69 80
61 69 80
61 69 80
60 69 80
60 69 79
59 68 78
61 69 80
60 68 78
61 69 80
62 70 80
60 67 78
60 68 79
60 68 79
60 68 78
61 70 80
60 69 80
61 69 79
60 69 80
60 68 79
61 69 79
59 68 79
59 67 78
60 68 79
60 69 80
61 69 79
60 68 79
62 70 80
59 68 78
61 69 80
61 69 80
61 69 79
60 69 79
60 69 80
61 69 80
61 69 79
61 69 80
61 69 80
59 67 78
61 69 80
59 68 78
61 69 80
59 68 78
60 68 79
61 69 79
60 68 79
61 69 80
61 69 79
60 68 78
60 68 79
60 68 79
60 68 79
59 67 78
60 69 80
59 67 78
60 68 78
57 65 76
60 68 79
59 67 78
60 68 79
62 70 80
60 68 79
61 69 80
59 67 78
60 68 78
61 69 80
58 66 77
61 70 80
60 68 78
60 69 80
58 66 77
60 68 78
60 68 78
60 68 79
60 68 78
59 67 78
61 69 79
61 69 80
60 68 78
59 67 78
59 67 78
60 68 79
60 68 79
60 68 79
60 67 78
60 67 78
59 67 78
60 68 78
57 65 75
59 68 78
59 67 78
58 66 77
60 68 79
59 67 78
61 69 80
60 68 79
60 68 79
59 67 77
60 68 79
61 69 79
60 68 78
62 69 80
60 68 78
60 68 78
58 66 75
60 67 78
58 66 77
59 68 78
60 67 78
60 69 80
58 66 77
58 66 77
59 67 78
60 68 78
61 69 80
59 67 77
60 68 79
60 68 79
59 67 78
59 68 79
59 68 78
58 66 76
57 65 76
57 65 75
59 67 78
60 68 79
59 67 77
59 68 78
61 69 80
59 67 78
59 67 78
60 68 79
61 69 80
62 70 80
60 68 78
60 68 78
61 69 80
60 67 77
60 68 78
59 67 78
60 68 79
60 69 80
60 69 79
60 69 80
61 69 80
60 68 78
60 68 79
58 66 76
57 66 77
60 68 79
58 66 77
60 68 78
61 69 80
61 69 80
58 66 77
61 69 80
58 66 77
59 67 78
59 67 78
58 66 77
61 69 80
60 68 79
58 66 76
60 68 78
60 69 80
59 67 77
62 70 80
60 68 78
61 69 79
60 68 78
61 69 79
61 69 79
61 69 80
61 69 80
61 69 80
60 68 79
60 68 79
61 70 80
60 68 78
60 69 80
61 70 80
59 67 78
60 69 79
59 67 78
60 68 79
61 69 80
60 68 79
60 68 79
61 69 80
59 67 78
60 68 79
61 69 79
60 68 79
60 68 79
61 69 80
60 68 78
61 70 80
59 67 78
61 69 80
61 69 80
61 69 80
61 69 80
60 68 78
60 69 80
61 69 79
61 69 79
60 69 80
62 70 80
61 69 80
62 70 80
62 70 80
59 68 79
61 69 80
61 70 80
61 69 80
60 68 79
60 69 79
59 68 78
61 69 80
59 67 78
60 68 78
59 67 78
60 68 79
61 69 80
60 69 80
60 69 80
61 69 80
60 69 80
62 69 80
59 67 78
61 69 79
61 69 80
61 69 80
60 69 80
60 69 80
61 70 80
61 70 80
60 68 79
61 69 80
61 69 80
60 68 79
61 70 80
61 69 80
60 68 79
62 70 80
61 69 80
62 70 80
60 69 80
60 68 80
60 69 80
60 68 79
60 68 79
61 69 80
60 68 79
61 69 80
61 69 80
61 69 79
61 69 80
61 70 80
60 68 79
61 69 80
61 69 80
61 69 80
61 69 80
61 69 80
61 69 80
61 69 80
60 69 80
60 69 80
61 69 80
61 69 80
61 69 80
60 69 80
61 70 80
61 69 80
62 70 80
62 70 80
60 68 79
60 68 79
61 70 80
61 69 80
60 68 79
61 69 80
61 70 80
61 69 80
61 69 80
61 69 80
60 69 80
62 70 80
61 69 80
62 70 80
60 69 80
61 69 80
61 70 80
61 69 80
62 70 80
60 69 80
61 69 80
61 70 80
61 70 80
61 70 80
61 69 80
62 70 80
61 70 80
60 69 80
61 70 80
61 69 80
61 70 80
61 70 80
61 69 80
60 69 80
62 70 80
61 69 80
61 69 79
62 70 80
61 70 80
61 70 80
61 69 80
61 69 80
61 70 80
61 69 80
60 68 80
61 69 80
60 69 80
61 69 80
61 70 80
61 70 80
60 69 80
62 70 80
61 69 80
62 70 80
60 69 80
61 70 80
60 69 80
62 70 80
61 69 80
61 69 80
60 69 80
60 69 80
61 69 80
62 70 80
61 69 80
61 69 80
61 69 80
62 70 80
62 70 80
60 68 79
61 70 80
61 69 80
61 70 80
60 68 79
61 69 80
60 69 80
61 69 80
62 70 80
61 69 80
61 69 80
60 69 80
60 68 79
61 70 80
61 69 80
60 68 79
60 69 80
61 69 80
61 69 79
61 69 80
61 69 80
61 69 80
61 69 80
60 68 79
61 69 80
60 69 80
61 70 80
61 70 80
62 70 80
60 69 80
61 69 80
60 68 79
61 69 80
60 68 79
59 67 78
61 69 80
60 68 78
61 70 80
61 69 80
60 68 79
60 69 80
60 68 78
61 69 80
61 69 80
61 69 80
59 68 79
61 70 80
61 69 80
61 69 80
61 69 80
59 68 78
61 69 80
61 69 80
61 69 80
61 69 80
61 70 80
60 68 78
62 70 80
61 69 80
60 68 79
60 69 80
60 68 79
59 68 79
59 68 79
60 68 78
61 69 80
60 68 78
61 69 80
60 68 79
60 68 79
61 69 80
61 69 80
59 67 78
60 68 78
60 69 80
59 68 78
60 68 79
58 66 77
60 68 78
61 69 80
61 69 79
61 69 80
60 69 80
61 69 80
61 70 80
59 67 78
59 67 78
60 69 80
60 69 79
60 68 79
59 68 78
61 69 80
61 69 80
60 69 79
62 70 80
59 67 77
59 67 78
61 69 80
61 69 80
60 68 79
59 68 79
61 69 80
59 67 78
59 67 78
61 69 79
59 67 78
60 68 79
60 68 79
61 69 80
59 67 78
60 68 80
61 69 80
60 68 79
57 65 75
61 69 80
61 70 80
61 69 80
59 67 78
60 67 78
60 68 79
60 68 79
61 69 80
61 69 80
59 68 78
58 66 77
60 69 80
61 69 79
61 70 80
61 69 80
60 68 79
60 69 80
60 69 79
59 67 77
61 69 80
60 68 79
60 68 79
61 69 80
58 66 77
60 68 78
59 67 77
60 68 78
61 69 80
58 66 77
60 68 79
61 69 79
59 68 78
59 67 77
61 69 80
62 70 80
61 69 79
60 68 78
58 66 77
60 68 78
60 68 79
61 69 79
59 67 77
58 66 76
59 67 78
60 68 79
59 67 78
61 70 80
61 69 80
60 68 79
61 69 80
59 67 77
58 66 77
60 67 78
60 68 79
59 67 78
60 69 80
59 68 78
60 68 78
59 67 78
60 68 79
60 68 78
61 69 80
60 69 80
58 66 76
59 67 78
59 67 78
59 67 78
59 67 77
58 67 78
60 69 80
58 66 77
58 66 77
60 68 78
61 69 80
60 68 78
59 67 78
59 68 78
59 67 78
60 68 78
58 66 76
60 69 80
60 68 79
58 66 77
60 68 78
60 68 79
60 68 78
58 67 78
60 68 78
60 68 79
59 67 77
59 67 78
60 69 80
60 68 79
60 69 80
58 66 77
60 68 78
60 68 79
60 68 79
61 69 80
60 68 79
60 68 79
61 69 79
60 68 79
60 68 78
60 68 79
60 68 78
59 68 78
60 69 80
60 68 79
60 69 80
59 67 78
61 70 80
60 69 79
60 68 79
58 66 77
60 68 78
60 68 79
60 69 80
61 69 80
60 68 79
60 69 80
59 67 78
59 67 78
61 69 79
61 69 80
60 69 79
60 68 78
61 69 80
60 69 80
60 69 80
61 70 80
60 68 78
60 68 79
60 68 78
61 70 80
60 69 80
60 68 79
60 68 79
60 68 79
61 69 80
58 66 77
60 69 80
60 68 79
61 69 79
61 69 80
61 69 80
61 69 80
61 69 80
61 69 80
60 69 80
62 70 80
61 70 80
60 68 79
60 68 79
61 69 80
60 69 80
62 70 80
61 69 80
60 69 80
60 69 80
61 69 80
61 69 80
60 68 79
59 67 78
61 69 80
60 69 80
61 69 80
60 68 79
61 69 80
61 69 80
61 70 80
61 69 80
60 69 80
60 68 78
61 69 80
61 69 80
60 69 80
62 70 80
60 69 80
60 68 79
62 70 80
60 68 79
60 69 80
62 70 80
61 70 80
61 70 80
60 68 79
61 69 80
61 69 80
60 69 80
61 69 80
60 68 79
61 69 80
60 69 80
61 69 80
60 68 79
62 70 80
61 69 80
62 70 80
61 69 80
60 68 79
60 69 80
61 69 80
61 70 80
61 69 80
61 69 80
61 69 80
60 69 79
60 69 80
60 69 80
61 69 80
62 70 80
61 70 80
62 70 80
61 70 80
61 70 80
60 68 79
61 70 80
61 69 80
61 69 80
61 70 80
61 69 80
60 69 80
61 69 80
61 69 80
62 70 80
61 69 80
62 70 80
62 70 80
61 69 80
61 69 80
62 70 80
61 69 80
61 69 80
61 70 80
61 69 80
61 69 80
59 67 78
62 70 80
61 69 80
62 70 80
61 70 80
61 69 80
62 70 80
61 69 80
61 69 80
62 70 80
61 70 80
62 70 80
60 69 80
60 69 80
62 70 80
61 69 80
61 69 80
61 69 80
61 69 80
61 69 80
61 70 80
61 69 80
61 70 80
61 69 80
61 69 80
61 69 80
61 70 80
61 69 80
60 69 80
62 70 80
62 70 80
61 69 80
61 69 80
61 69 80
61 70 80
61 70 80
61 70 80
61 69 80
61 69 80
61 69 80
61 69 80
61 69 80
60 69 80
60 68 79
61 69 80
61 69 80
61 69 80
61 69 80
61 69 80
61 69 80
61 69 80
61 70 80
59 68 78
60 69 80
62 70 80
61 69 80
61 69 80
61 69 80
60 69 80
61 69 80
60 69 80
61 70 80
61 70 80
61 69 79
61 69 80
61 69 80
61 69 80
61 69 80
61 69 80
61 70 80
61 69 80
60 69 80
62 70 80
61 69 80
61 69 80
62 70 80
60 69 80
60 68 79
61 70 80
61 70 80
62 70 80
61 69 80
61 69 80
62 70 80
62 70 80
61 69 80
61 70 80
62 70 80
61 69 80
60 68 78
60 68 79
62 70 80
61 70 80
60 68 78
62 70 80
61 69 80
61 69 80
60 68 78
60 68 78
59 68 79
60 68 79
61 69 80
60 69 80
60 69 80
62 70 80
61 69 80
60 68 79
61 69 79
61 69 79
61 69 79
62 70 80
60 68 78
61 70 80
60 69 80
60 69 80
61 70 80
59 68 79
60 68 78
61 68 79
59 67 78
61 69 80
60 68 79
61 69 80
60 69 80
61 69 80
61 69 80
61 69 80
60 69 80
61 69 80
59 67 78
60 68 78
59 67 78
61 69 80
60 68 79
59 68 78
62 70 80
61 69 80
61 69 80
60 68 79
61 69 80
60 68 79
58 66 77
60 68 78
60 68 79
61 69 80
60 68 79
61 69 80
61 69 80
60 68 78
61 70 80
60 68 79
59 67 78
61 69 80
60 68 79
60 68 78
60 68 78
60 68 78
60 68 79
61 69 80
60 68 78
58 66 76
60 68 79
61 69 80
59 68 78
59 67 78
61 69 80
62 70 80
61 69 80
59 68 78
61 69 79
61 70 80
59 67 78
59 68 78
60 68 78
60 68 79
59 67 77
61 70 80
59 68 78
60 68 78
60 68 79
60 68 79
59 67 77
59 67 78
60 68 79
61 69 80
59 67 78
60 69 80
60 68 79
59 67 78
58 66 76
59 66 76
60 68 78
60 68 78
60 68 78
58 66 76
59 67 78
61 69 80
58 66 77
60 68 78
60 68 78
60 68 78
61 69 79
60 68 79
59 68 78
61 69 80
59 67 78
58 66 76
59 67 78
59 67 77
56 63 73
60 68 78
59 68 79
61 69 80
60 68 79
61 69 80
59 67 78
60 68 78
61 70 80
60 68 78
60 69 80
60 68 79
61 69 80
59 67 78
60 69 80
61 69 80
59 68 78
60 68 79
61 69 80
60 69 80
59 68 78
60 68 78
60 68 79
61 69 80
60 68 79
58 66 76
61 69 80
59 67 78
59 67 78
60 68 78
58 66 76
62 70 80
60 68 79
59 67 78
61 69 80
59 67 78
57 65 75
59 67 78
57 65 76
61 70 80
61 69 80
60 68 79
59 68 78
60 68 78
59 67 78
59 67 78
59 67 78
60 69 80
58 66 77
61 69 80
60 68 78
59 68 79
59 68 78
61 69 80
60 69 80
60 68 80
61 69 80
60 68 79
60 69 80
61 69 80
60 68 78
60 68 79
61 69 80
60 68 78
61 69 79
60 68 79
61 68 78
61 69 80
61 69 80
60 68 79
60 68 79
61 70 80
59 67 78
60 68 79
60 68 79
60 68 79
60 68 79
60 68 79
60 68 79
60 69 80
61 70 80
61 69 80
60 68 79
61 69 80
61 69 79
60 68 79
61 69 80
61 69 80
61 69 80
60 68 79
61 69 80
60 69 79
60 68 79
61 69 80
60 68 79
61 69 80
59 68 78
61 69 80
61 70 80
59 68 78
61 69 80
61 69 80
60 68 79
61 69 80
60 68 78
60 69 80
61 69 80
60 68 79
61 70 80
61 69 80
61 69 80
61 69 80
61 69 80
58 67 78
60 68 79
60 68 79
61 69 80
60 68 80
61 69 80
61 69 80
61 70 80
61 69 80
60 68 79
62 70 80
61 69 80
60 69 80
62 70 80
61 69 80
61 69 80
59 68 79
60 69 80
60 68 80
61 69 80
59 68 78
60 68 78
61 69 80
60 68 78
60 69 80
61 69 80
60 69 80
61 69 80
60 69 80
62 70 80
61 69 80
60 68 79
60 69 80
62 70 80
61 69 80
61 70 80
61 69 80
60 68 78
61 69 80
60 68 79
62 70 80
61 69 80
61 69 80
61 70 80
62 70 80
61 69 80
60 68 79
61 69 80
61 69 80
61 70 80
61 69 80
61 69 80
62 70 80
61 69 80
60 68 79
61 69 80
60 69 80
61 69 80
61 70 80
61 70 80
61 69 80
61 69 80
61 69 80
61 69 80
60 69 80
61 69 80
61 69 80
62 70 80
62 70 80
61 70 80
60 69 80
61 70 80
61 70 80
62 70 80
61 69 80
61 69 80
61 69 80
61 69 80
62 70 80
62 70 80
61 70 80
62 70 80
61 69 80
61 70 80
61 69 80
61 69 80
61 70 80
61 69 80
60 68 79
60 69 80
61 69 80
62 70 80
61 69 80
61 69 80
59 68 78
61 69 80
60 69 80
61 69 80
61 70 80
61 69 80
61 69 80
60 68 79
61 69 80
61 69 80
61 69 80
62 70 80
60 68 80
60 68 79
62 70 80
62 70 80
61 70 80
61 69 80
61 69 79
61 69 80
61 70 80
60 68 79
61 69 79
61 69 80
62 70 80
60 69 80
60 68 79
61 69 80
62 70 80
62 70 80
61 69 79
61 69 80
62 70 80
61 69 80
61 69 80
60 68 79
61 69 79
62 70 80
61 69 80
61 69 80
61 69 80
60 68 78
61 70 80
61 69 80
60 69 80
60 68 80
60 68 79
61 69 80
61 69 80
60 69 80
61 69 80
61 70 80
62 70 80
60 69 80
61 69 80
61 70 80
61 69 79
61 70 80
61 70 80
60 68 79
60 68 79
60 68 78
60 68 80
62 70 80
61 70 80
61 69 80
60 68 78
61 69 80
60 69 80
60 68 78
61 69 80
60 68 79
59 67 78
61 69 80
61 69 80
59 66 77
60 68 79
61 69 79
59 68 78
61 69 80
61 69 80
60 69 80
59 68 78
60 68 79
61 69 80
59 67 78
61 69 80
60 68 79
61 70 80
62 70 80
60 69 80
60 69 80
61 70 80
60 68 78
60 68 79
61 69 80
61 69 80
62 70 80
59 68 79
60 69 80
60 69 80
59 68 78
60 69 80
60 68 79
60 68 79
60 68 79
61 69 80
61 69 79
59 67 78
60 68 78
60 68 79
59 67 78
62 70 80
61 69 80
61 70 80
62 70 80
59 68 78
60 68 79
61 70 80
60 68 79
61 69 80
59 68 78
60 68 79
59 67 78
61 69 79
61 69 79
59 67 78
61 69 79
61 69 80
59 67 78
61 69 80
60 68 79
61 69 79
61 69 80
60 69 80
60 68 79
60 69 80
60 68 79
59 66 77
60 68 79
59 68 78
59 67 78
60 68 79
61 69 80
59 67 77
61 69 80
59 67 78
60 69 80
60 69 80
59 68 78
60 69 80
60 67 78
61 69 80
61 69 80
61 70 80
59 68 78
59 68 78
62 70 80
60 68 78
61 69 80
60 68 78
61 69 80
60 68 80
59 68 79
59 67 78
60 68 78
59 67 78
60 68 79
61 69 79
59 68 78
56 64 74
60 68 78
60 68 78
60 69 80
60 68 79
58 66 77
61 69 80
58 67 78
59 67 78
59 67 78
60 68 78
59 67 78
60 68 79
61 69 80
60 68 78
61 69 79
60 68 79
61 69 80
60 68 79
60 68 79
60 68 79
60 68 78
59 68 78
59 67 78
57 65 76
61 69 80
61 69 79
60 68 79
61 69 79
57 66 76
60 68 78
61 69 80
60 68 78
60 68 79
61 69 80
61 69 79
58 66 77
60 68 78
61 69 80
59 67 77
60 68 79
60 69 80
61 69 80
57 65 75
61 69 79
60 68 79
59 67 78
60 68 78
60 68 79
61 69 79
61 69 80
59 68 78
59 67 77
60 68 78
60 68 78
62 70 80
60 68 80
58 66 76
60 68 79
58 67 78
58 66 76
60 68 79
60 69 80
61 69 80
61 69 80
60 67 78
60 68 79
60 68 79
61 69 80
61 69 80
62 70 80
61 69 80
60 69 80
59 68 79
60 68 79
60 68 78
60 68 78
60 68 80
60 68 79
61 69 80
61 70 80
60 68 79
60 68 79
61 69 80
61 69 80
57 65 76
60 68 79
61 69 80
60 68 79
59 67 78
59 67 78
60 69 80
61 70 80
60 68 79
60 68 79
60 68 78
60 68 78
60 69 80
58 66 78
61 69 79
61 69 80
60 69 80
60 68 79
61 69 80
61 70 80
59 68 78
60 68 78
61 69 80
60 68 79
62 70 80
62 70 80
61 69 79
61 70 80
61 69 80
60 68 79
61 70 80
61 69 80
60 68 79
62 70 80
60 68 79
58 66 77
60 68 79
61 69 80
61 70 80
60 68 80
60 68 79
60 69 80
61 69 79
61 69 80
59 67 77
60 68 79
61 69 79
61 70 80
59 67 78
60 69 80
61 69 80
60 68 78
61 70 80
60 67 78
61 69 80
61 69 80
60 68 79
60 69 80
60 69 80
60 69 80
61 70 80
61 69 80
61 70 80
60 68 78
62 70 80
61 69 79
61 69 80
61 69 79
60 69 80
62 70 80
60 69 80
60 68 79
61 70 80
61 69 80
61 69 80
62 70 80
60 68 78
61 70 80
59 68 79
59 68 78
62 70 80
60 68 79
62 70 80
61 70 80
62 70 80
61 69 80
60 69 80
61 69 80
61 69 79
60 69 80
61 70 80
61 69 80
59 68 78
61 69 80
60 69 80
60 69 80
61 69 80
62 70 80
60 69 80
60 68 79
61 69 80
60 69 80
61 69 80
61 70 80
61 70 80
61 70 80
61 69 80
61 69 79
61 70 80
61 69 80
61 69 80
61 70 80
61 69 80
61 69 80
61 69 79
61 69 80
62 70 80
61 69 79
62 70 80
62 70 80
61 70 80
61 69 80
62 70 80
60 69 80
61 69 80
62 70 80
61 69 80
61 69 80
61 69 80
61 69 80
61 69 80
62 69 80
61 70 80
61 69 80
60 69 80
60 69 80
61 69 80
61 69 80
62 70 80
61 69 80
61 70 80
61 69 80
61 69 80
61 70 80
61 69 80
62 70 80
61 69 80
61 69 80
59 68 78
60 69 80
61 70 80
60 69 80
62 70 80
61 69 80
61 69 80
61 70 80
61 70 80
61 69 80
61 69 80
61 69 80
61 69 80
61 69 80
61 69 80
61 69 80
61 69 80
61 69 80
61 69 80
61 69 80
61 70 80
60 69 80
61 69 80
61 70 80
61 69 80
61 69 80
60 69 80
61 69 80
62 70 80
62 70 80
61 69 80
61 69 80
61 69 80
61 70 80
60 69 80
62 70 80
61 69 80
61 70 80
61 69 80
62 70 80
61 69 80
61 70 80
60 68 79
61 69 80
61 69 80
62 70 80
60 69 80
61 69 80
60 68 78
61 69 80
60 69 80
62 70 80
60 68 79
60 69 80
62 70 80
62 70 80
61 69 80
59 68 78
61 69 80
61 70 80
60 69 80
61 70 80
62 70 80
61 69 80
62 70 80
60 69 80
60 69 80
60 69 80
61 70 80
60 68 79
61 69 80
60 69 80
60 69 80
61 69 80
61 70 80
61 69 80
60 68 79
59 67 78
62 70 80
61 69 79
62 70 80
60 68 79
61 69 79
60 68 79
61 69 80
60 69 80
61 69 80
58 67 78
60 69 80
61 69 80
61 69 80
61 69 80
61 69 80
60 69 79
58 66 76
59 67 78
61 69 80
61 69 80
61 69 80
59 67 78
60 69 80
61 69 80
61 69 80
60 68 78
61 69 80
60 68 78
60 68 79
61 69 80
60 68 79
61 69 80
60 68 79
59 68 78
60 68 78
60 68 78
61 69 80
61 69 79
61 69 80
60 69 80
61 69 80
60 68 79
60 68 79
61 70 80
61 69 79
60 68 78
61 69 80
60 69 80
60 68 79
60 68 79
60 67 78
61 69 80
59 68 79
58 65 75
61 70 80
61 69 80
60 69 79
60 68 79
62 70 80
59 67 78
61 69 80
59 68 78
59 66 76
59 67 78
60 68 79
58 67 78
59 67 78
59 68 78
61 69 80
60 68 78
59 66 76
61 69 80
60 68 79
61 69 80
59 68 79
60 69 80
61 69 80
60 68 79
62 70 80
60 68 79
60 68 79
61 69 80
61 69 80
61 69 80
61 70 80
59 68 78
59 67 78
58 66 76
60 68 79
58 66 77
61 69 80
60 68 78
61 69 80
59 68 78
58 67 78
61 69 80
60 68 78
60 68 78
60 69 80
57 65 75
60 68 78
58 66 76
59 68 78
61 69 79
58 66 77
60 68 79
60 68 79
60 68 78
60 68 79
60 68 78
61 69 80
60 69 79
59 67 78
59 67 78
59 67 77
59 68 78
60 68 78
60 68 78
61 69 80
59 67 77
57 65 76
61 69 80
57 65 75
60 68 78
60 69 80
61 69 80
60 68 79
60 69 80
60 68 78
59 67 77
58 67 78
60 68 79
59 67 78
61 69 79
61 69 80
60 68 78
61 69 80
61 69 79
60 68 78
60 68 79
58 66 76
60 68 78
61 69 80
61 70 80
61 68 79
61 69 79
59 68 78
62 70 80
61 69 80
58 66 77
60 69 80
60 68 78
60 68 79
60 68 78
60 69 79
61 69 80
61 69 80
62 70 80
59 67 78
59 67 78
56 64 75
61 69 80
57 66 76
60 69 80
60 68 78
60 68 78
62 70 80
60 68 79
60 68 78
60 69 80
59 67 77
60 68 79
59 67 78
59 67 77
61 69 80
60 68 78
60 68 79
60 69 80
59 67 78
63 71 80
60 68 79
61 69 80
61 69 80
60 69 80
61 69 80
60 68 80
59 67 78
60 68 79
62 70 80
60 68 79
60 69 80
61 70 80
60 69 80
60 68 79
59 67 78
60 68 79
60 69 80
61 70 80
60 68 78
60 68 79
60 68 79
60 68 80
60 68 78
60 69 80
60 69 80
60 69 80
60 69 80
60 68 79
61 69 78
62 70 80
60 68 79
59 68 78
60 68 79
61 69 79
60 68 78
61 70 80
61 70 80
59 68 78
61 70 80
61 69 80
61 69 80
61 70 80
59 68 78
62 70 80
62 70 80
61 70 80
59 67 78
61 69 80
60 69 80
61 70 80
60 68 78
61 69 80
61 69 80
61 69 80
61 70 80
61 69 80
60 68 79
60 68 79
60 68 79
61 70 80
61 69 80
60 69 80
60 68 78
61 69 79
59 68 78
60 68 79
61 69 80
60 69 80
61 70 80
61 69 80
62 70 80
61 70 80
61 69 80
59 68 79
60 68 79
61 70 80
61 69 80
61 69 80
61 69 80
60 69 80
60 68 79
60 69 80
61 69 80
62 70 80
61 68 78
60 69 80
62 69 80
62 70 80
61 69 80
61 69 80
61 69 79
61 69 80
62 70 80
61 69 80
61 69 79
61 70 80
61 69 80
62 70 80
62 69 80
60 69 80
61 69 80
61 69 80
61 69 80
60 69 79
61 70 80
62 70 80
61 69 80
61 70 80
61 69 80
61 69 80
59 68 79
60 68 79
61 70 80
61 69 80
61 70 80
61 70 80
61 69 80
61 69 80
60 69 80
62 69 80
62 70 80
61 70 80
61 70 80
61 69 80
61 69 80
61 69 80
62 70 80
61 69 80
61 69 80
61 69 80
61 69 80
61 69 80
62 70 80
61 69 80
61 70 80
61 69 80
60 68 79
61 69 80
62 70 80
60 69 80
62 70 80
60 69 80
61 69 80
62 70 80
61 69 80
61 69 80
61 69 80
59 68 80
62 70 80
60 68 79
61 69 80
61 69 80
60 68 80
62 70 80
60 69 80
61 69 80
61 69 80
60 69 80
60 69 80
61 70 80
61 69 80
62 70 80
61 69 80
61 69 80
62 70 80
60 69 80
62 70 80
61 69 80
60 69 80
61 69 79
61 69 80
61 69 80
61 69 80
61 69 80
61 69 80
61 69 80
61 69 80
61 69 80
61 69 80
60 69 80
61 70 80
61 69 80
62 70 80
61 70 80
59 68 79
61 69 80
61 69 80
61 70 80
61 69 80
61 70 80
61 69 80
61 69 80
61 69 80
61 70 80
60 69 80
62 69 80
60 68 78
61 69 80
61 69 80
62 70 80
60 68 79
61 70 80
59 68 79
61 69 80
61 69 80
61 69 80
61 69 80
60 69 79
61 70 80
60 68 79
60 69 80
61 69 79
60 69 80
60 68 79
60 69 80
60 69 80
61 69 80
60 69 80
60 68 79
60 68 79
61 69 80
59 68 78
60 68 79
60 68 79
61 70 80
61 69 80
60 68 78
59 67 77
62 70 80
60 69 80
60 68 79
59 68 78
60 69 80
61 69 80
60 68 78
60 69 80
60 68 79
61 69 79
60 69 80
61 70 80
61 69 80
58 67 78
61 69 79
61 70 80
60 69 80
61 70 80
60 68 79
61 69 79
62 70 80
60 69 80
61 69 80
62 70 80
60 69 80
61 69 80
60 68 79
59 68 78
62 70 80
61 69 80
60 68 78
60 68 79
60 68 79
58 67 78
61 69 80
60 68 78
60 68 79
61 70 80
60 69 80
59 68 78
59 68 78
60 68 79
60 68 78
60 68 79
61 69 80
60 69 80
59 67 78
61 68 78
60 68 79
60 68 79
61 70 80
61 69 79
60 68 79
60 69 80
60 68 79
61 69 80
60 68 79
60 67 78
58 66 76
60 68 79
61 69 80
59 68 78
60 68 78
60 68 79
60 68 78
60 69 80
59 67 77
60 68 79
61 69 79
61 70 80
59 67 78
61 69 80
60 69 80
61 69 79
60 69 80
60 68 79
59 68 78
61 69 80
60 69 80
61 69 80
60 68 79
60 69 80
60 69 80
59 67 78
58 66 76
60 68 79
60 68 79
61 69 80
60 68 79
61 69 80
60 69 80
60 68 78
60 69 80
60 68 78
60 69 80
59 67 78
61 69 80
60 68 79
61 69 79
60 68 79
59 68 78
61 69 80
61 70 80
60 67 78
58 66 76
60 68 78
58 66 76
61 68 78
60 68 79
61 69 78
61 69 80
60 69 79
59 67 78
61 69 80
59 67 78
61 69 80
58 66 76
60 68 80
60 69 79
60 68 78
60 69 80
60 68 78
59 67 78
59 67 78
61 69 80
60 68 78
60 68 79
58 66 77
59 67 77
57 65 75
60 68 78
61 69 80
60 68 78
60 68 79
60 68 78
59 66 77
60 68 79
61 69 79
59 68 79
60 68 79
60 68 78
62 70 80
60 69 80
60 68 78
59 67 78
61 69 80
60 68 79
61 69 80
60 68 78
60 68 79
58 67 78
60 68 78
61 69 80
59 67 78
60 67 78
60 68 78
61 69 80
61 70 80
57 65 75
60 68 79
61 69 80
61 69 80
60 69 80
59 67 78
60 68 79
61 69 79
60 68 78
59 68 78
61 69 80
59 67 78
61 70 80
61 69 80
61 69 79
60 69 80
59 67 77
61 69 80
59 67 78
58 66 77
62 69 80
59 68 79
61 69 80
61 69 80
60 69 80
60 68 79
61 69 80
61 69 80
61 70 80
59 67 78
61 69 80
58 66 77
61 70 80
60 68 79
61 69 79
61 69 80
61 69 80
62 70 80
61 69 80
60 68 79
60 69 80
60 68 79
61 69 80
60 68 79
60 68 79
61 69 80
60 69 80
62 70 80
59 68 78
61 69 80
60 68 79
60 68 79
61 70 80
60 69 80
61 69 80
60 69 80
60 68 79
61 70 80
59 67 78
60 68 79
60 68 79
60 68 79
60 68 79
60 68 79
61 69 80
61 69 80
60 68 79
60 69 80
60 68 79
61 69 80
61 69 79
60 69 80
60 68 78
61 69 80
62 70 80
61 69 80
61 69 80
61 69 80
62 70 80
61 70 80
61 70 80
61 69 80
61 69 80
62 69 80
61 69 80
61 70 80
61 69 80
62 70 80
60 69 80
62 69 80
61 69 80
60 69 80
62 70 80
61 69 80
61 70 80
59 68 78
60 68 79
60 69 80
61 69 80
60 69 80
62 70 80
62 70 80
60 68 79
61 70 80
61 69 80
61 69 80
60 69 80
60 69 80
61 69 80
60 69 80
61 70 80
61 70 80
62 70 80
61 69 80
62 70 80
61 70 80
61 70 80
61 70 80
61 69 80
61 69 80
61 69 80
60 69 80
61 69 79
61 70 80
61 69 80
61 69 80
61 69 80
61 69 80
61 69 80
60 69 80
60 69 80
60 69 80
62 70 80
61 70 80
60 68 79
61 69 80
62 70 80
62 70 80
62 70 80
62 70 80
60 69 80
62 70 80
61 69 80
60 68 79
60 68 79
60 68 79
61 69 80
62 70 80
60 69 80
61 69 80
61 70 80
61 70 80
61 69 80
61 69 80
61 69 79
61 70 80
62 70 80
61 69 80
59 68 79
61 69 79
61 69 80
62 70 80
61 69 80
61 69 80
62 70 80
61 69 80
61 69 80
61 70 80
61 69 79
61 69 80
61 69 80
62 70 80
60 69 80
61 69 80
61 70 80
61 70 80
61 69 80
61 70 80
60 68 79
60 69 80
61 69 80
61 69 80
61 69 80
61 70 80
61 69 80
61 70 80
61 70 80
60 69 80
61 70 80
61 69 80
60 69 80
60 69 80
61 70 80
61 70 80
61 69 80
61 69 80
62 70 80
60 68 79
61 69 80
61 69 80
61 69 80
61 70 80
61 70 80
60 68 78
61 69 80
61 69 79
61 69 80
61 70 80
61 70 80
60 68 79
62 70 80
60 68 79
60 68 79
61 69 80
61 69 80
60 69 80
61 69 80
61 70 80
61 69 80
60 68 78
60 68 79
60 68 79
60 68 79
61 69 80
59 68 78
61 70 80
62 69 80
62 70 80
61 70 80
59 67 78
61 69 80
61 69 79
60 69 80
61 70 80
60 68 79
61 69 80
60 68 79
61 69 80
60 68 78
61 69 80
62 70 80
62 70 80
61 70 80
60 69 80
60 69 80
60 69 80
60 69 80
61 69 80
61 69 80
60 68 78
60 68 79
60 69 79
59 67 78
60 69 80
62 70 80
61 69 80
60 68 79
61 69 79
58 67 78
61 69 80
60 68 79
61 69 80
58 66 77
61 69 80
61 69 80
61 69 80
60 68 79
60 68 79
62 70 80
61 70 80
60 68 79
62 70 80
61 69 80
60 68 79
59 67 77
61 70 80
61 69 80
61 70 80
61 70 80
60 68 79
60 68 79
61 69 80
61 70 80
59 68 79
58 66 77
61 69 80
61 69 79
61 69 80
59 67 78
60 68 79
61 69 80
61 69 80
60 69 80
60 68 79
61 70 80
61 69 80
59 67 77
61 69 80
60 68 79
61 70 80
61 69 80
61 69 80
61 69 80
60 68 79
58 66 77
60 68 78
60 69 80
60 68 79
59 67 78
59 67 78
58 67 78
59 67 78
61 69 80
59 67 77
60 68 79
60 68 79
60 68 78
61 69 80
58 66 77
58 66 76
60 68 79
59 67 78
61 69 79
60 68 79
60 68 79
60 68 79
62 69 80
60 68 79
59 67 77
59 67 78
60 68 78
60 69 80
59 67 78
61 69 80
60 68 78
61 70 80
59 67 78
61 70 80
58 66 77
60 68 79
59 67 78
60 68 78
60 68 78
58 67 78
59 67 78
59 67 78
61 69 79
61 69 80
60 68 79
59 67 77
60 69 80
60 69 80
61 69 80
60 69 79
58 67 78
60 68 79
58 66 76
60 68 80
60 69 80
59 67 78
60 68 79
60 67 78
61 69 79
57 65 76
61 69 80
60 68 79
61 69 80
60 68 78
60 69 79
60 68 78
61 69 80
59 68 79
62 70 80
60 68 79
61 69 80
59 67 78
59 67 77
60 69 80
59 67 78
61 69 80
60 69 80
60 68 79
60 68 79
59 68 78
60 68 78
61 69 80
61 69 80
60 68 79
60 69 80
61 69 80
59 68 78
61 69 80
58 67 78
61 69 80
60 68 79
58 66 76
58 66 77
60 68 79
60 68 79
59 67 78
59 67 78
61 69 80
61 69 80
60 68 79
60 68 78
60 68 78
60 69 80
61 69 80
60 69 80
60 68 78
59 67 78
60 68 79
61 69 80
61 69 79
61 69 80
60 69 80
59 67 78
60 68 79
60 68 78
62 69 80
61 69 80
61 69 80
60 69 80
61 69 80
61 69 79
60 68 79
61 69 80
61 69 80
61 69 80
61 69 80
61 69 79
59 67 78
61 69 80
59 68 78
60 69 80
62 70 80
61 69 80
61 69 80
61 69 80
59 68 79
61 69 80
60 68 80
60 68 79
59 67 77
60 68 79
60 68 78
62 70 80
61 69 80
60 68 78
61 70 80
60 68 79
61 69 80
59 67 78
61 69 80
61 69 80
61 69 80
60 69 80
61 69 79
61 69 79
60 68 78
61 69 80
60 68 78
61 69 80
60 68 79
61 69 80
62 70 80
61 69 80
60 68 79
61 70 80
61 69 80
60 68 79
61 69 80
62 69 80
62 70 80
62 70 80
60 68 78
61 69 80
61 69 80
61 69 80
61 70 80
62 70 80
61 69 80
60 69 80
60 68 79
61 69 80
60 68 78
61 70 80
61 69 80
61 69 80
61 69 80
61 69 79
61 69 80
61 69 80
60 69 80
60 68 79
62 70 80
61 70 80
60 68 79
60 68 79
62 70 80
60 69 80
62 70 80
62 70 80
61 70 80
61 70 80
61 69 80
61 69 80
60 69 80
60 68 79
61 69 80
62 70 80
61 70 80
61 69 80
59 68 79
60 69 80
60 68 79
61 69 80
61 70 80
62 70 80
60 68 79
61 69 80
61 69 80
62 70 80
61 70 80
59 68 78
61 69 80
61 70 80
61 69 80
61 70 80
61 69 80
61 70 80
62 70 80
61 69 79
61 69 80
59 67 78
61 70 80
60 68 79
61 69 80
61 70 80
61 70 80
60 68 79
61 70 80
61 69 80
62 70 80
62 70 80
61 70 80
61 70 80
61 69 80
61 70 80
62 70 80
61 70 80
61 70 80
62 70 80
61 69 80
61 69 80
62 70 80
62 70 80
61 69 80
60 69 80
61 69 80
60 69 80
61 69 80
60 69 80
61 70 80
62 70 80
60 69 80
61 70 80
61 69 79
61 69 80
61 69 80
60 68 79
61 69 80
60 68 79
60 68 79
60 69 80
60 68 80
60 68 79
62 70 80
62 70 80
61 69 80
61 69 80
62 70 80
62 70 80
61 69 80
60 69 80
61 69 80
61 69 80
60 69 80
61 70 80
61 69 80
60 68 78
60 69 80
61 69 80
62 70 80
62 70 80
61 70 80
61 69 80
62 70 80
61 69 80
61 69 80
61 70 80
60 69 80
62 70 80
62 69 80
61 69 80
61 69 80
61 69 80
61 69 80
61 69 80
61 70 80
61 70 80
61 70 80
61 70 80
60 69 80
60 69 80
61 69 80
61 69 80
61 69 79
60 69 80
61 69 80
61 69 80
61 69 80
60 69 80
60 68 78
60 69 80
61 69 80
61 69 80
59 68 78
62 70 80
61 69 80
60 69 80
62 70 80
61 69 80
61 69 80
60 69 80
61 69 80
61 70 80
60 69 80
61 69 80
61 69 80
61 69 80
62 70 80
61 70 80
60 68 79
60 68 79
60 68 79
60 69 79
61 69 80
61 69 79
61 69 80
61 69 80
61 69 80
60 69 80
60 69 79
61 70 80
60 68 79
61 69 79
60 68 79
60 67 78
60 68 79
61 69 80
61 69 79
61 69 80
60 68 79
61 69 80
60 69 80
60 69 80
62 70 80
61 69 80
61 69 80
60 68 79
59 67 78
61 69 80
61 69 79
59 68 78
60 68 80
61 69 80
61 69 80
61 69 80
58 66 77
61 69 80
60 69 80
58 67 78
61 69 80
61 69 80
61 69 80
59 67 77
60 68 78
59 68 79
60 69 80
59 68 79
60 69 80
61 69 80
61 69 80
59 67 77
59 68 79
60 68 79
61 69 80
60 68 79
60 68 78
60 68 79
58 67 78
61 69 80
58 66 77
59 68 78
58 66 76
60 68 79
60 69 80
60 68 78
60 68 79
60 67 78
61 69 80
60 67 78
60 69 80
60 68 79
61 69 80
60 68 78
61 69 80
61 70 80
59 67 78
61 69 79
61 70 80
60 68 78
60 67 78
62 70 80
59 68 79
60 68 79
59 66 77
59 67 78
61 69 80
59 67 77
59 68 78
59 67 77
61 69 80
61 69 80
60 68 78
62 70 80
60 68 78
61 69 80
59 67 78
59 68 78
60 68 79
60 68 78
61 69 80
60 68 79
61 69 80
60 68 78
59 67 78
58 66 76
59 68 78
61 69 80
58 66 76
61 69 80
59 67 78
59 67 78
60 69 80
60 68 78
60 68 79
59 67 77
59 67 78
60 67 78
59 67 78
59 67 78
60 68 79
61 69 80
60 68 78
61 69 80
60 68 79
60 68 79
58 67 77
60 68 78
60 68 79
61 69 80
61 69 80
58 65 75
61 69 80
61 69 80
58 67 77
61 70 80
60 69 80
60 69 80
61 69 79
60 68 78
61 70 80
59 67 78
60 69 80
58 66 77
59 68 79
62 70 80
59 67 78
60 68 78
62 69 80
61 69 80
58 66 77
60 68 79
60 68 79
61 69 80
59 67 78
60 68 79
60 69 80
60 68 79
60 68 79
61 69 79
61 69 80
59 68 78
61 69 79
59 67 78
61 69 80
61 69 80
61 70 80
60 69 80
61 69 80
60 69 80
60 67 77
61 70 80
59 67 78
61 69 80
61 69 80
61 69 80
61 69 80
60 68 78
61 69 80
59 67 78
60 68 79
62 70 80
63 70 80
59 67 78
61 69 78
61 69 80
60 68 79
60 68 79
61 69 80
60 68 79
60 69 80
61 69 80
60 68 78
61 69 79
60 69 80
62 69 80
60 69 80
60 69 79
60 68 78
61 69 79
61 69 80
60 69 80
61 70 80
60 69 80
61 69 80
60 68 79
61 69 79
61 69 80
60 68 79
60 68 79
60 69 80
61 69 79
61 70 80
60 68 79
60 68 79
60 68 79
61 69 80
61 69 80
61 69 80
61 69 80
60 69 80
60 68 79
60 68 78
61 69 79
60 68 79
60 69 80
61 70 80
61 69 79
61 69 80
61 69 80
61 69 80
59 68 78
61 69 79
62 70 80
61 69 80
60 69 80
62 70 80
61 69 80
60 68 79
60 68 79
61 69 80
62 70 80
62 70 80
60 68 79
62 70 80
62 70 80
61 69 80
61 69 80
61 70 80
61 70 80
61 69 80
61 69 80
62 70 80
61 69 80
60 69 80
61 69 80
60 69 80
61 69 80
61 69 80
60 69 80
60 69 80
60 68 79
60 69 80
61 69 80
60 68 79
62 70 80
61 69 80
61 69 80
60 68 80
61 70 80
62 70 80
61 70 80
61 70 80
61 69 80
62 70 80
61 69 80
62 70 80
61 69 80
61 69 80
61 69 80
62 70 80
60 68 79
61 69 80
60 69 80
61 70 80
62 70 80
62 70 80
61 69 80
61 69 80
60 68 79
61 70 80
61 69 80
61 69 80
61 69 80
61 69 79
61 69 80
60 68 79
62 70 80
60 69 80
60 69 80
60 69 80
61 70 80
61 69 80
61 70 80
61 70 80
61 69 80
61 70 80
61 70 80
61 70 80
61 69 80
61 70 80
61 69 80
61 69 80
62 70 80
61 70 80
61 70 80
60 69 80
60 69 80
62 70 80
61 69 80
60 68 79
61 70 80
61 70 80
60 69 80
62 70 80
61 69 80
61 70 80
61 69 80
59 68 79
61 70 80
61 69 80
61 69 80
60 69 79
61 70 80
60 68 79
62 70 80
60 69 80
61 69 80
61 69 80
60 69 80
60 68 79
61 69 80
61 69 80
60 68 79
61 70 80
60 68 79
61 69 80
61 69 80
62 70 80
61 69 80
60 68 80
62 70 80
60 68 79
61 69 80
61 70 80
60 68 79
62 70 80
61 69 80
62 70 80
61 69 79
61 69 80
61 69 80
62 70 80
60 68 79
61 69 80
61 70 80
61 70 80
61 69 80
60 69 80
62 70 80
61 70 80
61 69 80
62 70 80
60 69 79
61 70 80
61 69 80
62 70 80
60 69 80
60 69 80
62 70 80
61 69 80
61 70 80
62 70 80
60 69 80
62 69 80
61 69 80
62 70 80
61 69 80
60 68 79
61 69 80
62 70 80
61 69 79
61 69 80
61 69 79
61 69 79
61 69 79
62 70 80
60 68 79
62 70 80
61 69 80
59 67 77
61 69 80
61 70 80
62 70 80
61 69 80
61 69 80
61 69 80
62 70 80
60 68 78
61 68 79
59 67 78
61 68 78
62 70 80
60 68 79
60 68 78
61 69 80
61 69 79
60 68 79
62 70 80
61 69 80
60 69 80
60 68 79
61 69 80
60 68 79
61 69 79
60 69 80
61 69 80
61 69 80
61 69 80
60 68 79
61 69 80
60 68 79
61 69 80
58 66 77
60 68 79
61 69 80
60 69 80
59 68 78
60 68 79
61 70 80
59 67 78
59 67 78
60 68 79
59 68 78
61 69 80
61 69 79
61 69 80
61 69 80
59 68 79
59 68 78
60 68 78
58 67 78
59 67 78
61 69 80
59 67 78
59 67 78
61 69 80
61 69 79
60 68 79
61 69 80
60 69 80
61 69 80
60 68 78
57 66 76
60 69 80
62 70 80
61 70 80
60 68 78
60 68 78
61 70 80
60 68 79
61 69 80
61 69 79
61 70 80
61 69 80
60 68 79
60 68 79
60 68 79
60 68 78
59 67 77
60 67 78
59 67 78
58 67 78
59 68 78
59 67 78
59 67 78
60 68 78
60 69 80
61 69 80
60 68 79
59 67 78
61 69 80
59 67 78
59 67 77
59 67 78
60 69 79
59 67 78
58 65 76
60 69 80
60 68 78
58 66 77
62 70 80
58 66 76
59 67 78
57 65 76
60 68 79
60 69 80
57 66 76
59 67 78
61 69 79
61 70 80
59 67 78
60 67 78
60 68 79
61 69 79
59 67 78
60 68 79
60 68 79
58 67 78
58 66 77
59 68 78
61 69 80
60 68 78
59 67 78
61 70 80
60 69 80
60 68 78
60 69 80
60 68 78
60 68 78
61 69 80
61 69 80
58 66 77
59 68 78
60 68 79
59 67 78
58 66 78
60 69 80
60 69 80
60 69 80
60 69 80
60 69 80
60 68 79
58 66 77
60 69 80
59 67 78
58 66 77
59 68 78
59 67 78
59 68 78
61 70 80
59 68 79
61 69 80
59 67 77
59 67 78
60 68 79
61 69 80
59 67 78
60 68 78
58 67 78
59 68 79
60 68 79
61 69 79
61 69 80
61 69 80
60 68 79
61 69 80
61 69 80
61 69 80
60 68 78
61 69 80
60 68 79
60 68 78
61 68 78
60 69 80
60 69 80
61 69 80
59 68 78
60 69 80
61 70 80
61 70 80
60 68 79
59 67 78
60 69 80
61 69 80
60 68 79
61 70 80
61 69 80
60 68 78
61 69 80
61 69 80
61 69 80
61 70 80
59 68 78
61 70 80
61 69 80
60 69 80
60 69 80
60 68 78
61 69 80
60 68 79
60 69 80
60 69 80
60 68 79
62 70 80
61 69 80
61 69 80
61 69 80
61 69 80
61 69 80
61 69 79
61 70 80
62 70 80
61 69 80
60 69 80
59 67 78
61 69 80
61 69 80
60 68 78
61 69 80
59 67 78
61 69 80
61 69 79
60 69 80
62 70 80
60 68 79
60 68 80
61 70 80
62 70 80
61 69 80
61 69 79
61 70 80
60 69 80
62 70 80
61 69 80
62 70 80
60 69 80
61 69 80
61 70 80
61 69 80
61 70 80
61 69 80
61 69 80
60 68 79
62 70 80
60 69 80
61 69 80
61 70 80
61 69 80
61 69 80
61 69 80
61 70 80
62 69 80
61 69 80
61 69 79
62 70 80
61 69 80
60 68 79
60 69 80
61 70 80
62 70 80
61 70 80
62 70 80
60 69 80
61 70 80
61 69 80
61 70 80
61 69 80
61 69 80
61 69 80
61 69 80
60 69 80
61 70 80
62 70 80
61 69 80
60 68 79
62 70 80
61 69 80
61 69 80
62 70 80
62 70 80
61 69 80
60 68 78
61 69 80
61 69 79
60 69 80
62 70 80
61 69 80
61 69 80
62 70 80
61 70 80
61 69 80
62 70 80
61 69 80
61 69 80
61 70 80
60 69 80
61 69 80
61 69 79
60 69 80
61 70 80
62 70 80
62 70 80
61 69 80
61 69 80
62 70 80
62 70 80
61 69 80
60 69 80
62 70 80
61 69 80
60 69 80
60 68 79
60 69 80
61 70 80
62 70 80
61 69 80
62 70 80
61 69 80
62 70 80
60 68 79
61 69 80
61 69 80
62 70 80
61 69 80
61 69 80
62 70 80
61 70 80
61 69 80
61 69 80
60 68 79
61 69 80
61 70 80
61 70 80
61 70 80
60 68 79
61 69 80
61 69 79
61 70 80
61 70 80
61 69 80
61 69 80
60 69 80
61 69 80
61 70 80
60 68 79
61 70 80
62 70 80
60 68 79
60 69 80
61 69 80
61 69 80
60 68 79
61 70 80
60 69 80
62 70 80
61 69 80
62 70 80
61 69 80
61 69 80
61 69 80
61 69 80
60 68 79
61 70 80
61 69 80
61 69 80
60 68 78
60 68 79
61 69 80
61 69 80
60 69 80
61 69 80
59 67 77
61 69 80
61 69 79
60 69 80
62 70 80
60 68 79
61 69 80
60 68 79
61 69 80
61 70 80
61 69 80
61 70 80
61 69 80
61 69 80
62 70 80
61 69 80
61 69 80
61 69 79
60 68 79
59 68 78
60 69 80
59 67 78
61 69 80
61 69 79
60 69 80
61 69 80
59 67 77
61 70 80
61 69 80
60 68 79
58 66 76
61 69 79
59 67 78
61 69 80
60 69 80
62 70 80
60 68 79
59 66 77
61 69 80
61 69 79
61 69 80
61 69 80
62 70 80
60 68 78
62 70 80
60 69 80
59 67 78
61 69 80
61 69 80
61 70 80
61 69 80
61 70 80
60 68 78
61 69 80
62 69 80
61 70 80
59 67 78
61 69 80
59 67 78
60 69 80
61 69 80
61 69 80
60 68 79
61 69 80
59 67 78
60 68 79
61 69 80
60 68 79
61 69 79
61 69 79
60 68 79
60 67 78
61 70 80
60 69 80
61 69 80
61 69 80
60 69 80
59 68 79
60 68 78
61 69 79
60 69 80
60 68 78
59 68 78
60 68 78
60 68 79
60 68 79
60 68 79
61 69 80
60 68 78
60 68 79
61 69 80
61 69 80
61 69 80
60 68 78
59 67 78
60 69 80
61 69 80
61 69 79
61 70 80
61 69 80
60 68 78
59 67 78
60 68 79
60 69 79
60 68 79
61 69 80
59 67 78
61 69 79
60 68 78
61 69 80
61 69 79
62 70 80
60 68 79
58 66 77
60 68 78
60 68 79
60 69 80
61 69 80
61 69 80
60 68 79
61 69 80
59 67 78
60 68 78
56 64 74
60 68 79
61 69 80
59 67 77
60 69 80
61 69 79
60 69 80
59 67 78
60 69 80
60 68 79
60 68 79
60 68 79
60 69 80
60 69 80
61 69 80
58 66 76
59 67 77
59 68 78
61 69 80
59 67 78
62 69 80
59 67 78
59 67 78
61 69 80
59 68 79
60 69 80
62 70 80
59 68 79
58 67 78
60 69 80
61 69 80
60 68 79
59 67 78
60 68 78
60 68 79
60 68 79
59 67 78
61 69 80
60 68 78
60 68 78
60 68 78
57 65 76
58 66 77
61 69 79
58 67 78
59 67 78
60 69 80
60 68 79
61 69 79
61 69 79
58 67 78
59 68 78
60 68 78
59 68 79
60 69 79
60 68 79
61 69 79
59 68 79
59 67 78
60 69 79
60 68 79
59 68 79
60 68 78
60 68 79
59 68 78
62 70 80
60 68 78
60 69 80
60 68 78
60 68 79
60 67 78
60 68 79
61 69 80
60 68 79
60 68 79
61 69 80
61 69 80
61 69 80
59 68 78
60 68 78
61 69 80
60 69 80
60 68 79
61 70 80
59 68 79
60 68 79
60 68 78
60 68 78
61 69 80
60 69 79
60 68 79
60 68 78
60 68 79
62 70 80
60 68 79
61 69 79
60 68 78
61 69 80
61 69 79
61 69 80
61 69 80
61 70 80
60 68 79
59 68 78
60 68 79
61 69 80
61 69 80
60 68 79
62 70 80
59 68 78
59 68 78
60 68 79
59 68 78
62 70 80
61 69 80
61 70 80
61 69 80
59 68 78
60 69 80
62 70 80
60 69 80
62 70 80
60 68 79
60 69 79
61 69 80
60 68 79
61 69 79
61 69 80
60 68 79
58 66 76
60 69 80
61 69 80
61 69 80
61 69 80
61 69 80
61 69 79
60 69 80
61 69 79
61 69 80
61 69 80
61 69 80
61 70 80
61 69 80
60 69 80
61 69 80
60 68 79
60 69 80
61 69 80
61 69 80
60 68 79
60 68 78
60 68 78
61 69 80
61 69 80
60 68 79
61 69 80
61 70 80
61 69 80
60 69 80
61 69 80
60 68 79
62 70 80
61 69 79
61 69 80
61 69 80
61 70 80
61 69 80
61 69 79
60 69 80
61 70 80
60 69 80
61 70 80
61 69 80
60 69 80
60 69 80
61 70 80
60 69 80
61 69 80
61 70 80
61 70 80
60 69 80
61 69 80
60 68 79
62 69 80
61 69 80
61 69 80
61 69 80
61 69 80
60 68 79
61 70 80
60 68 79
60 69 80
62 70 80
61 70 80
60 69 80
61 70 80
61 69 80
61 69 80
61 69 80
61 69 79
61 70 80
62 70 80
61 69 80
61 70 80
62 70 80
60 68 79
61 69 80
61 69 80
61 70 80
60 68 79
62 70 80
62 70 80
61 69 80
61 69 80
61 70 80
61 69 80
61 69 80
61 69 80
62 70 80
60 69 80
61 69 80
61 70 80
61 70 80
60 69 80
62 69 80
61 70 80
61 69 80
60 69 80
61 69 80
61 69 80
61 69 80
62 70 80
61 69 80
60 69 80
61 69 80
61 69 80
60 69 80
62 70 80
61 69 80
62 70 80
62 70 80
61 69 80
61 69 80
61 70 80
61 69 80
61 69 80
60 68 79
61 69 80
60 68 78
62 70 80
60 69 80
61 69 79
62 70 80
61 69 80
60 68 79
62 70 80
61 69 80
61 69 80
61 70 80
61 69 80
61 69 80
60 69 80
60 69 80
61 69 80
61 69 80
61 69 80
60 68 78
60 69 80
62 70 80
61 69 80
61 69 80
60 69 80
61 69 80
62 70 80
61 69 80
61 69 80
60 68 80
61 70 80
59 67 78
61 69 80
61 69 80
62 70 80
60 68 79
61 69 80
61 70 80
61 69 80
61 69 80
61 69 80
62 69 80
62 70 80
60 69 80
60 68 79
61 69 80
61 69 80
60 69 80
61 69 80
62 70 80
62 70 80
61 69 79
61 69 80
62 70 80
61 70 80
62 70 80
61 70 80
62 69 80
60 68 78
60 69 80
60 69 80
61 69 80
60 69 79
61 69 80
60 68 79
60 68 79
61 69 80
61 70 80
60 68 79
60 68 79
60 69 80
59 67 78
60 69 80
59 68 78
61 69 80
61 69 80
60 68 79
61 69 80
60 68 79
60 68 79
61 69 80
61 69 80
61 70 80
61 70 80
60 68 79
61 69 80
61 69 80
60 68 78
60 68 79
59 67 77
60 69 79
61 70 80
61 69 80
60 68 78
60 68 79
60 68 79
60 68 78
61 69 79
61 69 80
60 68 78
60 68 79
59 67 78
61 69 80
59 67 77
61 69 80
59 68 78
60 68 78
61 70 80
60 69 80
61 69 80
60 69 80
60 69 80
61 69 80
61 69 80
60 68 78
58 67 78
60 69 80
60 68 78
60 69 80
59 67 78
60 68 79
60 68 79
61 69 80
59 67 77
61 69 79
60 69 80
61 69 80
59 67 78
61 69 79
59 67 77
60 68 79
60 68 79
61 69 80
61 69 79
60 68 79
60 68 79
61 69 79
59 67 78
61 70 80
60 68 78
60 68 79
61 69 80
60 68 78
60 68 78
61 69 80
59 68 78
61 69 80
59 67 77
59 67 78
60 68 79
61 69 80
60 68 78
58 65 75
59 66 77
60 68 78
59 68 78
59 67 77
61 69 79
61 69 80
58 66 77
59 67 77
60 68 79
61 69 79
61 69 79
60 68 78
60 68 78
62 70 80
60 68 79
60 68 79
59 68 79
59 68 78
60 68 79
60 68 79
61 69 79
60 68 79
59 67 78
61 69 80
60 69 80
59 67 78
61 69 80
60 69 80
59 67 78
60 68 79
59 67 77
60 68 79
62 70 80
60 68 79
60 68 79
59 67 78
59 67 78
61 69 80
60 68 79
61 69 80
60 68 78
60 67 78
60 68 78
60 69 80
59 66 76
60 68 79
60 69 80
60 68 79
60 68 79
62 70 80
60 69 80
59 67 77
60 69 80
61 69 79
59 67 78
60 68 79
60 68 79
59 68 79
61 69 80
60 68 79
61 69 80
60 68 79
61 69 80
60 68 79
59 67 78
60 68 79
60 68 78
60 69 80
61 69 80
62 70 80
60 68 78
61 69 79
60 68 78
61 70 80
61 69 80
61 69 80
60 68 79
61 69 79
61 69 80
60 68 78
60 68 79
59 67 78
60 68 78
59 67 78
61 69 80
60 68 79
60 68 78
61 69 79
60 69 80
61 70 80
61 69 80
60 68 79
60 68 79
60 68 79
61 69 80
60 68 79
60 69 80
60 68 79
61 69 80
59 68 79
61 69 80
61 69 79
62 70 80
60 68 78
59 68 78
60 68 78
61 69 80
60 68 78
60 68 78
60 68 79
62 69 80
59 67 78
60 69 80
61 69 80
61 69 80
61 70 80
61 70 80
60 68 79
61 69 80
60 68 79
60 68 79
61 70 80
61 69 80
60 68 78
61 69 80
61 69 80
61 70 80
59 68 78
61 69 80
61 69 80
61 69 80
61 69 80
62 69 80
60 68 79
59 68 78
60 68 79
60 69 80
61 69 80
61 69 80
61 69 80
59 67 78
60 68 79
61 69 80
62 70 80
61 69 80
61 69 80
61 69 79
61 69 80
60 68 79
61 69 80
61 70 80
61 69 80
61 70 80
59 67 78
61 69 80
60 69 80
60 68 79
60 68 79
61 69 80
61 69 80
61 69 80
61 69 80
60 69 80
61 70 80
61 69 79
62 70 80
62 70 80
60 68 78
62 70 80
60 69 80
61 70 80
61 69 80
60 69 80
61 69 80
62 70 80
61 69 80
60 69 80
61 70 80
60 69 80
60 69 80
61 70 80
61 69 80
61 69 80
60 68 79
61 69 80
61 69 80
61 70 80
61 69 80
61 69 80
61 69 80
61 69 80
61 70 80
60 69 80
61 70 80
61 70 80
62 70 80
61 69 80
61 70 80
60 69 80
61 69 80
60 69 80
61 70 80
61 70 80
62 70 80
61 70 80
61 69 80
61 69 80
61 69 80
61 69 80
61 69 80
61 70 80
61 69 80
61 69 80
60 69 80
61 70 80
61 70 80
61 70 80
61 69 80
61 70 80
62 70 80
61 69 80
61 69 80
61 69 80
61 69 80
61 70 80
61 69 80
61 69 80
61 70 80
61 69 80
61 70 80
61 69 80
61 70 80
62 70 80
61 69 80
61 70 80
61 69 80
61 69 80
61 69 80
61 69 80
61 69 80
62 70 80
61 69 80
61 70 80
62 70 80
62 70 80
60 69 80
61 69 80
61 69 80
62 70 80
61 69 80
62 70 80
61 70 80
61 70 80
60 69 80
62 70 80
61 69 80
60 69 80
61 69 80
60 68 79
60 68 79
62 70 80
60 68 79
60 68 79
61 69 80
59 67 78
62 70 80
60 68 78
61 69 80
61 69 80
62 70 80
61 69 80
61 69 80
61 69 79
61 70 80
60 68 79
61 69 80
61 69 80
61 69 80
60 69 80
61 69 80
61 69 80
60 69 80
61 69 80
60 68 79
59 68 78
61 70 80
60 68 78
59 66 77
60 68 79
61 69 80
61 69 80
61 69 80
62 69 80
61 69 80
61 69 80
61 69 80
61 70 80
61 69 80
62 70 80
61 69 80
61 69 80
61 69 80
62 70 80
61 69 80
60 69 80
61 70 80
61 69 79
61 70 80
60 69 80
61 70 80
61 69 79
60 68 78
60 69 80
60 68 78
61 69 80
61 69 79
61 69 79
61 69 80
60 68 79
61 69 80
61 69 80
61 70 80
61 69 80
61 69 80
61 69 80
61 69 79
59 67 78
62 70 80
60 68 79
61 69 80
60 68 79
60 68 79
61 69 80
60 69 80
59 68 78
61 69 80
61 69 80
58 67 78
61 69 80
60 69 80
61 70 80
61 69 80
60 68 79
61 69 80
60 68 79
60 68 79
60 68 78
59 67 78
60 68 79
60 68 79
61 69 80
61 69 80
61 69 80
61 69 79
60 68 79
61 70 80
61 70 80
61 69 80
61 69 80
60 68 79
59 68 78
61 68 78
60 68 79
61 69 79
60 68 79
59 67 78
61 69 80
60 68 78
61 69 80
59 67 78
61 69 80
59 68 78
59 67 78
60 68 79
61 69 80
60 68 79
60 67 78
60 68 78
61 70 80
61 70 80
60 68 79
60 68 78
61 69 79
61 70 80
61 69 80
61 69 80
62 70 80
60 68 79
62 70 80
59 67 78
59 68 79
60 68 79
60 68 78
59 67 77
60 68 79
60 69 80
61 69 80
61 69 80
59 67 78
60 68 79
61 69 80
61 69 79
61 69 80
59 68 78
60 69 80
60 69 80
60 68 78
59 68 79
60 68 79
61 69 80
59 67 78
60 69 79
59 67 78
60 69 80
60 68 79
61 69 80
59 67 78
60 68 79
60 69 80
60 68 78
61 69 80
59 67 78
61 70 80
61 70 80
60 68 78
60 68 79
60 67 78
59 67 78
60 69 79
60 68 78
60 69 79
60 68 79
60 68 79
62 70 80
57 66 76
60 69 80
60 69 80
61 69 80
61 69 80
60 68 79
60 69 80
60 69 80
59 67 78
61 69 80
60 68 79
61 69 80
61 69 80
60 68 79
59 67 78
61 69 79
61 69 80
61 69 80
62 70 80
60 69 79
60 69 80
61 69 79
60 67 77
60 68 78
61 69 80
60 68 79
59 67 78
59 67 78
60 68 79
60 68 79
61 69 80
60 68 79
62 70 80
60 68 78
60 68 79
60 68 79
61 69 80
60 68 79
60 68 79
59 67 78
60 68 79
62 69 80
59 67 78
60 68 78
61 69 80
59 68 78
60 68 79
61 69 80
59 68 79
60 69 80
62 70 80
61 69 80
61 69 80
61 70 80
59 67 78
60 68 79
60 68 80
60 69 80
61 69 80
60 68 79
61 69 80
60 69 80
60 69 80
61 69 80
61 69 80
59 67 77
62 70 80
60 69 80
61 69 79
60 68 79
60 69 80
60 68 78
61 69 80
60 68 78
62 70 80
61 69 80
61 69 80
62 69 80
61 69 80
61 70 80
60 69 80
61 69 80
61 69 80
61 69 80
60 68 78
59 68 79
61 69 80
61 69 80
61 68 79
61 70 80
61 69 80
61 69 80
60 68 79
61 70 80
60 68 79
61 70 80
62 70 80
61 70 80
60 68 79
61 70 80
61 69 80
61 69 80
60 69 80
61 69 80
61 70 80
61 69 80
62 70 80
61 69 80
61 69 80
61 69 80
61 69 80
60 69 80
60 69 80
61 69 79
60 68 79
60 69 80
61 70 80
60 69 80
62 70 80
60 68 79
60 68 79
60 68 79
61 69 80
60 68 79
61 69 80
62 70 80
61 69 80
62 70 80
61 69 80
60 68 79
61 69 79
61 69 80
61 69 80
61 69 80
62 69 80
61 70 80
60 68 79
59 67 78
61 70 80
60 68 79
60 68 79
61 70 80
63 70 80
61 69 80
62 70 80
60 69 80
62 70 80
61 69 79
61 70 80
62 70 80
62 70 80
62 70 80
61 69 80
61 69 79
61 70 80
61 70 80
61 70 80
60 69 80
60 69 80
61 69 80
60 69 80
61 69 80
60 69 80
61 70 80
62 70 80
62 70 80
61 70 80
61 70 80
62 70 80
61 69 80
61 70 80
61 70 80
62 70 80
61 69 80
62 70 80
61 69 80
62 70 80
61 69 80
61 70 80
61 70 80
62 70 80
61 69 80
61 69 80
60 69 80
60 69 80
61 70 80
61 69 80
61 69 80
61 70 80
60 68 78
61 70 80
61 70 80
61 70 80
60 69 80
61 69 80
62 70 80
62 70 80
61 70 80
61 69 80
62 70 80
62 70 80
61 70 80
62 70 80
61 69 80
61 70 80
62 70 80
61 69 80
61 69 80
60 68 79
61 70 80
61 70 80
60 69 80
61 69 80
62 70 80
62 70 80
62 70 80
60 68 79
60 69 80
61 69 80
61 70 80
61 69 80
61 70 80
60 69 80
59 67 78
61 69 80
61 69 80
60 68 79
60 69 80
62 70 80
60 68 78
61 70 80
61 69 80
62 70 80
61 69 80
61 69 80
61 69 79
61 69 80
60 69 80
59 68 78
60 68 79
61 69 80
61 69 80
61 69 80
61 69 80
62 69 80
61 69 80
60 68 79
60 68 79
61 69 80
60 69 80
61 70 80
59 68 79
61 69 79
61 69 80
61 69 79
61 70 80
62 70 80
59 68 78
61 69 80
61 69 80
61 69 79
61 69 80
61 69 80
61 69 80
59 68 79
61 69 80
61 69 80
61 70 80
61 69 80
61 69 80
60 68 79
59 68 79
62 69 80
61 69 80
59 67 78
61 69 80
61 70 80
60 69 80
62 70 80
61 69 80
60 68 79
60 69 80
61 69 79
60 68 78
60 68 79
61 69 80
61 69 80
60 68 78
60 69 79
60 69 80
61 69 80
60 68 78
61 69 80
60 68 79
61 69 80
61 69 80
60 68 79
60 68 79
60 68 79
60 68 78
61 69 79
61 69 80
59 68 79
61 69 80
60 68 79
61 69 80
58 67 78
60 68 78
60 68 79
60 68 78
61 69 80
59 67 77
60 68 80
61 69 80
60 68 79
59 68 78
61 69 80
60 68 78
61 69 80
61 69 80
60 68 79
60 68 78
61 69 80
59 68 78
60 68 79
60 69 80
60 68 79
59 68 78
60 68 78
60 69 80
60 69 80
59 67 77
61 69 80
61 69 80
60 69 80
62 70 80
60 69 80
61 69 80
60 68 79
59 67 78
61 69 80
58 67 78
60 68 78
60 68 79
61 69 80
60 68 79
61 69 80
61 69 80
59 68 79
60 68 79
60 68 79
59 67 78
61 69 80
61 69 80
59 68 79
61 69 80
60 69 80
60 69 79
58 66 77
60 68 79
62 70 80
60 68 79
60 68 79
60 69 80
60 68 78
61 69 80
61 69 80
60 68 79
60 68 79
59 67 78
60 68 78
60 68 79
60 68 79
60 68 79
59 68 78
59 67 78
59 67 78
59 67 78
60 68 79
61 69 79
59 67 78
60 68 78
60 68 78
60 68 79
60 67 78
60 68 78
62 70 80
61 69 80
59 67 78
60 69 80
60 68 78
60 68 79
61 69 80
61 69 80
61 69 80
60 68 78
60 68 79
60 68 79
60 68 78
61 70 80
61 69 80
58 66 76
61 69 80
61 69 80
61 69 80
60 69 80
61 69 80
60 69 80
61 69 80
60 69 80
60 68 78
61 70 80
61 69 79
59 67 77
60 69 80
59 66 76
60 68 79
58 66 77
61 69 79
59 67 78
62 70 80
61 69 80
62 70 80
60 68 79
59 67 78
59 67 78
61 69 79
60 68 78
61 69 80
59 67 78
60 68 79
60 68 78
61 69 80
60 68 79
60 69 80
59 68 78
59 68 78
60 68 79
60 69 80
61 69 80
61 69 80
60 68 78
61 69 80
62 69 80
59 67 78
61 69 80
61 70 80
60 68 79
60 69 80
61 69 79
61 69 80
60 68 78
60 69 79
59 68 78
59 68 79
61 70 80
61 69 80
59 68 78
60 69 80
60 69 80
61 69 80
60 68 79
60 68 79
60 68 78
59 67 78
61 69 80
60 68 79
62 70 80
61 69 79
61 69 80
61 69 80
62 70 80
61 70 80
62 70 80
61 69 80
61 69 80
60 69 80
61 69 80
61 70 80
62 70 80
61 69 80
61 69 80
60 69 80
62 70 80
61 69 80
61 70 80
59 68 78
60 69 80
62 70 80
60 68 79
61 69 80
60 68 79
61 69 79
60 69 80
60 68 79
60 68 79
61 70 80
61 70 80
60 69 80
61 69 80
61 69 80
61 69 80
60 68 79
60 69 80
60 69 80
61 69 80
60 68 79
61 69 80
61 69 80
61 69 80
61 69 80
61 70 80
60 69 80
61 69 79
61 70 80
60 69 80
61 70 80
62 70 80
61 70 80
61 69 80
61 69 80
61 69 80
61 70 80
61 69 80
61 70 80
62 70 80
60 68 78
61 69 80
61 69 80
61 69 80
61 70 80
60 69 80
61 69 80
61 70 80
61 69 80
61 69 80
61 69 80
60 69 80
61 69 80
61 69 80
62 70 80
60 69 80
61 70 80
61 69 80
61 69 80
61 69 80
60 69 80
60 68 79
61 69 80
62 70 80
61 69 80
62 70 80
61 70 80
61 69 80
61 69 80
62 70 80
62 70 80
61 69 80
62 70 80
61 69 80
61 69 80
60 69 80
61 69 80
61 69 80
62 70 80
60 68 79
61 70 80
62 70 80
61 70 80
61 69 80
61 69 80
61 69 80
61 69 80
59 68 80
62 70 80
61 70 80
61 70 80
62 70 80
62 70 80
60 69 80
59 68 79
62 70 80
61 70 80
62 70 80
62 70 80
61 69 80
60 69 80
60 68 79
61 70 80
61 69 80
61 70 80
61 69 80
61 70 80
61 69 80
60 68 79
61 69 80
62 70 80
61 69 80
60 68 79
61 69 80
60 69 80
61 70 80
60 69 80
62 70 80
61 69 80
61 69 80
61 69 80
61 70 80
61 69 79
61 69 80
61 69 80
61 69 80
61 70 80
62 69 80
60 68 79
60 68 79
61 69 80
61 70 80
61 69 80
60 68 79
60 69 80
61 69 80
61 69 80
62 70 80
61 69 80
61 69 80
61 69 80
60 68 79
60 68 79
62 70 80
61 69 80
62 70 80
61 69 80
61 69 79
61 69 80
61 69 80
62 70 80
60 68 80
60 68 79
61 69 80
60 68 78
61 69 80
61 69 80
61 70 80
61 69 80
61 69 80
62 70 80
61 69 80
61 69 79
61 69 80
61 69 80
60 69 80
62 70 80
61 69 80
62 70 80
60 69 80
60 69 80
61 69 80
61 69 80
60 68 79
61 69 80
61 69 80
62 70 80
62 70 80
60 68 79
62 70 80
60 69 80
60 68 80
61 69 80
61 69 80
60 68 80
61 69 80
61 70 80
61 70 80
60 68 79
60 69 80
61 69 80
60 69 80
61 69 80
61 69 80
60 68 79
60 69 80
60 68 79
61 70 80
60 68 79
61 69 80
61 70 80
61 69 80
61 70 80
61 69 80
60 69 80
61 69 80
60 69 80
61 69 80
60 69 80
60 68 78
59 67 78
60 69 79
60 68 79
62 70 80
62 70 80
61 70 80
59 67 78
61 69 80
60 68 79
61 69 80
60 68 79
61 69 79
61 70 80
63 70 80
61 69 80
60 68 78
60 68 78
61 69 80
60 68 78
61 70 80
60 68 78
61 69 79
60 68 78
60 68 79
61 70 80
59 67 78
60 68 79
61 69 80
60 68 79
61 69 80
61 69 79
60 68 79
62 70 80
61 70 80
60 68 79
60 68 79
60 69 80
60 68 78
59 68 79
60 69 80
62 70 80
61 69 80
60 68 79
60 69 80
60 68 79
60 69 80
60 68 79
61 69 80
60 68 79
60 69 80
57 66 76
62 70 80
60 68 79
61 69 79
60 68 79
59 68 79
58 66 77
61 69 80
61 69 80
59 67 77
61 70 80
60 68 79
60 69 80
57 65 76
60 68 78
61 69 80
60 68 80
60 68 78
59 68 78
60 69 80
61 70 80
61 69 80
57 66 76
60 68 78
59 67 78
61 70 80
60 68 78
60 69 80
59 68 78
61 69 79
59 67 78
61 69 80
60 68 78
59 68 78
60 68 79
59 67 78
59 68 79
61 69 80
60 68 78
60 68 79
62 70 80
61 70 80
60 69 80
60 68 79
59 67 77
60 69 80
59 67 77
60 68 79
60 68 78
61 70 80
61 69 80
60 69 80
60 69 80
61 69 80
58 66 77
60 68 79
60 68 79
59 67 78
61 69 80
62 70 80
61 70 80
59 67 77
61 69 80
60 68 80
58 66 76
60 68 78
57 65 76
61 69 80
60 69 79
59 67 78
61 69 80
61 69 80
60 68 79
60 69 80
58 66 77
61 69 80
61 69 80
61 69 78
60 69 80
61 69 80
59 67 78
59 67 78
61 70 80
61 70 80
60 68 78
61 70 80
61 69 79
60 68 79
61 70 80
61 69 79
60 68 79
58 66 76
60 68 78
60 68 79
60 68 79
62 70 80
59 68 78
59 68 78
60 68 79
61 69 80
60 69 80
60 68 78
60 68 78
61 69 80
60 69 80
60 68 79
61 69 80
61 70 80
60 68 79
61 70 80
61 69 80
60 68 78
59 67 77
61 69 80
61 68 78
60 68 79
60 68 78
60 68 78
60 69 80
61 70 80
61 69 80
60 68 80
60 68 79
61 70 80
61 69 80
61 69 80
61 69 80
60 68 80
60 68 78
61 69 80
60 69 80
60 68 78
60 68 79
60 69 80
60 69 80
60 68 79
61 69 79
61 69 80
61 69 79
61 69 79
60 68 79
61 70 80
61 69 80
61 69 80
61 69 80
61 70 80
61 69 80
61 69 80
60 69 80
59 68 78
62 70 80
60 68 78
60 68 79
60 68 79
60 68 79
61 70 80
60 68 78
60 68 79
61 70 80
62 70 80
60 69 80
61 69 80
61 69 80
61 69 80
61 70 80
61 70 80
61 70 80
61 69 80
60 68 79
61 69 80
62 69 80
61 69 80
60 68 79
61 69 80
61 69 80
61 69 80
61 69 80
61 69 80
61 69 80
61 69 80
61 69 80
61 70 80
61 69 79
62 70 80
61 69 80
61 69 80
62 70 80
60 68 78
61 70 80
61 69 80
61 69 79
61 70 80
61 69 80
60 69 80
60 69 80
60 69 80
61 69 80
61 69 79
61 69 80
61 69 80
61 69 80
61 69 80
60 68 79
61 69 80
61 69 80
61 69 80
61 69 80
61 69 80
61 69 80
61 69 80
60 69 80
61 69 80
61 69 80
61 70 80
60 69 80
61 69 80
61 70 80
61 69 80
62 70 80
61 69 79
61 69 80
61 69 80
61 69 80
61 69 80
62 70 80
61 69 80
61 70 80
62 70 80
61 69 80
61 70 80
60 68 80
61 69 79
60 69 80
60 69 80
61 70 80
62 69 80
61 69 80
61 69 80
61 69 80
61 69 80
59 68 78
61 69 80
61 70 80
62 70 80
61 70 80
60 69 79
61 70 80
60 69 80
61 69 80
60 69 80
61 70 80
62 70 80
61 69 79
62 70 80
62 70 80
60 69 80
61 70 80
62 70 80
60 69 80
61 70 80
62 70 80
61 70 80
61 69 80
61 69 80
62 70 80
62 70 80
60 68 79
60 69 80
62 70 80
62 70 80
61 69 80
61 69 80
62 70 80
60 68 79
61 69 80
61 69 80
61 70 80
61 69 80
60 68 79
62 70 80
61 69 80
59 67 78
61 69 80
61 70 80
61 69 80
61 69 80
60 68 78
60 69 80
60 68 79
61 69 80
61 69 80
61 70 80
61 70 80
62 70 80
61 69 80
60 69 80
61 69 80
62 70 80
60 68 78
60 68 79
60 69 80
59 67 78
60 69 80
62 70 80
61 69 80
62 70 80
61 69 80
60 69 80
60 69 80
61 70 80
62 70 80
61 69 80
60 69 80
60 69 80
61 69 80
61 70 80
60 68 78
60 69 80
59 68 78
61 69 80
61 69 80
60 68 78
60 68 79
60 68 79
61 69 79
60 69 80
62 70 80
61 70 80
61 70 80
59 68 78
61 70 80
61 69 80
61 69 80
61 69 80
61 69 80
61 70 80
62 69 80
60 69 80
59 67 78
61 69 80
61 69 80
62 70 80
61 69 80
61 69 80
60 68 78
60 68 79
60 69 80
61 69 79
60 69 80
61 69 80
61 69 80
60 68 79
61 70 80
61 69 80
61 69 79
60 68 79
60 68 79
59 67 78
62 70 80
60 68 78
60 68 78
60 68 79
61 69 80
60 68 79
61 69 80
61 69 80
62 70 80
59 67 78
60 68 79
61 69 80
61 69 80
60 68 78
61 69 80
61 69 79
61 69 80
60 69 80
60 68 79
60 68 79
62 70 80
61 69 79
60 69 80
61 69 80
58 67 78
61 69 79
61 69 79
60 69 80
60 69 80
58 66 76
61 69 80
60 68 78
60 69 80
60 69 80
61 69 79
60 68 78
61 69 80
59 67 78
59 68 78
61 70 80
60 69 80
60 68 79
60 69 80
60 68 78
61 69 80
60 69 80
61 69 80
60 68 79
60 68 79
61 69 80
60 68 79
59 67 78
61 69 80
61 69 80
61 69 80
60 69 80
60 69 80
60 68 79
60 69 80
61 69 80
59 68 78
58 66 76
61 69 80
60 68 79
60 68 79
60 68 79
61 69 80
60 69 80
62 70 80
60 68 80
61 69 80
60 69 80
59 67 78
59 68 78
60 68 78
60 68 78
61 70 80
59 67 78
60 68 78
61 69 80
61 69 80
60 68 79
61 70 80
60 68 78
62 70 80
60 68 79
60 68 78
60 69 80
61 69 80
59 67 78
60 68 79
61 69 80
59 67 77
61 70 80
60 68 79
61 69 80
59 67 78
60 68 79
59 67 78
59 67 78
60 68 79
61 69 79
61 69 80
59 68 78
61 69 80
61 70 80
59 67 78
60 68 79
59 68 79
61 69 80
59 68 79
61 69 79
61 70 80
61 69 80
58 66 76
60 68 79
60 68 79
61 69 80
60 69 79
62 70 80
59 67 78
60 68 79
61 69 80
61 69 79
59 67 78
62 70 80
61 69 80
60 69 80
62 70 80
61 69 80
61 69 80
61 69 80
61 69 80
60 68 79
60 68 79
62 70 80
59 68 78
60 68 79
61 69 80
60 69 80
61 69 80
60 68 79
59 68 79
59 68 78
61 69 80
61 69 79
61 69 79
61 69 80
61 69 80
61 68 79
59 68 78
61 69 79
59 67 78
60 68 79
61 69 80
61 70 80
60 68 80
61 69 80
61 70 80
60 69 80
61 70 80
61 70 80
60 68 78
61 70 80
60 69 80
61 69 80
61 69 80
60 69 80
60 68 79
61 69 80
59 67 78
61 69 80
61 70 80
61 69 79
60 68 79
61 69 80
61 69 80
61 70 80
61 70 80
60 68 79
61 69 80
62 70 80
61 69 80
60 69 80
61 69 79
60 69 80
60 68 79
59 67 78
61 70 80
60 69 80
61 69 80
60 68 78
61 70 80
62 70 80
62 70 80
60 69 80
61 69 80
62 70 80
61 69 80
60 69 80
61 69 79
61 69 80
61 69 80
61 70 80
61 69 80
61 69 80
61 69 80
60 69 80
60 68 79
60 69 80
61 70 80
61 69 80
61 69 80
61 69 80
62 70 80
61 70 80
61 69 80
61 69 79
61 69 80
61 69 80
61 70 80
61 70 80
60 68 79
61 69 80
61 70 80
61 69 80
61 69 80
61 70 80
61 69 80
61 69 80
61 70 80
60 68 79
61 69 80
61 69 80
62 70 80
61 69 80
61 69 79
61 70 80
61 69 80
61 70 80
62 70 80
61 70 80
61 69 80
61 69 80
60 68 79
61 70 80
61 69 80
61 70 80
61 69 80
62 70 80
60 68 80
62 70 80
61 69 80
61 69 80
60 69 80
61 70 80
61 69 79
61 69 80
61 69 80
61 70 80
61 70 80
62 69 80
62 70 80
61 70 80
61 69 80
61 69 80
61 69 80
61 69 80
61 70 80
61 69 80
61 69 80
60 68 79
60 68 79
61 70 80
61 70 80
60 69 80
61 70 80
62 70 80
62 70 80
60 68 79
61 69 80
61 70 80
61 69 80
61 69 80
60 68 79
61 69 80
61 69 80
62 70 80
61 69 80
61 70 80
60 69 80
61 69 80
61 70 80
60 69 80
61 69 80
61 69 80
61 70 80
61 69 80
60 68 78
62 70 80
62 70 80
62 70 80
60 68 79
61 69 80
61 69 80
60 69 80
61 69 80
61 70 80
61 69 80
61 69 80
61 70 80
61 69 80
62 70 80
60 69 80
59 67 78
61 70 80
61 69 80
61 70 80
61 69 80
60 68 79
60 68 79
62 70 80
60 68 79
61 69 80
60 68 78
61 69 80
61 70 80
62 70 80
61 69 80
60 69 80
59 68 79
60 68 79
61 69 80
61 69 80
61 69 80
62 70 80
61 70 80
61 69 80
61 70 80
61 69 80
60 69 80
61 69 80
60 68 78
61 70 80
60 68 78
61 69 80
61 69 80
61 69 79
62 70 80
61 69 80
61 69 80
60 69 80
60 68 79
60 69 80
60 69 80
60 68 79
60 68 78
60 68 79
61 69 80
61 70 80
61 69 80
60 69 80
62 70 80
60 68 78
61 69 80
62 70 80
61 69 80
62 70 80
61 69 80
60 69 80
61 69 79
60 69 80
60 68 79
59 68 79
60 69 80
61 69 80
61 69 80
60 69 80
60 69 80
61 69 80
62 70 80
60 68 78
61 70 80
60 68 79
60 68 79
61 69 80
62 70 80
61 69 80
61 69 80
62 70 80
61 69 79
60 68 78
61 69 80
60 68 78
60 68 78
61 69 80
62 70 80
61 69 80
60 68 80
61 69 80
59 67 78
61 69 80
62 70 80
61 69 80
60 69 80
60 68 79
61 69 80
60 68 78
61 69 80
61 69 80
60 68 79
59 67 77
60 68 79
60 68 78
59 67 78
61 69 80
59 68 79
61 69 80
60 68 79
60 68 79
58 66 77
59 68 78
59 68 78
61 69 80
62 70 80
61 69 80
61 69 79
61 69 79
59 68 78
60 69 80
61 69 80
60 68 79
61 69 79
61 69 80
61 69 80
60 68 79
60 69 80
61 69 80
61 70 80
60 68 78
59 67 78
61 69 80
61 69 80
61 69 80
60 68 79
60 68 79
60 68 79
60 68 79
61 69 80
60 69 80
61 69 79
60 68 80
60 68 79
59 67 78
60 68 79
61 69 80
61 69 79
59 67 78
59 68 78
61 69 80
60 68 78
60 69 80
58 67 78
60 68 79
60 69 79
60 68 79
59 67 77
60 68 79
58 67 77
61 69 80
60 68 79
60 68 79
59 68 78
58 66 76
60 68 79
59 68 78
60 68 79
59 67 78
59 67 78
61 69 80
61 69 79
60 69 80
60 69 80
61 69 80
59 67 78
58 66 77
61 69 79
59 68 78
60 68 78
60 68 78
60 69 80
59 67 78
60 68 79
61 69 80
60 68 79
59 67 78
61 69 80
60 68 79
59 67 78
60 68 78
60 67 78
61 69 80
60 69 80
61 69 80
61 69 80
60 69 79
61 70 80
61 69 80
61 69 79
59 67 78
61 70 80
59 67 78
61 69 80
61 69 80
60 69 80
60 69 80
61 69 80
62 70 80
61 70 80
61 69 80
60 68 78
60 68 79
61 69 80
61 69 80
62 70 80
62 70 80
59 68 79
59 68 79
60 68 78
60 69 80
61 69 80
59 67 78
61 70 80
61 69 80
59 67 78
59 67 78
59 68 79
61 69 80
60 68 79
61 69 80
61 69 79
59 68 78
61 69 80
59 67 78
61 69 80
61 69 80
59 67 77
60 68 79
61 69 80
60 68 78
60 69 80
60 69 80
61 69 80
60 68 78
60 68 79
60 68 79
60 68 79
61 69 80
60 68 79
61 69 80
61 69 80
62 69 79
61 69 79
61 69 79
61 70 80
62 70 80
61 69 80
60 69 80
61 69 80
60 68 79
61 69 80
61 70 80
62 70 80
62 70 80
62 70 80
62 70 80
59 67 78
59 67 78
60 68 79
60 69 80
61 69 80
61 69 79
62 70 80
61 69 80
60 69 80
61 69 80
61 69 80
60 68 79
61 69 80
61 69 80
61 69 80
62 70 80
61 69 80
61 69 80
61 69 80
61 69 80
60 69 80
62 70 80
60 68 79
61 69 80
61 69 80
61 69 80
61 69 80
60 68 78
60 69 80
60 68 80
62 70 80
61 69 79
60 68 79
61 70 80
60 68 80
60 69 80
61 69 80
60 69 80
61 69 79
61 69 80
61 69 80
61 70 80
61 69 80
61 70 80
60 69 80
61 70 80
60 68 80
61 69 80
60 68 79
59 67 78
61 69 80
61 69 80
61 69 80
61 69 80
60 68 79
59 68 78
61 69 80
60 68 80
61 70 80
60 68 78
61 69 80
61 70 80
61 70 80
61 70 80
61 69 80
61 69 80
60 68 79
61 70 80
61 70 80
61 70 80
61 69 80
61 70 80
61 69 80
61 69 80
61 69 80
61 69 80
61 70 80
61 69 80
62 70 80
61 70 80
62 70 80
61 69 80
60 69 80
61 69 80
62 69 80
62 70 80
62 70 80
60 68 79
62 69 80
61 69 80
62 70 80
61 70 80
61 69 80
61 69 80
61 69 80
62 70 80
61 69 80
62 70 80
62 70 80
61 69 80
60 69 80
61 69 80
61 70 80
62 70 80
60 69 80
60 68 79
60 69 80
61 69 80
61 69 80
62 70 80
61 69 80
61 69 80
61 69 80
61 70 80
62 70 80
62 70 80
61 69 80
62 70 80
61 70 80
61 69 80
61 69 80
61 70 80
61 70 80
61 69 80
61 69 80
60 69 80
61 69 80
61 70 80
61 69 80
62 70 80
61 69 80
61 69 80
60 69 80
61 70 80
62 70 80
61 69 80
61 69 80
62 70 80
60 69 80
61 69 80
61 69 80
60 69 80
60 68 80
60 68 79
61 69 79
61 70 80
60 68 78
61 69 79
61 69 80
61 69 80
62 70 80
60 68 79
61 69 80
60 69 79
60 69 80
61 70 80
60 69 80
61 69 80
60 69 80
61 69 80
62 70 80
60 68 79
60 68 80
60 68 79
61 69 80
60 68 79
60 68 79
61 69 80
62 70 80
61 69 80
59 67 78
59 67 78
60 68 79
61 69 80
61 69 80
61 69 80
61 69 80
60 69 80
59 68 79
61 69 80
60 68 79
59 68 79
61 69 80
61 69 80
61 69 80
61 69 80
61 69 79
60 68 79
61 69 80
60 69 80
60 68 79
61 69 80
60 69 80
61 69 80
62 70 80
61 69 80
61 68 78
62 70 80
60 69 80
61 69 80
62 70 80
60 69 80
60 69 80
61 69 80
61 69 80
60 68 79
60 68 78
60 69 80
61 69 80
60 69 80
61 69 80
60 68 79
61 69 80
61 70 80
61 69 80
61 69 80
61 70 80
60 69 80
58 66 76
61 70 80
61 70 80
62 70 80
60 68 78
62 70 80
60 69 80
61 69 80
61 69 80
60 68 78
60 68 79
61 69 79
60 68 78
60 68 78
61 70 80
61 69 79
60 68 79
62 70 80
61 69 80
60 69 80
61 69 80
61 69 80
61 70 80
61 69 80
61 69 79
60 68 79
61 69 80
62 69 80
61 70 80
61 69 80
60 69 80
59 67 78
60 67 78
62 70 80
61 69 80
61 69 80
61 69 80
61 69 80
61 69 80
60 68 79
60 68 78
59 68 79
61 69 80
60 68 78
60 69 80
61 69 80
61 69 80
60 68 79
60 68 78
60 69 80
60 68 78
58 67 78
61 69 80
60 68 79
60 69 80
60 69 79
60 67 77
58 66 76
59 67 78
60 68 79
60 68 79
60 68 79
60 68 79
62 70 80
60 69 80
59 68 78
60 68 79
60 68 78
61 70 80
61 69 79
60 68 79
60 69 80
61 69 80
60 68 79
61 69 80
59 67 78
60 68 79
61 69 79
60 68 79
59 68 79
60 69 80
61 69 80
59 67 78
61 69 80
61 69 80
61 69 80
61 69 80
61 69 80
60 69 80
59 67 78
60 68 78
60 69 79
57 65 75
59 68 78
60 68 79
59 68 78
60 68 80
59 68 78
58 67 77
61 70 80
60 68 78
61 69 80
59 67 77
59 67 78
60 68 79
61 69 80
61 69 79
59 68 78
61 68 78
60 68 79
58 66 76
60 68 79
60 68 80
59 67 77
61 69 78
59 67 78
61 69 80
61 69 79
62 70 80
61 69 80
61 69 80
59 67 78
60 68 79
61 70 80
59 68 78
61 69 80
61 69 80
60 68 78
61 69 80
60 68 79
60 68 78
62 69 80
59 67 77
60 69 80
60 67 78
61 69 80
60 68 79
61 70 80
61 69 80
61 69 80
61 69 79
62 70 80
60 68 79
61 70 80
61 69 80
61 69 80
61 69 80
59 67 78
62 69 80
60 69 80
59 68 78
62 70 80
61 69 80
60 69 80
61 69 80
62 70 80
60 69 80
61 70 80
60 68 79
60 68 79
61 69 79
62 70 80
59 67 77
61 69 80
61 70 80
60 68 79
60 69 80
60 69 80
61 70 80
62 70 80
60 68 80
60 68 79
61 70 80
61 69 80
60 69 80
61 70 80
59 68 78
61 69 80
61 69 80
60 68 78
61 70 80
60 68 78
60 68 78
61 69 80
61 69 80
61 69 80
61 69 80
61 69 80
60 69 80
61 69 80
61 69 80
62 70 80
61 69 80
61 69 79
60 68 79
61 69 80
61 69 80
62 70 80
60 68 78
62 70 80
61 69 80
62 70 80
62 70 80
61 69 80
61 70 80
61 70 80
62 69 80
60 69 80
60 68 79
62 70 80
61 69 80
61 69 80
60 68 79
59 68 78
60 68 79
61 69 80
61 69 80
61 69 80
62 70 80
61 70 80
60 69 80
61 69 80
62 70 80
61 70 80
61 70 80
60 68 78
61 69 80
62 70 80
62 69 80
61 69 80
61 69 80
62 70 80
61 69 80
61 70 80
61 69 80
62 70 80
62 70 80
61 70 80
60 69 80
62 70 80
61 69 80
60 69 80
61 69 80
61 69 80
60 68 79
62 70 80
61 69 80
61 69 80
61 69 80
61 70 80
61 69 80
60 69 80
60 69 80
60 69 80
61 70 80
60 69 80
60 68 80
60 69 80
61 69 80
61 69 80
61 69 80
60 68 79
61 70 80
60 69 80
61 69 80
61 69 80
61 69 80
61 69 80
61 70 80
61 70 80
61 69 80
61 69 80
62 70 80
61 69 80
61 69 80
61 69 80
61 69 80
61 69 80
61 70 80
61 70 80
61 69 80
61 69 80
61 69 80
61 69 80
60 68 79
62 70 80
61 69 80
61 69 80
61 69 80
61 69 80
60 69 80
61 69 80
60 68 79
60 69 80
60 69 80
62 70 80
61 69 80
62 70 80
60 69 80
62 70 80
61 70 80
61 70 80
62 70 80
61 69 80
61 70 80
61 70 80
61 69 80
61 69 80
61 70 80
61 70 80
62 70 80
61 69 80
61 70 80
60 69 80
60 68 79
60 69 80
60 69 80
60 68 79
60 69 80
60 68 79
61 69 80
61 70 80
61 70 80
61 69 80
62 70 80
61 69 80
61 69 80
61 69 80
61 69 80
61 69 80
61 69 80
60 69 80
61 69 80
60 68 79
61 69 80
60 69 80
62 70 80
61 69 80
61 69 80
61 70 80
61 70 80
62 70 80
61 70 80
60 68 79
60 68 79
62 70 80
60 69 80
60 68 78
60 68 79
62 70 80
60 68 79
60 69 80
62 70 80
61 69 80
61 69 80
61 70 80
60 68 79
61 69 80
61 70 80
61 69 80
60 69 80
61 69 80
61 70 80
61 69 80
61 69 80
60 69 80
61 69 79
60 69 80
60 69 80
61 69 80
60 68 79
60 68 78
62 70 80
59 67 78
60 68 79
62 70 80
61 70 80
60 68 78
60 69 80
60 69 80
60 68 78
61 69 80
61 69 79
60 68 79
63 70 80
62 70 80
60 69 80
60 68 79
61 69 80
60 69 80
60 69 80
61 69 80
60 68 79
60 68 79
58 67 78
61 69 80
61 69 80
60 69 80
61 70 80
61 70 80
60 68 79
61 69 80
60 69 80
61 70 80
59 68 79
60 68 79
60 69 80
60 68 78
60 69 80
60 68 79
61 69 80
60 69 80
62 70 80
59 68 78
61 69 80
62 70 80
60 68 79
59 67 77
61 69 80
60 68 79
61 69 80
61 69 80
59 67 78
59 68 78
59 67 78
58 66 77
60 68 78
60 68 78
60 68 78
60 68 79
60 68 79
61 69 80
61 69 79
61 69 80
60 68 79
60 69 80
62 70 80
59 68 79
61 69 80
60 68 78
60 68 78
59 68 78
60 68 78
61 69 80
61 69 79
60 67 78
59 67 78
58 66 77
61 70 80
60 68 78
59 67 78
60 69 80
60 68 79
61 69 80
61 69 80
59 68 79
59 67 78
62 70 80
60 68 79
60 68 78
60 68 79
62 70 80
60 68 78
59 67 77
61 69 79
60 69 80
61 69 80
60 68 79
60 69 80
59 67 78
62 70 80
59 68 78
60 68 78
60 69 80
61 70 80
59 67 78
61 69 80
59 67 78
60 68 79
59 67 78
60 68 79
61 69 80
60 68 79
60 68 79
61 69 80
60 69 80
60 68 79
60 69 80
60 68 78
61 69 80
60 69 80
60 68 78
60 69 80
60 69 79
61 69 80
60 69 80
60 68 79
61 70 80
61 69 80
60 68 79
61 70 80
59 67 78
60 68 79
60 68 79
61 69 80
62 70 80
61 69 80
60 67 78
61 69 80
59 67 78
61 69 80
59 67 78
59 67 78
60 68 78
60 68 79
59 67 78
60 68 78
60 68 79
59 67 77
57 65 76
60 68 79
60 68 80
59 67 78
60 68 79
62 69 80
61 69 79
60 69 80
61 69 79
60 68 78
60 68 79
60 69 80
60 68 79
61 69 80
59 67 78
61 69 79
61 69 80
59 67 78
60 69 80
62 70 80
61 70 80
60 68 79
62 70 80
59 67 78
60 68 79
61 69 80
61 70 80
61 70 80
61 69 79
59 67 77
62 70 80
60 68 78
61 69 80
61 69 80
61 69 80
60 69 80
59 67 77
62 70 80
61 69 79
61 70 80
61 69 80
60 68 78
59 67 78
61 69 80
60 68 79
61 69 79
61 69 80
59 67 78
60 68 78
62 70 80
61 69 79
62 69 80
60 68 78
61 69 80
62 70 80
61 69 80
61 70 80
61 70 80
62 70 80
62 70 80
60 68 78
61 69 79
59 68 78
59 67 78
60 69 80
61 70 80
61 69 80
60 69 80
60 69 80
61 69 80
61 69 80
60 68 79
61 69 80
61 69 80
60 69 80
60 68 79
61 69 80
61 69 80
61 69 80
61 70 80
60 69 80
60 69 80
61 69 80
61 70 80
61 69 80
61 69 80
60 68 79
60 69 80
60 68 78
58 66 77
61 69 80
60 68 79
60 68 79
61 70 80
61 69 80
60 69 80
61 70 80
61 69 80
61 69 80
60 68 78
60 69 80
61 69 80
60 69 80
61 70 80
62 70 80
60 69 80
62 70 80
60 69 80
60 69 80
61 69 80
61 69 80
61 70 80
61 69 80
61 69 80
61 69 80
61 69 79
61 70 80
62 70 80
60 69 80
61 69 80
61 69 80
61 69 79
61 69 80
61 69 80
60 69 80
61 70 80
61 69 80
61 69 80
62 70 80
61 69 80
61 69 80
61 69 80
61 69 80
61 69 80
62 70 80
61 70 80
61 69 80
61 70 80
62 70 80
62 70 80
61 70 80
61 69 80
60 69 80
62 70 80
61 69 80
61 69 80
62 70 80
61 69 80
61 70 80
61 70 80
61 69 80
61 70 80
61 69 80
62 70 80
61 69 80
61 69 80
62 69 80
60 69 80
61 70 80
60 69 80
61 69 80
61 69 80
60 68 79
61 69 80
61 70 80
62 70 80
61 70 80
60 69 80
61 70 80
61 69 80
61 69 80
61 69 80
61 69 80
61 69 80
61 69 79
60 68 79
61 69 80
61 69 80
62 70 80
62 70 80
61 69 80
62 70 80
61 70 80
61 69 80
61 69 80
61 69 80
61 69 80
60 69 80
61 69 80
60 68 79
61 69 80
61 69 80
62 70 80
61 69 80
61 69 80
61 69 80
60 68 78
61 69 80
61 70 80
62 70 80
61 70 80
61 69 80
61 70 80
61 69 80
62 70 80
60 69 80
62 70 80
60 68 79
61 69 80
60 68 78
60 69 80
61 69 80
61 70 80
60 69 80
61 69 80
61 69 80
61 69 80
59 68 78
61 69 80
62 70 80
61 69 80
60 68 79
61 69 80
61 70 80
60 69 80
60 68 78
61 70 80
61 69 80
62 70 80
60 69 80
61 69 80
60 68 78
61 69 80
61 69 80
60 68 79
62 70 80
60 69 80
62 70 80
61 69 79
60 69 80
60 68 78
60 68 78
60 69 80
60 69 80
61 70 80
60 68 78
60 69 80
61 69 80
61 69 80
61 69 80
61 69 80
61 69 79
60 68 79
61 69 80
61 69 80
61 69 80
59 68 78
61 69 80
62 70 80
60 68 79
61 69 80
62 70 80
61 69 80
62 70 80
61 69 80
61 69 80
61 69 80
61 69 80
61 68 79
59 68 78
59 68 79
60 68 79
61 69 80
60 69 80
61 69 80
60 68 79
60 68 79
61 69 80
62 70 80
61 69 80
59 67 78
60 68 79
61 69 80
61 69 80
60 69 80
62 69 80
60 68 78
61 70 80
62 70 80
61 69 80
61 69 80
61 70 80
61 69 80
61 69 80
61 70 80
61 69 80
62 69 80
60 69 79
60 68 80
60 68 79
61 69 80
60 68 79
59 68 78
61 69 80
60 68 79
61 68 78
61 69 80
59 67 78
61 69 80
60 69 80
58 67 78
60 68 79
61 69 80
59 67 77
59 68 78
61 69 80
61 69 80
61 69 80
60 68 78
58 66 76
59 67 78
59 67 78
60 68 79
61 69 80
61 70 80
61 69 80
60 69 79
60 69 79
60 68 79
59 68 79
60 69 80
61 69 79
59 67 78
60 68 79
60 68 79
59 68 79
60 69 80
60 69 80
61 70 80
60 68 79
61 69 80
60 68 79
60 69 80
60 68 79
60 69 80
61 69 80
59 68 79
61 69 80
60 68 79
60 68 79
59 68 78
61 69 80
59 68 79
59 67 78
60 68 78
60 68 79
59 67 78
61 69 80
60 68 78
60 69 80
59 67 78
61 69 80
58 66 77
60 67 77
59 67 78
60 68 79
59 67 78
61 69 80
59 68 78
59 68 78
59 67 78
61 70 80
59 67 78
59 67 78
61 69 80
61 69 79
60 68 78
61 69 80
61 69 80
61 69 80
60 69 80
61 69 79
60 68 78
61 70 80
58 67 78
61 69 80
60 69 80
62 70 80
59 67 78
60 69 80
60 68 79
60 68 79
60 68 79
60 68 78
60 68 79
60 68 79
58 66 77
61 69 80
60 68 78
61 69 79
62 69 80
60 68 79
58 67 77
60 68 78
61 69 79
60 69 80
61 69 80
60 68 79
58 66 77
61 69 80
60 69 80
59 67 78
60 68 79
61 69 80
60 69 80
60 69 80
62 70 80
59 68 78
62 70 80
61 70 80
61 69 79
59 67 78
59 68 78
61 69 80
61 69 80
61 69 80
61 69 80
59 67 78
62 70 80
59 68 78
62 70 80
60 69 79
59 67 78
59 67 78
58 67 78
59 67 78
61 69 80
61 70 80
61 69 79
59 67 78
60 69 80
60 69 80
60 69 80
61 69 80
61 69 80
61 69 79
61 69 80
61 69 80
60 68 79
61 69 80
61 69 79
61 69 80
59 67 78
61 69 79
61 69 79
61 69 80
60 68 78
61 69 80
61 69 80
60 68 78
61 69 80
61 69 80
61 70 80
59 68 79
59 68 78
61 69 80
61 69 80
59 67 78
60 67 78
61 69 80
60 69 80
60 68 79
61 70 80
60 68 78
61 69 80
62 70 80
61 69 80
62 70 80
61 69 80
61 70 80
61 69 80
60 68 79
59 67 78
59 67 78
61 69 80
61 69 80
61 69 80
61 70 80
60 68 79
61 69 80
61 69 80
60 68 79
60 68 79
60 69 80
60 68 78
61 70 80
60 69 80
60 68 78
62 70 80
60 68 79
59 68 78
62 70 80
61 69 80
61 69 80
61 69 80
61 70 80
61 69 80
61 69 80
60 68 79
61 69 80
60 68 79
60 69 80
60 68 79
62 70 80
61 69 80
62 70 80
60 68 79
61 70 80
61 69 80
62 70 80
61 70 80
61 69 80
61 69 80
62 70 80
61 70 80
61 69 80
61 69 80
61 69 80
61 70 80
60 69 80
60 69 80
60 69 80
59 67 78
62 70 80
61 70 80
61 70 80
61 69 80
61 69 80
60 69 80
60 68 79
61 69 80
60 69 80
61 69 80
61 69 80
61 70 80
60 69 80
61 70 80
61 69 80
61 70 80
61 70 80
61 69 80
61 69 80
61 69 80
61 69 80
61 70 80
61 69 80
62 70 80
61 69 80
61 69 80
61 70 80
60 69 80
60 69 80
62 70 80
61 70 80
61 69 80
60 69 80
61 69 80
61 70 80
62 70 80
61 70 80
60 69 80
61 69 80
60 69 80
61 69 80
60 69 80
60 69 80
61 70 80
61 69 80
60 68 79
62 70 80
61 69 80
60 69 80
61 70 80
62 70 80
60 69 80
61 69 80
60 68 78
61 70 80
61 69 80
62 70 80
61 69 80
61 69 80
62 70 80
60 68 79
62 70 80
61 69 80
60 69 80
60 68 79
61 69 80
62 70 80
61 70 80
60 68 79
60 68 80
61 70 80
60 67 78
62 70 80
60 68 79
60 68 79
60 69 80
60 69 80
61 69 80
60 69 80
59 68 79
62 70 80
61 69 80
61 69 80
60 69 80
61 69 80
61 69 80
61 70 80
59 67 78
61 69 80
60 69 80
62 70 80
60 69 80
62 70 80
60 69 80
61 69 80
61 69 80
60 68 79
62 70 80
61 69 80
60 69 79
61 69 80
61 69 80
61 69 80
60 69 80
61 69 80
60 68 79
61 69 80
61 70 80
60 69 80
61 69 80
59 68 79
60 69 80
61 69 79
59 68 78
60 69 80
62 70 80
61 69 80
62 70 80
61 69 80
61 70 80
60 68 79
60 69 80
60 68 79
60 68 78
61 69 80
60 68 78
61 69 80
61 69 80
62 70 80
60 68 79
60 69 80
60 68 79
62 70 80
61 69 80
60 69 80
60 69 80
60 69 80
60 68 79
61 69 80
62 70 80
60 68 79
61 69 80
61 69 79
58 66 77
60 68 78
61 69 80
60 69 80
60 69 80
61 70 80
61 69 80
61 69 80
60 69 80
61 69 80
61 69 80
60 68 79
60 68 80
62 70 80
60 69 79
62 70 80
61 69 80
61 69 80
61 69 80
60 68 78
61 70 80
61 69 79
61 69 80
61 69 80
61 69 80
59 67 77
60 69 80
61 69 80
60 68 78
61 70 80
60 68 79
61 70 80
62 70 80
60 69 80
60 68 79
61 70 80
61 69 80
61 69 80
61 69 79
60 68 78
60 68 79
59 67 78
60 68 78
60 68 79
59 67 78
61 69 80
60 69 80
61 70 80
61 69 80
60 69 80
60 68 78
59 68 79
61 69 80
61 69 79
60 68 79
59 68 78
60 68 79
59 67 77
60 68 79
60 68 79
61 70 80
61 69 80
59 68 78
61 68 79
60 68 79
62 70 80
60 68 79
60 68 78
60 69 80
60 69 80
61 69 80
60 69 80
61 69 79
61 69 80
60 69 80
61 69 80
62 70 80
61 69 80
60 68 78
59 67 78
61 69 80
59 67 77
60 68 79
60 68 78
60 68 79
59 67 78
60 68 78
61 69 80
61 70 80
61 70 80
60 68 79
60 68 79
61 69 80
61 69 79
62 70 80
60 69 79
60 68 79
60 69 80
61 69 79
61 69 80
61 70 80
61 69 80
60 69 79
60 68 79
60 68 78
59 67 78
60 68 79
60 68 79
60 68 78
61 69 80
61 70 80
60 68 79
59 67 78
57 65 76
61 70 80
59 68 78
61 70 80
59 67 78
61 69 79
60 68 79
60 68 79
60 67 78
61 69 80
60 68 79
60 68 79
61 69 80
60 68 79
61 69 79
61 70 80
60 69 80
61 69 80
60 68 78
61 69 80
60 69 80
60 69 80
60 68 79
60 68 79
61 69 80
60 69 80
59 67 78
61 69 80
61 70 80
61 69 80
61 69 80
58 66 77
60 69 80
60 68 78
61 69 80
61 70 80
62 70 80
61 69 80
60 68 79
61 69 80
61 69 80
61 69 80
62 70 80
61 69 80
60 68 79
61 69 80
60 69 80
60 69 79
60 68 79
61 69 80
60 68 79
59 68 79
59 67 78
59 68 78
60 68 78
61 69 80
61 69 79
59 67 78
61 69 80
61 70 80
62 69 80
61 69 80
61 69 80
59 67 78
61 69 80
61 70 80
60 69 80
59 68 78
61 69 80
62 70 80
60 68 79
60 69 80
61 69 80
61 69 80
61 69 80
60 68 78
61 69 80
61 69 80
61 69 80
60 69 80
61 69 79
60 69 80
61 70 80
60 68 80
61 69 80
60 68 79
61 70 80
61 69 80
60 69 80
61 69 80
61 69 80
61 70 80
61 69 80
61 70 80
61 69 80
61 69 79
60 69 80
61 69 80
61 69 80
62 70 80
61 69 80
61 70 80
60 68 79
61 70 80
61 69 80
62 70 80
61 69 80
62 70 80
61 69 80
61 69 80
61 69 80
61 70 80
61 70 80
61 70 80
61 69 80
61 70 80
61 69 80
60 68 79
61 70 80
62 70 80
61 69 80
61 69 79
60 69 79
61 69 80
61 69 80
61 70 80
60 69 80
62 70 80
61 69 80
60 69 80
61 69 80
60 68 79
61 69 80
61 70 80
61 69 80
61 70 80
62 70 80
61 70 80
61 70 80
61 69 80
61 69 80
61 69 80
60 68 78
62 70 80
61 69 80
60 68 79
61 69 80
60 69 80
61 69 80
62 70 80
62 70 80
61 69 80
61 70 80
61 69 80
61 69 80
61 69 80
61 70 80
62 70 80
60 69 80
60 69 80
61 70 80
61 69 80
60 69 80
61 70 80
61 69 80
62 70 80
60 69 80
61 69 80
61 69 80
61 69 80
61 70 80
62 70 80
61 69 80
61 69 80
61 70 80
62 70 80
61 70 80
61 70 80
62 70 80
60 69 80
60 68 79
60 68 79
61 69 79
61 69 80
61 70 80
61 69 80
60 69 80
62 70 80
62 70 80
61 70 80
61 70 80
61 69 80
62 70 80
61 70 80
61 69 80
60 68 80
61 69 79
61 69 80
61 69 80
62 70 80
61 69 80
61 69 79
61 70 80
61 70 80
60 68 79
60 68 78
61 69 80
60 68 78
61 69 80
61 69 80
61 69 80
62 70 80
61 70 80
61 69 80
60 69 80
60 68 79
61 70 80
62 70 80
61 69 80
60 69 80
61 70 80
62 70 80
61 70 80
61 69 80
61 69 79
61 69 80
60 69 80
61 69 80
61 70 80
60 69 80
60 69 80
62 70 80
61 69 80
61 69 80
61 69 80
61 69 80
61 69 80
61 70 80
61 69 80
60 69 80
60 68 79
61 70 80
60 69 79
61 69 80
61 69 80
60 69 80
60 68 79
60 69 80
61 70 80
61 69 80
61 69 80
61 70 80
60 69 80
62 70 80
60 69 80
61 69 80
59 67 78
61 69 79
60 68 79
60 69 80
61 69 80
61 69 80
61 69 80
61 70 80
60 69 80
60 67 78
61 69 80
61 70 80
60 69 80
60 69 80
61 69 80
61 69 80
61 69 80
61 69 80
60 68 79
61 70 80
61 70 80
60 68 78
61 69 79
60 68 79
60 69 80
61 69 80
61 69 80
61 70 80
61 69 80
61 69 80
61 69 80
61 69 80
61 69 80
62 70 80
60 68 78
60 68 79
60 69 80
61 70 80
61 69 80
59 67 78
61 69 80
60 68 79
59 68 78
60 68 79
61 70 80
59 67 77
60 68 79
61 69 80
60 69 80
61 69 80
61 69 80
61 69 80
59 67 78
59 67 78
60 68 79
61 69 79
61 70 80
60 69 80
61 69 80
60 69 80
59 67 78
60 69 80
60 68 79
60 68 78
59 67 78
61 69 80
60 69 80
60 68 79
61 69 80
59 67 78
61 69 80
61 69 80
59 68 78
62 70 80
61 70 80
59 67 78
61 69 80
61 69 80
60 68 79
61 69 80
60 68 78
61 70 80
61 70 80
61 69 80
60 68 78
59 67 78
61 69 80
60 68 79
61 69 80
61 69 80
61 69 80
60 69 80
59 68 79
59 68 78
60 69 80
59 67 78
61 69 80
60 68 78
62 69 80
62 70 80
61 69 80
60 69 80
61 69 80
59 68 78
61 69 79
61 69 80
60 68 79
59 68 78
61 69 80
59 68 78
61 69 79
61 69 80
61 69 80
60 68 79
61 70 80
61 70 80
61 69 79
61 69 80
59 67 78
61 69 80
61 69 80
61 70 80
59 67 78
59 67 78
60 68 78
61 69 80
59 68 78
61 68 78
62 69 80
60 68 78
61 69 79
60 68 79
61 69 79
61 69 80
62 70 80
60 68 79
60 69 80
60 68 79
60 68 79
61 69 80
62 70 80
61 70 80
60 68 79
60 68 79
60 68 79
61 69 80
62 70 80
61 70 80
61 69 79
60 68 79
62 70 80
59 68 78
60 68 78
61 69 80
60 69 80
61 69 80
59 68 78
60 68 79
59 68 78
60 69 80
60 68 79
60 69 80
60 68 78
61 69 80
60 68 79
60 68 79
61 70 80
60 68 79
61 69 80
61 69 79
60 68 79
61 70 80
59 67 78
61 69 80
60 68 79
61 69 80
60 68 79
61 69 80
59 67 78
61 69 80
60 69 80
61 69 80
61 69 79
60 68 79
60 69 80
60 69 79
61 69 80
59 67 78
61 69 80
59 68 78
57 65 76
61 69 80
59 67 77
61 69 79
59 68 78
59 68 78
59 67 78
62 70 80
60 68 79
61 70 80
61 70 80
59 67 78
60 68 79
59 67 78
60 68 79
60 69 80
61 69 80
60 69 80
60 68 79
61 69 80
60 68 79
60 69 79
60 69 80
60 69 80
61 69 80
60 68 79
61 70 80
59 68 80
60 69 80
61 69 80
61 69 80
60 68 79
62 70 80
61 68 79
61 69 80
61 70 80
60 68 79
60 68 78
61 69 80
59 67 78
60 69 80
60 68 79
61 69 80
60 68 78
60 68 78
61 69 79
61 69 80
61 69 80
61 69 80
61 69 80
61 69 80
61 70 80
62 70 80
61 69 80
62 70 80
61 69 80
60 68 79
60 68 79
61 70 80
61 69 80
61 69 80
61 69 80
61 70 80
60 69 80
61 70 80
61 69 80
61 69 80
61 69 80
60 69 80
61 69 80
60 69 80
62 70 80
61 69 80
61 70 80
61 69 80
61 69 80
61 69 80
61 69 79
61 70 80
61 69 80
61 69 80
61 69 80
61 69 80
61 70 80
61 69 80
62 70 80
61 70 80
60 69 80
62 70 80
62 70 80
61 69 79
61 70 80
60 69 80
61 70 80
60 69 80
60 69 80
61 69 80
61 69 80
59 67 78
61 69 80
61 69 80
61 70 80
60 69 80
60 69 80
62 70 80
60 69 80
61 70 80
61 69 80
61 69 80
62 70 80
62 70 80
61 69 80
61 70 80
61 70 80
62 70 80
61 70 80
61 70 80
61 70 80
61 70 80
61 70 80
62 70 80
61 70 80
61 70 80
61 70 80
61 69 80
61 70 80
60 69 80
62 70 80
61 69 80
61 69 80
62 70 80
62 70 80
61 70 80
61 69 80
60 69 80
61 69 80
61 69 80
61 69 80
60 69 80
61 69 80
61 69 80
61 69 80
61 70 80
60 69 80
62 70 80
61 69 80
61 70 80
61 69 80
62 70 80
62 70 80
61 69 79
61 70 80
61 69 80
62 70 80
61 69 80
60 69 80
61 70 80
60 69 80
61 69 80
60 68 79
61 70 80
62 70 80
60 69 80
61 69 80
61 69 80
61 69 80
61 69 80
61 70 80
61 70 80
61 69 80
61 69 80
60 68 79
62 70 80
62 70 80
61 70 80
60 68 79
62 70 80
60 69 80
61 70 80
61 69 80
60 69 80
61 69 80
61 69 80
61 69 80
60 69 80
62 70 80
61 70 80
60 69 80
61 69 80
61 69 80
61 70 80
60 68 79
61 69 80
61 69 80
61 70 80
61 69 80
61 69 80
61 70 80
61 69 80
61 69 80
61 70 80
61 69 80
60 68 78
62 70 80
60 68 79
60 69 79
61 70 80
61 69 79
60 69 80
61 69 80
61 70 80
61 69 80
61 69 80
60 69 80
61 69 80
60 68 79
61 69 79
61 69 79
60 68 78
61 68 78
62 70 80
60 68 79
61 69 80
60 68 79
61 69 80
61 69 80
61 69 80
61 69 80
62 70 80
61 69 80
61 69 79
61 68 79
61 69 80
61 69 79
61 70 80
60 69 80
60 68 79
61 70 80
61 69 80
61 69 80
60 69 80
61 69 80
61 69 80
61 69 80
61 69 79
60 69 79
60 69 80
60 68 78
60 68 79
60 68 79
60 68 79
60 69 80
61 69 80
59 68 79
59 68 78
61 70 80
62 70 80
60 68 78
60 69 80
61 69 80
60 69 80
62 70 80
59 67 77
60 69 80
60 68 78
60 69 80
60 69 80
59 67 78
60 68 79
59 67 78
60 69 80
59 68 78
61 69 80
60 68 79
61 69 80
59 67 78
60 68 79
61 69 80
61 70 80
60 68 78
61 69 80
59 68 78
60 68 79
60 69 80
61 70 80
59 67 78
60 68 79
60 68 79
61 69 80
59 68 78
61 69 80
62 70 80
59 67 78
61 69 79
60 68 79
61 69 80
60 68 79
61 69 80
61 69 80
61 69 80
59 67 78
61 70 80
61 69 80
61 70 80
60 68 78
59 68 79
60 68 79
61 69 80
61 69 80
61 69 80
61 69 80
60 68 79
61 69 79
61 69 80
61 69 79
61 69 79
60 68 79
61 69 80
60 68 79
61 69 80
61 70 80
59 67 78
61 69 80
61 69 80
60 68 78
61 69 80
60 69 79
60 69 80
59 68 79
61 70 80
60 69 80
61 70 80
61 69 80
61 69 80
61 69 80
61 68 79
60 69 80
60 68 79
60 68 79
59 67 78
60 68 79
61 70 80
61 69 79
60 69 79
59 68 80
59 68 78
61 69 80
61 69 79
61 69 80
61 69 80
61 70 80
60 68 79
61 69 79
60 69 80
61 69 80
61 69 79
60 68 79
60 68 79
61 69 80
61 69 80
60 68 80
59 68 78
59 68 78
60 68 79
60 68 78
61 70 80
60 69 80
61 69 80
60 69 80
61 70 80
61 70 80
61 69 80
61 69 80
61 69 80
60 69 80
61 69 80
60 69 80
60 69 80
61 68 79
62 70 80
60 69 80
60 69 80
61 69 80
62 69 80
61 69 80
61 69 80
61 69 79
61 69 80
61 69 80
61 69 80
62 70 80
60 69 80
61 69 80
61 70 80
59 68 78
60 68 79
60 69 80
60 69 80
62 70 80
59 67 78
61 69 80
61 69 80
61 69 80
61 69 80
61 69 80
61 69 80
60 69 80
60 68 80
61 69 80
61 69 79
60 69 80
61 69 80
61 69 80
61 69 80
61 69 79
61 69 79
61 70 80
60 68 79
61 69 80
61 70 80
60 69 80
61 70 80
60 68 78
61 69 80
61 69 80
61 69 80
61 69 80
60 68 79
60 68 79
61 69 79
60 69 80
61 69 79
61 69 80
61 69 80
61 69 80
61 69 80
61 70 80
62 70 80
61 69 80
60 69 80
60 68 79
61 69 80
61 69 79
61 69 80
61 69 80
62 70 80
61 69 80
60 69 80
61 69 80
61 69 80
61 69 80
61 69 80
60 69 80
62 70 80
61 69 80
61 69 80
60 69 80
60 69 80
60 69 80
61 69 80
60 69 80
61 69 80
61 70 80
60 69 80
61 69 80
61 69 80
62 70 80
61 69 80
61 69 80
61 70 80
62 70 80
61 69 80
61 69 80
61 69 80
60 68 79
61 69 80
60 69 80
60 68 79
60 69 80
60 69 80
60 69 79
61 69 80
61 70 80
61 70 80
61 69 80
60 69 80
61 70 80
62 70 80
62 70 80
61 69 80
61 69 80
61 69 80
61 69 80
61 70 80
61 69 80
62 70 80
61 70 80
61 70 80
61 70 80
62 70 80
61 69 80
61 69 80
61 69 79
62 70 80
61 69 80
61 69 79
61 70 80
61 69 80
62 70 80
62 70 80
61 69 80
61 69 80
62 70 80
61 69 80
62 70 80
61 70 80
61 69 80
61 69 80
61 69 80
61 70 80
61 69 80
61 69 80
62 70 80
61 69 80
61 69 80
62 70 80
61 70 80
61 69 79
61 70 80
62 70 80
61 69 80
61 70 80
61 70 80
61 69 80
61 69 80
61 70 80
61 69 80
60 69 80
61 69 80
60 69 80
61 70 80
61 69 79
60 69 80
61 70 80
60 69 80
61 69 80
62 70 80
61 70 80
62 70 80
61 69 80
62 70 80
61 69 80
60 68 79
62 70 80
61 70 80
61 69 80
60 68 79
62 70 80
61 69 80
60 69 80
61 69 80
61 69 80
61 69 80
62 69 80
61 69 80
62 70 80
62 70 80
61 69 80
61 69 80
62 70 80
61 70 80
60 69 80
61 69 80
61 69 80
62 70 80
61 69 79
61 69 80
60 69 80
60 69 80
60 68 78
61 69 80
61 69 80
61 70 80
60 69 80
61 70 80
61 70 80
62 70 80
61 69 80
61 70 80
60 69 79
62 70 80
60 69 80
61 70 80
61 70 80
61 69 80
61 69 80
61 69 80
61 69 79
60 68 79
60 68 79
61 69 80
59 68 78
62 70 80
60 69 80
61 69 80
61 69 80
59 68 79
61 70 80
61 69 80
61 69 79
60 68 79
62 70 80
61 69 80
61 70 80
61 69 80
61 69 80
60 68 79
59 68 79
61 69 80
61 70 80
61 70 80
60 68 79
61 69 80
60 68 79
60 69 80
61 69 80
61 69 80
60 68 79
60 69 80
60 68 78
60 68 79
60 69 80
59 68 78
61 69 80
61 69 79
60 68 79
61 69 80
61 69 80
61 69 80
60 68 79
61 69 80
61 70 80
61 69 80
61 69 80
61 69 80
61 69 80
62 70 80
61 70 80
61 69 80
60 68 79
60 68 79
61 69 79
60 68 79
60 69 80
61 69 80
61 69 80
60 69 80
61 69 80
61 70 80
61 69 80
62 70 80
60 69 80
60 68 79
60 68 79
61 69 79
60 68 79
60 69 80
60 68 79
60 69 80
61 69 80
60 68 78
62 69 80
60 69 79
61 69 80
61 69 80
61 69 79
61 69 80
60 68 78
60 68 79
62 70 80
61 69 80
61 70 80
60 69 80
61 69 80
60 69 79
61 69 80
60 68 79
60 68 79
60 68 79
61 70 80
60 68 79
59 67 78
62 70 80
61 69 80
60 68 78
62 70 80
60 68 78
61 70 80
59 67 77
60 69 80
60 68 79
61 69 79
62 70 80
61 70 80
60 69 79
59 66 77
60 68 78
61 69 80
60 68 79
60 68 79
60 68 78
60 69 80
59 68 78
60 68 79
59 67 77
60 68 79
61 69 79
60 68 79
59 67 77
60 69 80
61 69 80
59 68 78
61 69 80
60 68 78
60 68 78
61 70 80
59 67 78
60 68 79
59 68 79
60 69 80
60 68 79
60 68 79
60 69 80
60 68 78
60 69 80
60 69 79
61 69 80
61 69 80
60 68 79
61 69 80
60 68 78
61 69 79
60 68 78
59 68 78
61 70 80
60 69 80
61 69 80
59 68 78
60 68 79
61 70 80
59 68 78
62 70 80
60 69 80
60 69 80
60 68 79
61 69 80
61 69 80
60 68 78
62 70 80
60 69 80
60 68 78
60 68 79
60 68 79
60 68 79
62 70 80
61 69 80
60 68 79
60 68 78
60 68 78
61 69 80
61 69 79
61 69 80
59 67 78
60 68 79
59 67 77
60 69 80
61 69 80
60 69 79
59 68 79
61 70 80
60 68 79
60 68 79
59 67 78
60 68 80
61 69 80
61 69 79
59 67 78
61 69 80
61 69 80
61 69 80
60 68 78
60 68 79
60 68 79
59 67 78
61 69 80
61 69 80
61 69 80
58 66 77
62 70 80
60 68 79
60 68 79
61 69 80
60 68 78
61 69 80
60 68 78
62 70 80
60 67 78
61 69 80
60 68 78
61 69 80
61 69 80
60 68 79
61 69 80
61 69 80
61 70 80
61 69 80
61 69 80
61 69 80
60 68 79
61 69 79
59 67 77
61 70 80
61 70 80
62 70 80
59 67 78
61 69 80
61 69 80
61 69 80
62 70 80
59 68 78
61 69 80
61 70 80
61 69 80
61 69 80
61 69 80
62 70 80
61 70 80
60 68 79
61 69 80
61 69 80
60 69 80
61 69 80
59 67 77
61 69 80
61 69 80
62 70 80
61 70 80
59 68 79
61 69 80
60 68 79
62 69 80
61 69 80
63 70 80
60 69 80
62 70 80
61 69 80
60 68 78
61 69 80
60 69 79
61 69 79
61 69 80
62 70 80
62 70 80
61 69 80
61 70 80
60 68 78
61 69 80
61 70 80
61 69 80
61 69 80
62 70 80
61 70 80
60 69 80
61 69 79
61 70 80
61 69 80
62 70 80
61 70 80
62 69 80
61 70 80
61 70 80
60 69 80
59 68 79
61 70 80
61 69 80
62 70 80
60 69 80
61 69 80
60 68 78
61 69 80
62 70 80
62 70 80
62 70 80
61 70 80
61 69 80
62 70 80
61 69 80
61 69 80
60 69 80
61 69 79
62 70 80
61 69 80
61 70 80
61 69 80
61 69 80
61 69 80
61 70 80
61 69 80
61 69 80
61 70 80
61 69 80
62 70 80
61 69 80
60 69 80
61 69 80
61 69 80
62 70 80
61 70 80
61 70 80
60 69 80
62 70 80
61 70 80
62 70 80
61 70 80
61 70 80
61 69 80
62 70 80
61 69 80
61 70 80
61 69 80
60 68 79
60 69 80
62 70 80
62 70 80
62 70 80
61 69 80
61 69 80
61 69 80
61 69 80
62 70 80
61 69 80
61 69 80
62 70 80
61 69 80
61 69 80
61 69 80
61 69 80
61 69 80
61 69 80
61 69 80
61 69 80
61 70 80
61 70 80
61 69 79
61 69 80
61 69 80
61 70 80
60 68 79
61 70 80
61 69 80
62 70 80
61 69 80
61 69 80
61 69 80
60 69 80
61 69 80
60 69 80
60 68 79
61 69 80
61 69 80
61 70 80
62 70 80
61 69 80
61 70 80
61 69 80
60 69 80
61 69 80
61 69 80
61 70 80
61 69 80
61 70 80
60 68 79
62 70 80
61 69 80
60 68 79
61 70 80
61 69 80
60 68 79
60 69 80
61 69 80
61 69 80
61 69 80
60 68 79
61 69 80
59 67 78
62 70 80
61 69 80
61 70 80
61 69 80
59 67 78
62 70 80
60 69 80
60 68 79
61 69 80
61 70 80
61 70 80
61 69 80
61 69 80
61 69 80
61 69 80
61 69 80
60 68 78
62 70 80
61 69 80
61 69 80
60 68 79
61 69 80
61 69 80
60 68 78
61 69 80
60 68 79
61 70 80
60 69 80
60 68 79
60 69 80
61 69 80
61 69 80
61 69 80
60 68 79
61 69 80
61 69 79
61 69 80
61 69 80
60 69 80
60 68 78
61 69 80
60 69 80
62 70 80
61 70 80
60 69 80
60 69 80
61 69 80
61 70 80
60 68 78
60 68 79
60 68 80
61 69 80
61 68 78
62 70 80
60 69 80
60 68 79
61 70 80
62 70 80
61 69 80
61 69 80
60 68 79
61 70 80
61 69 80
60 69 80
61 68 78
60 68 79
60 68 80
59 68 78
60 69 80
59 68 78
61 69 80
62 70 80
59 67 78
58 66 76
61 69 80
60 69 80
60 68 78
61 70 80
60 68 79
59 67 78
59 68 78
62 70 80
60 69 80
60 69 80
61 69 79
61 69 80
60 68 79
60 69 80
59 68 78
60 69 80
61 69 80
61 69 80
60 68 79
61 69 80
60 68 79
61 69 80
61 69 80
61 70 80
59 68 79
61 69 80
61 69 80
61 69 80
61 69 79
60 68 78
60 68 79
60 68 79
60 69 80
60 68 79
59 67 78
62 70 80
61 69 80
60 69 80
60 68 78
60 68 79
60 68 78
60 68 78
61 69 80
60 68 79
60 69 80
62 70 80
60 68 79
60 68 79
62 70 80
60 68 79
61 69 80
60 69 79
60 69 79
60 69 80
58 67 78
60 68 79
60 68 79
60 68 79
61 69 80
59 68 78
61 70 80
61 69 80
61 70 80
61 70 80
60 68 78
60 68 78
60 68 79
62 70 80
59 68 78
59 68 78
61 70 80
60 68 79
61 69 79
60 68 78
60 67 78
61 69 80
60 68 78
59 67 78
60 69 80
59 68 78
60 68 78
61 69 80
60 69 80
59 67 78
60 68 79
62 70 80
60 68 78
61 69 80
61 69 80
60 68 79
61 69 80
60 68 78
61 69 80
61 69 80
60 69 80
61 70 80
61 69 80
60 69 80
59 68 78
61 69 80
62 70 80
59 67 78
61 69 80
60 69 80
60 69 80
59 67 78
61 69 80
61 69 80
60 68 79
60 69 80
58 66 76
62 70 80
61 69 80
61 70 80
61 69 80
61 69 80
59 68 79
61 69 80
61 69 80
61 70 80
61 69 80
61 69 80
60 68 79
59 68 78
61 69 80
59 68 78
61 69 80
61 69 80
61 69 80
59 67 78
61 69 80
60 68 79
61 69 80
59 67 78
61 69 80
60 68 79
61 69 80
60 68 79
59 68 78
61 70 80
61 69 80
61 69 80
60 69 80
61 69 80
60 68 79
61 69 80
61 69 80
60 68 79
62 70 80
62 70 80
62 70 80
61 69 79
61 70 80
60 68 80
61 69 80
60 69 80
60 68 79
61 69 80
61 69 80
61 69 80
60 69 80
61 70 80
61 70 80
60 69 80
60 68 78
60 68 79
61 69 80
59 68 78
60 68 78
60 69 80
61 69 80
61 69 80
61 70 80
61 69 80
60 68 78
60 69 80
61 69 80
61 70 80
60 68 79
61 70 80
61 69 80
61 69 80
61 69 80
61 70 80
61 69 80
61 69 80
61 69 80
61 69 80
61 69 80
61 70 80
60 69 80
61 70 80
60 69 80
60 69 79
62 70 80
60 69 79
60 69 80
61 69 80
60 69 79
61 69 80
62 70 80
61 69 80
61 70 80
61 69 80
60 69 80
60 68 79
61 69 80
61 70 80
61 69 80
61 69 80
61 70 80
61 69 80
61 69 80
62 70 80
60 69 80
61 69 80
61 69 80
61 69 80
61 69 80
61 70 80
61 69 80
62 70 80
60 69 80
61 69 80
61 69 80
61 69 80
61 69 80
61 69 80
61 70 80
62 70 80
62 70 80
61 69 80
61 69 80
61 70 80
59 67 78
62 70 80
61 70 80
61 70 80
61 70 80
61 70 80
61 69 80
61 69 80
62 70 80
61 69 80
61 69 80
61 70 80
61 69 80
61 70 80
62 70 80
61 70 80
61 69 80
61 69 80
61 69 80
61 70 80
61 69 80
61 69 80
61 69 80
61 70 80
62 70 80
61 69 80
61 69 80
62 70 80
62 70 80
61 69 80
61 70 80
62 70 80
62 70 80
61 69 80
60 69 80
61 69 80
61 69 80
61 70 80
60 69 80
61 69 80
61 69 80
61 69 80
61 70 80
61 70 80
62 69 80
62 70 80
62 70 80
60 68 79
61 69 80
61 69 80
61 70 80
61 69 80
61 70 80
61 70 80
60 68 79
61 69 80
62 70 80
60 69 80
62 70 80
61 69 80
60 69 80
62 70 80
62 69 80
61 69 80
61 70 80
60 68 79
60 68 79
60 68 79
61 69 80
62 70 80
59 68 79
61 69 80
60 68 79
61 69 80
62 70 80
60 69 80
60 69 80
61 69 80
61 69 80
61 69 79
61 70 80
60 69 80
62 70 80
60 69 80
60 69 80
61 69 80
61 69 79
61 69 80
61 70 80
61 70 80
61 69 80
61 69 80
61 69 80
61 69 80
60 69 80
60 68 79
60 68 80
60 68 79
61 69 80
61 69 80
62 70 80
61 69 80
61 69 80
61 69 79
60 68 79
61 69 80
61 69 80
61 69 80
60 69 80
61 69 80
62 70 80
61 69 80
61 69 80
61 69 79
60 69 80
58 67 77
61 70 80
61 70 80
61 70 80
60 68 79
61 69 80
61 70 80
60 68 79
61 69 80
59 68 79
59 67 78
59 68 79
59 67 78
61 69 80
60 68 78
61 69 80
61 69 80
60 69 80
60 69 80
61 69 80
62 70 80
62 70 80
61 69 80
61 69 80
59 68 78
60 69 80
61 69 79
61 70 80
59 68 78
61 70 80
60 68 79
61 69 80
61 69 80
61 69 80
60 68 79
61 70 80
60 69 80
60 68 79
62 70 80
61 69 80
60 69 80
60 68 79
60 68 79
60 68 79
60 68 79
62 70 80
60 69 80
61 69 80
61 69 80
60 68 78
61 69 79
61 69 80
62 70 80
61 69 80
60 68 79
61 69 80
59 67 78
61 69 79
61 70 80
61 69 80
61 69 80
60 68 78
61 69 80
61 69 80
60 69 80
60 68 78
62 70 80
61 69 80
61 69 80
60 68 79
61 70 80
61 69 80
61 69 80
59 67 78
60 69 80
59 68 78
60 68 78
60 68 79
60 69 80
60 68 79
59 68 78
60 69 80
61 69 79
60 68 79
61 69 79
60 68 78
61 69 80
61 68 78
61 69 80
61 70 80
61 69 80
59 67 78
61 69 79
60 69 80
62 69 80
59 68 78
60 69 80
60 68 79
60 67 78
61 69 80
61 69 79
60 69 79
61 69 79
61 69 80
60 69 79
61 69 80
58 66 77
60 68 79
59 67 78
61 69 80
60 68 79
59 67 77
60 68 79
61 69 80
61 69 80
61 70 80
61 69 80
59 67 77
62 70 80
60 68 79
60 69 80
60 68 79
61 69 80
59 67 78
59 68 79
60 68 79
61 69 79
62 69 80
61 69 79
58 66 76
60 68 78
59 67 78
60 68 79
60 68 78
61 69 79
60 68 79
60 69 80
61 69 80
62 69 80
60 68 78
59 67 78
60 68 79
59 67 78
60 69 80
61 69 80
60 68 79
60 68 79
61 69 80
60 68 78
61 69 79
60 68 79
59 67 78
61 69 80
62 70 80
61 69 79
61 70 80
60 69 80
62 70 80
61 69 80
60 69 80
60 68 78
61 70 80
60 68 78
62 70 80
61 69 79
60 68 78
61 69 80
60 69 80
59 67 78
61 69 80
62 69 80
61 69 80
60 68 78
61 69 80
59 68 78
59 68 79
61 70 80
60 69 80
58 66 77
60 68 78
60 69 80
61 69 80
60 69 80
60 69 80
62 69 80
61 70 80
60 69 80
60 68 79
59 68 79
61 69 80
61 70 80
60 68 79
60 68 79
61 70 80
60 68 79
60 68 79
62 70 80
61 70 80
61 69 80
60 68 79
61 69 80
60 68 79
60 69 80
60 68 78
61 69 80
61 70 80
59 67 78
60 69 80
61 69 80
61 69 80
61 70 80
61 69 80
62 70 80
60 69 80
61 70 80
61 70 80
61 69 80
61 69 80
62 70 80
61 69 80
61 69 80
62 70 80
61 69 80
61 69 79
60 68 79
61 69 80
61 69 80
62 70 80
61 70 80
62 70 80
61 69 80
61 70 80
61 70 80
61 69 80
61 69 80
61 70 80
62 70 80
60 68 79
62 70 80
61 69 80
60 68 79
61 69 80
61 69 80
60 68 78
61 69 80
60 69 80
62 69 80
60 69 79
61 70 80
61 69 80
61 69 80
62 70 80
63 70 80
61 69 80
61 69 80
60 69 80
61 69 80
61 70 80
61 70 80
62 70 80
61 69 80
60 68 78
61 70 80
61 70 80
60 69 80
60 68 79
60 69 80
60 68 78
61 69 80
62 69 80
61 69 80
61 69 80
60 68 80
62 70 80
60 69 80
61 69 80
61 70 80
62 70 80
61 69 80
61 69 80
61 69 80
61 70 80
61 69 80
61 69 80
61 69 80
60 68 79
60 69 80
61 69 80
61 69 80
61 69 80
62 70 80
61 70 80
60 68 79
60 69 80
60 69 80
60 68 78
61 70 80
60 69 80
61 69 80
61 69 80
62 70 80
61 69 80
61 69 80
61 69 80
61 69 80
62 69 80
62 70 80
61 69 80
61 70 80
61 70 80
61 70 80
61 69 80
62 70 80
61 69 80
62 70 80
61 70 80
62 70 80
61 70 80
62 70 80
61 70 80
61 69 80
61 70 80
61 70 80
61 69 80
61 69 80
61 69 80
61 69 80
61 70 80
62 70 80
62 70 80
61 70 80
61 69 80
60 69 80
62 70 80
60 69 80
60 68 79
61 69 80
60 69 80
60 69 80
60 68 79
61 69 79
60 68 79
61 69 80
62 70 80
61 69 80
61 69 80
61 69 80
61 70 80
61 69 80
60 69 80
62 70 80
61 69 80
61 69 80
60 68 79
60 68 79
62 70 80
61 70 80
61 69 80
60 69 80
61 69 80
61 70 80
62 70 80
59 68 79
60 69 80
62 70 80
61 69 80
60 69 80
62 70 80
61 69 80
62 70 80
60 68 79
61 69 80
61 70 80
61 69 80
60 69 80
61 69 80
62 70 80
61 69 80
62 70 80
61 69 80
61 70 80
62 70 80
60 69 80
61 69 80
61 69 80
61 69 80
61 69 80
61 70 80
61 69 80
61 69 80
61 69 79
62 70 80
61 69 80
60 69 80
62 70 80
60 69 80
61 69 80
61 69 80
59 68 79
60 68 79
61 69 80
62 70 80
60 69 80
62 70 80
61 69 80
61 69 79
60 69 80
61 69 80
61 69 80
60 68 79
61 69 80
61 69 80
60 68 78
61 69 80
61 70 80
60 68 79
61 70 80
60 68 79
59 67 78
61 69 80
61 69 80
61 69 80
61 69 80
59 67 78
60 69 80
60 69 80
61 69 80
61 69 79
60 68 78
60 68 78
61 70 80
61 69 80
61 70 80
60 68 79
60 69 80
61 69 80
61 69 80
59 68 78
61 70 80
60 68 79
60 68 78
61 69 80
60 68 78
60 69 80
60 69 80
60 68 80
60 68 79
58 66 77
60 68 79
61 69 80
60 68 78
61 69 80
61 70 80
60 68 79
60 68 79
61 69 80
59 67 78
62 70 80
61 69 80
60 68 80
61 69 80
60 68 78
62 70 80
61 69 79
62 69 80
59 68 79
61 69 80
60 68 78
61 70 80
60 68 79
60 69 80
59 66 76
60 68 78
60 68 78
60 68 79
59 67 78
61 69 80
61 69 80
60 68 78
62 70 80
61 69 80
61 69 80
61 69 80
61 69 80
60 68 78
60 69 80
62 70 80
61 69 80
60 68 79
61 69 80
59 68 78
61 69 80
60 69 80
60 68 79
60 68 79
61 69 80
61 69 80
60 69 80
62 69 80
62 70 80
61 69 80
61 69 80
61 69 80
60 68 79
60 68 78
61 69 79
61 70 80
61 70 80
61 70 80
61 69 80
61 69 79
61 69 79
61 69 80
61 69 79
60 69 80
60 68 78
60 68 78
60 69 80
60 69 80
59 67 78
61 69 79
61 68 78
60 69 80
60 68 78
60 68 78
60 68 79
60 68 78
60 68 79
60 69 80
60 68 78
61 69 80
60 68 78
61 69 79
61 69 80
60 68 79
61 69 80
60 68 79
58 66 76
61 70 80
60 68 79
59 67 77
61 69 80
59 67 78
61 69 80
61 69 80
59 67 78
61 69 80
61 69 80
60 69 79
59 68 79
60 68 78
60 68 79
61 70 80
62 70 80
60 68 78
59 67 78
60 68 79
61 69 80
61 69 80
61 69 79
62 70 80
60 69 80
62 70 80
61 70 80
60 69 80
60 68 79
60 69 80
59 68 79
61 69 79
59 68 78
60 69 79
62 70 80
61 69 80
60 68 79
62 70 80
61 69 80
59 68 78
61 70 80
61 70 80
60 68 79
62 70 80
60 68 78
61 69 80
62 70 80
61 69 80
61 69 80
61 69 79
62 70 80
60 68 79
60 69 80
61 69 80
60 68 79
60 68 79
62 70 80
60 69 80
62 70 80
61 69 79
60 68 78
61 69 80
60 68 78
60 68 79
61 70 80
59 67 78
61 69 80
62 70 80
61 69 80
62 70 80
61 70 80
60 69 80
61 69 80
61 70 80
60 69 79
61 69 79
61 69 80
60 68 79
59 67 78
61 69 80
61 69 80
61 69 80
60 68 78
61 70 80
62 70 80
61 69 79
61 70 80
60 69 80
61 70 80
60 69 79
61 69 80
60 68 79
61 69 80
59 68 79
61 69 80
62 70 80
61 69 80
61 69 80
61 70 80
60 69 80
62 70 80
60 68 78
61 69 80
61 69 80
61 70 80
60 69 80
61 70 80
62 70 80
61 70 80
59 68 78
61 70 80
60 68 79
60 68 79
60 69 80
61 69 80
60 69 80
61 69 80
61 69 80
61 69 80
61 69 80
61 69 80
61 69 80
60 69 80
60 69 80
59 68 78
61 70 80
61 69 80
62 70 80
60 69 80
61 70 80
61 69 80
61 69 80
61 69 80
60 69 80
61 69 80
61 69 80
61 70 80
61 70 80
61 69 80
60 68 79
62 70 80
61 69 80
62 70 80
60 69 80
61 70 80
61 69 80
60 69 80
61 69 80
62 70 80
60 69 80
61 70 80
61 69 80
61 70 80
61 69 80
61 69 80
61 69 80
60 69 80
61 69 80
61 69 80
61 70 80
60 69 80
61 69 80
61 69 80
61 69 80
61 70 80
62 70 80
61 70 80
61 69 80
62 70 80
60 69 80
61 69 80
61 70 80
60 69 80
61 70 80
60 69 80
61 69 80
60 69 80
61 69 80
61 69 80
62 70 80
60 68 79
62 70 80
60 69 80
61 70 80
61 69 80
61 69 80
61 69 80
61 70 80
61 69 80
61 69 80
61 69 80
61 69 80
60 69 80
61 70 80
61 69 80
61 69 80
61 69 80
61 70 80
61 69 80
62 70 80
62 70 80
61 69 80
60 69 80
61 70 80
61 69 80
62 70 80
62 70 80
61 70 80
61 69 80
61 69 80
59 67 78
61 70 80
61 69 80
61 69 80
61 69 80
61 70 80
61 70 80
62 70 80
61 69 80
62 70 80
61 69 80
60 69 80
62 70 80
61 69 80
61 69 80
61 69 80
61 69 80
61 70 80
61 70 80
61 69 80
61 70 80
61 69 80
61 69 79
60 68 79
61 70 80
61 69 80
60 69 80
61 69 80
61 69 80
62 70 80
62 70 80
62 70 80
60 69 80
61 69 80
61 70 80
61 69 80
61 69 80
60 69 80
62 70 80
60 69 80
61 69 80
61 69 80
60 68 78
61 69 80
61 70 80
61 69 80
60 69 80
60 68 79
61 69 80
61 70 80
61 69 80
61 69 80
60 68 79
60 69 80
61 69 80
61 69 80
61 69 80
59 68 79
61 69 80
58 67 78
61 70 80
62 70 80
60 69 80
60 68 78
61 70 80
61 69 80
60 68 79
61 70 80
62 70 80
61 69 79
60 69 79
60 69 80
61 69 80
62 70 80
61 69 80
60 68 79
61 69 80
60 69 80
61 69 79
61 69 80
62 70 80
61 69 80
61 69 80
60 68 78
61 70 80
61 69 80
61 69 80
61 69 80
60 69 80
60 68 80
61 69 80
60 68 79
61 69 80
61 69 80
60 68 79
61 70 80
61 69 80
60 69 80
61 69 80
60 69 80
61 69 80
59 68 78
60 69 80
61 69 80
61 69 80
61 69 80
61 69 80
61 70 80
61 70 80
59 67 77
61 69 80
60 68 79
61 69 80
62 70 80
61 69 80
61 70 80
60 68 79
60 69 80
61 69 80
61 69 80
61 69 80
61 69 80
61 69 80
61 69 80
58 67 78
60 69 80
59 68 79
60 69 80
60 69 80
61 69 79
60 68 78
61 69 80
61 69 80
61 69 79
60 68 79
60 68 79
61 70 80
60 68 79
60 68 79
61 69 80
58 66 77
60 69 80
62 69 80
60 68 78
61 69 79
60 69 80
61 69 80
61 69 80
61 69 79
60 68 79
61 69 80
61 70 80
60 68 79
62 70 80
61 69 80
59 67 77
61 69 80
61 69 80
61 69 80
60 68 79
61 69 80
60 69 80
60 69 79
60 68 78
61 69 80
62 69 80
60 68 78
61 70 80
59 68 78
60 69 80
61 69 80
60 68 79
60 68 79
59 67 78
60 68 79
61 69 80
61 69 79
61 70 80
60 69 80
61 69 80
61 69 80
61 69 80
60 68 79
60 68 79
60 68 79
59 67 78
61 69 80
61 69 80
62 70 80
60 67 78
61 69 80
61 69 80
60 68 79
61 69 79
60 69 80
61 70 80
61 69 80
60 68 78
61 69 80
61 69 80
60 69 80
59 68 79
60 68 79
61 70 80
61 69 80
60 68 79
61 69 80
61 70 80
60 69 80
61 69 80
61 69 80
60 68 79
61 69 79
59 68 78
61 69 80
61 69 80
62 70 80
61 70 80
60 69 79
60 68 79
59 68 78
60 68 79
61 69 80
60 68 78
61 69 80
59 67 78
60 68 79
60 68 79
60 69 80
59 68 78
61 69 79
59 66 77
61 70 80
60 69 80
61 70 80
60 68 79
62 70 80
60 69 80
61 69 80
61 69 80
61 69 80
61 69 80
60 69 80
60 69 80
61 69 80
60 69 80
60 68 79
61 69 80
61 69 80
62 70 80
60 69 80
62 70 80
61 69 79
61 69 80
60 69 80
62 70 80
62 69 80
60 68 79
61 69 80
60 68 78
62 70 80
60 69 80
61 69 79
61 69 80
61 69 80
60 69 80
61 69 80
60 68 79
61 69 80
61 69 80
60 68 79
60 69 80
61 69 80
62 70 80
61 70 80
61 69 80
61 69 80
62 70 80
61 69 80
61 70 80
62 70 80
62 70 80
60 68 79
60 68 79
61 69 80
61 70 80
61 69 80
60 68 79
61 70 80
61 70 80
60 69 80
62 70 80
61 69 80
60 69 80
61 69 80
61 69 79
61 69 80
61 69 80
61 69 80
61 69 80
61 69 80
62 70 80
60 68 79
60 68 79
61 69 80
60 68 78
61 70 80
61 69 80
61 69 80
61 69 80
62 70 80
61 69 80
62 70 80
61 69 80
61 69 80
60 69 80
60 68 79
60 69 80
62 70 80
60 69 80
61 69 80
62 70 80
61 69 80
61 69 80
62 69 80
61 69 80
62 70 80
61 70 80
60 68 79
61 69 80
61 70 80
61 69 80
61 70 80
62 70 80
60 69 80
61 69 80
62 70 80
62 70 80
60 69 80
62 70 80
61 70 80
61 69 80
61 70 80
61 69 80
61 69 80
62 70 80
61 69 80
61 69 79
62 70 80
61 70 80
61 69 80
61 70 80
61 69 80
61 69 80
62 70 80
61 70 80
60 69 80
62 70 80
61 70 80
61 69 79
61 69 80
60 69 80
62 70 80
