P3
400 225
255
172 197 0
173 197 0
174 197 0
173 197 0
175 198 0
174 198 0
175 198 0
178 200 0
173 197 0
176 199 0
175 198 0
176 199 0
174 198 0
174 198 0
172 197 0
174 197 0
176 199 0
174 198 0
173 197 0
174 198 0
174 198 0
176 198 0
175 198 0
172 197 0
177 199 0
174 198 0
174 197 0
174 198 0
174 198 0
177 199 0
173 197 0
174 197 0
176 198 0
173 197 0
174 198 0
174 198 0
178 200 0
175 198 0
173 197 0
174 198 0
175 198 0
176 198 0
173 197 0
175 198 0
175 198 0
174 198 0
175 198 0
173 197 0
174 198 0
173 197 0
174 197 0
171 195 0
174 198 0
177 199 0
175 198 0
174 198 0
175 198 0
173 197 0
174 198 0
173 197 0
174 198 0
173 197 0
173 197 0
174 198 0
173 197 0
177 199 0
177 199 0
175 198 0
175 198 0
173 197 0
174 198 0
176 198 0
173 197 0
174 197 0
174 198 0
176 199 0
175 198 0
174 198 0
175 198 0
174 198 0
175 198 0
175 198 0
176 199 0
174 197 0
175 198 0
175 198 0
172 196 0
176 198 0
174 198 0
175 198 0
174 198 0
173 197 0
175 198 0
178 200 0
175 198 0
174 198 0
172 197 0
174 197 0
173 197 0
174 198 0
176 199 0
175 198 0
177 199 0
173 197 0
172 196 0
176 199 0
174 198 0
175 198 0
176 199 0
173 197 0
175 198 0
175 198 0
174 198 0
174 198 0
176 199 0
173 197 0
175 198 0
175 198 0
174 198 0
174 197 0
176 199 0
174 197 0
175 198 0
174 198 0
175 198 0
177 199 0
176 199 0
172 197 0
172 196 0
173 197 0
174 198 0
177 199 0
176 199 0
173 197 0
175 198 0
175 198 0
176 199 0
176 198 0
176 198 0
175 198 0
173 197 0
173 197 0
173 197 0
177 199 0
176 198 0
174 198 0
175 198 0
177 199 0
176 199 0
173 197 0
173 197 0
176 199 0
174 197 0
174 198 0
175 198 0
174 198 0
174 198 0
172 197 0
175 198 0
176 199 0
176 199 0
176 198 0
173 196 0
173 197 0
175 198 0
173 197 0
178 200 0
174 197 0
173 197 0
175 198 0
172 197 0
175 198 0
170 195 0
174 197 0
174 197 0
174 197 0
175 198 0
175 198 0
174 198 0
176 199 0
176 198 0
174 198 0
175 198 0
177 199 0
173 197 0
175 198 0
175 198 0
173 197 0
176 199 0
176 198 0
173 197 0
174 198 0
175 198 0
175 198 0
174 198 0
173 197 0
175 198 0
173 197 0
176 198 0
175 198 0
175 198 0
174 198 0
173 197 0
173 197 0
174 197 0
174 198 0
172 196 0
174 198 0
174 197 0
175 198 0
176 198 0
175 198 0
174 198 0
176 199 0
172 196 0
176 198 0
172 196 0
176 199 0
175 198 0
175 198 0
174 198 0
173 197 0
175 198 0
174 197 0
173 197 0
173 197 0
175 198 0
174 198 0
172 196 0
176 198 0
174 198 0
174 197 0
174 198 0
175 198 0
174 198 0
175 198 0
175 198 0
175 198 0
171 195 0
173 197 0
173 197 0
172 197 0
175 198 0
175 198 0
174 197 0
173 197 0
174 197 0
175 198 0
174 198 0
174 198 0
175 198 0
175 198 0
175 198 0
174 198 0
172 196 0
176 198 0
171 196 0
173 196 0
172 196 0
174 197 0
174 198 0
172 196 0
174 197 0
175 198 0
175 198 0
176 198 0
176 199 0
175 198 0
176 198 0
174 198 0
175 198 0
173 196 0
176 198 0
177 199 0
175 198 0
173 197 0
174 198 0
174 197 0
174 197 0
177 199 0
174 198 0
175 198 0
172 197 0
174 198 0
174 198 0
175 198 0
171 196 0
173 197 0
172 196 0
175 198 0
174 197 0
175 198 0
174 198 0
176 199 0
173 197 0
173 197 0
173 197 0
174 198 0
173 197 0
175 198 0
174 198 0
175 198 0
172 196 0
175 198 0
174 198 0
174 198 0
174 197 0
172 197 0
173 197 0
173 197 0
175 198 0
174 198 0
176 199 0
171 196 0
172 197 0
173 197 0
175 198 0
174 197 0
175 197 0
175 198 0
176 199 0
170 196 0
174 198 0
175 198 0
174 198 0
174 198 0
173 197 0
174 198 0
172 197 0
174 197 0
173 197 0
172 197 0
173 197 0
174 198 0
174 198 0
173 197 0
174 198 0
175 198 0
176 199 0
172 197 0
173 197 0
175 198 0
175 198 0
175 198 0
175 198 0
174 198 0
172 197 0
176 199 0
176 199 0
169 194 0
172 197 0
174 198 0
175 198 0
174 198 0
176 198 0
173 197 0
173 197 0
175 198 0
175 198 0
174 198 0
174 198 0
176 199 0
176 199 0
175 198 0
174 197 0
173 197 0
174 197 0
172 197 0
176 198 0
174 198 0
174 197 0
174 197 0
173 196 0
175 198 0
176 199 0
177 199 0
175 198 0
173 197 0
173 196 0
174 197 0
174 197 0
173 197 0
174 197 0
176 199 0
176 199 0
175 198 0
176 199 0
175 198 0
176 199 0
176 199 0
173 197 0
175 198 0
174 197 0
176 198 0
173 197 0
173 197 0
176 199 0
174 197 0
175 198 0
175 198 0
174 197 0
174 198 0
173 197 0
175 198 0
173 197 0
176 199 0
174 197 0
176 199 0
176 199 0
175 198 0
174 197 0
175 198 0
172 197 0
174 197 0
174 198 0
173 197 0
173 197 0
172 197 0
175 198 0
174 197 0
174 198 0
173 197 0
175 198 0
176 199 0
175 198 0
173 197 0
175 198 0
175 198 0
174 197 0
173 197 0
174 198 0
178 200 0
174 197 0
175 198 0
176 198 0
173 197 0
174 198 0
173 197 0
172 197 0
173 197 0
173 197 0
174 198 0
174 197 0
174 198 0
174 198 0
175 198 0
174 198 0
174 197 0
174 198 0
173 197 0
174 198 0
174 198 0
173 197 0
174 198 0
176 199 0
174 198 0
174 197 0
175 198 0
176 199 0
173 197 0
177 199 0
174 198 0
171 196 0
176 199 0
174 197 0
174 197 0
176 199 0
174 198 0
174 198 0
175 198 0
177 199 0
175 198 0
175 198 0
173 197 0
176 199 0
175 198 0
173 197 0
174 197 0
174 198 0
174 198 0
174 198 0
173 197 0
175 198 0
174 198 0
174 197 0
175 198 0
176 198 0
174 198 0
173 197 0
173 197 0
175 198 0
174 197 0
174 197 0
173 197 0
173 197 0
173 197 0
175 198 0
173 197 0
174 197 0
175 198 0
175 198 0
173 197 0
172 196 0
175 198 0
173 197 0
175 198 0
175 198 0
175 198 0
173 197 0
174 198 0
174 198 0
173 197 0
173 197 0
173 197 0
174 198 0
174 197 0
175 198 0
175 198 0
176 199 0
173 197 0
174 198 0
174 197 0
174 197 0
175 198 0
173 197 0
177 199 0
173 197 0
175 198 0
176 199 0
172 197 0
177 199 0
174 198 0
173 197 0
173 197 0
176 198 0
175 198 0
173 197 0
175 198 0
174 198 0
172 197 0
174 197 0
172 197 0
174 198 0
176 198 0
175 198 0
175 198 0
175 198 0
174 198 0
175 198 0
172 196 0
175 198 0
176 199 0
175 198 0
175 198 0
174 198 0
174 198 0
174 198 0
173 197 0
176 199 0
174 198 0
172 196 0
176 199 0
175 198 0
175 197 0
173 197 0
174 198 0
171 196 0
175 198 0
176 198 0
175 198 0
174 198 0
174 198 0
173 197 0
174 198 0
172 196 0
174 198 0
174 197 0
175 198 0
176 199 0
172 196 0
174 198 0
175 198 0
175 198 0
174 198 0
173 197 0
172 196 0
174 198 0
174 198 0
175 198 0
175 198 0
173 196 0
173 197 0
172 197 0
177 199 0
177 199 0
173 196 0
175 198 0
174 197 0
174 197 0
173 197 0
178 199 0
176 198 0
175 198 0
173 197 0
174 198 0
175 198 0
176 198 0
173 196 0
175 197 0
173 197 0
176 199 0
172 196 0
175 198 0
176 199 0
174 197 0
176 198 0
175 198 0
173 197 0
173 197 0
175 198 0
175 198 0
173 197 0
175 198 0
173 197 0
177 199 0
176 199 0
175 198 0
173 197 0
175 198 0
175 198 0
173 197 0
176 199 0
175 198 0
172 196 0
172 196 0
175 198 0
174 198 0
174 197 0
174 198 0
174 197 0
175 198 0
174 197 0
175 198 0
175 198 0
175 198 0
175 198 0
173 197 0
173 197 0
173 197 0
175 198 0
172 197 0
176 198 0
174 198 0
173 197 0
177 199 0
177 199 0
176 199 0
174 198 0
175 197 0
177 199 0
175 198 0
178 199 0
177 199 0
173 197 0
175 198 0
173 197 0
174 198 0
175 198 0
174 197 0
174 198 0
173 197 0
175 198 0
174 198 0
174 197 0
176 199 0
175 198 0
171 195 0
175 198 0
176 199 0
173 197 0
175 198 0
172 196 0
173 197 0
175 198 0
171 196 0
174 197 0
175 198 0
173 197 0
173 197 0
173 197 0
175 198 0
174 197 0
175 198 0
175 198 0
175 198 0
176 198 0
175 198 0
175 198 0
174 198 0
175 198 0
176 198 0
175 198 0
173 197 0
174 198 0
176 199 0
174 197 0
174 198 0
174 198 0
173 197 0
174 198 0
174 198 0
175 198 0
176 198 0
175 198 0
175 198 0
174 198 0
174 198 0
175 198 0
175 198 0
173 197 0
176 198 0
174 198 0
172 195 0
173 197 0
176 199 0
173 197 0
175 198 0
174 198 0
173 197 0
176 198 0
174 198 0
176 198 0
173 197 0
173 197 0
173 197 0
176 198 0
175 198 0
174 198 0
175 198 0
175 198 0
175 198 0
176 199 0
173 197 0
173 197 0
175 198 0
177 199 0
175 198 0
174 198 0
176 198 0
174 198 0
176 198 0
177 199 0
175 198 0
175 198 0
174 197 0
175 198 0
174 198 0
175 198 0
174 197 0
177 199 0
173 197 0
174 198 0
174 198 0
175 198 0
175 198 0
174 198 0
175 198 0
170 195 0
173 197 0
174 197 0
176 199 0
176 199 0
175 198 0
175 198 0
172 197 0
178 200 0
172 196 0
175 198 0
175 198 0
174 198 0
176 199 0
175 198 0
175 198 0
175 198 0
174 197 0
175 198 0
174 198 0
175 198 0
175 198 0
177 199 0
174 197 0
175 198 0
173 197 0
180 201 0
173 197 0
175 198 0
174 198 0
173 197 0
173 197 0
174 198 0
174 198 0
176 199 0
177 199 0
174 198 0
175 198 0
174 197 0
174 198 0
175 198 0
177 199 0
175 198 0
174 198 0
173 197 0
175 198 0
173 197 0
173 197 0
174 198 0
175 198 0
174 197 0
175 198 0
175 198 0
176 199 0
175 198 0
172 197 0
173 197 0
175 198 0
174 198 0
176 198 0
173 197 0
174 198 0
177 199 0
174 197 0
175 198 0
175 198 0
176 199 0
171 196 0
173 197 0
174 198 0
173 197 0
173 197 0
173 197 0
174 197 0
173 197 0
172 197 0
175 197 0
175 198 0
173 197 0
173 197 0
175 198 0
172 196 0
176 199 0
172 197 0
173 197 0
174 198 0
175 198 0
173 197 0
173 197 0
175 198 0
174 198 0
175 198 0
175 198 0
175 198 0
174 198 0
175 198 0
175 198 0
173 197 0
175 198 0
175 198 0
174 198 0
175 198 0
173 197 0
172 196 0
173 197 0
175 198 0
174 197 0
176 199 0
175 198 0
175 198 0
175 198 0
175 198 0
174 197 0
176 199 0
174 198 0
173 197 0
175 198 0
171 196 0
174 198 0
173 197 0
175 198 0
175 198 0
173 197 0
173 197 0
176 199 0
175 198 0
174 197 0
175 198 0
174 198 0
174 198 0
175 198 0
174 198 0
178 200 0
178 200 0
174 198 0
176 199 0
175 198 0
174 198 0
176 199 0
173 197 0
175 198 0
172 197 0
173 197 0
172 197 0
174 198 0
175 198 0
174 197 0
174 198 0
175 198 0
172 196 0
174 198 0
176 198 0
174 197 0
174 197 0
174 197 0
174 198 0
175 198 0
174 198 0
172 196 0
174 197 0
178 200 0
174 198 0
174 198 0
174 198 0
175 198 0
174 198 0
174 197 0
171 196 0
174 197 0
172 196 0
173 197 0
174 198 0
175 198 0
174 197 0
178 200 0
176 199 0
176 198 0
174 197 0
174 197 0
173 197 0
173 197 0
175 198 0
174 198 0
175 198 0
176 199 0
172 196 0
174 198 0
169 194 0
172 196 0
174 197 0
173 197 0
172 197 0
175 198 0
173 197 0
174 197 0
176 199 0
174 198 0
174 197 0
175 198 0
175 198 0
172 196 0
177 199 0
172 197 0
176 199 0
172 197 0
175 198 0
176 198 0
172 195 0
173 197 0
175 198 0
174 197 0
174 197 0
177 199 0
175 198 0
173 197 0
175 198 0
174 197 0
171 196 0
176 199 0
173 197 0
172 197 0
171 195 0
176 199 0
172 197 0
172 196 0
175 198 0
174 198 0
176 198 0
176 199 0
173 197 0
175 198 0
172 196 0
175 198 0
175 198 0
174 198 0
174 197 0
175 198 0
175 198 0
175 198 0
174 197 0
174 198 0
174 198 0
174 197 0
173 197 0
175 197 0
175 198 0
174 198 0
175 198 0
176 198 0
173 196 0
175 198 0
175 198 0
172 195 0
176 198 0
173 197 0
173 197 0
175 198 0
173 197 0
174 197 0
175 198 0
175 198 0
173 197 0
174 198 0
173 197 0
174 198 0
176 198 0
174 197 0
174 198 0
173 197 0
175 198 0
173 197 0
176 199 0
175 198 0
174 198 0
179 200 0
173 197 0
175 198 0
173 197 0
174 198 0
175 198 0
177 199 0
175 198 0
174 197 0
173 197 0
174 198 0
174 198 0
176 199 0
172 197 0
174 198 0
174 198 0
173 197 0
174 197 0
176 199 0
173 197 0
174 197 0
173 197 0
173 197 0
176 198 0
175 198 0
176 199 0
175 198 0
174 197 0
174 197 0
175 198 0
175 198 0
171 196 0
177 199 0
174 197 0
174 198 0
171 195 0
173 197 0
172 197 0
174 198 0
174 197 0
172 197 0
172 197 0
174 197 0
175 198 0
175 198 0
173 197 0
174 198 0
174 198 0
174 198 0
175 198 0
174 198 0
174 198 0
175 197 0
177 199 0
178 200 0
173 196 0
172 197 0
175 198 0
174 198 0
175 198 0
174 198 0
174 198 0
174 198 0
175 198 0
174 198 0
175 198 0
176 199 0
173 197 0
174 198 0
173 197 0
176 199 0
173 197 0
175 198 0
175 198 0
173 197 0
176 198 0
174 197 0
174 198 0
172 197 0
172 197 0
176 199 0
175 198 0
174 198 0
175 198 0
175 198 0
174 198 0
175 198 0
174 198 0
174 197 0
175 198 0
174 198 0
176 199 0
176 199 0
172 197 0
172 196 0
174 198 0
173 197 0
175 198 0
176 198 0
173 197 0
174 198 0
172 196 0
174 198 0
175 198 0
173 197 0
176 199 0
174 196 0
173 197 0
176 198 0
175 198 0
174 198 0
174 197 0
173 197 0
177 199 0
174 198 0
175 198 0
174 198 0
174 198 0
174 198 0
176 199 0
172 197 0
175 198 0
174 198 0
174 198 0
175 198 0
174 197 0
174 198 0
176 199 0
176 199 0
173 197 0
174 198 0
173 197 0
174 197 0
172 197 0
173 197 0
177 199 0
174 198 0
174 198 0
175 198 0
175 198 0
176 198 0
174 198 0
174 198 0
174 198 0
172 197 0
174 197 0
173 197 0
174 198 0
175 198 0
171 196 0
173 197 0
176 198 0
173 197 0
175 198 0
174 198 0
173 196 0
174 197 0
172 196 0
175 198 0
173 197 0
173 197 0
175 198 0
173 197 0
175 198 0
175 198 0
175 198 0
175 198 0
175 198 0
172 196 0
175 198 0
176 198 0
174 198 0
176 199 0
174 198 0
176 199 0
174 197 0
173 197 0
176 199 0
174 197 0
175 198 0
173 197 0
174 198 0
176 199 0
175 198 0
175 198 0
177 199 0
173 197 0
177 199 0
176 198 0
174 198 0
173 197 0
176 199 0
174 198 0
178 200 0
178 199 0
175 198 0
176 199 0
176 198 0
174 198 0
172 196 0
174 198 0
173 197 0
174 198 0
175 198 0
176 199 0
176 198 0
174 197 0
175 198 0
172 197 0
174 198 0
174 198 0
174 197 0
173 197 0
174 198 0
175 198 0
173 197 0
174 198 0
174 198 0
175 198 0
174 198 0
174 198 0
176 199 0
174 198 0
175 198 0
173 197 0
176 199 0
172 197 0
175 198 0
174 198 0
176 199 0
175 198 0
173 197 0
172 197 0
175 198 0
174 198 0
174 197 0
176 199 0
173 197 0
172 196 0
173 197 0
173 197 0
174 197 0
175 198 0
174 198 0
176 198 0
174 198 0
173 197 0
174 197 0
174 197 0
175 197 0
175 198 0
175 198 0
176 199 0
175 198 0
174 198 0
174 198 0
174 198 0
176 198 0
174 198 0
172 196 0
177 199 0
174 198 0
176 199 0
175 198 0
175 198 0
173 197 0
176 199 0
173 197 0
174 197 0
171 196 0
174 198 0
173 197 0
172 196 0
175 198 0
176 198 0
174 198 0
175 198 0
174 198 0
171 195 0
173 197 0
175 198 0
176 199 0
173 197 0
172 197 0
176 198 0
174 198 0
174 198 0
176 199 0
175 198 0
175 198 0
175 198 0
172 196 0
175 198 0
172 197 0
174 198 0
174 198 0
174 198 0
175 198 0
176 199 0
171 196 0
176 198 0
174 197 0
174 198 0
172 197 0
171 196 0
172 197 0
175 198 0
172 197 0
174 198 0
175 198 0
175 198 0
175 198 0
172 197 0
173 197 0
176 198 0
177 199 0
175 198 0
174 197 0
174 197 0
176 199 0
175 198 0
173 197 0
176 199 0
174 198 0
174 197 0
174 197 0
174 198 0
174 198 0
174 197 0
174 197 0
175 198 0
172 196 0
176 199 0
177 199 0
173 197 0
174 197 0
176 198 0
177 199 0
173 196 0
175 198 0
175 198 0
174 198 0
172 197 0
175 198 0
173 197 0
176 198 0
174 198 0
176 199 0
174 197 0
173 197 0
174 198 0
175 198 0
174 197 0
176 198 0
172 196 0
174 197 0
174 198 0
174 198 0
174 197 0
174 198 0
175 198 0
174 198 0
175 198 0
173 197 0
175 198 0
172 197 0
173 197 0
173 197 0
171 195 0
176 199 0
173 197 0
175 198 0
175 198 0
174 198 0
173 197 0
174 197 0
174 197 0
173 197 0
173 196 0
174 198 0
174 198 0
174 198 0
172 197 0
176 199 0
173 197 0
174 197 0
175 198 0
173 197 0
174 198 0
176 199 0
177 199 0
176 199 0
175 198 0
175 198 0
175 198 0
172 197 0
174 197 0
175 198 0
175 198 0
176 199 0
176 198 0
172 197 0
173 197 0
174 198 0
176 199 0
174 198 0
176 198 0
173 197 0
172 197 0
177 199 0
177 199 0
173 197 0
173 197 0
176 198 0
173 197 0
172 196 0
174 197 0
174 198 0
175 198 0
175 198 0
174 198 0
174 197 0
175 198 0
174 198 0
174 198 0
175 198 0
172 197 0
172 196 0
175 198 0
175 198 0
175 198 0
174 197 0
175 198 0
174 197 0
175 198 0
174 197 0
172 196 0
174 198 0
175 198 0
177 199 0
173 197 0
174 198 0
176 199 0
176 199 0
176 199 0
173 197 0
173 197 0
174 198 0
173 196 0
173 196 0
172 197 0
175 198 0
172 196 0
172 196 0
173 197 0
174 197 0
176 199 0
175 198 0
174 198 0
177 199 0
174 198 0
173 197 0
174 198 0
175 198 0
175 198 0
174 197 0
175 198 0
173 197 0
174 198 0
173 197 0
172 196 0
174 197 0
177 199 0
174 198 0
174 198 0
173 197 0
174 197 0
174 197 0
175 198 0
174 198 0
174 198 0
173 197 0
174 197 0
176 199 0
175 198 0
173 197 0
173 197 0
174 197 0
175 198 0
175 198 0
174 197 0
175 198 0
174 198 0
174 197 0
175 198 0
177 199 0
177 199 0
175 198 0
176 199 0
173 197 0
176 199 0
175 198 0
172 196 0
174 198 0
175 198 0
176 198 0
175 198 0
176 199 0
174 198 0
175 198 0
175 198 0
175 198 0
173 197 0
175 198 0
174 197 0
174 198 0
174 197 0
173 197 0
175 198 0
177 199 0
173 197 0
175 198 0
174 198 0
175 198 0
174 198 0
175 197 0
176 199 0
172 196 0
172 197 0
173 197 0
172 196 0
174 197 0
174 197 0
174 197 0
175 198 0
177 199 0
172 196 0
173 196 0
173 197 0
175 198 0
175 198 0
176 199 0
172 197 0
174 198 0
172 197 0
176 198 0
173 197 0
173 197 0
174 198 0
173 197 0
174 198 0
174 198 0
175 198 0
174 197 0
174 198 0
174 198 0
174 198 0
176 198 0
175 198 0
177 199 0
174 197 0
174 197 0
176 199 0
173 197 0
172 197 0
174 197 0
173 197 0
176 198 0
176 198 0
172 197 0
175 198 0
176 198 0
174 197 0
174 198 0
175 198 0
173 197 0
174 197 0
177 199 0
175 198 0
177 199 0
177 199 0
175 198 0
173 197 0
176 199 0
173 197 0
173 197 0
174 197 0
177 199 0
174 198 0
175 198 0
175 198 0
172 197 0
174 197 0
174 197 0
174 198 0
174 198 0
174 198 0
175 198 0
172 196 0
174 198 0
173 197 0
176 199 0
174 197 0
173 197 0
173 197 0
176 199 0
174 197 0
174 197 0
174 198 0
175 198 0
176 198 0
174 198 0
176 199 0
173 197 0
175 198 0
174 198 0
177 199 0
173 197 0
173 197 0
173 197 0
176 199 0
175 198 0
175 198 0
171 196 0
175 198 0
175 198 0
174 198 0
174 198 0
173 197 0
174 198 0
175 198 0
176 199 0
174 197 0
175 198 0
174 197 0
173 197 0
175 198 0
175 198 0
176 198 0
172 197 0
174 198 0
176 199 0
177 199 0
173 197 0
174 198 0
174 198 0
174 198 0
173 197 0
173 197 0
175 198 0
174 197 0
175 198 0
173 197 0
176 199 0
174 198 0
176 198 0
174 198 0
175 198 0
172 196 0
172 197 0
173 197 0
173 197 0
174 197 0
175 198 0
174 197 0
173 197 0
175 198 0
175 198 0
173 197 0
173 197 0
172 196 0
173 197 0
175 198 0
175 198 0
175 198 0
175 198 0
174 198 0
177 199 0
174 198 0
173 197 0
176 198 0
173 197 0
173 196 0
174 198 0
175 198 0
173 197 0
174 197 0
176 198 0
174 198 0
173 197 0
175 198 0
172 197 0
174 198 0
172 196 0
173 197 0
174 198 0
173 197 0
175 198 0
176 198 0
176 199 0
173 197 0
174 198 0
175 198 0
173 197 0
174 198 0
174 197 0
176 198 0
177 199 0
175 198 0
175 198 0
173 197 0
174 197 0
174 197 0
174 197 0
174 197 0
175 198 0
175 198 0
173 197 0
174 197 0
175 198 0
177 199 0
178 199 0
172 197 0
174 198 0
172 197 0
173 197 0
173 197 0
172 196 0
175 197 0
175 198 0
175 198 0
172 196 0
174 198 0
176 199 0
177 199 0
175 198 0
173 197 0
176 199 0
176 199 0
174 198 0
172 196 0
175 198 0
176 198 0
176 198 0
175 198 0
173 197 0
172 197 0
175 198 0
174 197 0
173 197 0
174 198 0
172 196 0
173 197 0
172 197 0
176 198 0
172 196 0
174 197 0
175 198 0
174 197 0
175 198 0
175 198 0
173 197 0
174 198 0
174 197 0
175 198 0
176 199 0
174 197 0
170 196 0
175 198 0
174 197 0
173 197 0
175 198 0
174 198 0
175 198 0
172 197 0
175 198 0
174 197 0
175 198 0
175 198 0
173 197 0
177 199 0
174 198 0
173 197 0
176 198 0
174 198 0
175 198 0
175 198 0
173 197 0
174 198 0
173 197 0
173 197 0
176 198 0
174 197 0
174 198 0
176 198 0
174 198 0
175 198 0
176 198 0
173 197 0
174 198 0
173 197 0
174 198 0
174 198 0
176 199 0
176 198 0
174 198 0
177 199 0
171 196 0
174 197 0
174 197 0
172 196 0
173 197 0
172 196 0
175 198 0
173 197 0
172 196 0
176 199 0
176 199 0
174 197 0
176 199 0
174 197 0
173 197 0
173 197 0
175 198 0
176 198 0
173 197 0
173 197 0
171 196 0
174 197 0
174 197 0
175 198 0
176 199 0
174 197 0
172 196 0
173 197 0
174 198 0
174 198 0
176 199 0
174 197 0
174 197 0
175 198 0
175 198 0
174 198 0
176 199 0
174 198 0
173 197 0
174 198 0
176 199 0
176 199 0
175 198 0
175 198 0
175 198 0
175 198 0
174 198 0
173 196 0
173 197 0
176 198 0
173 197 0
175 198 0
171 196 0
174 198 0
173 197 0
173 197 0
173 197 0
176 199 0
173 197 0
175 198 0
174 197 0
172 197 0
174 197 0
174 197 0
173 197 0
175 198 0
174 198 0
173 197 0
173 197 0
175 198 0
169 194 0
175 198 0
173 197 0
172 196 0
172 196 0
172 195 0
173 196 0
173 197 0
175 198 0
174 198 0
173 197 0
174 197 0
174 198 0
175 198 0
173 197 0
176 198 0
174 197 0
176 199 0
174 197 0
175 198 0
177 199 0
175 198 0
172 197 0
174 197 0
172 197 0
172 196 0
175 198 0
175 198 0
175 198 0
171 196 0
173 197 0
173 197 0
173 197 0
175 197 0
177 199 0
174 197 0
177 199 0
174 197 0
174 197 0
174 198 0
171 195 0
174 197 0
175 198 0
171 196 0
173 197 0
171 196 0
174 198 0
176 199 0
175 198 0
174 197 0
174 198 0
175 198 0
174 198 0
176 199 0
177 199 0
176 198 0
172 196 0
174 197 0
175 198 0
175 198 0
173 197 0
175 198 0
174 197 0
175 198 0
175 198 0
174 197 0
175 198 0
173 197 0
175 198 0
174 198 0
174 198 0
177 199 0
174 198 0
173 197 0
174 198 0
173 197 0
174 197 0
174 197 0
177 199 0
174 198 0
175 198 0
176 199 0
173 197 0
174 198 0
175 198 0
173 197 0
174 198 0
172 197 0
174 198 0
173 197 0
175 198 0
173 197 0
175 198 0
174 198 0
175 198 0
173 197 0
172 196 0
176 199 0
174 198 0
175 198 0
174 198 0
174 198 0
176 198 0
175 198 0
174 198 0
176 199 0
177 199 0
175 198 0
176 199 0
175 198 0
176 199 0
175 198 0
173 197 0
173 197 0
175 198 0
175 198 0
173 197 0
174 197 0
175 198 0
173 197 0
174 198 0
175 198 0
175 198 0
176 199 0
174 198 0
174 197 0
176 198 0
174 198 0
172 197 0
175 198 0
173 197 0
173 197 0
174 198 0
174 197 0
175 198 0
176 199 0
175 198 0
175 198 0
175 198 0
172 197 0
173 197 0
173 197 0
175 198 0
172 197 0
175 198 0
174 198 0
176 199 0
176 199 0
176 199 0
173 197 0
172 197 0
176 198 0
174 198 0
173 197 0
173 197 0
175 198 0
177 199 0
172 197 0
175 198 0
174 198 0
175 198 0
173 197 0
173 197 0
175 198 0
174 198 0
174 198 0
175 198 0
175 198 0
176 199 0
176 198 0
176 198 0
173 197 0
174 198 0
176 199 0
175 198 0
173 197 0
175 198 0
175 198 0
176 199 0
173 197 0
174 197 0
176 199 0
175 198 0
174 198 0
172 197 0
171 196 0
173 197 0
176 199 0
173 197 0
174 198 0
174 198 0
173 197 0
174 198 0
174 197 0
176 199 0
172 197 0
175 198 0
175 198 0
174 198 0
177 199 0
174 197 0
175 198 0
174 198 0
174 198 0
174 198 0
175 198 0
175 198 0
175 198 0
173 197 0
174 198 0
174 198 0
174 198 0
173 197 0
174 197 0
173 197 0
173 197 0
175 198 0
173 197 0
176 199 0
174 198 0
175 198 0
173 197 0
176 199 0
173 197 0
172 197 0
175 198 0
174 198 0
173 197 0
173 197 0
175 198 0
174 198 0
173 197 0
173 197 0
176 198 0
174 198 0
175 198 0
176 198 0
174 198 0
173 197 0
175 198 0
174 198 0
174 197 0
174 198 0
175 198 0
177 199 0
177 199 0
174 197 0
174 197 0
172 196 0
174 198 0
173 197 0
175 198 0
173 197 0
175 198 0
175 198 0
176 199 0
175 198 0
173 196 0
175 198 0
174 198 0
174 197 0
173 197 0
174 197 0
173 197 0
175 198 0
177 199 0
174 197 0
173 197 0
176 198 0
174 198 0
176 199 0
177 199 0
174 198 0
175 198 0
173 197 0
173 197 0
176 199 0
174 197 0
173 197 0
174 197 0
173 197 0
175 198 0
173 197 0
175 198 0
175 198 0
173 197 0
177 199 0
175 198 0
172 197 0
172 197 0
175 198 0
173 197 0
172 196 0
173 197 0
174 198 0
171 195 0
173 197 0
173 197 0
174 198 0
176 199 0
175 198 0
174 197 0
173 197 0
174 198 0
172 197 0
173 197 0
177 199 0
175 198 0
174 198 0
175 198 0
174 198 0
175 198 0
175 198 0
173 197 0
176 198 0
172 197 0
176 199 0
174 197 0
172 197 0
173 197 0
173 197 0
173 197 0
174 198 0
175 198 0
176 198 0
176 199 0
175 198 0
174 198 0
175 198 0
175 198 0
175 198 0
174 198 0
175 198 0
173 197 0
174 197 0
176 198 0
175 198 0
174 197 0
174 197 0
173 197 0
175 198 0
175 198 0
173 197 0
174 198 0
172 197 0
175 198 0
174 197 0
175 198 0
175 198 0
175 198 0
177 199 0
175 198 0
176 198 0
176 198 0
175 198 0
174 198 0
174 198 0
171 196 0
177 199 0
173 197 0
173 197 0
176 198 0
176 199 0
173 197 0
173 197 0
173 197 0
174 198 0
173 197 0
172 197 0
173 197 0
172 196 0
175 198 0
174 197 0
174 198 0
174 197 0
177 199 0
172 197 0
174 197 0
173 197 0
175 198 0
174 198 0
174 198 0
174 198 0
174 197 0
174 198 0
176 199 0
173 197 0
175 198 0
175 198 0
175 198 0
174 198 0
174 198 0
173 197 0
172 197 0
174 198 0
173 196 0
175 198 0
172 197 0
176 198 0
173 197 0
174 198 0
174 197 0
174 198 0
174 197 0
176 198 0
177 199 0
172 197 0
175 198 0
175 198 0
174 197 0
175 198 0
173 197 0
175 198 0
175 198 0
173 197 0
174 198 0
178 200 0
174 198 0
173 197 0
174 198 0
174 198 0
175 198 0
172 197 0
174 198 0
173 197 0
173 197 0
174 198 0
174 198 0
175 198 0
175 198 0
175 198 0
173 197 0
174 198 0
175 198 0
176 198 0
172 197 0
175 198 0
174 198 0
173 197 0
173 197 0
174 198 0
174 198 0
177 199 0
175 198 0
175 198 0
175 198 0
175 198 0
173 197 0
173 197 0
173 197 0
173 196 0
175 198 0
174 198 0
174 198 0
175 198 0
175 198 0
175 198 0
177 199 0
174 198 0
175 198 0
174 198 0
174 197 0
175 198 0
176 199 0
174 197 0
173 197 0
173 197 0
174 197 0
175 198 0
176 199 0
176 198 0
174 198 0
174 198 0
174 197 0
177 199 0
176 198 0
172 197 0
176 199 0
173 197 0
175 198 0
175 198 0
175 198 0
176 198 0
176 199 0
176 199 0
174 198 0
173 197 0
176 198 0
174 198 0
177 199 0
177 199 0
174 198 0
174 197 0
176 199 0
173 197 0
174 198 0
176 198 0
173 197 0
174 197 0
174 198 0
173 197 0
174 198 0
175 198 0
172 197 0
174 198 0
174 198 0
172 197 0
173 197 0
174 197 0
175 198 0
174 198 0
175 198 0
173 197 0
173 197 0
174 197 0
175 198 0
176 199 0
175 198 0
175 198 0
175 198 0
175 198 0
176 199 0
175 198 0
175 198 0
175 198 0
175 198 0
173 197 0
175 198 0
175 198 0
176 199 0
175 198 0
176 199 0
174 198 0
173 197 0
173 197 0
174 198 0
174 198 0
174 198 0
176 198 0
176 198 0
175 198 0
172 196 0
173 197 0
174 198 0
173 197 0
175 198 0
175 198 0
176 198 0
174 198 0
175 198 0
172 197 0
175 198 0
174 197 0
176 198 0
176 199 0
174 198 0
173 197 0
175 198 0
175 198 0
176 198 0
175 198 0
175 198 0
174 197 0
174 198 0
175 198 0
175 198 0
175 198 0
174 198 0
174 197 0
176 199 0
174 198 0
173 197 0
172 196 0
176 199 0
172 197 0
175 198 0
174 198 0
174 198 0
173 197 0
175 198 0
175 198 0
174 197 0
173 197 0
175 198 0
176 198 0
174 198 0
175 198 0
173 197 0
173 197 0
177 199 0
175 198 0
175 198 0
175 198 0
173 197 0
173 197 0
173 197 0
175 198 0
175 198 0
173 197 0
173 197 0
173 196 0
175 198 0
172 195 0
175 198 0
174 197 0
175 198 0
174 197 0
174 198 0
176 198 0
174 197 0
174 198 0
176 199 0
175 198 0
174 197 0
174 198 0
175 198 0
174 198 0
174 197 0
175 197 0
172 196 0
173 197 0
174 198 0
173 197 0
174 197 0
175 198 0
173 197 0
174 198 0
175 198 0
174 198 0
175 198 0
174 198 0
175 198 0
175 198 0
177 199 0
173 197 0
174 197 0
172 197 0
174 197 0
176 199 0
173 197 0
174 198 0
175 198 0
174 198 0
173 197 0
172 197 0
175 198 0
175 198 0
175 198 0
176 199 0
175 198 0
174 198 0
175 198 0
173 197 0
174 198 0
172 197 0
173 197 0
173 197 0
176 198 0
175 198 0
174 197 0
174 198 0
174 197 0
176 198 0
174 197 0
173 197 0
173 197 0
173 197 0
173 197 0
172 196 0
174 197 0
175 198 0
175 198 0
173 197 0
175 198 0
174 197 0
173 197 0
174 197 0
172 195 0
176 199 0
175 198 0
175 198 0
174 198 0
173 197 0
176 199 0
175 198 0
174 198 0
174 197 0
173 197 0
175 198 0
174 198 0
172 197 0
175 198 0
174 198 0
175 198 0
172 196 0
175 198 0
175 198 0
175 198 0
173 197 0
174 198 0
175 198 0
174 197 0
176 198 0
172 197 0
174 198 0
174 198 0
175 198 0
172 197 0
174 198 0
174 198 0
174 198 0
175 198 0
175 198 0
174 198 0
175 198 0
175 198 0
174 197 0
174 197 0
176 199 0
174 198 0
175 198 0
174 197 0
175 198 0
173 197 0
173 197 0
174 198 0
176 199 0
173 196 0
172 197 0
171 196 0
173 197 0
176 199 0
174 198 0
173 197 0
171 196 0
174 198 0
172 197 0
176 199 0
173 197 0
172 197 0
173 197 0
175 198 0
173 197 0
175 198 0
174 198 0
175 198 0
173 197 0
173 197 0
177 199 0
173 197 0
174 198 0
174 197 0
175 198 0
174 198 0
174 197 0
175 198 0
173 197 0
175 198 0
174 197 0
175 198 0
176 199 0
176 199 0
174 198 0
175 197 0
175 198 0
175 198 0
174 197 0
172 195 0
174 198 0
173 197 0
172 196 0
174 198 0
172 196 0
174 197 0
174 197 0
173 197 0
175 198 0
174 198 0
176 199 0
175 198 0
174 198 0
174 198 0
174 198 0
174 198 0
175 198 0
176 199 0
173 197 0
173 197 0
173 197 0
174 197 0
172 196 0
176 199 0
174 198 0
173 197 0
174 197 0
174 198 0
172 196 0
175 198 0
174 198 0
175 198 0
174 198 0
174 198 0
176 198 0
174 197 0
175 198 0
175 198 0
174 198 0
175 198 0
173 197 0
172 196 0
175 198 0
176 198 0
174 197 0
175 198 0
174 198 0
175 198 0
174 198 0
174 198 0
173 197 0
175 198 0
173 197 0
176 199 0
173 197 0
175 198 0
173 197 0
173 197 0
175 198 0
174 197 0
173 197 0
175 198 0
175 198 0
175 198 0
176 198 0
174 198 0
173 197 0
175 198 0
177 199 0
176 198 0
177 199 0
173 197 0
175 198 0
177 199 0
174 198 0
175 198 0
174 197 0
176 199 0
174 198 0
176 199 0
174 198 0
177 199 0
174 197 0
173 197 0
173 197 0
176 198 0
175 198 0
173 197 0
176 199 0
173 197 0
173 196 0
173 197 0
173 197 0
174 198 0
175 198 0
176 198 0
176 199 0
172 197 0
175 198 0
177 199 0
174 198 0
173 197 0
174 198 0
174 198 0
176 198 0
176 198 0
176 199 0
176 199 0
175 198 0
172 197 0
172 196 0
173 196 0
174 198 0
175 198 0
175 198 0
175 198 0
173 197 0
176 199 0
173 197 0
172 197 0
174 198 0
174 198 0
173 197 0
175 198 0
176 199 0
173 197 0
173 197 0
177 199 0
175 198 0
174 198 0
172 196 0
174 197 0
174 198 0
174 198 0
174 197 0
171 196 0
175 198 0
173 197 0
176 199 0
173 197 0
175 198 0
174 198 0
174 198 0
175 198 0
175 198 0
174 197 0
173 197 0
173 197 0
173 197 0
173 197 0
174 198 0
175 198 0
174 198 0
174 198 0
176 199 0
174 198 0
173 197 0
173 197 0
173 197 0
174 198 0
175 198 0
173 197 0
174 198 0
175 198 0
176 199 0
177 199 0
175 198 0
174 198 0
172 197 0
173 197 0
173 197 0
174 198 0
176 198 0
174 198 0
175 198 0
175 198 0
175 198 0
176 199 0
177 199 0
174 198 0
173 197 0
175 198 0
174 198 0
174 198 0
174 197 0
177 199 0
174 198 0
175 198 0
174 197 0
174 197 0
174 198 0
175 198 0
174 198 0
175 198 0
173 197 0
173 197 0
176 198 0
175 198 0
174 198 0
173 197 0
174 197 0
175 198 0
174 197 0
175 198 0
173 197 0
176 199 0
174 198 0
174 197 0
174 198 0
174 198 0
176 198 0
176 198 0
174 197 0
175 198 0
173 197 0
175 198 0
175 198 0
174 198 0
175 198 0
174 198 0
173 197 0
173 196 0
175 198 0
174 197 0
174 197 0
173 197 0
174 198 0
176 199 0
174 198 0
172 196 0
175 198 0
174 198 0
174 198 0
175 198 0
173 197 0
175 198 0
176 198 0
174 197 0
175 198 0
174 198 0
175 198 0
174 198 0
173 197 0
175 198 0
176 198 0
172 196 0
177 199 0
175 198 0
176 199 0
174 197 0
174 198 0
176 198 0
173 197 0
176 198 0
174 197 0
173 197 0
175 198 0
174 197 0
174 198 0
175 198 0
173 197 0
175 198 0
173 197 0
174 198 0
172 197 0
173 196 0
173 197 0
175 198 0
176 199 0
175 198 0
175 198 0
176 198 0
173 197 0
173 197 0
178 199 0
174 197 0
174 197 0
174 197 0
174 198 0
176 199 0
175 198 0
175 198 0
176 198 0
173 197 0
175 198 0
173 197 0
174 198 0
175 198 0
172 196 0
175 198 0
172 197 0
175 198 0
175 198 0
175 198 0
174 197 0
174 198 0
177 199 0
174 198 0
176 199 0
174 198 0
172 197 0
174 198 0
173 197 0
174 197 0
173 197 0
175 198 0
174 198 0
173 197 0
175 198 0
175 198 0
177 199 0
174 198 0
173 197 0
175 198 0
175 198 0
176 199 0
176 199 0
174 198 0
173 197 0
171 196 0
175 198 0
175 198 0
175 198 0
175 198 0
175 198 0
175 198 0
174 198 0
174 198 0
173 197 0
175 198 0
176 199 0
174 198 0
172 196 0
176 199 0
173 197 0
176 199 0
175 198 0
178 200 0
172 196 0
175 198 0
174 197 0
174 197 0
173 197 0
175 198 0
176 199 0
175 198 0
172 196 0
174 197 0
174 197 0
175 198 0
174 197 0
174 197 0
174 198 0
175 198 0
174 198 0
175 198 0
174 197 0
175 198 0
173 197 0
174 198 0
177 199 0
173 196 0
174 197 0
175 198 0
171 196 0
176 198 0
174 197 0
177 199 0
173 197 0
174 198 0
173 196 0
174 198 0
176 198 0
173 197 0
176 198 0
175 198 0
173 197 0
175 198 0
176 198 0
172 197 0
175 198 0
174 198 0
176 198 0
176 199 0
173 197 0
174 197 0
174 198 0
174 197 0
176 199 0
172 197 0
174 198 0
174 197 0
174 198 0
177 199 0
173 197 0
175 198 0
176 199 0
176 198 0
174 197 0
172 197 0
173 196 0
173 197 0
176 198 0
176 199 0
174 197 0
177 199 0
175 198 0
175 198 0
175 198 0
172 197 0
172 197 0
175 198 0
175 198 0
176 198 0
174 198 0
172 197 0
178 199 0
173 197 0
176 199 0
175 198 0
174 198 0
175 198 0
176 199 0
173 197 0
172 196 0
173 196 0
175 198 0
174 198 0
176 199 0
175 198 0
175 198 0
175 198 0
174 198 0
175 198 0
174 197 0
174 198 0
176 198 0
176 199 0
175 198 0
171 196 0
175 198 0
173 197 0
177 199 0
175 198 0
172 196 0
173 197 0
174 198 0
174 198 0
173 197 0
172 196 0
174 197 0
172 196 0
174 197 0
173 197 0
173 197 0
176 199 0
175 198 0
174 197 0
174 198 0
174 198 0
174 198 0
174 198 0
172 197 0
177 199 0
175 198 0
176 199 0
175 198 0
174 198 0
173 197 0
174 197 0
172 196 0
173 197 0
176 199 0
174 197 0
173 197 0
173 197 0
174 197 0
174 197 0
174 198 0
175 198 0
175 198 0
173 197 0
173 197 0
176 198 0
176 198 0
174 198 0
172 197 0
175 198 0
175 198 0
174 198 0
176 199 0
173 197 0
176 199 0
174 197 0
175 198 0
175 198 0
175 198 0
175 198 0
175 198 0
173 197 0
175 198 0
171 196 0
175 198 0
174 198 0
176 198 0
175 198 0
174 198 0
172 197 0
174 197 0
173 197 0
175 198 0
174 198 0
174 198 0
174 198 0
173 197 0
175 198 0
172 197 0
174 198 0
177 199 0
173 197 0
175 198 0
172 197 0
174 198 0
174 197 0
173 197 0
175 198 0
174 198 0
174 198 0
174 198 0
175 198 0
174 197 0
175 198 0
174 198 0
171 196 0
174 198 0
174 198 0
173 197 0
174 197 0
174 198 0
172 197 0
175 198 0
176 199 0
174 198 0
174 198 0
176 198 0
176 198 0
176 198 0
172 197 0
175 198 0
174 198 0
174 198 0
172 197 0
175 198 0
174 198 0
176 199 0
175 198 0
173 197 0
173 197 0
174 197 0
172 196 0
173 197 0
172 197 0
175 198 0
176 199 0
177 199 0
174 197 0
173 197 0
172 197 0
175 198 0
174 197 0
176 199 0
172 197 0
172 196 0
174 198 0
176 199 0
177 199 0
175 198 0
175 198 0
178 199 0
176 198 0
174 197 0
173 197 0
173 197 0
175 198 0
175 198 0
173 197 0
173 197 0
173 197 0
173 197 0
175 198 0
175 198 0
174 197 0
175 198 0
176 199 0
176 199 0
173 197 0
172 196 0
175 198 0
173 197 0
174 197 0
172 197 0
174 198 0
174 198 0
174 198 0
175 198 0
170 196 0
173 197 0
175 198 0
174 198 0
172 196 0
174 198 0
173 197 0
174 198 0
174 198 0
172 197 0
174 198 0
174 198 0
172 197 0
174 198 0
175 198 0
174 198 0
174 197 0
172 196 0
174 198 0
175 198 0
174 198 0
176 199 0
176 199 0
172 196 0
174 198 0
178 200 0
173 197 0
173 197 0
175 198 0
175 198 0
173 197 0
174 197 0
173 197 0
176 198 0
174 197 0
174 197 0
175 198 0
173 197 0
172 196 0
175 198 0
175 198 0
174 198 0
175 198 0
174 197 0
175 198 0
175 198 0
173 197 0
174 197 0
173 197 0
175 198 0
174 197 0
172 197 0
176 199 0
174 198 0
175 198 0
175 198 0
174 197 0
174 198 0
175 198 0
175 198 0
175 198 0
174 198 0
174 198 0
175 198 0
172 197 0
173 197 0
171 195 0
176 198 0
175 198 0
177 199 0
175 198 0
173 197 0
173 197 0
175 197 0
173 197 0
173 197 0
174 198 0
173 197 0
175 198 0
175 198 0
171 196 0
173 196 0
175 198 0
173 197 0
172 196 0
176 198 0
176 199 0
176 199 0
173 197 0
174 197 0
174 197 0
172 196 0
172 197 0
173 197 0
174 198 0
176 199 0
173 197 0
174 198 0
173 197 0
175 198 0
176 199 0
175 198 0
175 198 0
176 199 0
175 198 0
175 198 0
173 197 0
174 197 0
173 197 0
173 197 0
175 198 0
175 198 0
173 197 0
173 196 0
175 198 0
171 195 0
176 198 0
174 197 0
176 199 0
174 197 0
174 197 0
175 198 0
174 198 0
174 198 0
172 197 0
172 196 0
173 197 0
175 198 0
172 197 0
173 197 0
173 197 0
172 196 0
174 197 0
176 199 0
175 198 0
175 198 0
172 197 0
174 197 0
175 198 0
174 198 0
173 197 0
172 196 0
175 198 0
175 198 0
174 198 0
175 198 0
174 198 0
176 199 0
177 199 0
173 197 0
173 197 0
175 198 0
175 198 0
173 197 0
174 197 0
173 197 0
176 199 0
175 198 0
172 196 0
174 198 0
174 198 0
172 197 0
175 198 0
175 198 0
175 198 0
175 198 0
175 198 0
175 198 0
176 199 0
175 198 0
175 198 0
174 198 0
175 198 0
173 197 0
175 198 0
175 198 0
173 197 0
175 198 0
174 197 0
175 198 0
175 198 0
174 198 0
173 197 0
176 198 0
174 198 0
176 199 0
176 199 0
175 198 0
172 195 0
175 198 0
173 197 0
176 199 0
174 198 0
171 196 0
175 198 0
176 199 0
178 200 0
175 198 0
173 197 0
176 198 0
174 198 0
175 197 0
173 197 0
175 198 0
174 197 0
175 197 0
174 198 0
175 197 0
174 198 0
173 197 0
176 199 0
173 197 0
172 196 0
174 198 0
174 197 0
175 198 0
175 198 0
173 197 0
175 198 0
174 198 0
176 199 0
175 198 0
176 198 0
173 197 0
173 197 0
172 196 0
175 198 0
178 199 0
173 196 0
175 198 0
174 198 0
175 198 0
175 198 0
175 198 0
176 199 0
174 197 0
174 198 0
174 198 0
175 198 0
174 198 0
175 198 0
174 197 0
174 198 0
176 199 0
175 198 0
176 198 0
172 196 0
175 198 0
174 198 0
175 198 0
174 197 0
175 198 0
177 199 0
172 196 0
175 198 0
176 198 0
174 198 0
175 198 0
175 198 0
176 199 0
174 198 0
173 197 0
175 198 0
174 198 0
173 197 0
173 197 0
174 198 0
176 199 0
175 198 0
175 198 0
173 197 0
175 198 0
175 198 0
174 198 0
174 197 0
175 198 0
173 197 0
174 198 0
174 198 0
175 198 0
175 198 0
175 198 0
174 198 0
175 198 0
175 198 0
176 198 0
173 197 0
174 198 0
174 198 0
172 196 0
175 198 0
174 198 0
173 197 0
173 197 0
174 197 0
174 198 0
175 198 0
177 199 0
175 198 0
173 197 0
172 197 0
174 198 0
174 197 0
175 198 0
173 197 0
174 198 0
173 197 0
174 198 0
174 197 0
173 197 0
175 198 0
172 196 0
174 197 0
175 198 0
176 198 0
175 198 0
176 198 0
177 199 0
171 196 0
178 200 0
174 198 0
174 198 0
174 198 0
174 197 0
175 198 0
175 198 0
174 198 0
178 199 0
172 197 0
174 198 0
176 198 0
174 197 0
173 197 0
173 197 0
176 199 0
176 199 0
174 198 0
172 196 0
171 196 0
174 198 0
176 199 0
176 198 0
175 198 0
174 198 0
174 198 0
177 199 0
175 198 0
174 197 0
173 197 0
173 197 0
174 197 0
176 198 0
172 197 0
174 198 0
174 198 0
174 197 0
174 198 0
175 198 0
175 198 0
173 197 0
172 197 0
176 199 0
175 198 0
174 197 0
174 198 0
176 199 0
175 198 0
174 197 0
175 198 0
177 199 0
172 197 0
174 197 0
175 198 0
172 197 0
174 198 0
173 197 0
174 197 0
176 198 0
174 197 0
176 198 0
174 197 0
172 197 0
175 198 0
173 197 0
175 197 0
174 198 0
175 198 0
175 198 0
173 197 0
174 198 0
172 196 0
175 198 0
173 197 0
174 198 0
176 199 0
173 197 0
174 198 0
174 198 0
174 198 0
177 199 0
174 197 0
175 198 0
173 197 0
176 198 0
172 197 0
173 197 0
173 197 0
175 198 0
172 196 0
175 198 0
175 198 0
174 198 0
173 197 0
174 198 0
175 198 0
176 199 0
175 198 0
172 197 0
173 197 0
174 198 0
176 198 0
176 199 0
173 197 0
174 197 0
177 199 0
173 197 0
173 197 0
174 198 0
174 197 0
175 198 0
174 197 0
174 198 0
174 198 0
173 197 0
174 198 0
174 197 0
173 197 0
172 197 0
173 197 0
176 198 0
175 198 0
174 198 0
172 197 0
174 198 0
173 197 0
174 198 0
175 198 0
175 198 0
174 198 0
175 198 0
173 197 0
174 198 0
173 197 0
174 198 0
174 197 0
172 196 0
172 197 0
176 199 0
173 197 0
173 197 0
173 197 0
175 198 0
172 197 0
176 198 0
174 198 0
176 198 0
174 198 0
172 196 0
174 198 0
174 198 0
173 197 0
176 199 0
176 199 0
175 198 0
174 198 0
176 198 0
174 197 0
172 197 0
173 197 0
173 196 0
174 197 0
174 197 0
171 196 0
174 198 0
172 196 0
174 198 0
175 198 0
174 198 0
175 198 0
174 197 0
175 198 0
175 198 0
174 198 0
174 198 0
174 198 0
176 199 0
173 197 0
176 198 0
174 197 0
171 195 0
176 199 0
173 196 0
172 197 0
175 198 0
174 198 0
174 198 0
174 197 0
175 198 0
170 196 0
175 198 0
174 198 0
171 196 0
175 198 0
172 196 0
173 197 0
174 197 0
174 198 0
176 198 0
175 198 0
175 198 0
175 198 0
175 198 0
175 198 0
173 197 0
174 197 0
175 198 0
175 198 0
172 197 0
173 197 0
173 197 0
172 197 0
171 196 0
175 198 0
176 199 0
175 198 0
173 197 0
172 196 0
176 199 0
173 196 0
173 197 0
174 197 0
172 197 0
175 198 0
173 196 0
173 196 0
173 197 0
175 198 0
175 198 0
175 198 0
174 197 0
175 198 0
173 197 0
178 200 0
174 197 0
173 196 0
175 198 0
173 196 0
173 197 0
173 197 0
174 197 0
174 198 0
176 199 0
175 198 0
174 197 0
176 199 0
173 197 0
178 200 0
173 197 0
174 196 0
174 198 0
173 197 0
175 198 0
173 197 0
175 198 0
176 199 0
175 198 0
169 193 0
175 198 0
175 198 0
174 198 0
173 197 0
173 197 0
173 197 0
172 197 0
177 199 0
172 196 0
178 200 0
174 198 0
172 196 0
176 198 0
175 198 0
175 198 0
174 197 0
174 198 0
175 198 0
175 198 0
177 199 0
174 197 0
176 198 0
174 198 0
174 198 0
176 199 0
177 199 0
175 198 0
174 198 0
173 197 0
174 197 0
172 196 0
172 196 0
174 197 0
177 198 0
175 198 0
173 197 0
173 197 0
174 198 0
174 198 0
174 198 0
173 197 0
173 197 0
173 197 0
176 198 0
176 198 0
173 197 0
175 197 0
174 198 0
174 198 0
174 197 0
173 196 0
175 198 0
175 198 0
172 197 0
175 198 0
175 198 0
174 198 0
174 198 0
175 198 0
174 198 0
175 197 0
172 197 0
174 198 0
173 197 0
176 199 0
176 199 0
174 198 0
171 196 0
177 199 0
175 198 0
174 197 0
173 197 0
176 198 0
173 196 0
177 199 0
172 197 0
175 198 0
175 198 0
173 197 0
174 198 0
174 198 0
176 199 0
175 198 0
173 197 0
175 198 0
177 199 0
174 197 0
174 198 0
173 197 0
175 198 0
173 197 0
172 197 0
174 197 0
175 198 0
176 199 0
177 199 0
176 198 0
172 197 0
176 199 0
174 198 0
174 197 0
172 197 0
173 197 0
174 198 0
175 198 0
177 199 0
175 198 0
174 198 0
175 198 0
175 198 0
175 198 0
174 197 0
176 199 0
174 198 0
174 198 0
173 197 0
174 197 0
175 198 0
176 198 0
175 198 0
174 198 0
175 198 0
174 198 0
175 198 0
173 196 0
175 198 0
172 197 0
173 197 0
173 197 0
174 197 0
175 198 0
172 197 0
174 197 0
175 198 0
174 198 0
176 199 0
176 199 0
174 197 0
174 198 0
175 198 0
174 198 0
173 197 0
175 198 0
174 198 0
174 198 0
174 197 0
173 197 0
175 198 0
175 198 0
173 197 0
175 198 0
176 198 0
173 197 0
175 198 0
175 198 0
175 198 0
177 199 0
176 199 0
174 197 0
173 197 0
173 197 0
173 197 0
177 199 0
174 197 0
176 199 0
177 199 0
174 198 0
176 198 0
175 198 0
173 197 0
174 198 0
176 199 0
174 197 0
174 198 0
175 198 0
173 197 0
172 197 0
175 198 0
175 198 0
176 198 0
176 199 0
171 196 0
174 198 0
173 197 0
176 198 0
175 198 0
173 197 0
176 199 0
175 198 0
174 197 0
174 198 0
174 198 0
175 198 0
173 197 0
175 198 0
175 198 0
175 198 0
173 197 0
171 196 0
176 199 0
173 197 0
174 197 0
175 198 0
174 197 0
173 197 0
172 196 0
174 198 0
175 198 0
173 197 0
175 198 0
174 198 0
173 197 0
174 197 0
174 198 0
174 198 0
175 198 0
172 197 0
175 198 0
174 197 0
174 198 0
174 198 0
176 199 0
174 198 0
173 197 0
174 197 0
174 198 0
174 198 0
177 199 0
174 197 0
175 198 0
173 197 0
173 197 0
174 197 0
172 197 0
175 198 0
175 198 0
172 196 0
178 200 0
172 196 0
175 198 0
175 198 0
174 197 0
173 197 0
174 197 0
174 198 0
173 197 0
174 197 0
175 198 0
174 198 0
173 197 0
177 199 0
177 199 0
173 197 0
173 197 0
176 198 0
175 198 0
175 198 0
176 199 0
175 198 0
176 199 0
174 197 0
172 197 0
174 198 0
175 198 0
175 198 0
176 199 0
173 197 0
173 197 0
173 197 0
173 197 0
172 197 0
175 198 0
174 197 0
174 198 0
172 196 0
175 198 0
174 197 0
175 198 0
175 198 0
175 198 0
172 195 0
172 196 0
172 196 0
174 197 0
174 197 0
173 197 0
174 197 0
176 199 0
177 199 0
174 198 0
174 198 0
172 196 0
173 197 0
174 197 0
173 197 0
172 197 0
175 198 0
174 197 0
172 196 0
171 196 0
176 199 0
175 198 0
173 197 0
175 198 0
173 197 0
174 197 0
174 198 0
172 197 0
174 197 0
172 197 0
174 198 0
174 198 0
176 199 0
173 196 0
173 197 0
175 198 0
173 197 0
175 198 0
174 197 0
173 197 0
176 199 0
175 198 0
172 196 0
175 198 0
174 196 0
175 198 0
175 198 0
175 198 0
175 198 0
174 198 0
175 198 0
175 198 0
174 198 0
174 198 0
174 198 0
178 200 0
173 197 0
174 198 0
175 198 0
173 197 0
174 198 0
175 198 0
175 198 0
174 198 0
174 198 0
177 199 0
173 197 0
175 198 0
176 199 0
171 196 0
175 198 0
173 197 0
174 197 0
174 197 0
173 197 0
174 198 0
175 198 0
174 197 0
173 197 0
175 198 0
176 198 0
173 197 0
174 197 0
174 198 0
174 197 0
173 197 0
173 197 0
175 198 0
173 197 0
174 197 0
173 197 0
172 197 0
175 198 0
176 198 0
173 197 0
174 198 0
173 197 0
173 197 0
173 196 0
174 198 0
173 197 0
174 198 0
176 199 0
175 198 0
175 198 0
174 197 0
174 198 0
177 199 0
173 197 0
173 197 0
175 198 0
173 197 0
175 198 0
178 200 0
175 198 0
173 197 0
174 198 0
174 198 0
173 197 0
176 198 0
173 197 0
174 198 0
176 198 0
174 197 0
174 197 0
175 198 0
175 198 0
175 198 0
175 198 0
175 198 0
172 197 0
174 197 0
178 200 0
173 197 0
175 198 0
172 196 0
175 198 0
173 197 0
175 198 0
176 198 0
172 197 0
175 198 0
171 196 0
175 198 0
174 198 0
175 198 0
174 198 0
174 198 0
174 198 0
172 197 0
175 198 0
175 198 0
174 197 0
175 198 0
175 198 0
174 198 0
175 198 0
175 198 0
174 198 0
175 198 0
172 195 0
175 198 0
174 198 0
176 199 0
175 198 0
174 197 0
174 197 0
173 197 0
173 197 0
175 198 0
174 198 0
174 197 0
174 198 0
174 197 0
175 198 0
176 199 0
172 196 0
172 197 0
172 196 0
176 199 0
174 198 0
175 198 0
174 197 0
173 197 0
173 197 0
175 198 0
173 197 0
174 197 0
174 198 0
174 198 0
173 196 0
174 197 0
173 197 0
173 197 0
174 198 0
174 198 0
174 198 0
174 198 0
174 198 0
176 198 0
174 198 0
173 197 0
176 198 0
174 198 0
174 198 0
174 197 0
174 197 0
174 198 0
174 197 0
175 198 0
175 198 0
174 198 0
174 198 0
176 199 0
175 198 0
174 198 0
174 198 0
172 197 0
174 198 0
174 198 0
175 198 0
172 197 0
173 197 0
177 199 0
174 197 0
174 197 0
174 198 0
173 197 0
174 197 0
173 197 0
175 198 0
175 198 0
173 197 0
174 198 0
176 199 0
174 197 0
175 198 0
175 198 0
174 198 0
172 197 0
174 198 0
173 197 0
174 197 0
174 198 0
174 197 0
176 198 0
176 199 0
175 198 0
173 197 0
172 197 0
174 198 0
175 198 0
175 198 0
173 197 0
174 197 0
175 198 0
175 198 0
174 197 0
172 196 0
174 197 0
173 197 0
172 196 0
176 199 0
176 198 0
173 197 0
175 198 0
174 198 0
173 197 0
174 198 0
174 198 0
176 199 0
174 197 0
173 197 0
173 197 0
173 197 0
173 197 0
173 197 0
174 198 0
173 197 0
175 198 0
175 198 0
174 197 0
175 198 0
173 197 0
175 198 0
174 198 0
174 198 0
173 197 0
176 199 0
177 199 0
175 198 0
176 199 0
176 199 0
174 198 0
174 198 0
174 198 0
173 197 0
175 198 0
173 197 0
173 197 0
174 198 0
175 198 0
173 197 0
174 197 0
173 197 0
174 198 0
173 197 0
175 198 0
172 197 0
175 198 0
175 198 0
173 197 0
175 198 0
175 198 0
174 198 0
175 198 0
174 198 0
174 198 0
175 198 0
177 199 0
174 198 0
176 199 0
175 198 0
175 198 0
174 197 0
172 196 0
174 198 0
176 199 0
176 199 0
177 199 0
175 198 0
176 199 0
175 198 0
174 197 0
175 198 0
175 198 0
177 199 0
176 199 0
175 198 0
172 196 0
176 198 0
174 198 0
174 198 0
174 198 0
174 198 0
174 198 0
174 198 0
174 198 0
175 198 0
174 198 0
173 197 0
173 197 0
174 198 0
174 198 0
176 199 0
176 199 0
177 199 0
173 197 0
175 198 0
173 197 0
175 198 0
173 197 0
175 198 0
172 197 0
174 198 0
176 199 0
176 198 0
172 196 0
173 197 0
175 198 0
175 198 0
176 199 0
176 198 0
175 198 0
174 198 0
175 198 0
173 197 0
174 197 0
174 198 0
177 199 0
174 197 0
174 197 0
177 199 0
173 197 0
172 195 0
174 198 0
174 197 0
175 198 0
175 198 0
173 197 0
175 198 0
172 197 0
175 198 0
174 197 0
174 197 0
173 197 0
176 199 0
173 197 0
173 197 0
172 197 0
173 197 0
174 198 0
175 198 0
175 198 0
172 196 0
173 196 0
175 198 0
174 198 0
174 198 0
172 197 0
174 198 0
175 198 0
175 198 0
174 197 0
174 198 0
174 197 0
174 197 0
172 196 0
174 197 0
176 198 0
174 198 0
173 197 0
175 198 0
175 198 0
174 197 0
173 197 0
175 198 0
175 198 0
174 197 0
173 197 0
176 198 0
171 196 0
174 197 0
176 199 0
172 196 0
174 197 0
174 197 0
173 197 0
174 198 0
173 197 0
174 198 0
174 198 0
174 198 0
173 197 0
173 197 0
175 198 0
175 198 0
176 199 0
175 198 0
175 198 0
175 198 0
173 197 0
174 198 0
175 198 0
174 197 0
175 198 0
175 198 0
174 197 0
176 198 0
175 198 0
174 197 0
173 196 0
174 197 0
174 197 0
174 198 0
173 197 0
177 199 0
176 199 0
171 196 0
172 196 0
176 199 0
173 197 0
173 197 0
173 197 0
176 198 0
174 198 0
173 197 0
172 196 0
174 198 0
171 196 0
175 198 0
170 195 0
175 198 0
174 198 0
173 197 0
175 198 0
173 197 0
175 198 0
174 198 0
176 198 0
173 197 0
175 198 0
175 198 0
174 198 0
174 198 0
176 199 0
174 197 0
175 198 0
174 198 0
173 196 0
175 198 0
173 197 0
174 197 0
173 196 0
173 197 0
173 197 0
174 197 0
173 197 0
172 196 0
172 196 0
177 199 0
175 198 0
174 198 0
175 198 0
174 197 0
173 197 0
174 197 0
172 197 0
173 197 0
175 198 0
174 198 0
177 199 0
173 197 0
174 198 0
173 197 0
173 197 0
174 197 0
171 195 0
175 198 0
174 197 0
174 198 0
172 196 0
174 198 0
173 197 0
172 196 0
174 197 0
175 198 0
176 198 0
176 198 0
174 198 0
175 198 0
176 198 0
175 198 0
176 199 0
172 197 0
175 198 0
176 199 0
175 198 0
173 197 0
175 198 0
174 198 0
172 197 0
175 198 0
176 199 0
175 197 0
173 197 0
175 198 0
174 198 0
174 198 0
177 199 0
174 197 0
174 197 0
174 198 0
173 197 0
174 198 0
174 197 0
172 197 0
175 198 0
174 197 0
172 197 0
174 197 0
173 197 0
174 198 0
175 198 0
176 199 0
174 197 0
176 198 0
174 197 0
173 197 0
174 198 0
174 197 0
174 197 0
172 197 0
175 198 0
175 198 0
174 197 0
173 197 0
173 197 0
175 198 0
175 198 0
175 198 0
174 197 0
174 198 0
174 197 0
173 197 0
173 197 0
174 198 0
174 198 0
175 198 0
174 198 0
174 197 0
175 198 0
174 198 0
173 197 0
172 197 0
174 198 0
175 198 0
173 197 0
173 197 0
175 198 0
173 197 0
173 197 0
175 198 0
174 197 0
175 198 0
177 199 0
172 197 0
174 198 0
173 196 0
173 197 0
175 198 0
174 198 0
174 198 0
172 197 0
175 198 0
174 198 0
174 198 0
175 198 0
174 198 0
174 198 0
174 198 0
173 197 0
176 198 0
173 197 0
174 198 0
173 197 0
174 198 0
172 196 0
174 198 0
174 197 0
175 198 0
173 197 0
174 198 0
173 197 0
175 198 0
172 197 0
175 198 0
173 197 0
174 198 0
174 198 0
175 198 0
175 198 0
172 197 0
173 197 0
173 197 0
174 198 0
174 198 0
176 198 0
173 197 0
175 198 0
175 198 0
174 197 0
175 198 0
175 198 0
174 197 0
175 198 0
176 198 0
175 198 0
172 196 0
174 198 0
173 197 0
173 197 0
174 197 0
175 198 0
176 199 0
174 197 0
175 198 0
173 197 0
175 198 0
173 197 0
176 198 0
174 197 0
175 198 0
173 197 0
176 198 0
175 198 0
176 198 0
174 197 0
176 199 0
172 197 0
174 198 0
173 197 0
172 197 0
173 197 0
175 198 0
175 198 0
175 198 0
174 198 0
176 199 0
174 198 0
171 196 0
174 197 0
175 198 0
174 197 0
173 197 0
176 199 0
174 198 0
177 199 0
173 197 0
174 197 0
172 196 0
174 198 0
177 199 0
174 197 0
174 198 0
174 198 0
174 198 0
173 197 0
175 198 0
173 197 0
176 198 0
174 198 0
174 197 0
174 197 0
173 197 0
174 198 0
174 197 0
175 198 0
174 198 0
175 198 0
174 198 0
174 198 0
173 197 0
175 198 0
174 197 0
175 198 0
174 198 0
173 197 0
174 198 0
173 197 0
173 197 0
173 197 0
175 198 0
173 197 0
173 197 0
174 197 0
174 197 0
172 197 0
173 197 0
173 197 0
174 197 0
174 198 0
177 199 0
173 197 0
174 198 0
174 198 0
173 197 0
177 198 0
174 197 0
173 196 0
172 197 0
174 197 0
173 197 0
174 198 0
174 197 0
174 198 0
174 198 0
175 198 0
175 198 0
174 198 0
175 198 0
175 198 0
174 197 0
174 198 0
176 199 0
174 198 0
173 197 0
175 198 0
175 198 0
176 199 0
172 197 0
175 198 0
175 198 0
173 197 0
175 198 0
173 196 0
174 198 0
175 198 0
175 198 0
172 197 0
174 197 0
176 199 0
175 198 0
175 198 0
176 198 0
176 199 0
173 197 0
173 196 0
173 197 0
172 197 0
172 196 0
175 198 0
173 197 0
176 198 0
175 198 0
175 198 0
175 198 0
174 197 0
173 197 0
174 197 0
172 196 0
175 198 0
173 197 0
174 197 0
173 197 0
174 197 0
172 197 0
173 197 0
174 198 0
176 199 0
177 199 0
172 197 0
175 198 0
177 199 0
174 198 0
174 197 0
173 197 0
177 199 0
173 197 0
171 196 0
175 198 0
175 198 0
173 197 0
174 198 0
172 196 0
176 198 0
174 198 0
175 198 0
173 197 0
172 196 0
173 197 0
173 197 0
174 198 0
175 198 0
173 197 0
175 198 0
173 196 0
174 197 0
172 196 0
174 198 0
176 198 0
175 198 0
174 198 0
174 198 0
175 198 0
172 196 0
175 198 0
173 197 0
174 197 0
175 198 0
172 197 0
173 197 0
174 198 0
173 196 0
175 198 0
173 197 0
173 197 0
176 199 0
172 196 0
174 197 0
173 196 0
175 198 0
175 198 0
176 199 0
172 196 0
174 198 0
173 197 0
174 198 0
175 198 0
173 197 0
174 198 0
174 198 0
171 195 0
172 195 0
173 197 0
177 199 0
174 197 0
174 198 0
172 196 0
175 198 0
174 197 0
174 197 0
176 199 0
176 199 0
171 196 0
175 197 0
174 198 0
177 199 0
175 198 0
174 197 0
174 197 0
174 197 0
173 197 0
173 197 0
174 198 0
174 197 0
175 198 0
175 198 0
173 196 0
176 199 0
175 198 0
176 198 0
175 198 0
173 197 0
174 197 0
174 198 0
175 198 0
176 199 0
174 198 0
171 195 0
174 198 0
174 198 0
174 197 0
174 198 0
173 197 0
173 197 0
176 198 0
176 198 0
174 198 0
175 198 0
174 197 0
177 199 0
173 196 0
173 197 0
174 198 0
174 198 0
173 197 0
176 198 0
175 198 0
172 196 0
175 198 0
172 196 0
176 199 0
176 199 0
174 197 0
173 197 0
174 198 0
175 198 0
174 198 0
173 196 0
174 198 0
174 197 0
172 196 0
175 198 0
175 198 0
172 197 0
173 197 0
175 198 0
173 197 0
177 199 0
173 196 0
175 198 0
176 199 0
174 197 0
176 199 0
176 199 0
174 197 0
173 197 0
174 198 0
175 198 0
172 197 0
175 198 0
173 197 0
173 197 0
175 198 0
175 198 0
176 198 0
174 198 0
174 198 0
174 197 0
175 198 0
176 198 0
173 197 0
176 199 0
174 197 0
175 198 0
175 198 0
175 198 0
174 198 0
175 198 0
176 198 0
177 199 0
177 199 0
174 197 0
175 198 0
174 198 0
174 198 0
175 198 0
171 195 0
176 199 0
175 198 0
174 197 0
172 197 0
173 197 0
172 197 0
174 198 0
174 198 0
175 198 0
174 197 0
175 198 0
176 199 0
174 197 0
175 198 0
174 198 0
172 197 0
174 197 0
174 198 0
175 198 0
175 198 0
174 197 0
173 197 0
174 197 0
175 198 0
176 198 0
173 197 0
174 197 0
174 197 0
174 198 0
173 197 0
175 198 0
175 198 0
174 198 0
175 198 0
175 198 0
176 199 0
173 197 0
175 198 0
174 198 0
174 197 0
173 197 0
174 198 0
174 197 0
173 196 0
174 198 0
174 198 0
173 197 0
173 197 0
175 198 0
174 197 0
173 197 0
176 199 0
173 197 0
172 197 0
173 197 0
175 198 0
175 198 0
174 197 0
173 197 0
176 198 0
176 198 0
174 198 0
173 197 0
174 197 0
175 198 0
174 198 0
175 198 0
173 197 0
175 198 0
172 196 0
174 198 0
175 198 0
175 198 0
174 198 0
174 198 0
174 198 0
174 197 0
174 197 0
175 198 0
177 199 0
173 197 0
174 198 0
175 198 0
175 198 0
174 197 0
174 198 0
175 198 0
174 198 0
172 197 0
174 198 0
174 198 0
172 196 0
175 198 0
172 196 0
173 197 0
174 198 0
174 198 0
173 197 0
172 196 0
173 197 0
176 198 0
176 199 0
172 197 0
173 197 0
174 197 0
174 198 0
173 197 0
173 197 0
176 199 0
177 199 0
177 199 0
174 198 0
173 196 0
173 197 0
173 197 0
173 197 0
174 197 0
172 197 0
174 198 0
174 198 0
174 198 0
173 197 0
176 199 0
177 199 0
178 200 0
175 198 0
175 198 0
175 198 0
174 197 0
176 198 0
175 198 0
175 198 0
173 197 0
172 197 0
176 199 0
172 196 0
175 198 0
174 198 0
174 197 0
173 197 0
174 197 0
174 197 0
175 198 0
175 198 0
173 197 0
177 199 0
174 198 0
173 197 0
176 198 0
174 198 0
172 197 0
176 199 0
172 197 0
174 198 0
174 198 0
175 198 0
175 198 0
174 198 0
175 198 0
176 199 0
172 197 0
174 198 0
173 197 0
172 196 0
174 198 0
173 197 0
174 198 0
176 198 0
176 199 0
174 197 0
174 198 0
175 198 0
174 197 0
174 198 0
173 197 0
174 198 0
173 197 0
174 198 0
179 200 0
175 198 0
174 198 0
172 196 0
171 196 0
171 195 0
175 198 0
176 198 0
174 198 0
174 198 0
174 197 0
174 197 0
175 198 0
174 198 0
174 198 0
172 196 0
174 198 0
175 198 0
174 198 0
173 197 0
175 198 0
176 199 0
175 198 0
173 197 0
171 196 0
175 198 0
173 197 0
175 198 0
176 198 0
175 198 0
175 198 0
177 199 0
172 196 0
172 196 0
174 197 0
175 198 0
172 196 0
175 198 0
172 196 0
176 199 0
174 198 0
176 198 0
172 197 0
174 198 0
175 198 0
174 197 0
174 198 0
174 197 0
175 198 0
175 198 0
174 197 0
175 198 0
173 197 0
178 199 0
174 197 0
176 199 0
175 198 0
175 198 0
173 197 0
174 197 0
174 198 0
175 198 0
173 197 0
175 198 0
173 197 0
174 198 0
175 198 0
174 198 0
176 198 0
171 194 0
174 198 0
172 196 0
173 197 0
173 196 0
175 198 0
175 198 0
175 198 0
175 198 0
174 198 0
174 198 0
175 198 0
171 195 0
175 198 0
170 196 0
174 197 0
174 197 0
172 197 0
176 199 0
174 197 0
175 198 0
172 197 0
175 198 0
173 196 0
174 197 0
174 197 0
174 198 0
172 197 0
175 198 0
176 199 0
174 198 0
175 198 0
175 198 0
177 199 0
173 197 0
173 197 0
175 198 0
174 198 0
174 198 0
172 196 0
174 197 0
175 198 0
174 198 0
174 197 0
173 196 0
174 197 0
176 198 0
174 198 0
174 198 0
173 197 0
172 196 0
172 196 0
176 199 0
173 197 0
175 197 0
174 198 0
175 197 0
174 198 0
173 197 0
174 198 0
176 198 0
173 197 0
176 199 0
174 198 0
175 198 0
174 198 0
174 197 0
174 198 0
176 199 0
174 198 0
172 196 0
174 197 0
175 198 0
175 198 0
173 196 0
174 198 0
172 195 0
174 198 0
173 197 0
172 197 0
172 196 0
173 197 0
174 197 0
175 198 0
177 199 0
174 197 0
172 197 0
177 199 0
174 197 0
175 198 0
174 198 0
175 198 0
173 197 0
175 198 0
174 198 0
176 199 0
175 198 0
175 198 0
174 197 0
176 199 0
173 197 0
174 197 0
174 198 0
174 198 0
173 197 0
174 198 0
175 198 0
175 198 0
174 198 0
175 198 0
174 197 0
174 197 0
172 196 0
174 197 0
175 198 0
175 198 0
173 196 0
175 198 0
174 198 0
175 198 0
174 198 0
172 196 0
175 198 0
172 197 0
177 199 0
176 199 0
174 198 0
175 198 0
175 198 0
175 198 0
173 197 0
176 199 0
177 199 0
173 196 0
173 197 0
173 197 0
172 196 0
175 198 0
176 198 0
176 199 0
174 198 0
174 198 0
175 198 0
174 197 0
175 198 0
175 198 0
173 197 0
174 198 0
171 196 0
174 198 0
176 199 0
175 198 0
173 197 0
172 197 0
174 198 0
176 198 0
174 198 0
174 198 0
175 198 0
174 198 0
176 199 0
173 196 0
175 198 0
175 198 0
174 198 0
173 197 0
172 197 0
174 197 0
175 198 0
173 197 0
173 197 0
173 197 0
176 198 0
173 197 0
173 197 0
174 198 0
175 198 0
172 196 0
176 199 0
176 199 0
176 198 0
174 198 0
175 198 0
177 199 0
174 197 0
175 198 0
176 198 0
177 199 0
173 197 0
175 198 0
173 197 0
176 199 0
174 198 0
175 198 0
175 198 0
176 199 0
173 196 0
175 198 0
173 197 0
175 198 0
173 197 0
174 198 0
175 198 0
176 199 0
175 198 0
174 198 0
176 199 0
174 197 0
175 198 0
172 196 0
175 198 0
177 199 0
176 199 0
175 198 0
173 197 0
174 198 0
174 198 0
175 198 0
175 198 0
173 197 0
173 197 0
174 198 0
174 198 0
173 197 0
173 197 0
174 198 0
175 198 0
173 197 0
173 197 0
173 197 0
173 197 0
174 197 0
174 197 0
173 197 0
175 198 0
174 197 0
176 199 0
172 196 0
176 198 0
174 197 0
174 198 0
174 198 0
174 197 0
174 198 0
173 197 0
174 198 0
174 198 0
175 198 0
173 197 0
176 198 0
174 197 0
174 197 0
174 198 0
175 198 0
174 198 0
173 197 0
176 199 0
175 198 0
176 198 0
174 198 0
175 198 0
174 198 0
172 196 0
174 197 0
172 196 0
173 197 0
172 197 0
173 197 0
177 199 0
174 197 0
176 198 0
175 198 0
175 198 0
173 197 0
170 196 0
175 198 0
174 197 0
173 197 0
173 197 0
173 197 0
175 198 0
174 198 0
174 197 0
177 199 0
174 198 0
174 197 0
175 198 0
175 198 0
175 198 0
175 198 0
173 197 0
173 197 0
174 197 0
172 197 0
174 197 0
176 199 0
174 198 0
176 199 0
175 198 0
174 197 0
175 198 0
176 199 0
173 197 0
172 196 0
175 198 0
176 199 0
176 199 0
172 197 0
175 198 0
174 197 0
170 196 0
173 197 0
172 197 0
175 198 0
173 197 0
174 197 0
176 199 0
175 198 0
175 198 0
175 198 0
174 197 0
174 198 0
173 197 0
174 198 0
175 198 0
174 198 0
173 197 0
174 197 0
175 198 0
174 198 0
173 197 0
175 198 0
174 197 0
176 199 0
174 198 0
172 196 0
176 199 0
174 197 0
173 197 0
174 197 0
173 197 0
176 198 0
173 197 0
175 198 0
174 197 0
174 198 0
175 198 0
175 198 0
173 197 0
175 198 0
174 197 0
174 198 0
174 198 0
172 196 0
175 198 0
175 198 0
175 198 0
175 198 0
174 197 0
173 197 0
174 198 0
175 198 0
175 198 0
174 198 0
176 199 0
174 198 0
174 198 0
176 199 0
175 198 0
175 198 0
173 197 0
176 199 0
174 198 0
174 198 0
174 197 0
173 197 0
175 198 0
173 197 0
174 197 0
174 198 0
175 198 0
174 198 0
176 198 0
176 199 0
173 197 0
174 197 0
177 199 0
174 198 0
174 197 0
176 199 0
174 197 0
174 197 0
175 198 0
174 198 0
172 197 0
176 198 0
173 197 0
174 198 0
174 198 0
173 197 0
171 196 0
172 196 0
173 196 0
175 197 0
174 198 0
174 198 0
172 197 0
175 198 0
172 196 0
175 198 0
173 197 0
174 198 0
171 195 0
173 197 0
173 197 0
176 198 0
175 198 0
172 195 0
175 198 0
176 199 0
176 199 0
174 198 0
176 199 0
174 198 0
175 198 0
179 200 0
172 196 0
175 198 0
174 197 0
173 197 0
174 197 0
174 198 0
174 197 0
172 196 0
176 199 0
173 197 0
173 197 0
173 197 0
174 198 0
176 198 0
174 197 0
173 197 0
175 198 0
173 197 0
174 198 0
175 198 0
175 198 0
169 193 0
174 197 0
173 196 0
175 198 0
175 198 0
174 197 0
173 197 0
173 197 0
174 197 0
175 198 0
174 198 0
175 198 0
174 198 0
176 198 0
175 197 0
173 197 0
172 197 0
173 197 0
175 198 0
175 198 0
175 198 0
175 198 0
175 198 0
173 197 0
177 199 0
175 198 0
174 198 0
175 198 0
173 197 0
173 197 0
175 198 0
175 198 0
174 198 0
174 197 0
173 197 0
177 199 0
173 197 0
175 198 0
175 197 0
175 198 0
173 197 0
175 198 0
171 195 0
173 197 0
174 198 0
174 197 0
175 198 0
174 198 0
175 198 0
170 196 0
175 198 0
173 197 0
175 198 0
175 198 0
175 198 0
174 198 0
175 198 0
173 197 0
174 197 0
174 197 0
174 198 0
174 198 0
174 198 0
173 197 0
175 198 0
175 198 0
176 199 0
171 195 0
174 198 0
176 198 0
175 198 0
173 197 0
174 198 0
174 197 0
173 197 0
174 197 0
174 198 0
173 197 0
176 199 0
174 197 0
172 197 0
176 198 0
175 198 0
173 197 0
175 198 0
175 198 0
174 197 0
174 198 0
174 198 0
176 198 0
176 198 0
175 198 0
172 197 0
174 197 0
175 198 0
173 197 0
175 198 0
176 198 0
174 198 0
173 197 0
174 198 0
175 198 0
174 198 0
174 197 0
175 198 0
174 198 0
176 199 0
174 197 0
175 198 0
175 198 0
174 197 0
175 198 0
176 199 0
176 199 0
175 198 0
173 197 0
174 197 0
175 198 0
172 196 0
174 198 0
175 198 0
174 198 0
174 197 0
174 197 0
174 198 0
174 198 0
174 197 0
174 198 0
174 198 0
173 197 0
175 198 0
175 198 0
175 198 0
173 197 0
173 197 0
173 197 0
174 197 0
176 199 0
175 198 0
175 198 0
172 197 0
175 198 0
174 198 0
175 198 0
173 197 0
174 198 0
176 198 0
174 197 0
173 197 0
175 197 0
175 198 0
173 197 0
175 198 0
174 197 0
174 197 0
177 199 0
176 199 0
173 197 0
171 196 0
174 197 0
175 198 0
175 198 0
175 198 0
173 197 0
177 199 0
174 198 0
175 198 0
176 199 0
174 197 0
173 197 0
176 199 0
174 198 0
173 197 0
174 198 0
176 199 0
173 197 0
175 198 0
173 197 0
173 197 0
176 198 0
174 198 0
174 198 0
177 199 0
175 198 0
175 198 0
178 199 0
175 198 0
177 199 0
174 197 0
174 198 0
175 198 0
174 197 0
173 197 0
173 197 0
176 199 0
172 196 0
174 197 0
173 197 0
173 197 0
174 197 0
174 198 0
176 199 0
172 197 0
175 198 0
174 198 0
171 196 0
175 198 0
176 199 0
173 197 0
175 198 0
175 198 0
175 198 0
175 198 0
175 198 0
174 198 0
176 199 0
175 198 0
173 197 0
175 198 0
175 198 0
175 198 0
173 197 0
175 198 0
173 197 0
174 198 0
174 198 0
175 198 0
174 198 0
174 198 0
175 198 0
172 197 0
174 198 0
176 199 0
175 198 0
177 199 0
176 199 0
174 198 0
175 198 0
174 197 0
175 198 0
178 200 0
175 198 0
174 198 0
173 197 0
175 198 0
173 197 0
174 198 0
173 197 0
177 199 0
175 198 0
177 199 0
173 197 0
175 197 0
176 199 0
174 197 0
174 198 0
176 198 0
173 197 0
175 198 0
175 198 0
174 197 0
174 197 0
174 197 0
173 197 0
173 197 0
174 197 0
177 199 0
174 197 0
173 197 0
175 198 0
174 197 0
173 197 0
174 198 0
174 198 0
175 198 0
176 198 0
171 196 0
173 197 0
174 197 0
173 197 0
172 196 0
173 197 0
175 198 0
177 199 0
176 198 0
175 198 0
175 198 0
173 197 0
174 197 0
175 198 0
173 197 0
174 198 0
176 199 0
174 197 0
174 197 0
175 198 0
173 197 0
175 198 0
176 199 0
171 196 0
175 198 0
175 198 0
173 197 0
172 197 0
176 198 0
176 199 0
176 199 0
173 197 0
171 195 0
174 197 0
175 198 0
175 198 0
174 198 0
174 197 0
176 198 0
172 197 0
172 197 0
174 197 0
174 197 0
175 198 0
174 198 0
175 198 0
173 197 0
174 198 0
174 197 0
175 198 0
176 198 0
175 198 0
174 197 0
174 197 0
172 197 0
175 197 0
174 198 0
173 197 0
174 198 0
175 197 0
172 197 0
173 197 0
172 196 0
173 197 0
175 198 0
173 197 0
172 196 0
173 196 0
174 197 0
174 197 0
176 198 0
175 198 0
173 197 0
173 197 0
175 198 0
176 198 0
175 198 0
175 198 0
172 196 0
172 196 0
172 197 0
175 198 0
174 198 0
176 198 0
174 198 0
173 197 0
175 198 0
175 198 0
174 198 0
172 195 0
173 197 0
176 199 0
173 197 0
174 198 0
171 196 0
173 197 0
173 197 0
174 198 0
174 198 0
174 197 0
173 196 0
175 198 0
174 198 0
173 197 0
175 198 0
176 198 0
173 197 0
172 197 0
175 198 0
175 198 0
173 197 0
175 198 0
174 198 0
175 198 0
176 198 0
172 197 0
173 197 0
176 198 0
173 197 0
175 198 0
175 198 0
174 198 0
178 200 0
173 196 0
175 198 0
175 198 0
173 197 0
173 196 0
172 196 0
175 198 0
173 197 0
176 198 0
177 199 0
173 196 0
173 197 0
172 196 0
173 197 0
175 198 0
173 197 0
175 198 0
173 196 0
176 199 0
174 198 0
175 198 0
175 198 0
174 198 0
175 198 0
171 195 0
173 197 0
174 197 0
173 197 0
173 197 0
172 197 0
174 198 0
174 197 0
174 197 0
174 198 0
177 199 0
175 198 0
173 197 0
174 198 0
174 197 0
173 197 0
173 197 0
176 199 0
173 197 0
176 199 0
175 198 0
173 197 0
172 197 0
174 197 0
175 198 0
174 197 0
176 198 0
174 198 0
174 197 0
176 198 0
176 199 0
176 199 0
174 198 0
177 199 0
173 197 0
176 199 0
175 198 0
174 198 0
175 198 0
173 197 0
177 199 0
176 199 0
174 198 0
174 197 0
177 199 0
176 199 0
173 197 0
176 199 0
174 198 0
174 198 0
174 198 0
174 198 0
173 197 0
176 199 0
174 198 0
174 197 0
176 199 0
175 198 0
176 198 0
175 198 0
173 197 0
173 197 0
174 198 0
176 198 0
178 199 0
172 197 0
173 197 0
175 198 0
174 198 0
175 198 0
172 197 0
175 198 0
177 199 0
173 197 0
171 196 0
174 197 0
174 198 0
174 198 0
174 197 0
175 198 0
175 198 0
173 197 0
176 198 0
174 198 0
176 198 0
174 198 0
176 198 0
175 198 0
174 198 0
172 197 0
173 197 0
172 197 0
176 199 0
172 196 0
177 199 0
175 198 0
174 197 0
175 198 0
172 197 0
173 197 0
176 199 0
172 195 0
174 198 0
173 197 0
174 198 0
174 197 0
174 198 0
174 198 0
176 199 0
175 198 0
174 197 0
175 198 0
175 198 0
174 198 0
175 198 0
173 197 0
172 196 0
175 198 0
175 198 0
176 199 0
175 198 0
175 198 0
172 197 0
173 197 0
176 199 0
175 198 0
177 199 0
175 198 0
174 198 0
173 196 0
174 198 0
172 196 0
177 199 0
175 198 0
175 198 0
171 196 0
175 198 0
175 198 0
175 198 0
174 198 0
173 197 0
172 197 0
175 198 0
174 198 0
175 198 0
173 197 0
176 199 0
173 197 0
175 198 0
175 198 0
175 198 0
176 198 0
173 197 0
174 198 0
175 198 0
176 198 0
176 199 0
175 198 0
175 198 0
173 197 0
175 198 0
174 198 0
174 198 0
175 198 0
176 199 0
173 197 0
173 197 0
175 198 0
174 197 0
172 196 0
174 198 0
173 197 0
174 198 0
177 199 0
174 197 0
174 198 0
173 197 0
174 198 0
177 199 0
176 198 0
173 197 0
175 198 0
175 198 0
174 198 0
175 198 0
174 198 0
173 197 0
175 198 0
177 199 0
176 199 0
174 198 0
174 198 0
174 198 0
176 199 0
173 197 0
174 198 0
174 198 0
175 198 0
175 198 0
173 197 0
174 198 0
173 197 0
173 197 0
173 197 0
177 199 0
177 199 0
175 198 0
176 199 0
174 197 0
175 198 0
176 199 0
174 198 0
175 198 0
172 197 0
174 198 0
175 198 0
175 198 0
176 198 0
174 198 0
173 197 0
174 197 0
175 198 0
173 197 0
174 198 0
175 198 0
174 198 0
175 198 0
171 194 0
176 199 0
175 198 0
176 199 0
176 198 0
175 198 0
173 197 0
173 197 0
177 199 0
174 197 0
174 198 0
175 198 0
175 198 0
171 196 0
173 197 0
174 198 0
176 199 0
173 196 0
175 198 0
174 197 0
171 195 0
172 197 0
173 197 0
174 198 0
174 198 0
175 198 0
172 196 0
174 198 0
175 198 0
175 198 0
172 196 0
176 198 0
175 198 0
176 199 0
174 197 0
177 199 0
174 198 0
173 197 0
174 198 0
175 198 0
175 198 0
174 197 0
173 197 0
175 198 0
174 198 0
172 197 0
173 196 0
175 198 0
175 198 0
176 199 0
175 198 0
174 197 0
172 197 0
175 198 0
175 198 0
175 198 0
175 198 0
173 197 0
173 197 0
173 197 0
176 199 0
175 198 0
174 198 0
175 198 0
177 199 0
173 197 0
174 197 0
175 198 0
176 198 0
171 196 0
173 197 0
174 198 0
173 197 0
175 198 0
176 198 0
174 198 0
174 197 0
173 197 0
175 198 0
176 199 0
174 197 0
176 198 0
176 199 0
170 195 0
174 197 0
172 197 0
174 198 0
176 198 0
174 198 0
174 197 0
173 197 0
175 198 0
175 197 0
173 197 0
176 199 0
174 198 0
173 197 0
174 198 0
175 198 0
175 198 0
173 197 0
173 197 0
174 198 0
174 197 0
172 196 0
173 197 0
174 198 0
173 197 0
174 197 0
173 197 0
175 198 0
175 198 0
175 198 0
174 197 0
172 196 0
173 197 0
172 196 0
176 199 0
174 197 0
171 196 0
175 198 0
170 195 0
173 197 0
176 199 0
173 197 0
175 198 0
172 196 0
170 194 0
175 198 0
175 198 0
175 198 0
173 196 0
173 197 0
174 197 0
174 196 0
174 198 0
177 199 0
175 198 0
172 196 0
173 197 0
173 196 0
177 199 0
173 197 0
172 195 0
173 197 0
175 198 0
175 198 0
176 199 0
177 199 0
171 195 0
174 198 0
173 197 0
175 198 0
175 198 0
176 199 0
170 195 0
174 197 0
175 198 0
177 199 0
174 198 0
173 196 0
175 198 0
173 197 0
174 197 0
172 196 0
175 198 0
176 199 0
176 198 0
176 198 0
174 197 0
177 199 0
174 197 0
172 197 0
173 196 0
174 198 0
174 197 0
174 198 0
174 198 0
174 198 0
176 199 0
175 198 0
175 198 0
172 197 0
172 197 0
174 198 0
177 199 0
174 198 0
175 197 0
176 198 0
174 198 0
175 198 0
175 198 0
174 198 0
173 197 0
175 198 0
175 197 0
174 198 0
173 197 0
172 197 0
176 198 0
174 196 0
175 198 0
173 197 0
171 195 0
175 198 0
175 198 0
176 199 0
172 197 0
173 196 0
173 197 0
173 197 0
173 197 0
176 198 0
173 197 0
174 197 0
173 197 0
173 197 0
173 197 0
173 197 0
171 194 0
173 197 0
175 198 0
174 198 0
175 198 0
176 198 0
171 195 0
173 197 0
172 196 0
177 199 0
173 197 0
172 196 0
174 198 0
175 198 0
173 197 0
176 199 0
172 197 0
174 197 0
173 197 0
173 197 0
175 198 0
176 199 0
175 198 0
172 197 0
172 196 0
173 197 0
174 197 0
173 197 0
174 197 0
175 198 0
175 198 0
176 199 0
173 197 0
173 196 0
173 197 0
175 198 0
174 198 0
173 196 0
174 198 0
174 198 0
176 199 0
173 197 0
175 198 0
173 197 0
174 197 0
174 198 0
176 198 0
174 198 0
174 198 0
176 198 0
176 199 0
175 198 0
175 198 0
171 196 0
176 199 0
173 197 0
175 198 0
173 197 0
174 198 0
175 198 0
174 198 0
174 197 0
174 197 0
176 199 0
173 197 0
174 197 0
175 198 0
173 197 0
173 197 0
175 198 0
175 198 0
174 198 0
173 197 0
173 197 0
175 198 0
173 196 0
175 198 0
174 197 0
175 198 0
175 198 0
175 198 0
175 198 0
174 198 0
175 198 0
175 198 0
175 198 0
174 198 0
173 197 0
174 198 0
172 197 0
174 198 0
175 198 0
174 197 0
175 198 0
174 198 0
176 198 0
172 197 0
176 198 0
176 198 0
175 198 0
172 197 0
175 198 0
174 198 0
173 197 0
175 198 0
176 199 0
174 197 0
177 199 0
176 199 0
176 198 0
176 199 0
173 197 0
173 197 0
174 198 0
173 197 0
175 198 0
174 198 0
173 197 0
173 197 0
176 199 0
174 198 0
175 198 0
175 198 0
175 198 0
175 198 0
175 198 0
176 199 0
173 197 0
173 197 0
173 197 0
173 197 0
173 197 0
172 197 0
175 198 0
174 198 0
173 197 0
175 198 0
174 198 0
173 197 0
175 198 0
175 198 0
174 197 0
173 197 0
174 198 0
172 196 0
174 197 0
173 197 0
175 198 0
174 198 0
175 198 0
172 197 0
174 198 0
174 197 0
174 198 0
176 198 0
173 197 0
174 198 0
173 197 0
174 198 0
174 197 0
173 197 0
174 198 0
174 198 0
173 197 0
173 197 0
176 199 0
175 198 0
176 198 0
174 198 0
174 198 0
175 198 0
175 198 0
175 198 0
174 198 0
174 197 0
172 197 0
175 198 0
173 197 0
175 198 0
174 198 0
175 198 0
174 197 0
175 198 0
174 198 0
173 197 0
175 198 0
176 198 0
173 197 0
176 199 0
175 198 0
174 197 0
173 197 0
176 199 0
174 198 0
176 199 0
175 198 0
175 198 0
176 198 0
174 198 0
176 198 0
173 197 0
171 196 0
173 197 0
175 198 0
173 196 0
174 197 0
174 198 0
174 197 0
173 197 0
173 196 0
175 198 0
172 196 0
174 197 0
172 196 0
173 197 0
173 197 0
174 197 0
173 197 0
174 198 0
173 197 0
175 198 0
172 196 0
175 198 0
173 197 0
173 197 0
174 198 0
176 199 0
173 197 0
173 197 0
175 198 0
171 196 0
173 197 0
174 198 0
174 197 0
174 198 0
172 196 0
174 198 0
175 198 0
176 199 0
175 198 0
174 198 0
175 198 0
175 197 0
173 197 0
175 198 0
175 198 0
173 197 0
172 196 0
172 196 0
174 197 0
172 197 0
175 198 0
175 198 0
175 198 0
174 198 0
173 197 0
172 195 0
172 196 0
173 197 0
176 199 0
173 197 0
173 197 0
173 197 0
173 197 0
175 198 0
174 197 0
174 197 0
175 198 0
173 197 0
174 197 0
175 198 0
172 196 0
174 198 0
175 198 0
174 197 0
174 197 0
175 198 0
173 196 0
175 198 0
173 197 0
175 198 0
175 198 0
174 197 0
175 198 0
173 197 0
175 197 0
170 195 0
174 197 0
174 198 0
173 197 0
171 195 0
173 197 0
173 197 0
175 198 0
175 198 0
175 198 0
176 198 0
170 196 0
175 198 0
173 197 0
175 198 0
176 199 0
175 197 0
176 198 0
174 198 0
173 196 0
175 198 0
173 197 0
177 199 0
174 198 0
175 198 0
174 198 0
175 198 0
173 197 0
176 199 0
175 198 0
172 197 0
174 196 0
174 198 0
175 198 0
172 196 0
173 197 0
175 198 0
175 198 0
174 198 0
172 195 0
175 198 0
173 197 0
174 197 0
174 197 0
174 197 0
173 196 0
174 197 0
173 197 0
175 198 0
175 198 0
176 199 0
173 196 0
173 197 0
176 199 0
173 197 0
175 198 0
172 197 0
174 198 0
175 198 0
176 199 0
174 198 0
174 197 0
174 197 0
173 196 0
175 198 0
176 199 0
172 196 0
174 198 0
174 197 0
174 197 0
174 198 0
174 198 0
175 198 0
175 198 0
172 197 0
176 199 0
175 198 0
173 196 0
173 197 0
173 197 0
174 198 0
173 197 0
176 198 0
174 198 0
175 198 0
175 198 0
174 197 0
176 198 0
174 198 0
174 197 0
172 197 0
172 196 0
174 198 0
175 198 0
173 196 0
176 198 0
173 197 0
175 198 0
174 198 0
173 197 0
174 198 0
175 198 0
171 195 0
175 198 0
175 198 0
174 198 0
173 197 0
176 198 0
175 198 0
173 197 0
171 195 0
175 198 0
173 197 0
174 197 0
175 198 0
174 198 0
176 199 0
175 198 0
173 197 0
175 198 0
173 197 0
175 198 0
174 198 0
174 198 0
176 199 0
175 198 0
176 199 0
173 197 0
175 198 0
176 199 0
176 198 0
171 195 0
174 198 0
173 197 0
175 198 0
174 197 0
175 198 0
175 198 0
175 197 0
176 199 0
176 199 0
176 198 0
172 197 0
173 197 0
175 198 0
174 197 0
175 198 0
174 197 0
172 197 0
172 196 0
175 198 0
175 198 0
175 198 0
174 198 0
173 197 0
174 198 0
172 197 0
172 196 0
176 199 0
174 198 0
175 198 0
174 197 0
177 199 0
174 198 0
173 196 0
173 197 0
175 198 0
175 198 0
175 198 0
174 197 0
174 198 0
175 198 0
174 198 0
175 198 0
172 197 0
176 199 0
172 197 0
176 198 0
173 197 0
175 198 0
174 198 0
176 199 0
176 198 0
174 198 0
174 198 0
174 198 0
176 198 0
174 197 0
174 198 0
174 198 0
176 199 0
176 199 0
174 198 0
176 199 0
174 198 0
174 198 0
174 198 0
174 197 0
173 197 0
173 197 0
174 197 0
173 197 0
173 197 0
173 197 0
174 198 0
173 197 0
175 198 0
175 198 0
175 198 0
174 197 0
174 197 0
174 197 0
173 197 0
175 198 0
174 197 0
173 197 0
173 197 0
173 197 0
174 198 0
173 197 0
173 197 0
174 198 0
174 198 0
174 197 0
173 197 0
174 198 0
172 197 0
172 197 0
172 196 0
175 198 0
178 200 0
174 198 0
174 198 0
171 196 0
174 197 0
175 198 0
177 199 0
171 196 0
173 197 0
175 198 0
173 197 0
177 199 0
175 198 0
175 198 0
174 198 0
175 198 0
175 198 0
174 198 0
174 198 0
173 197 0
174 197 0
174 198 0
173 197 0
176 199 0
173 197 0
173 197 0
175 198 0
175 198 0
174 198 0
173 197 0
175 198 0
173 197 0
174 198 0
175 198 0
174 198 0
175 198 0
173 197 0
174 198 0
174 198 0
174 197 0
173 197 0
174 198 0
175 198 0
173 197 0
177 199 0
177 199 0
175 198 0
175 198 0
173 197 0
173 197 0
176 199 0
176 198 0
174 197 0
172 197 0
175 198 0
174 198 0
174 198 0
174 197 0
172 196 0
172 197 0
174 198 0
176 199 0
176 198 0
170 195 0
174 197 0
173 197 0
176 199 0
175 198 0
174 197 0
172 197 0
172 196 0
174 197 0
174 198 0
174 198 0
174 197 0
175 197 0
173 197 0
176 199 0
175 198 0
173 197 0
173 197 0
174 198 0
174 197 0
174 198 0
177 199 0
176 198 0
174 198 0
176 198 0
174 198 0
173 197 0
176 199 0
174 198 0
174 197 0
173 197 0
172 196 0
176 199 0
176 199 0
175 198 0
175 198 0
174 197 0
175 198 0
175 198 0
175 198 0
173 197 0
173 197 0
174 197 0
174 197 0
173 197 0
174 197 0
173 197 0
175 198 0
172 196 0
175 198 0
176 199 0
173 197 0
171 195 0
174 198 0
175 198 0
174 197 0
175 198 0
172 196 0
174 198 0
174 198 0
175 198 0
174 198 0
172 196 0
173 197 0
176 198 0
174 197 0
175 198 0
174 197 0
174 198 0
173 197 0
173 197 0
175 198 0
175 198 0
174 198 0
173 197 0
174 197 0
174 197 0
174 197 0
174 198 0
174 198 0
174 197 0
173 197 0
174 197 0
176 198 0
176 199 0
174 197 0
172 197 0
174 197 0
175 198 0
174 197 0
173 197 0
176 199 0
173 197 0
175 198 0
173 197 0
174 197 0
173 197 0
176 199 0
176 199 0
174 198 0
174 197 0
172 196 0
173 197 0
175 198 0
175 197 0
176 199 0
174 197 0
173 195 0
172 196 0
173 196 0
173 197 0
176 199 0
173 197 0
175 198 0
176 199 0
173 197 0
173 197 0
176 199 0
175 197 0
173 197 0
171 196 0
174 198 0
177 199 0
173 196 0
174 197 0
173 197 0
174 197 0
172 196 0
174 198 0
175 198 0
174 198 0
173 197 0
176 199 0
174 198 0
174 198 0
174 197 0
174 198 0
174 198 0
173 197 0
175 198 0
173 197 0
175 198 0
175 197 0
173 196 0
174 198 0
172 196 0
174 198 0
173 197 0
173 197 0
172 196 0
174 198 0
174 197 0
172 196 0
176 198 0
174 198 0
173 197 0
175 198 0
174 198 0
174 198 0
173 197 0
174 198 0
174 198 0
175 198 0
175 198 0
174 197 0
173 197 0
175 198 0
176 199 0
172 195 0
173 197 0
177 199 0
176 199 0
171 195 0
175 198 0
174 198 0
175 198 0
176 198 0
173 197 0
170 195 0
174 197 0
175 198 0
174 198 0
177 199 0
172 196 0
173 197 0
175 198 0
173 197 0
175 198 0
171 196 0
174 198 0
174 198 0
172 197 0
174 197 0
174 198 0
175 198 0
176 199 0
175 198 0
174 198 0
175 198 0
175 198 0
174 198 0
175 198 0
175 198 0
172 196 0
175 198 0
172 196 0
174 198 0
173 197 0
176 199 0
173 196 0
174 197 0
173 197 0
173 197 0
175 198 0
177 199 0
176 199 0
175 198 0
175 198 0
172 197 0
173 197 0
174 197 0
175 198 0
175 198 0
173 197 0
175 198 0
175 198 0
172 196 0
176 199 0
174 198 0
171 195 0
172 197 0
176 199 0
175 198 0
175 198 0
173 196 0
174 197 0
174 197 0
174 197 0
173 197 0
175 198 0
172 195 0
174 197 0
175 198 0
176 199 0
175 198 0
175 198 0
175 198 0
174 198 0
174 198 0
175 198 0
174 197 0
175 198 0
173 197 0
176 199 0
176 198 0
175 198 0
175 198 0
175 198 0
174 198 0
174 198 0
173 197 0
175 198 0
174 197 0
174 197 0
174 198 0
175 198 0
175 198 0
175 198 0
174 198 0
172 197 0
174 197 0
174 198 0
172 197 0
175 198 0
174 198 0
173 197 0
175 198 0
174 197 0
174 198 0
175 198 0
175 198 0
175 197 0
176 199 0
173 197 0
174 198 0
173 197 0
176 199 0
172 197 0
175 198 0
172 197 0
174 198 0
176 199 0
172 197 0
175 198 0
173 197 0
174 198 0
175 198 0
174 197 0
176 198 0
174 197 0
175 198 0
173 197 0
175 197 0
177 199 0
175 198 0
175 198 0
174 197 0
175 198 0
174 198 0
172 196 0
174 197 0
174 198 0
172 197 0
174 197 0
174 197 0
176 198 0
172 197 0
175 198 0
175 198 0
173 196 0
177 199 0
175 198 0
172 196 0
175 198 0
173 197 0
173 197 0
175 198 0
175 198 0
173 197 0
175 198 0
174 198 0
173 197 0
174 198 0
174 198 0
172 196 0
172 196 0
175 198 0
172 196 0
176 199 0
175 198 0
173 197 0
174 198 0
175 198 0
173 197 0
176 199 0
173 197 0
176 198 0
171 196 0
173 197 0
172 197 0
174 197 0
175 198 0
174 198 0
175 198 0
175 198 0
174 198 0
175 198 0
174 197 0
175 198 0
175 198 0
173 197 0
176 198 0
175 198 0
174 198 0
174 198 0
175 198 0
174 197 0
175 198 0
173 197 0
175 198 0
176 199 0
174 198 0
173 197 0
173 197 0
177 199 0
175 198 0
172 196 0
175 198 0
175 198 0
173 197 0
174 198 0
173 197 0
175 198 0
172 196 0
175 198 0
171 196 0
173 197 0
172 196 0
175 198 0
174 198 0
174 198 0
174 197 0
174 197 0
177 199 0
176 198 0
173 197 0
176 199 0
175 198 0
174 197 0
174 197 0
174 198 0
175 198 0
176 199 0
174 198 0
172 196 0
173 197 0
173 197 0
175 198 0
176 198 0
175 198 0
174 197 0
175 198 0
175 198 0
175 198 0
175 198 0
174 197 0
174 198 0
174 198 0
174 197 0
174 197 0
171 196 0
177 199 0
173 197 0
174 197 0
175 198 0
175 198 0
174 197 0
172 197 0
175 198 0
175 198 0
174 198 0
174 198 0
174 197 0
173 197 0
174 198 0
173 197 0
176 198 0
173 197 56
177 199 121
181 201 177
185 203 219
182 202 191
176 199 91
173 197 0
175 197 0
176 199 0
175 198 0
174 198 0
176 198 0
176 198 0
176 199 0
175 198 0
174 198 0
174 198 0
173 197 0
174 197 0
178 200 0
173 197 0
173 197 0
173 197 0
174 197 0
171 196 0
171 196 0
174 198 0
175 198 0
172 197 0
175 198 0
174 197 0
172 196 0
176 198 0
174 197 0
174 198 0
175 198 0
175 198 0
173 197 0
174 197 0
174 197 0
175 198 0
173 197 0
172 196 0
173 197 0
174 197 0
177 199 0
176 198 0
175 198 0
174 198 0
174 197 0
174 197 0
174 197 0
173 197 0
175 198 0
173 196 0
174 197 0
169 194 0
173 197 0
175 198 0
173 197 0
173 197 0
175 198 0
175 198 0
174 197 0
176 199 0
174 198 0
174 197 0
175 198 0
171 195 0
173 197 0
170 194 0
173 196 0
172 197 0
174 198 0
173 196 0
171 196 0
175 198 0
172 197 0
175 198 0
173 196 0
179 200 0
175 198 0
175 198 0
175 198 0
172 197 0
175 198 0
174 198 0
171 196 0
174 198 0
175 198 0
175 198 0
175 198 0
175 198 0
173 197 0
174 197 0
173 197 0
177 199 0
176 199 0
177 199 0
174 198 0
173 197 0
172 197 0
176 198 0
177 199 0
175 198 0
174 197 0
173 197 0
174 198 0
174 197 0
174 198 0
175 198 0
173 196 0
175 198 0
176 199 0
174 198 0
174 197 0
174 197 0
174 197 0
174 197 0
172 196 0
173 197 0
173 197 0
173 197 0
174 198 0
173 196 0
174 197 0
174 197 0
175 198 0
173 196 0
174 198 0
173 197 0
176 198 0
175 198 0
174 197 0
175 198 0
171 196 0
176 198 0
174 198 0
172 196 0
174 197 0
173 197 0
176 198 0
174 197 0
174 197 0
176 199 0
173 197 0
175 198 0
176 199 0
174 197 0
176 199 0
175 198 0
175 198 0
172 196 0
174 198 0
173 196 0
175 198 0
174 198 0
173 197 0
175 198 0
174 197 0
176 199 0
173 197 0
174 197 0
174 198 0
175 198 0
174 197 0
174 197 0
175 198 0
173 197 0
174 198 0
176 199 0
174 198 0
177 199 0
174 198 0
173 197 0
176 198 0
173 197 0
176 199 0
174 198 0
176 199 0
175 198 0
175 198 0
176 198 0
172 196 0
176 199 0
173 197 0
174 197 0
176 198 0
172 196 0
174 198 0
175 198 0
174 197 0
175 198 0
176 198 0
173 197 0
174 198 0
172 197 0
174 198 0
173 197 0
176 198 0
175 198 0
176 199 0
176 199 0
173 197 0
175 198 0
177 199 0
175 197 0
176 199 0
177 199 0
174 197 0
175 198 0
174 197 0
176 199 0
175 198 0
174 198 0
175 198 0
173 197 0
174 197 0
175 198 0
174 198 0
175 198 0
177 199 0
175 198 0
175 198 0
173 197 0
175 198 0
174 197 0
175 198 0
175 198 0
176 199 0
173 197 0
175 198 0
176 198 0
172 196 0
177 199 0
175 198 0
173 197 0
177 198 0
173 197 0
174 198 0
174 197 0
173 197 0
176 199 0
174 197 0
173 197 0
175 198 0
176 199 0
174 197 0
177 199 0
174 198 0
175 198 0
173 197 0
174 198 0
173 197 0
175 198 0
176 199 0
171 196 0
175 198 0
175 198 0
176 199 0
175 198 0
175 198 0
171 196 0
174 198 0
175 198 0
175 198 0
176 199 0
175 198 0
174 198 0
174 198 0
177 199 0
174 197 0
175 198 0
173 197 0
175 198 0
173 197 0
176 199 0
175 198 0
173 197 0
176 199 0
175 198 0
173 197 0
174 198 0
173 197 0
173 197 0
175 198 0
175 198 0
175 198 0
175 198 0
173 197 0
173 197 0
176 198 0
174 198 0
174 197 0
174 198 0
175 198 0
175 198 0
174 197 0
172 197 0
175 198 0
176 199 0
175 198 0
175 198 0
175 198 0
175 198 0
172 196 0
174 197 0
174 197 0
175 198 0
175 198 0
174 198 0
176 199 0
173 197 0
173 197 0
176 198 0
173 197 0
173 197 0
173 197 0
173 197 0
173 197 0
175 198 0
175 198 0
175 198 0
174 197 0
171 196 0
175 198 0
176 199 0
176 198 0
174 197 0
174 197 0
176 199 0
174 198 0
173 197 0
174 198 0
175 198 0
178 200 0
174 197 0
175 198 0
173 197 0
175 198 0
175 198 0
175 198 0
174 197 0
175 198 0
173 197 0
175 198 0
174 198 0
175 198 0
175 198 0
175 198 0
175 198 0
174 197 0
174 198 0
176 198 0
175 198 0
175 198 0
174 198 0
174 198 0
175 198 0
175 198 0
172 197 0
175 198 0
174 197 0
176 199 0
174 198 0
173 197 0
173 197 0
172 196 0
175 198 0
174 198 0
174 197 0
173 197 0
173 196 0
174 197 0
173 197 0
173 197 0
175 198 0
176 198 0
175 198 0
172 196 0
174 198 0
174 197 0
176 199 0
175 198 0
173 196 0
171 195 0
175 198 0
175 198 0
174 197 0
174 198 0
173 197 0
173 197 0
175 198 0
174 198 0
173 197 0
174 198 0
175 198 0
175 198 32
178 200 137
180 201 177
185 203 221
185 203 228
184 203 228
185 203 228
185 204 228
184 203 228
182 202 196
176 198 97
175 198 0
174 197 0
174 198 0
174 197 0
172 196 0
173 196 0
176 199 0
175 198 0
174 197 0
173 197 0
175 198 0
174 198 0
175 198 0
174 198 0
175 198 0
174 198 0
175 198 0
174 197 0
172 195 0
175 198 0
174 198 0
175 198 0
174 198 0
174 197 0
173 197 0
174 198 0
175 198 0
174 198 0
176 199 0
174 197 0
174 197 0
172 197 0
174 198 0
173 196 0
175 198 0
174 197 0
175 198 0
175 198 0
174 198 0
174 198 0
175 198 0
175 198 0
174 197 0
174 198 0
175 198 0
174 198 0
174 197 0
176 198 0
172 197 0
174 198 0
175 198 0
175 198 0
174 198 0
175 198 0
174 198 0
174 197 0
174 197 0
174 197 0
175 198 0
173 196 0
173 196 0
172 195 0
173 197 0
175 197 0
175 198 0
173 197 0
173 197 0
175 198 0
175 198 0
173 197 0
175 198 0
176 198 0
174 197 0
171 196 0
175 198 0
171 195 0
174 198 0
174 198 0
176 198 0
176 198 0
173 197 0
173 197 0
177 199 0
173 196 0
173 196 0
174 198 0
176 199 0
173 196 0
173 196 0
174 197 0
174 198 0
174 198 0
172 196 0
173 197 0
177 199 0
174 198 0
175 198 0
173 197 0
175 198 0
175 198 0
173 197 0
173 196 0
173 197 0
174 197 0
173 197 0
171 195 0
174 198 0
174 197 0
173 197 0
174 198 0
174 197 0
177 199 0
175 198 0
174 198 0
175 198 0
175 198 0
175 198 0
172 197 0
172 196 0
176 199 0
174 197 0
172 196 0
172 197 0
173 197 0
176 199 0
174 198 0
173 197 0
175 198 0
174 198 0
173 197 0
173 197 0
176 199 0
174 197 0
175 198 0
176 199 0
172 196 0
173 196 0
175 198 0
172 195 0
176 198 0
173 196 0
174 197 0
174 198 0
175 198 0
176 198 0
174 198 0
173 197 0
175 198 0
174 197 0
171 194 0
174 197 0
174 198 0
174 198 0
174 198 0
173 197 0
174 197 0
175 198 0
176 199 0
175 198 0
177 199 0
174 198 0
172 196 0
176 199 0
175 198 0
175 198 0
173 197 0
174 198 0
175 198 0
173 197 0
176 198 0
174 198 0
171 195 0
173 197 0
175 198 0
174 198 0
175 198 0
174 198 0
174 197 0
177 199 0
175 198 0
173 197 0
172 197 0
174 197 0
174 198 0
176 199 0
173 197 0
177 199 0
176 199 0
173 197 0
175 198 0
173 197 0
171 196 0
173 197 0
175 198 0
175 198 0
173 197 0
175 198 0
174 198 0
177 198 0
175 198 0
177 199 0
175 198 0
175 198 0
173 197 0
175 198 0
174 197 0
176 199 0
173 197 0
173 197 0
175 198 0
176 199 0
172 197 0
174 198 0
174 197 0
175 198 0
174 198 0
173 197 0
173 197 0
173 197 0
176 198 0
173 197 0
172 197 0
176 199 0
174 198 0
174 198 0
174 197 0
172 196 0
174 198 0
174 197 0
174 198 0
173 197 0
175 197 0
173 196 0
175 198 0
175 198 0
176 199 0
175 198 0
174 198 0
176 198 0
174 198 0
174 198 0
170 195 0
174 198 0
172 197 0
175 198 0
172 197 0
175 198 0
175 198 0
172 196 0
173 197 0
176 198 0
175 198 0
175 198 0
174 198 0
174 198 0
175 198 0
176 199 0
173 197 0
174 197 0
176 198 0
173 197 0
176 199 0
172 197 0
174 197 0
173 197 0
176 199 0
175 198 0
173 197 0
175 198 0
176 199 0
175 198 0
176 198 0
174 197 0
174 197 0
175 198 0
175 198 0
175 198 0
175 198 0
173 197 0
173 197 0
174 197 0
177 199 0
177 199 0
174 198 0
174 198 0
174 198 0
174 197 0
171 196 0
176 199 0
176 199 0
176 199 0
174 198 0
175 198 0
173 197 0
175 198 0
174 197 0
174 198 0
175 198 0
176 198 0
172 197 0
176 199 0
175 198 0
176 199 0
173 197 0
174 198 0
173 197 0
176 199 0
174 198 0
175 198 0
173 197 0
176 199 0
173 197 0
175 198 0
174 198 0
174 198 0
175 198 0
175 198 0
174 198 0
175 198 0
174 197 0
175 198 0
172 196 0
175 198 0
173 197 0
175 198 0
175 198 0
173 197 0
173 197 0
173 196 0
174 197 0
175 198 0
176 198 0
174 198 0
174 198 0
176 198 0
173 197 0
174 197 0
175 198 0
174 197 0
172 197 0
176 199 0
174 197 0
173 197 0
173 197 0
171 195 0
174 197 0
173 197 0
175 198 0
175 198 0
172 196 0
176 198 0
175 198 0
174 198 0
176 199 0
173 197 0
175 198 0
176 199 0
174 198 0
174 198 0
175 198 0
172 197 0
173 197 0
176 198 0
175 198 0
174 197 0
175 198 0
170 194 0
174 198 0
174 197 0
175 197 0
175 198 0
176 199 0
174 198 0
174 197 0
176 198 0
172 196 0
175 198 0
175 198 0
173 197 0
173 197 0
175 198 0
173 197 0
174 197 0
173 197 0
174 197 0
174 197 0
173 197 56
177 199 116
180 201 161
185 203 221
186 204 228
185 203 228
186 204 228
185 204 228
186 204 228
184 203 228
185 203 228
184 203 228
186 204 228
185 203 228
183 202 204
178 200 121
176 198 32
174 197 0
175 198 0
176 199 0
174 198 0
174 197 0
176 198 0
173 197 0
174 197 0
174 197 0
173 196 0
174 198 0
175 198 0
172 197 0
174 197 0
174 197 0
173 197 0
172 197 0
174 197 0
173 197 0
174 198 0
174 197 0
174 198 0
176 198 0
173 197 0
173 197 0
172 195 0
171 195 0
174 197 0
171 195 0
172 195 0
172 197 0
172 196 0
174 198 0
172 197 0
173 197 0
175 198 0
174 198 0
173 197 0
173 197 0
175 198 0
174 198 0
171 195 0
172 197 0
173 197 0
175 198 0
176 198 0
173 197 0
173 196 0
174 197 0
172 196 0
173 197 0
172 196 0
175 198 0
174 198 0
172 196 0
173 197 0
172 196 0
174 197 0
176 198 0
176 198 0
175 198 0
171 196 0
173 197 0
173 197 0
175 198 0
176 198 0
175 198 0
175 198 0
174 197 0
175 198 0
173 196 0
174 197 0
173 196 0
177 199 0
173 197 0
175 198 0
177 199 0
174 198 0
174 198 0
172 196 0
175 198 0
174 197 0
174 198 0
175 198 0
175 198 0
174 198 0
172 195 0
176 198 0
174 197 0
173 197 0
176 199 0
175 198 0
173 196 0
174 198 0
174 198 0
175 198 0
172 197 0
177 199 0
173 197 0
174 197 0
173 197 0
175 198 0
176 199 0
174 197 0
176 199 0
176 198 0
176 198 0
175 198 0
172 196 0
175 198 0
174 198 0
176 198 0
173 197 0
173 197 0
178 200 0
170 195 0
174 198 0
173 197 0
172 196 0
175 198 0
174 198 0
173 197 0
173 197 0
175 198 0
177 199 0
174 198 0
176 199 0
174 197 0
173 197 0
174 198 0
176 198 0
173 197 0
173 197 0
173 197 0
174 198 0
175 198 0
174 198 0
175 198 0
173 197 0
173 196 0
174 197 0
172 196 0
171 195 0
172 195 0
174 197 0
176 198 0
174 198 0
175 198 0
174 197 0
173 197 0
174 197 0
171 196 0
172 197 0
176 199 0
172 195 0
174 198 0
174 196 0
174 198 0
174 197 0
173 197 0
176 199 0
173 197 0
173 197 0
176 198 0
173 196 0
175 198 0
173 197 0
174 198 0
176 199 0
174 197 0
175 198 0
174 197 0
174 198 0
174 197 0
176 199 0
174 198 0
176 198 0
171 194 0
172 197 0
175 198 0
173 197 0
174 197 0
173 197 0
175 198 0
174 198 0
173 196 0
175 198 0
175 198 0
174 198 0
174 197 0
170 196 0
174 198 0
175 198 0
175 198 0
173 197 0
177 199 0
176 199 0
175 198 0
176 199 0
175 198 0
175 198 0
175 198 0
175 198 0
176 198 0
174 198 0
174 197 0
174 198 0
177 199 0
176 198 0
174 197 0
174 198 0
174 198 0
170 194 0
174 197 0
174 198 0
175 198 0
174 198 0
175 198 0
175 198 0
175 198 0
175 198 0
172 196 0
174 197 0
175 197 0
175 198 0
173 197 0
175 198 0
174 198 0
174 197 0
177 199 0
174 198 0
175 198 0
174 197 0
176 199 0
175 198 0
173 197 0
173 197 0
172 196 0
174 198 0
174 197 0
174 197 0
175 198 0
175 198 0
174 198 0
173 197 0
176 199 0
174 198 0
174 198 0
173 197 0
173 197 0
174 197 0
174 196 0
174 198 0
173 197 0
175 198 0
175 197 0
174 197 0
175 198 0
175 198 0
175 198 0
176 199 0
173 197 0
174 198 0
175 198 0
173 197 0
173 197 0
174 197 0
176 198 0
174 198 0
175 198 0
174 198 0
176 198 0
176 199 0
174 197 0
174 198 0
174 198 0
176 198 0
176 198 0
174 198 0
173 197 0
172 197 0
176 198 0
174 198 0
175 198 0
176 199 0
175 198 0
174 198 0
174 198 0
175 198 0
173 197 0
176 198 0
176 199 0
176 199 0
174 197 0
174 197 0
173 197 0
175 198 0
172 197 0
176 199 0
173 197 0
174 198 0
173 197 0
173 197 0
173 197 0
171 196 0
174 197 0
174 197 0
174 198 0
175 198 0
174 197 0
173 197 0
175 198 0
175 198 0
175 198 0
175 198 0
175 198 0
175 198 0
174 197 0
172 196 0
175 198 0
174 198 0
175 198 0
172 197 0
175 198 0
175 198 0
173 197 0
174 198 0
174 197 0
174 197 0
174 198 0
174 198 0
176 199 0
174 197 0
175 198 0
174 197 0
172 195 0
174 197 0
173 197 0
172 197 0
174 198 0
172 196 0
175 198 0
173 197 0
175 198 0
173 197 0
174 198 0
174 197 0
175 198 0
174 198 0
175 198 0
176 198 0
175 198 0
174 198 0
175 198 0
174 198 0
172 196 0
175 198 0
172 195 0
175 198 0
176 199 0
173 196 0
174 198 0
174 198 0
172 197 0
173 197 0
174 198 0
176 198 0
174 197 0
173 197 0
176 199 0
174 197 0
172 196 0
173 196 0
175 198 0
173 197 0
176 199 0
174 197 0
174 197 0
173 197 0
174 198 0
175 198 0
177 199 107
179 200 161
183 202 224
185 203 228
184 203 228
184 203 228
186 204 228
185 204 228
185 204 228
185 203 228
186 204 228
185 203 228
185 204 228
185 204 228
184 203 228
185 203 228
184 203 228
183 203 228
183 202 214
181 201 151
175 198 32
174 197 0
173 197 0
171 195 0
174 197 0
173 196 0
174 197 0
174 197 0
177 199 0
174 198 0
174 198 0
171 195 0
177 199 0
175 198 0
174 197 0
171 195 0
171 196 0
174 198 0
173 197 0
173 197 0
175 198 0
175 198 0
172 195 0
175 198 0
176 198 0
172 196 0
173 197 0
173 197 0
173 197 0
173 197 0
176 198 0
173 197 0
176 199 0
172 196 0
174 197 0
173 197 0
174 198 0
172 196 0
174 198 0
173 197 0
173 197 0
174 197 0
176 198 0
176 199 0
174 198 0
173 197 0
175 198 0
175 198 0
173 197 0
176 198 0
175 198 0
176 199 0
175 198 0
176 199 0
176 199 0
175 198 0
175 198 0
175 198 0
173 197 0
174 196 0
175 198 0
175 198 0
173 196 0
176 199 0
172 196 0
173 197 0
174 197 0
176 198 0
175 198 0
174 197 0
174 198 0
174 197 0
173 197 0
174 196 0
177 199 0
176 198 0
175 197 0
175 198 0
175 198 0
176 199 0
169 193 0
173 197 0
172 196 0
173 197 0
175 198 0
174 197 0
174 197 0
175 198 0
174 197 0
175 198 0
174 198 0
171 195 0
173 197 0
174 198 0
174 198 0
174 198 0
175 198 0
175 198 0
175 198 0
175 198 0
173 197 0
174 197 0
175 198 0
177 199 0
174 197 0
173 197 0
176 199 0
174 198 0
174 198 0
176 199 0
174 198 0
177 199 0
174 198 0
175 198 0
175 198 0
170 195 0
176 199 0
174 197 0
172 197 0
175 198 0
175 198 0
173 197 0
176 199 0
171 194 0
174 197 0
175 198 0
174 198 0
174 197 0
176 198 0
173 197 0
176 199 0
175 198 0
176 199 0
174 197 0
174 197 0
173 197 0
175 198 0
174 197 0
173 197 0
173 197 0
175 198 0
174 197 0
176 199 0
175 198 0
174 197 0
174 198 0
175 198 0
178 199 0
173 197 0
175 198 0
175 198 0
175 198 0
172 197 0
175 198 0
174 198 0
174 198 0
173 197 0
174 197 0
172 197 0
175 197 0
171 195 0
174 197 0
174 197 0
174 197 0
175 198 0
174 198 0
175 198 0
174 197 0
174 198 0
173 196 0
174 198 0
174 197 0
175 198 0
173 197 0
172 197 0
174 198 0
174 198 0
174 198 0
174 198 0
173 197 0
172 197 0
173 197 0
171 195 0
174 198 0
172 195 0
171 195 0
174 198 0
173 197 0
172 196 0
174 197 0
174 197 0
174 198 0
176 198 0
175 198 0
172 195 0
174 197 0
172 197 0
173 196 0
172 196 0
174 198 0
175 198 0
175 198 0
175 198 0
174 198 0
174 197 0
174 197 0
174 197 0
178 199 0
173 197 0
174 197 0
175 198 0
174 198 0
175 197 0
174 197 0
175 198 0
174 198 0
175 198 0
175 198 0
175 198 0
173 197 0
173 197 0
173 197 0
175 198 0
174 197 0
175 198 0
176 198 0
176 199 0
174 197 0
174 197 0
175 198 0
171 195 0
174 198 0
174 197 0
173 197 0
174 196 0
172 196 0
175 198 0
173 197 0
176 198 0
174 198 0
175 198 0
173 197 0
174 198 0
173 197 0
174 198 0
174 197 0
173 197 0
171 196 0
175 198 0
177 199 0
173 197 0
172 196 0
172 197 0
174 197 0
174 197 0
174 198 0
175 198 0
175 198 0
176 198 0
174 198 0
175 198 0
174 198 0
173 197 0
174 198 0
174 198 0
174 197 0
174 197 0
175 198 0
177 199 0
175 198 0
174 198 0
175 198 0
173 197 0
172 197 0
176 198 0
176 198 0
174 198 0
175 198 0
175 198 0
174 197 0
176 199 0
173 197 0
174 197 0
173 197 0
174 198 0
173 197 0
174 198 0
176 199 0
174 197 0
174 198 0
175 198 0
176 198 0
175 198 0
174 197 0
174 198 0
174 198 0
175 198 0
175 198 0
176 199 0
174 198 0
173 197 0
173 197 0
176 199 0
173 197 0
174 197 0
175 198 0
174 197 0
173 197 0
174 198 0
174 198 0
174 197 0
174 198 0
171 196 0
175 198 0
174 198 0
174 198 0
175 198 0
174 198 0
174 197 0
175 198 0
175 198 0
175 198 0
175 198 0
174 197 0
174 197 0
174 197 0
173 197 0
173 197 0
174 198 0
174 198 0
174 198 0
173 196 0
177 199 0
177 199 0
172 197 0
173 197 0
175 198 0
175 198 0
176 198 0
172 196 0
174 197 0
174 198 0
174 197 0
177 199 0
176 198 0
174 197 0
175 198 0
174 197 0
173 197 0
174 197 0
173 197 0
174 197 0
175 198 0
175 198 0
174 198 0
175 198 0
177 199 0
174 198 0
175 198 0
173 197 0
176 198 0
173 196 0
174 198 0
174 197 0
172 196 0
174 197 0
174 198 0
173 197 0
175 198 0
174 198 0
174 198 0
174 197 0
174 198 0
175 198 0
172 196 0
173 197 0
173 197 0
177 199 107
178 200 141
183 202 212
184 203 228
185 204 228
186 204 228
184 203 228
184 203 228
185 204 228
186 204 228
185 204 228
185 204 228
185 203 228
185 203 228
184 203 228
183 203 228
184 203 228
185 203 228
185 204 228
185 203 228
185 203 228
184 203 228
185 203 228
186 204 219
181 201 171
174 198 45
173 197 0
176 199 0
174 197 0
174 198 0
172 196 0
175 198 0
172 197 0
175 198 0
175 198 0
175 198 0
175 198 0
174 197 0
176 199 0
172 196 0
173 197 0
174 197 0
175 198 0
175 198 0
174 197 0
173 197 0
173 197 0
175 198 0
176 198 0
174 198 0
173 197 0
171 196 0
173 197 0
176 198 0
177 199 0
173 197 0
176 198 0
174 198 0
176 199 0
174 198 0
174 197 0
174 196 0
174 198 0
176 199 0
173 197 0
175 198 0
176 199 0
175 198 0
173 197 0
174 197 0
173 197 0
176 198 0
174 198 0
174 198 0
173 197 0
178 200 0
175 198 0
174 198 0
172 196 0
174 197 0
173 196 0
169 194 0
175 198 0
173 197 0
175 198 0
173 197 0
173 197 0
175 197 0
175 198 0
174 197 0
174 198 0
173 197 0
174 197 0
174 198 0
175 198 0
173 196 0
172 196 0
174 197 0
175 198 0
175 198 0
175 198 0
174 198 0
175 198 0
173 197 0
174 197 0
174 198 0
174 198 0
172 196 0
175 198 0
174 197 0
173 197 0
175 198 0
174 198 0
176 198 0
173 197 0
174 198 0
173 197 0
176 198 0
173 197 0
177 199 0
171 196 0
174 197 0
172 195 0
177 199 0
174 197 0
171 196 0
176 199 0
173 197 0
172 196 0
172 196 0
174 197 0
176 199 0
173 197 0
174 198 0
176 199 0
173 197 0
171 196 0
173 197 0
173 196 0
176 199 0
173 197 0
174 197 0
175 198 0
174 197 0
173 197 0
175 198 0
176 199 0
177 199 0
177 199 0
175 198 0
173 197 0
175 197 0
174 198 0
173 197 0
175 198 0
172 196 0
175 198 0
172 197 0
174 197 0
174 197 0
175 198 0
175 198 0
174 197 0
176 199 0
174 197 0
174 197 0
175 198 0
172 196 0
175 198 0
178 199 0
177 199 0
174 197 0
175 198 0
173 197 0
176 198 0
174 197 0
176 199 0
176 198 0
175 198 0
173 197 0
176 198 0
175 198 0
174 198 0
174 198 0
174 198 0
174 197 0
173 197 0
174 198 0
172 197 0
175 198 0
175 198 0
176 199 0
174 198 0
174 197 0
175 198 0
173 197 0
174 198 0
174 198 0
172 196 0
175 198 0
176 199 0
174 197 0
173 197 0
175 198 0
176 199 0
176 198 0
175 198 0
175 198 0
176 198 0
175 198 0
173 197 0
173 196 0
174 198 0
175 198 0
174 198 0
176 198 0
174 198 0
174 198 0
175 198 0
174 197 0
173 197 0
172 197 0
175 198 0
174 197 0
173 197 0
173 197 0
174 198 0
173 197 0
174 197 0
176 199 0
173 197 0
177 199 0
173 196 0
173 197 0
174 198 0
175 198 0
175 198 0
175 198 0
174 198 0
175 198 0
174 197 0
174 198 0
175 198 0
173 196 0
175 198 0
174 198 0
176 199 0
175 198 0
173 197 0
176 199 0
171 196 0
175 198 0
175 198 0
174 198 0
175 198 0
173 197 0
174 197 0
175 198 0
175 198 0
171 196 0
176 198 0
174 198 0
177 199 0
175 198 0
175 198 0
177 199 0
174 198 0
175 198 0
174 198 0
175 198 0
177 199 0
174 198 0
173 197 0
173 197 0
173 197 0
176 199 0
175 198 0
174 198 0
174 198 0
174 197 0
174 198 0
176 199 0
174 197 0
174 198 0
175 198 0
174 198 0
174 198 0
174 197 0
174 198 0
174 198 0
174 197 0
174 197 0
174 197 0
174 197 0
174 197 0
174 198 0
173 197 0
173 197 0
175 198 0
175 198 0
175 198 0
174 198 0
175 198 0
174 197 0
173 197 0
174 198 0
172 197 0
173 197 0
175 198 0
172 196 0
177 199 0
175 198 0
175 198 0
177 199 0
174 197 0
176 198 0
174 198 0
177 199 0
173 197 0
174 198 0
176 199 0
175 198 0
177 199 0
174 198 0
174 198 0
175 198 0
176 199 0
173 197 0
177 199 0
175 198 0
175 198 0
174 198 0
177 199 0
176 198 0
174 197 0
176 198 0
176 198 0
173 197 0
173 197 0
173 197 0
173 197 0
175 198 0
175 198 0
175 198 0
176 198 0
175 198 0
175 198 0
174 198 0
174 197 0
174 198 0
174 197 0
175 198 0
174 198 0
173 197 0
175 198 0
174 197 0
174 198 0
175 198 0
174 197 0
175 198 0
174 197 0
174 197 0
174 198 0
173 197 0
175 198 0
174 198 0
174 198 0
175 198 0
174 198 0
174 197 0
174 198 0
174 197 0
176 199 0
173 197 0
175 198 0
176 199 0
175 198 0
173 197 0
173 197 0
176 198 0
173 197 0
176 198 0
176 199 0
174 198 0
175 198 0
177 199 0
175 198 0
173 197 0
174 197 0
174 198 0
176 199 0
174 197 0
174 197 0
174 198 0
175 198 0
171 196 0
173 197 0
176 199 97
179 200 158
182 202 209
186 204 228
186 204 228
185 203 228
184 203 228
184 203 228
184 203 228
185 203 228
185 203 228
184 203 228
184 203 228
185 203 228
185 204 228
184 203 228
185 203 228
185 204 228
185 203 228
184 203 228
184 203 228
184 203 228
184 203 228
185 203 228
185 204 228
185 203 228
186 204 228
185 203 228
184 203 226
179 200 168
176 199 91
173 197 0
173 197 0
174 198 0
175 198 0
172 197 0
176 198 0
173 197 0
174 197 0
173 197 0
173 196 0
174 197 0
174 198 0
174 197 0
173 197 0
173 197 0
173 197 0
172 196 0
171 195 0
172 197 0
172 197 0
174 197 0
173 197 0
174 198 0
175 198 0
173 197 0
174 197 0
173 197 0
172 196 0
176 199 0
172 196 0
176 198 0
175 198 0
173 197 0
177 199 0
173 197 0
175 198 0
174 197 0
173 197 0
174 197 0
174 197 0
174 198 0
172 195 0
175 198 0
173 197 0
174 197 0
174 197 0
175 197 0
173 197 0
176 198 0
175 198 0
172 195 0
173 196 0
177 199 0
176 199 0
175 198 0
174 197 0
175 198 0
175 198 0
175 198 0
175 198 0
176 199 0
173 197 0
174 198 0
174 198 0
174 197 0
174 197 0
173 196 0
175 197 0
170 195 0
174 198 0
176 198 0
173 197 0
173 197 0
173 197 0
173 197 0
174 197 0
174 198 0
175 198 0
172 196 0
173 197 0
175 198 0
176 199 0
172 196 0
176 199 0
174 197 0
175 198 0
172 197 0
174 198 0
175 198 0
175 198 0
174 198 0
174 198 0
176 199 0
174 198 0
172 197 0
172 196 0
171 195 0
174 198 0
173 197 0
174 197 0
174 197 0
173 197 0
175 198 0
170 195 0
173 197 0
172 195 0
174 198 0
175 198 0
175 198 0
173 196 0
176 199 0
175 198 0
172 195 0
175 198 0
175 198 0
175 197 0
177 199 0
174 197 0
173 197 0
171 196 0
174 197 0
173 197 0
173 197 0
177 199 0
173 197 0
173 197 0
173 196 0
173 197 0
176 199 0
175 198 0
175 198 0
175 198 0
174 197 0
174 197 0
175 198 0
172 196 0
173 197 0
173 197 0
173 197 0
176 199 0
173 197 0
174 197 0
177 199 0
174 198 0
174 198 0
176 198 0
173 197 0
174 197 0
174 197 0
174 198 0
176 198 0
175 198 0
174 197 0
176 198 0
172 196 0
175 198 0
173 197 0
175 198 0
173 197 0
172 196 0
172 195 0
174 198 0
175 198 0
173 197 0
172 197 0
174 198 0
174 197 0
174 198 0
171 196 0
174 198 0
175 198 0
175 198 0
174 198 0
174 198 0
174 197 0
175 198 0
172 196 0
174 198 0
173 197 0
173 196 0
172 196 0
174 198 0
175 198 0
174 198 0
175 198 0
176 199 0
172 196 0
172 197 0
175 197 0
175 197 0
176 199 0
175 198 0
177 199 0
173 197 0
173 197 0
175 198 0
172 196 0
175 198 0
172 197 0
175 197 0
174 197 0
175 198 0
174 197 0
174 197 0
175 198 0
172 197 0
173 197 0
174 198 0
174 197 0
173 197 0
175 198 0
173 196 0
175 198 0
172 197 0
175 197 0
174 198 0
176 198 0
174 197 0
174 197 0
173 197 0
175 198 0
175 198 0
172 196 0
174 197 0
175 198 0
175 198 0
173 197 0
174 197 0
176 199 0
176 199 0
177 199 0
176 199 0
176 198 0
176 198 0
174 198 0
174 197 0
174 197 0
175 198 0
176 199 0
175 198 0
174 198 0
177 199 0
175 198 0
173 197 0
173 197 0
175 198 0
173 197 0
173 197 0
176 199 0
174 197 0
173 197 0
174 198 0
174 198 0
175 198 0
176 199 0
175 198 0
173 197 0
176 199 0
174 198 0
175 198 0
177 199 0
174 198 0
174 198 0
174 198 0
174 198 0
177 199 0
172 196 0
174 197 0
173 197 0
176 198 0
173 197 0
173 197 0
174 198 0
174 198 0
175 198 0
173 197 0
172 197 0
173 197 0
174 198 0
175 198 0
173 197 0
175 198 0
176 199 0
174 197 0
175 198 0
174 197 0
174 197 0
174 197 0
175 197 0
177 199 0
174 198 0
176 199 0
175 198 0
175 198 0
174 197 0
174 197 0
173 197 0
172 196 0
175 198 0
174 198 0
173 197 0
174 197 0
173 197 0
174 197 0
174 198 0
174 198 0
174 198 0
175 198 0
176 199 0
175 198 0
174 197 0
174 197 0
173 197 0
174 197 0
174 198 0
173 197 0
174 197 0
174 198 0
174 197 0
174 198 0
173 197 0
174 197 0
174 197 0
172 197 0
174 197 0
175 198 0
175 198 0
172 196 0
174 198 0
172 196 0
173 197 0
173 197 0
175 198 0
174 198 0
174 197 0
174 198 0
174 197 0
177 199 0
174 197 0
174 198 0
174 197 0
175 198 0
175 198 0
173 197 0
178 200 0
173 197 0
175 198 0
174 197 0
174 197 0
173 197 0
175 198 0
174 197 0
175 198 0
174 198 0
176 198 0
174 198 0
176 199 0
173 197 0
175 198 0
174 197 0
173 197 0
174 197 0
174 197 0
175 198 0
174 198 0
174 198 0
177 199 72
181 201 168
183 202 212
185 203 228
186 204 228
185 204 228
184 203 228
185 203 228
185 203 228
185 203 228
185 203 228
185 203 228
185 204 228
185 203 228
185 203 228
185 204 228
185 203 228
185 203 228
185 203 228
185 203 228
184 203 228
184 203 228
185 203 228
184 203 228
184 203 228
184 203 228
184 203 228
185 203 228
184 203 228
186 204 228
184 203 228
185 204 228
185 203 228
185 204 228
179 200 188
177 199 129
176 199 0
174 197 0
173 197 0
175 198 0
172 196 0
172 196 0
173 197 0
175 198 0
175 198 0
174 197 0
173 197 0
173 197 0
175 198 0
174 197 0
172 197 0
176 199 0
173 197 0
174 197 0
172 195 0
175 198 0
174 197 0
175 198 0
172 196 0
176 198 0
175 198 0
173 196 0
173 197 0
174 197 0
174 197 0
173 197 0
172 196 0
174 197 0
175 198 0
173 197 0
174 197 0
173 197 0
174 198 0
175 198 0
173 197 0
174 197 0
173 197 0
176 198 0
174 197 0
172 195 0
173 197 0
173 197 0
174 197 0
175 197 0
171 195 0
174 198 0
174 198 0
175 197 0
172 197 0
174 197 0
174 198 0
175 198 0
173 197 0
172 196 0
173 197 0
175 198 0
174 197 0
175 198 0
172 197 0
173 197 0
174 198 0
174 197 0
176 198 0
175 198 0
172 196 0
174 198 0
174 197 0
174 198 0
173 197 0
175 198 0
175 198 0
173 197 0
176 199 0
172 196 0
175 198 0
172 196 0
174 197 0
173 197 0
172 196 0
173 197 0
172 197 0
174 197 0
175 198 0
172 197 0
176 198 0
174 197 0
174 197 0
175 198 0
173 197 0
176 199 0
173 197 0
173 197 0
172 196 0
174 198 0
174 198 0
173 197 0
176 199 0
176 199 0
173 197 0
173 197 0
174 197 0
172 196 0
173 197 0
175 198 0
171 196 0
174 197 0
173 197 0
175 198 0
175 198 0
175 198 0
171 195 0
174 198 0
176 199 0
173 197 0
171 195 0
173 197 0
175 198 0
175 198 0
174 197 0
175 198 0
173 197 0
171 195 0
174 197 0
173 196 0
173 197 0
176 199 0
173 197 0
176 198 0
174 197 0
175 197 0
176 198 0
175 198 0
173 197 0
174 198 0
174 197 0
174 198 0
177 199 0
174 198 0
175 198 0
172 197 0
174 197 0
175 198 0
174 198 0
174 198 0
172 197 0
174 197 0
173 197 0
175 198 0
173 197 0
171 195 0
171 196 0
174 198 0
174 198 0
174 198 0
173 197 0
175 198 0
173 197 0
175 198 0
177 199 0
173 197 0
171 195 0
177 199 0
175 198 0
176 199 0
175 198 0
175 198 0
174 197 0
175 198 0
175 198 0
175 198 0
173 197 0
177 199 0
176 199 0
174 198 0
175 198 0
173 197 0
176 198 0
175 198 0
175 198 0
173 197 0
175 198 0
174 198 0
172 196 0
176 198 0
176 198 0
174 198 0
174 197 0
175 198 0
175 198 0
177 199 0
173 197 0
175 198 0
173 196 0
175 198 0
173 197 0
175 198 0
172 196 0
176 199 0
173 197 0
174 198 0
173 197 0
174 198 0
174 198 0
174 198 0
172 197 0
173 197 0
176 199 0
175 198 0
173 197 0
173 197 0
175 198 0
174 198 0
171 194 0
174 198 0
175 198 0
175 198 0
174 198 0
176 199 0
174 198 0
175 198 0
175 198 0
174 198 0
174 198 0
174 197 0
172 196 0
176 198 0
175 198 0
175 198 0
173 197 0
177 199 0
173 197 0
175 198 0
173 197 0
174 198 0
170 195 0
175 197 0
172 196 0
176 199 0
173 197 0
175 198 0
176 199 0
172 197 0
172 196 0
175 198 0
173 196 0
174 198 0
175 198 0
172 196 0
174 198 0
172 196 0
174 198 0
175 198 0
176 199 0
175 198 0
174 198 0
176 199 0
177 199 0
174 197 0
174 197 0
175 198 0
172 197 0
174 198 0
172 196 0
173 197 0
174 198 0
173 197 0
176 199 0
172 197 0
177 199 0
176 199 0
172 196 0
175 198 0
173 197 0
174 198 0
174 197 0
174 198 0
174 198 0
174 198 0
174 197 0
177 199 0
174 197 0
175 198 0
172 197 0
173 197 0
177 199 0
173 197 0
174 197 0
175 198 0
174 197 0
172 197 0
175 198 0
174 197 0
174 198 0
172 197 0
178 200 0
173 197 0
173 196 0
175 198 0
178 200 0
175 198 0
175 198 0
174 198 0
173 197 0
176 198 0
174 198 0
174 198 0
176 198 0
174 198 0
174 198 0
174 197 0
176 198 0
175 198 0
174 197 0
174 198 0
175 198 0
175 198 0
176 199 0
173 197 0
173 197 0
172 196 0
176 198 0
172 196 0
176 199 0
174 198 0
173 197 0
174 198 0
174 198 0
176 198 0
174 197 0
175 198 0
173 197 0
175 198 0
176 199 0
176 199 0
175 198 0
175 198 0
176 199 0
172 197 0
173 197 0
173 197 0
174 198 0
172 195 0
173 197 0
172 196 0
173 197 0
172 196 0
175 198 0
174 198 0
174 197 0
173 197 0
172 197 0
175 198 0
175 198 0
175 198 0
173 197 0
175 198 0
173 197 0
175 198 91
176 199 121
183 202 207
185 204 228
184 203 228
184 203 228
184 203 228
184 203 228
185 203 228
185 203 228
184 203 228
184 203 228
185 203 228
185 203 228
185 204 228
185 203 228
185 204 228
185 204 228
184 203 228
184 203 228
184 203 228
185 203 228
185 203 228
184 203 228
185 203 228
184 203 228
184 203 228
185 203 228
185 204 228
185 204 228
185 204 228
185 203 228
183 203 228
184 203 228
184 203 228
185 203 228
185 204 228
183 203 228
184 203 228
183 202 202
177 199 102
174 197 32
175 198 0
175 198 0
176 198 0
173 197 0
172 197 0
175 198 0
174 197 0
172 196 0
173 197 0
173 197 0
177 199 0
172 196 0
174 198 0
173 197 0
171 195 0
173 197 0
171 196 0
174 198 0
174 198 0
174 197 0
174 197 0
173 197 0
173 197 0
173 197 0
174 197 0
172 197 0
177 199 0
175 198 0
174 197 0
173 197 0
170 194 0
173 197 0
174 198 0
171 196 0
173 196 0
174 198 0
172 196 0
173 197 0
177 199 0
175 198 0
176 199 0
174 198 0
176 199 0
173 197 0
176 198 0
174 197 0
177 199 0
174 198 0
175 198 0
174 198 0
173 197 0
174 197 0
175 198 0
174 198 0
175 198 0
172 196 0
174 198 0
175 198 0
173 197 0
172 197 0
174 198 0
171 196 0
175 197 0
174 198 0
175 198 0
174 197 0
174 197 0
176 199 0
173 197 0
175 198 0
176 198 0
172 196 0
176 198 0
175 198 0
173 197 0
175 198 0
173 197 0
176 198 0
175 198 0
173 197 0
174 197 0
174 197 0
174 198 0
176 199 0
174 197 0
173 197 0
172 197 0
174 198 0
173 197 0
172 196 0
173 197 0
173 197 0
175 198 0
174 198 0
174 198 0
175 198 0
174 198 0
173 197 0
175 198 0
176 198 0
174 197 0
175 198 0
174 197 0
173 197 0
173 197 0
173 197 0
174 198 0
174 198 0
173 197 0
175 198 0
173 196 0
174 197 0
173 197 0
175 198 0
174 198 0
174 198 0
173 197 0
173 197 0
175 198 0
173 197 0
176 199 0
176 199 0
172 197 0
174 198 0
174 197 0
173 197 0
176 199 0
174 197 0
175 198 0
173 196 0
175 198 0
174 197 0
174 198 0
170 195 0
175 198 0
174 198 0
176 199 0
174 197 0
172 197 0
172 195 0
174 196 0
173 197 0
174 198 0
173 195 0
174 198 0
172 197 0
174 197 0
172 196 0
178 200 0
175 198 0
173 197 0
175 198 0
172 197 0
174 198 0
174 197 0
176 199 0
174 198 0
174 198 0
174 198 0
175 198 0
175 198 0
174 198 0
173 197 0
174 198 0
175 198 0
173 197 0
173 196 0
172 196 0
174 198 0
174 198 0
175 198 0
173 197 0
175 198 0
176 198 0
175 198 0
175 198 0
173 197 0
173 197 0
174 198 0
174 198 0
173 197 0
175 198 0
175 198 0
177 199 0
177 199 0
174 197 0
176 199 0
175 198 0
175 198 0
174 198 0
175 198 0
176 199 0
175 198 0
176 198 0
173 197 0
176 199 0
173 197 0
174 197 0
174 198 0
174 198 0
176 198 0
174 198 0
175 198 0
176 198 0
171 196 0
176 199 0
175 198 0
174 197 0
175 198 0
173 196 0
175 198 0
174 198 0
172 196 0
175 198 0
175 197 0
175 198 0
175 198 0
175 198 0
174 197 0
173 197 0
176 199 0
174 197 0
175 198 0
174 197 0
174 198 0
174 197 0
172 197 0
174 197 0
173 197 0
174 197 0
176 199 0
172 196 0
175 198 0
174 198 0
175 198 0
173 197 0
173 197 0
175 198 0
175 198 0
175 198 0
175 198 0
174 198 0
174 198 0
175 198 0
176 198 0
177 199 0
174 198 0
175 198 0
175 198 0
176 198 0
173 197 0
173 197 0
173 197 0
175 198 0
173 197 0
178 200 0
175 198 0
176 198 0
174 198 0
174 198 0
173 197 0
176 199 0
172 197 0
176 198 0
174 198 0
176 199 0
173 197 0
174 197 0
175 198 0
176 199 0
174 197 0
174 198 0
174 198 0
175 198 0
174 198 0
175 198 0
173 197 0
174 198 0
174 198 0
173 197 0
176 199 0
173 197 0
175 198 0
173 197 0
172 197 0
174 197 0
174 197 0
173 197 0
175 198 0
174 197 0
173 197 0
175 198 0
175 198 0
175 198 0
175 198 0
174 198 0
173 197 0
172 197 0
176 198 0
174 198 0
175 198 0
175 198 0
173 197 0
174 197 0
176 199 0
172 197 0
173 197 0
176 199 0
173 197 0
174 198 0
175 198 0
173 197 0
172 196 0
176 199 0
174 197 0
172 196 0
173 197 0
173 197 0
177 199 0
174 197 0
174 198 0
173 197 0
174 197 0
173 197 0
176 198 0
173 197 0
176 198 0
176 198 0
177 199 0
174 197 0
175 198 0
174 197 0
173 197 0
173 197 0
174 198 0
172 197 0
175 198 0
175 198 0
172 196 0
174 197 0
175 198 0
172 197 0
175 198 0
173 197 0
173 197 0
174 197 0
175 198 0
175 198 0
174 198 0
175 198 0
173 197 0
175 198 0
174 197 0
174 198 0
174 197 0
173 197 45
180 201 151
183 203 207
185 204 228
184 203 228
184 203 228
185 203 228
185 203 228
185 203 228
185 204 228
184 203 228
185 203 228
185 204 228
184 203 228
184 203 228
184 203 228
185 203 228
185 203 228
185 204 228
185 203 228
184 203 228
183 203 228
186 204 228
184 203 228
185 204 228
185 203 228
184 203 228
185 204 228
185 203 228
184 203 228
184 203 228
185 204 228
185 203 228
184 203 228
185 203 228
184 203 228
185 204 228
184 203 228
186 204 228
185 203 228
184 203 228
184 203 228
184 203 228
184 203 228
182 202 217
178 200 155
176 198 32
173 197 0
175 198 0
173 196 0
174 198 0
175 198 0
174 197 0
174 198 0
174 198 0
173 196 0
173 196 0
172 197 0
174 198 0
171 195 0
173 197 0
175 198 0
175 198 0
173 196 0
175 198 0
175 198 0
174 198 0
173 197 0
176 199 0
174 197 0
174 197 0
175 198 0
174 197 0
173 197 0
173 197 0
173 196 0
173 197 0
173 197 0
172 197 0
174 197 0
172 197 0
174 198 0
174 197 0
175 198 0
175 198 0
175 198 0
175 198 0
174 197 0
173 197 0
172 196 0
174 197 0
174 197 0
175 198 0
174 197 0
173 197 0
171 194 0
172 196 0
172 197 0
174 198 0
173 197 0
174 198 0
176 198 0
174 198 0
173 196 0
175 198 0
172 196 0
174 198 0
174 198 0
175 198 0
172 195 0
174 197 0
174 197 0
173 197 0
174 197 0
172 196 0
175 198 0
174 197 0
176 198 0
175 198 0
177 199 0
174 198 0
172 197 0
173 196 0
175 198 0
173 197 0
174 198 0
174 196 0
174 197 0
175 198 0
174 197 0
174 197 0
173 197 0
174 198 0
175 198 0
174 197 0
176 199 0
175 198 0
173 197 0
173 197 0
174 198 0
175 198 0
173 197 0
178 200 0
173 197 0
172 197 0
174 197 0
176 199 0
173 197 0
175 198 0
172 197 0
175 198 0
174 198 0
174 198 0
173 196 0
173 197 0
174 198 0
174 197 0
176 198 0
174 197 0
174 197 0
173 197 0
172 197 0
176 199 0
174 197 0
176 199 0
176 199 0
177 199 0
175 198 0
175 198 0
175 198 0
173 196 0
174 198 0
174 197 0
175 198 0
176 199 0
174 198 0
176 198 0
173 196 0
174 198 0
176 198 0
174 198 0
175 198 0
174 197 0
174 197 0
175 198 0
172 196 0
176 199 0
175 198 0
175 198 0
172 196 0
177 199 0
172 196 0
175 198 0
176 198 0
175 198 0
174 198 0
175 198 0
174 198 0
173 197 0
173 197 0
174 198 0
174 198 0
178 200 0
175 198 0
174 198 0
174 198 0
175 198 0
172 197 0
175 198 0
175 198 0
176 198 0
174 197 0
171 195 0
173 197 0
175 197 0
173 197 0
174 197 0
174 197 0
173 197 0
171 195 0
175 198 0
174 198 0
175 198 0
173 197 0
175 198 0
174 198 0
172 196 0
174 197 0
174 197 0
176 198 0
171 195 0
176 198 0
173 197 0
173 197 0
173 196 0
172 197 0
175 197 0
172 197 0
174 197 0
175 198 0
171 195 0
173 197 0
174 198 0
173 197 0
174 198 0
176 199 0
173 197 0
177 199 0
173 197 0
174 198 0
173 196 0
174 197 0
173 197 0
174 197 0
173 197 0
174 198 0
174 197 0
177 199 0
174 198 0
175 198 0
174 197 0
174 198 0
176 199 0
173 197 0
175 198 0
175 198 0
173 197 0
174 198 0
174 198 0
175 198 0
173 197 0
174 197 0
176 199 0
174 197 0
175 198 0
174 198 0
173 197 0
175 198 0
172 196 0
175 198 0
175 198 0
173 197 0
175 198 0
174 198 0
176 198 0
175 198 0
173 197 0
175 198 0
175 198 0
174 197 0
175 198 0
172 197 0
177 198 0
175 198 0
175 198 0
174 197 0
174 198 0
176 199 0
173 197 0
175 198 0
176 198 0
173 197 0
177 199 0
174 197 0
175 198 0
173 197 0
174 198 0
173 197 0
177 199 0
174 197 0
175 198 0
172 197 0
175 198 0
173 197 0
172 197 0
175 198 0
174 197 0
173 197 0
176 198 0
176 199 0
175 198 0
175 198 0
173 197 0
173 197 0
173 197 0
172 197 0
174 198 0
175 198 0
176 199 0
174 197 0
176 199 0
173 197 0
174 197 0
175 198 0
175 198 0
175 198 0
175 198 0
176 199 0
174 198 0
175 198 0
176 199 0
174 198 0
174 197 0
174 198 0
174 198 0
176 198 0
174 197 0
175 198 0
176 199 0
174 197 0
173 197 0
175 198 0
174 198 0
174 197 0
172 196 0
174 198 0
174 198 0
172 197 0
174 198 0
174 198 0
175 198 0
174 198 0
175 198 0
174 197 0
174 198 0
174 197 0
173 197 0
172 197 0
173 197 0
173 197 0
173 197 0
175 198 0
175 198 0
175 198 0
175 198 0
173 197 0
176 198 0
174 198 0
172 196 0
175 198 0
174 197 0
175 198 0
174 197 0
175 198 0
172 197 0
174 197 0
176 199 0
173 197 0
175 198 0
175 198 0
173 197 0
172 197 0
174 197 0
174 197 0
174 198 0
173 197 0
173 197 0
175 198 56
179 200 148
182 202 207
185 203 228
184 203 228
184 203 228
184 203 228
186 204 228
184 203 228
186 204 228
185 203 228
185 203 228
185 203 228
184 203 228
184 203 228
184 203 228
184 203 228
185 203 228
184 203 228
183 203 228
183 203 228
186 204 228
185 203 228
184 203 228
184 203 228
185 203 228
183 203 228
185 203 228
186 204 228
185 203 228
185 203 228
186 204 228
185 203 228
185 204 228
184 203 228
184 203 228
184 203 228
184 203 228
184 203 228
184 203 228
185 204 228
184 203 228
184 203 228
184 203 228
185 204 228
184 203 228
184 203 228
184 203 228
184 203 228
184 203 224
179 201 158
174 197 56
175 198 0
176 199 0
173 197 0
173 197 0
175 198 0
173 196 0
176 198 0
176 199 0
170 195 0
174 197 0
176 198 0
174 197 0
172 195 0
175 198 0
175 198 0
176 199 0
176 199 0
174 197 0
174 198 0
175 198 0
176 199 0
172 196 0
175 198 0
173 197 0
174 197 0
171 195 0
173 196 0
175 198 0
173 197 0
175 198 0
173 197 0
172 196 0
174 197 0
174 197 0
174 198 0
176 198 0
175 198 0
173 197 0
171 196 0
175 198 0
175 197 0
172 196 0
176 198 0
171 195 0
174 196 0
175 198 0
174 197 0
172 195 0
173 196 0
176 198 0
175 198 0
175 198 0
172 196 0
175 198 0
175 198 0
175 198 0
173 196 0
175 198 0
176 198 0
174 198 0
173 196 0
172 196 0
174 197 0
175 198 0
175 198 0
175 197 0
175 198 0
172 196 0
170 195 0
174 197 0
174 198 0
174 197 0
175 198 0
173 197 0
173 197 0
174 198 0
175 198 0
173 197 0
174 197 0
171 195 0
173 197 0
174 198 0
175 198 0
172 196 0
171 195 0
176 198 0
174 197 0
175 198 0
175 197 0
175 198 0
176 198 0
174 197 0
175 198 0
174 198 0
174 197 0
176 199 0
173 196 0
175 198 0
174 197 0
174 197 0
176 198 0
174 198 0
171 195 0
174 197 0
174 198 0
174 197 0
173 197 0
174 198 0
175 198 0
170 194 0
173 197 0
173 197 0
172 197 0
173 197 0
175 198 0
174 197 0
174 198 0
176 199 0
173 197 0
174 198 0
173 197 0
175 198 0
172 197 0
175 198 0
173 197 0
172 196 0
173 197 0
171 196 0
174 198 0
175 197 0
173 197 0
176 199 0
175 197 0
174 198 0
175 198 0
175 198 0
175 198 0
174 197 0
173 197 0
174 198 0
175 198 0
175 198 0
173 196 0
173 197 0
175 198 0
175 198 0
173 197 0
172 197 0
174 197 0
174 198 0
174 198 0
173 197 0
174 198 0
173 197 0
174 198 0
175 198 0
172 197 0
173 197 0
174 198 0
175 198 0
175 198 0
173 197 0
175 197 0
174 198 0
173 197 0
175 198 0
173 196 0
173 197 0
172 196 0
174 198 0
174 198 0
172 196 0
176 198 0
174 198 0
175 198 0
173 197 0
175 198 0
175 198 0
173 197 0
172 196 0
174 198 0
173 196 0
174 198 0
174 198 0
173 197 0
173 197 0
172 196 0
173 197 0
174 198 0
175 198 0
175 198 0
177 199 0
176 198 0
173 197 0
173 197 0
172 196 0
177 199 0
175 198 0
176 199 0
176 199 0
174 198 0
176 199 0
174 197 0
176 198 0
173 197 0
173 197 0
173 197 0
172 197 0
176 199 0
173 196 0
172 195 0
174 198 0
173 197 0
176 199 0
175 197 0
172 197 0
174 198 0
173 197 0
176 198 0
176 198 0
174 197 0
173 197 0
174 197 0
175 198 0
172 197 0
175 198 0
173 197 0
175 198 0
172 197 0
175 197 0
175 198 0
176 199 0
177 199 0
173 197 0
173 197 0
172 196 0
173 197 0
175 198 0
176 199 0
176 199 0
174 198 0
174 198 0
175 198 0
172 197 0
174 197 0
174 198 0
174 198 0
176 198 0
175 198 0
175 198 0
173 197 0
176 198 0
174 197 0
173 197 0
174 198 0
173 197 0
176 198 0
174 198 0
175 198 0
174 197 0
174 197 0
173 197 0
174 197 0
174 198 0
174 198 0
174 198 0
173 197 0
175 198 0
176 199 0
175 198 0
175 198 0
174 198 0
175 198 0
175 198 0
174 197 0
173 197 0
173 197 0
175 198 0
174 198 0
173 197 0
174 198 0
173 197 0
173 197 0
176 198 0
174 198 0
173 197 0
174 198 0
173 197 0
176 198 0
174 198 0
173 197 0
173 197 0
175 198 0
174 197 0
174 198 0
174 197 0
175 198 0
176 199 0
174 198 0
174 198 0
174 198 0
172 197 0
176 199 0
175 198 0
175 198 0
173 197 0
174 197 0
175 198 0
174 198 0
174 198 0
176 199 0
173 197 0
172 196 0
174 198 0
173 197 0
175 198 0
175 198 0
174 197 0
175 198 0
172 197 0
173 197 0
175 198 0
178 199 0
175 198 0
174 197 0
176 199 0
174 198 0
174 198 0
175 198 0
175 198 0
176 198 0
173 197 0
172 196 0
175 197 0
174 198 0
173 197 0
174 197 0
174 198 0
175 198 0
173 197 0
173 196 0
174 198 0
175 198 0
175 198 0
174 197 0
177 199 56
178 200 129
179 200 171
184 203 224
185 203 228
184 203 228
185 203 228
185 204 228
185 203 228
184 203 228
184 203 228
185 203 228
185 203 228
183 203 228
185 203 228
185 203 228
184 203 228
183 202 228
185 204 228
183 203 228
185 204 228
184 203 228
183 203 228
184 203 228
183 203 228
184 203 228
185 204 228
184 203 228
184 203 228
184 203 228
184 203 228
186 204 228
184 203 228
183 203 228
184 203 228
186 204 228
184 203 228
183 202 228
183 202 228
184 203 228
185 203 228
184 203 228
184 203 228
185 203 228
185 203 228
185 203 228
184 203 228
184 203 228
185 203 228
185 203 228
183 202 228
184 203 228
184 203 228
185 203 228
185 203 226
182 202 194
178 200 112
172 196 0
173 196 0
173 196 0
174 198 0
174 197 0
174 197 0
174 198 0
173 197 0
173 197 0
174 198 0
174 197 0
174 197 0
173 196 0
174 198 0
172 197 0
174 197 0
175 198 0
174 197 0
176 198 0
172 195 0
176 198 0
176 198 0
174 198 0
174 197 0
173 197 0
172 197 0
169 194 0
175 198 0
173 197 0
173 196 0
173 197 0
171 195 0
174 197 0
174 197 0
175 198 0
175 198 0
174 197 0
173 196 0
176 199 0
174 197 0
171 194 0
175 198 0
175 198 0
175 198 0
174 198 0
173 197 0
176 199 0
172 196 0
173 197 0
173 197 0
175 198 0
175 198 0
174 197 0
172 196 0
173 197 0
172 197 0
174 197 0
175 198 0
171 195 0
174 197 0
175 198 0
176 199 0
174 198 0
173 197 0
171 195 0
176 199 0
172 196 0
177 199 0
175 198 0
175 198 0
175 198 0
174 198 0
172 196 0
173 196 0
175 198 0
174 198 0
174 198 0
175 198 0
176 199 0
174 197 0
173 196 0
173 197 0
174 197 0
173 197 0
175 197 0
174 196 0
172 195 0
174 198 0
175 198 0
175 198 0
174 198 0
174 197 0
173 197 0
174 198 0
173 197 0
176 199 0
174 198 0
176 199 0
170 196 0
175 198 0
176 198 0
173 197 0
173 196 0
174 198 0
172 196 0
171 195 0
176 198 0
172 196 0
174 198 0
175 198 0
175 198 0
175 198 0
172 197 0
177 199 0
176 199 0
174 198 0
173 197 0
173 197 0
174 198 0
175 197 0
176 198 0
175 197 0
173 197 0
173 197 0
175 198 0
172 195 0
176 198 0
172 196 0
172 196 0
176 199 0
175 197 0
175 198 0
174 198 0
174 197 0
174 197 0
173 197 0
174 197 0
174 197 0
174 198 0
176 198 0
175 198 0
174 198 0
174 197 0
174 198 0
173 197 0
176 199 0
173 197 0
175 198 0
175 198 0
173 196 0
174 198 0
174 197 0
176 198 0
172 196 0
175 198 0
174 197 0
175 198 0
174 198 0
177 199 0
171 196 0
173 197 0
174 198 0
176 199 0
173 197 0
175 198 0
173 197 0
175 198 0
173 197 0
175 198 0
173 197 0
174 198 0
173 197 0
176 199 0
173 197 0
173 197 0
172 197 0
172 196 0
176 199 0
172 195 0
177 199 0
173 197 0
172 196 0
174 197 0
173 197 0
175 198 0
172 196 0
173 197 0
173 197 0
173 196 0
175 198 0
173 197 0
173 197 0
173 197 0
174 197 0
176 199 0
172 197 0
174 198 0
174 197 0
174 198 0
173 197 0
173 197 0
174 197 0
175 198 0
173 197 0
174 198 0
174 197 0
176 199 0
172 197 0
174 198 0
174 197 0
175 198 0
175 197 0
175 198 0
173 197 0
173 196 0
171 195 0
176 198 0
174 198 0
176 199 0
174 197 0
173 197 0
175 197 0
174 197 0
176 199 0
174 198 0
174 198 0
174 197 0
174 197 0
174 197 0
175 198 0
177 199 0
176 199 0
173 197 0
173 196 0
174 197 0
174 198 0
175 198 0
177 199 0
173 197 0
174 197 0
174 198 0
174 197 0
175 198 0
174 198 0
175 198 0
176 198 0
174 198 0
173 197 0
175 198 0
175 198 0
174 197 0
174 197 0
174 198 0
174 197 0
176 198 0
175 198 0
173 197 0
174 198 0
173 197 0
175 198 0
173 197 0
174 198 0
174 198 0
172 197 0
176 199 0
173 197 0
174 197 0
173 197 0
174 198 0
174 197 0
172 196 0
176 198 0
175 198 0
175 198 0
171 196 0
173 197 0
176 199 0
175 198 0
173 197 0
174 198 0
175 198 0
174 198 0
174 198 0
176 198 0
174 197 0
172 196 0
175 198 0
174 197 0
176 199 0
174 197 0
173 197 0
175 198 0
175 198 0
173 197 0
176 199 0
174 197 0
174 197 0
174 198 0
175 198 0
175 198 0
173 197 0
173 197 0
175 198 0
174 197 0
172 197 0
175 198 0
174 198 0
174 198 0
174 198 0
174 198 0
172 196 0
173 197 0
174 197 0
173 197 0
173 197 0
175 197 0
175 198 0
175 198 0
174 197 0
175 198 0
173 197 0
174 197 0
172 196 0
176 199 0
172 197 0
173 197 0
175 198 0
173 197 0
175 198 0
174 198 0
174 197 0
173 197 0
174 197 0
175 198 0
176 199 0
173 197 0
174 197 0
173 197 0
174 198 0
174 198 0
175 198 32
179 200 137
180 200 174
184 203 219
184 203 228
185 204 228
184 203 228
184 203 228
185 204 228
186 204 228
184 203 228
184 203 228
185 203 228
185 203 228
185 204 228
184 203 228
184 203 228
184 203 228
183 203 228
184 203 228
185 204 228
185 203 228
184 203 228
183 203 228
185 204 228
184 203 228
185 203 228
185 203 228
185 203 228
184 203 228
184 203 228
184 203 228
185 203 228
185 204 228
183 203 228
183 202 228
185 203 228
185 203 228
185 203 228
184 203 228
185 203 228
185 203 228
184 203 228
184 203 228
185 204 228
183 203 228
184 203 228
185 203 228
184 203 228
183 203 228
184 203 228
185 204 228
183 203 228
182 202 228
185 203 228
184 203 228
185 203 228
184 203 228
182 202 228
185 203 226
180 201 196
176 199 133
173 197 0
173 197 0
173 197 0
174 197 0
174 197 0
173 197 0
174 198 0
174 197 0
174 197 0
174 197 0
173 197 0
172 196 0
173 197 0
175 198 0
175 198 0
176 198 0
174 197 0
175 198 0
174 197 0
174 198 0
174 197 0
172 195 0
172 197 0
173 196 0
175 198 0
174 198 0
176 198 0
173 197 0
172 196 0
173 197 0
175 198 0
173 197 0
173 197 0
174 198 0
174 197 0
175 198 0
173 197 0
172 196 0
174 198 0
177 199 0
173 197 0
172 197 0
173 196 0
175 198 0
171 194 0
174 198 0
174 197 0
174 197 0
172 197 0
176 198 0
173 196 0
174 197 0
175 198 0
172 196 0
175 198 0
174 198 0
174 197 0
176 198 0
172 197 0
171 196 0
175 198 0
175 198 0
173 197 0
174 198 0
176 198 0
174 197 0
174 198 0
172 197 0
173 197 0
174 197 0
173 197 0
175 198 0
174 198 0
173 196 0
174 198 0
175 198 0
174 198 0
176 198 0
174 198 0
175 198 0
172 196 0
174 198 0
175 198 0
174 198 0
174 197 0
174 198 0
176 198 0
174 198 0
174 197 0
175 198 0
175 198 0
174 197 0
176 199 0
174 198 0
173 197 0
174 197 0
173 197 0
177 199 0
173 197 0
173 197 0
175 198 0
173 197 0
176 198 0
174 197 0
174 198 0
171 195 0
171 195 0
170 195 0
174 197 0
173 196 0
175 198 0
175 198 0
174 198 0
175 198 0
172 196 0
173 197 0
174 198 0
176 199 0
172 196 0
174 197 0
176 198 0
174 198 0
173 197 0
174 196 0
173 197 0
174 198 0
175 197 0
173 197 0
172 195 0
174 197 0
172 197 0
174 197 0
176 198 0
176 198 0
173 197 0
173 197 0
175 198 0
174 197 0
173 197 0
174 198 0
173 196 0
176 198 0
174 197 0
175 198 0
176 198 0
174 198 0
174 198 0
172 195 0
173 197 0
174 198 0
173 197 0
174 198 0
177 199 0
172 196 0
174 197 0
176 198 0
172 197 0
174 197 0
172 197 0
174 197 0
174 197 0
174 197 0
176 198 0
175 198 0
173 197 0
174 197 0
174 197 0
176 199 0
174 198 0
173 197 0
175 198 0
172 196 0
175 198 0
176 198 0
177 199 0
174 197 0
174 198 0
172 197 0
173 197 0
174 197 0
175 198 0
174 197 0
177 199 0
173 197 0
175 198 0
175 198 0
172 196 0
175 198 0
173 197 0
176 198 0
174 198 0
175 198 0
174 198 0
173 197 0
173 197 0
174 198 0
173 197 0
175 198 0
174 197 0
173 197 0
174 197 0
175 198 0
175 198 0
174 197 0
174 197 0
175 198 0
173 197 0
174 198 0
176 199 0
176 198 0
174 198 0
173 197 0
176 199 0
176 199 0
175 198 0
175 198 0
174 197 0
172 196 0
173 196 0
175 198 0
175 198 0
174 198 0
172 197 0
172 196 0
175 198 0
175 198 0
176 198 0
175 198 0
175 198 0
171 196 0
176 198 0
177 199 0
175 198 0
175 198 0
172 195 0
172 197 0
174 198 0
173 197 0
176 199 0
176 199 0
175 198 0
174 198 0
173 196 0
173 197 0
173 197 0
171 196 0
173 197 0
174 197 0
175 198 0
176 199 0
174 197 0
174 197 0
176 198 0
174 197 0
177 199 0
175 198 0
174 198 0
174 197 0
175 198 0
176 199 0
174 197 0
174 197 0
173 197 0
175 198 0
171 196 0
175 198 0
175 198 0
176 198 0
174 197 0
173 196 0
175 198 0
176 199 0
175 198 0
175 198 0
175 198 0
174 198 0
174 198 0
176 199 0
173 197 0
176 198 0
176 198 0
176 199 0
174 197 0
174 198 0
173 197 0
175 198 0
175 198 0
174 198 0
175 198 0
172 197 0
175 198 0
174 198 0
176 198 0
176 199 0
175 198 0
173 197 0
173 197 0
175 198 0
175 198 0
174 197 0
174 198 0
174 198 0
174 197 0
174 198 0
174 198 0
176 198 0
175 198 0
175 198 0
174 197 0
174 198 0
177 199 0
173 197 0
175 197 0
175 198 0
175 198 0
173 197 0
172 197 0
176 199 0
175 198 0
175 198 0
172 197 0
174 197 0
174 197 0
174 198 0
175 198 0
175 198 0
174 197 0
174 198 0
174 198 0
172 197 0
174 197 0
175 198 0
173 197 0
174 198 0
175 198 0
175 198 0
178 200 112
181 201 183
184 203 226
185 203 228
184 203 228
184 203 228
182 202 228
185 204 228
185 203 228
184 203 228
184 203 228
184 203 228
184 203 228
183 203 228
185 203 228
184 203 228
185 203 228
184 203 228
184 203 228
183 203 228
185 203 228
183 203 228
184 203 228
185 203 228
185 203 228
184 203 228
184 203 228
185 203 228
185 204 228
185 203 228
184 203 228
186 204 228
185 203 228
184 203 228
184 203 228
186 204 228
184 203 228
184 203 228
184 203 228
185 203 228
184 203 228
185 204 228
185 203 228
184 203 228
184 203 228
184 203 228
184 203 228
183 203 228
184 203 228
183 202 228
184 203 228
184 203 228
184 203 228
184 203 228
184 203 228
185 203 228
184 203 228
183 203 228
185 203 228
184 203 228
184 203 228
184 203 228
184 203 228
183 203 228
183 202 204
179 200 148
175 197 45
173 196 0
171 195 0
173 197 0
173 197 0
172 196 0
170 194 0
170 194 0
174 197 0
174 198 0
174 197 0
173 196 0
173 197 0
175 198 0
174 197 0
174 198 0
173 197 0
174 198 0
174 198 0
174 197 0
173 197 0
174 197 0
172 196 0
173 197 0
173 196 0
175 198 0
173 197 0
171 194 0
174 198 0
173 196 0
173 197 0
175 198 0
173 196 0
173 197 0
173 197 0
175 198 0
174 197 0
174 197 0
174 198 0
175 198 0
173 197 0
173 197 0
174 197 0
174 197 0
172 196 0
174 197 0
174 198 0
173 196 0
171 196 0
174 198 0
174 198 0
175 198 0
172 196 0
174 198 0
173 196 0
175 198 0
177 199 0
175 198 0
175 198 0
174 198 0
173 197 0
174 197 0
172 197 0
173 197 0
175 198 0
175 198 0
175 198 0
175 198 0
174 197 0
175 198 0
172 196 0
172 196 0
173 196 0
173 196 0
175 197 0
171 195 0
175 198 0
175 198 0
177 199 0
174 198 0
174 197 0
175 198 0
175 198 0
173 197 0
174 197 0
173 197 0
172 197 0
172 196 0
175 198 0
174 198 0
174 197 0
174 198 0
173 197 0
173 197 0
173 197 0
175 198 0
174 197 0
174 197 0
175 198 0
173 197 0
173 197 0
176 199 0
172 195 0
174 198 0
175 198 0
176 199 0
172 196 0
173 197 0
174 197 0
174 198 0
175 198 0
176 199 0
171 195 0
174 197 0
172 196 0
177 199 0
175 198 0
174 197 0
174 197 0
174 198 0
174 197 0
175 198 0
176 199 0
174 198 0
174 198 0
175 198 0
174 196 0
174 198 0
173 196 0
173 197 0
174 198 0
173 197 0
176 199 0
172 195 0
174 197 0
175 198 0
173 197 0
174 197 0
174 197 0
174 198 0
172 197 0
174 198 0
173 197 0
172 196 0
173 197 0
174 198 0
175 198 0
175 198 0
173 197 0
173 197 0
174 198 0
176 198 0
175 198 0
173 196 0
174 197 0
174 198 0
175 198 0
175 198 0
176 198 0
177 199 0
175 198 0
173 197 0
175 198 0
174 198 0
174 198 0
177 199 0
175 198 0
175 198 0
174 198 0
176 198 0
175 198 0
175 197 0
174 197 0
175 198 0
175 198 0
175 198 0
173 197 0
172 196 0
176 199 0
174 197 0
175 198 0
170 194 0
174 198 0
176 198 0
176 198 0
175 198 0
177 199 0
176 199 0
175 198 0
172 197 0
173 197 0
175 198 0
175 198 0
172 197 0
174 197 0
175 198 0
174 198 0
172 197 0
174 197 0
172 196 0
173 197 0
173 196 0
174 198 0
174 198 0
173 196 0
172 197 0
173 197 0
173 197 0
175 198 0
173 197 0
176 199 0
175 198 0
174 197 0
174 197 0
175 198 0
175 198 0
173 197 0
175 198 0
177 199 0
174 198 0
172 196 0
175 198 0
175 198 0
175 198 0
176 199 0
175 198 0
170 196 0
174 198 0
175 198 0
174 198 0
176 198 0
176 199 0
173 197 0
174 197 0
174 197 0
175 198 0
175 198 0
173 197 0
174 198 0
176 198 0
174 198 0
172 196 0
173 197 0
175 198 0
173 197 0
174 198 0
175 198 0
176 198 0
175 198 0
173 197 0
173 197 0
173 197 0
173 197 0
175 198 0
172 196 0
175 198 0
175 198 0
174 197 0
176 199 0
174 197 0
175 198 0
174 198 0
174 197 0
174 197 0
175 198 0
176 199 0
174 198 0
174 197 0
177 199 0
175 198 0
176 199 0
173 197 0
175 198 0
175 198 0
173 197 0
172 196 0
175 198 0
173 197 0
174 198 0
173 197 0
175 198 0
174 198 0
176 199 0
176 198 0
173 197 0
173 197 0
173 197 0
175 198 0
172 197 0
173 197 0
176 199 0
172 197 0
174 198 0
175 198 0
173 197 0
175 198 0
174 198 0
173 197 0
176 199 0
173 197 0
173 197 0
174 198 0
173 197 0
174 198 0
174 198 0
175 198 0
175 198 0
175 198 0
175 198 0
175 198 0
176 199 0
175 198 0
173 197 0
174 198 0
176 199 0
173 197 0
175 198 0
173 197 0
173 197 0
176 198 0
174 198 0
175 198 0
175 198 0
174 197 0
173 197 0
172 196 0
176 198 0
175 198 0
175 198 0
172 197 0
175 198 0
175 198 64
181 201 168
182 202 202
184 203 228
185 203 228
184 203 228
184 203 228
184 203 228
185 204 228
183 203 228
184 203 228
185 204 228
184 203 228
184 203 228
184 203 228
184 203 228
186 204 228
185 203 228
185 203 228
184 203 228
185 203 228
184 203 228
185 203 228
184 203 228
184 203 228
186 204 228
184 203 228
184 203 228
184 203 228
184 203 228
184 203 228
183 203 228
185 203 228
185 203 228
183 202 228
183 203 228
184 203 228
184 203 228
184 203 228
184 203 228
184 203 228
184 203 228
184 203 228
183 202 228
184 203 228
185 203 228
183 203 228
184 203 228
185 204 228
183 202 228
184 203 228
184 203 228
184 203 228
183 202 228
184 203 228
185 203 228
184 203 228
183 202 228
184 203 228
184 203 228
184 203 228
183 202 228
184 203 228
184 203 228
184 203 228
185 204 228
184 203 228
183 202 228
184 203 228
182 202 217
177 199 137
176 199 56
176 198 0
175 198 0
172 196 0
174 197 0
172 197 0
172 195 0
173 197 0
172 196 0
176 199 0
174 198 0
175 198 0
174 197 0
172 196 0
175 197 0
171 195 0
175 198 0
175 198 0
174 197 0
174 198 0
173 197 0
173 197 0
174 197 0
177 199 0
174 197 0
171 195 0
172 196 0
176 199 0
175 198 0
173 197 0
173 197 0
171 195 0
174 198 0
173 197 0
175 197 0
175 198 0
172 195 0
175 198 0
173 197 0
174 198 0
174 197 0
174 197 0
174 198 0
174 197 0
174 198 0
174 198 0
173 197 0
173 197 0
173 197 0
172 196 0
175 197 0
173 196 0
175 198 0
172 195 0
173 197 0
175 198 0
174 197 0
174 198 0
175 197 0
172 196 0
173 197 0
174 198 0
174 198 0
175 197 0
174 198 0
174 197 0
173 197 0
172 195 0
173 197 0
173 197 0
173 197 0
176 198 0
174 197 0
174 198 0
175 198 0
174 198 0
175 198 0
175 198 0
175 198 0
172 196 0
174 198 0
175 198 0
174 198 0
171 195 0
173 197 0
175 198 0
173 197 0
172 196 0
173 197 0
173 196 0
176 198 0
173 197 0
172 197 0
172 195 0
172 197 0
172 196 0
174 197 0
176 198 0
174 197 0
175 198 0
173 197 0
174 197 0
173 197 0
172 197 0
176 199 0
174 198 0
174 197 0
173 197 0
175 198 0
173 197 0
174 197 0
173 197 0
176 198 0
175 198 0
175 198 0
175 198 0
175 198 0
175 198 0
173 197 0
175 198 0
173 197 0
173 197 0
176 198 0
173 197 0
175 198 0
176 198 0
175 198 0
173 197 0
174 198 0
176 199 0
173 196 0
174 197 0
174 198 0
174 195 0
175 198 0
175 198 0
175 198 0
177 199 0
173 197 0
176 198 0
174 198 0
173 197 0
176 199 0
175 198 0
172 196 0
176 199 0
175 198 0
173 196 0
176 199 0
172 197 0
174 198 0
173 197 0
175 198 0
175 198 0
174 198 0
175 198 0
174 197 0
173 197 0
176 198 0
172 195 0
174 198 0
173 197 0
175 198 0
176 199 0
175 198 0
172 197 0
177 199 0
172 197 0
173 197 0
174 197 0
172 197 0
176 198 0
177 199 0
176 198 0
177 199 0
177 199 0
174 197 0
175 198 0
175 198 0
174 198 0
174 198 0
174 198 0
175 198 0
176 198 0
175 198 0
175 198 0
175 198 0
173 197 0
173 197 0
175 198 0
174 197 0
172 197 0
174 197 0
176 199 0
173 197 0
174 198 0
175 198 0
176 199 0
174 198 0
174 198 0
174 197 0
174 197 0
172 197 0
171 195 0
176 199 0
174 197 0
174 198 0
174 198 0
173 196 0
173 197 0
175 198 0
172 197 0
175 198 0
175 198 0
173 196 0
175 198 0
175 198 0
173 196 0
173 197 0
175 198 0
175 198 0
174 197 0
172 197 0
173 197 0
176 199 0
175 198 0
174 198 0
176 199 0
176 198 0
173 196 0
174 198 0
171 195 0
174 197 0
174 198 0
172 196 0
173 197 0
174 197 0
175 198 0
173 197 0
176 199 0
174 197 0
174 198 0
173 197 0
174 198 0
175 198 0
175 198 0
174 197 0
175 198 0
174 198 0
174 198 0
174 197 0
173 197 0
175 198 0
176 199 0
173 197 0
176 199 0
176 199 0
173 197 0
176 199 0
176 199 0
176 198 0
174 197 0
175 198 0
173 197 0
175 198 0
173 197 0
174 197 0
176 199 0
176 199 0
174 198 0
174 198 0
174 198 0
174 198 0
174 197 0
174 197 0
177 199 0
174 198 0
174 198 0
174 198 0
177 199 0
175 198 0
174 198 0
177 199 0
177 199 0
173 197 0
173 197 0
174 197 0
173 197 0
172 196 0
174 197 0
173 197 0
175 198 0
174 197 0
174 197 0
172 197 0
176 198 0
173 197 0
176 198 0
176 199 0
173 197 0
174 198 0
175 198 0
176 199 0
174 197 0
173 197 0
174 198 0
175 198 0
172 196 0
175 198 0
175 197 0
174 198 0
175 198 0
175 198 0
175 198 0
174 197 0
174 197 0
174 197 0
174 197 0
174 197 0
175 197 0
172 196 0
172 196 0
174 197 0
173 197 0
175 198 0
174 197 0
176 199 97
179 201 158
181 202 209
184 203 228
184 203 228
184 203 228
184 203 228
185 204 228
184 203 228
184 203 228
183 203 228
184 203 228
184 203 228
185 203 228
184 203 228
185 203 228
184 203 228
185 204 228
184 203 228
185 204 228
184 203 228
184 203 228
184 203 228
183 202 228
185 203 228
185 203 228
184 203 228
185 203 228
184 203 228
185 203 228
185 203 228
183 203 228
184 203 228
185 203 228
185 203 228
184 203 228
185 203 228
184 203 228
184 203 228
184 203 228
184 203 228
183 203 228
183 202 228
184 203 228
184 203 228
184 203 228
183 203 228
184 203 228
185 204 228
184 203 228
184 203 228
183 203 228
185 203 228
185 203 228
183 202 228
184 203 228
184 203 228
183 203 228
184 203 228
184 203 228
183 203 228
185 204 228
184 203 228
184 203 228
184 203 228
184 203 228
184 203 228
184 203 228
184 203 228
185 203 228
184 203 228
183 203 228
184 203 228
184 203 228
183 202 214
179 200 158
173 197 64
174 198 0
175 198 0
175 198 0
173 197 0
172 196 0
175 198 0
172 196 0
176 199 0
175 198 0
173 196 0
172 195 0
175 198 0
173 196 0
174 197 0
173 197 0
173 197 0
172 197 0
175 198 0
174 197 0
174 197 0
171 195 0
175 197 0
174 197 0
173 197 0
173 197 0
172 197 0
174 198 0
170 194 0
175 198 0
172 196 0
171 196 0
175 198 0
173 196 0
173 197 0
172 196 0
176 198 0
173 197 0
174 197 0
174 198 0
174 197 0
174 197 0
173 197 0
171 196 0
173 197 0
175 198 0
171 195 0
173 196 0
174 197 0
174 197 0
174 197 0
171 195 0
173 197 0
173 197 0
174 198 0
174 197 0
172 197 0
173 196 0
174 195 0
174 198 0
173 197 0
172 196 0
171 195 0
173 197 0
173 197 0
175 197 0
172 197 0
174 198 0
174 197 0
172 195 0
176 198 0
173 197 0
173 197 0
174 198 0
174 197 0
175 198 0
173 197 0
174 198 0
170 195 0
175 198 0
170 193 0
172 197 0
176 198 0
173 197 0
176 199 0
171 195 0
172 197 0
174 198 0
176 199 0
177 199 0
174 197 0
172 196 0
175 198 0
177 199 0
174 197 0
177 199 0
176 198 0
170 195 0
174 197 0
173 196 0
173 197 0
171 195 0
172 197 0
174 197 0
173 196 0
176 198 0
172 196 0
172 195 0
173 197 0
175 198 0
174 198 0
174 198 0
176 198 0
172 197 0
174 197 0
175 198 0
174 198 0
174 197 0
173 196 0
175 198 0
176 198 0
174 198 0
173 197 0
176 199 0
176 198 0
175 198 0
174 197 0
174 197 0
175 198 0
175 198 0
173 197 0
176 199 0
174 197 0
175 198 0
175 198 0
172 197 0
175 198 0
175 198 0
173 197 0
174 198 0
173 197 0
172 197 0
176 198 0
174 197 0
174 197 0
175 198 0
175 198 0
177 199 0
171 195 0
172 196 0
176 199 0
173 197 0
176 199 0
174 198 0
174 196 0
175 198 0
173 197 0
175 198 0
175 197 0
173 196 0
175 198 0
174 198 0
172 197 0
174 197 0
173 197 0
174 198 0
175 198 0
172 197 0
174 197 0
175 198 0
172 196 0
173 197 0
174 198 0
173 197 0
173 197 0
172 196 0
175 198 0
174 198 0
175 198 0
172 195 0
174 198 0
172 195 0
173 197 0
175 198 0
175 198 0
174 197 0
174 197 0
172 197 0
174 198 0
175 198 0
175 198 0
175 198 0
175 198 0
173 197 0
172 197 0
174 197 0
174 198 0
176 198 0
170 195 0
175 198 0
174 198 0
177 199 0
173 197 0
177 199 0
174 197 0
174 198 0
176 199 0
175 198 0
175 198 0
175 198 0
175 198 0
173 197 0
174 197 0
173 197 0
175 198 0
174 197 0
175 198 0
175 198 0
178 200 0
175 198 0
174 197 0
174 198 0
176 199 0
174 198 0
173 197 0
177 199 0
175 198 0
174 197 0
175 198 0
175 198 0
174 198 0
173 197 0
175 198 0
173 197 0
175 198 0
176 199 0
175 197 0
174 198 0
176 198 0
175 198 0
175 198 0
172 197 0
173 197 0
173 197 0
172 196 0
175 198 0
172 196 0
173 197 0
175 198 0
173 197 0
171 196 0
174 198 0
174 197 0
174 198 0
175 198 0
171 196 0
175 198 0
176 199 0
174 198 0
172 196 0
174 198 0
175 198 0
175 198 0
175 198 0
176 199 0
175 198 0
175 198 0
173 197 0
173 197 0
173 197 0
176 199 0
173 197 0
175 198 0
174 197 0
174 197 0
176 199 0
174 198 0
174 198 0
176 198 0
174 197 0
174 198 0
173 197 0
173 197 0
175 198 0
173 197 0
176 198 0
172 197 0
176 198 0
173 197 0
175 198 0
174 197 0
175 198 0
173 197 0
176 199 0
175 198 0
174 197 0
174 197 0
173 197 0
175 198 0
171 196 0
173 197 0
174 198 0
174 198 0
175 198 0
174 197 0
174 197 0
175 198 0
175 198 0
174 198 0
174 198 0
174 198 0
174 198 0
172 196 0
173 197 0
177 199 0
175 198 0
176 199 0
174 197 0
175 198 0
175 198 0
176 198 0
176 199 85
179 200 158
183 202 207
186 204 228
184 203 228
185 203 228
185 203 228
184 203 228
184 203 228
184 203 228
184 203 228
183 202 228
185 204 228
185 203 228
184 203 228
185 203 228
184 203 228
184 203 228
184 203 228
184 203 228
185 203 228
185 203 228
185 204 228
186 204 228
184 203 228
184 203 228
185 203 228
185 203 228
184 203 228
184 203 228
184 203 228
184 203 228
184 203 228
184 203 228
184 203 228
185 203 228
184 203 228
183 203 228
184 203 228
184 203 228
185 203 228
184 203 228
183 203 228
184 203 228
183 203 228
183 203 228
184 203 228
184 203 228
183 203 228
185 203 228
183 202 228
183 203 228
183 202 228
184 203 228
185 203 228
183 203 228
183 202 228
184 203 228
185 204 228
185 203 228
183 202 228
183 203 228
183 203 228
184 203 228
184 203 228
184 203 228
183 203 228
184 203 228
184 203 228
184 203 228
185 203 228
183 202 228
185 203 228
185 204 228
183 203 228
183 202 228
183 202 228
182 202 228
183 203 228
185 203 226
180 201 155
178 200 102
174 197 0
173 197 0
173 197 0
172 196 0
173 197 0
176 198 0
175 198 0
174 198 0
175 198 0
173 196 0
173 197 0
175 198 0
173 197 0
173 197 0
175 197 0
175 198 0
173 197 0
177 199 0
173 197 0
174 197 0
173 196 0
172 197 0
172 196 0
174 197 0
173 197 0
172 197 0
174 198 0
173 197 0
173 197 0
171 195 0
174 197 0
173 197 0
173 197 0
173 196 0
173 197 0
176 198 0
174 198 0
174 197 0
174 198 0
174 198 0
174 197 0
175 198 0
174 197 0
173 196 0
175 198 0
173 197 0
173 197 0
172 197 0
173 197 0
174 197 0
172 197 0
175 198 0
175 198 0
174 197 0
176 198 0
175 198 0
173 197 0
176 198 0
172 195 0
172 197 0
174 197 0
175 198 0
175 198 0
174 197 0
173 197 0
172 197 0
174 198 0
174 197 0
174 198 0
173 197 0
172 197 0
175 198 0
173 197 0
174 198 0
173 197 0
173 197 0
177 199 0
175 198 0
174 198 0
175 198 0
175 198 0
174 197 0
176 199 0
175 198 0
171 195 0
174 197 0
173 196 0
175 198 0
171 195 0
172 196 0
174 198 0
174 197 0
172 196 0
173 197 0
173 197 0
174 198 0
173 197 0
173 197 0
176 199 0
176 199 0
173 196 0
175 198 0
174 198 0
172 195 0
175 198 0
171 195 0
173 196 0
174 198 0
173 197 0
175 198 0
175 198 0
172 196 0
175 198 0
172 196 0
173 197 0
176 199 0
175 197 0
174 197 0
172 197 0
174 198 0
174 198 0
172 197 0
174 198 0
173 197 0
175 198 0
177 199 0
174 198 0
177 199 0
173 197 0
176 198 0
172 196 0
173 196 0
172 197 0
171 195 0
174 197 0
174 197 0
174 197 0
173 197 0
174 198 0
173 197 0
171 195 0
174 197 0
174 197 0
173 197 0
174 198 0
175 198 0
173 196 0
174 198 0
175 198 0
176 198 0
172 196 0
176 198 0
175 198 0
174 197 0
173 197 0
174 197 0
174 197 0
174 197 0
175 198 0
176 198 0
174 198 0
175 198 0
176 199 0
174 197 0
175 198 0
174 198 0
174 197 0
174 197 0
175 198 0
171 195 0
173 197 0
174 198 0
173 197 0
174 197 0
175 198 0
174 198 0
173 197 0
173 197 0
174 198 0
174 198 0
173 197 0
174 197 0
175 198 0
174 198 0
174 197 0
175 198 0
174 197 0
175 198 0
177 199 0
173 197 0
175 198 0
174 197 0
175 198 0
173 197 0
175 198 0
175 198 0
174 197 0
174 198 0
169 193 0
176 199 0
174 198 0
174 198 0
175 198 0
176 198 0
176 199 0
174 198 0
172 196 0
172 197 0
174 197 0
172 197 0
175 197 0
174 197 0
174 198 0
172 196 0
173 197 0
174 198 0
174 198 0
174 198 0
175 198 0
177 199 0
176 199 0
177 199 0
174 198 0
175 198 0
175 198 0
175 198 0
173 197 0
173 196 0
177 199 0
174 198 0
175 198 0
175 198 0
173 197 0
175 198 0
175 198 0
172 197 0
174 197 0
176 199 0
174 197 0
172 197 0
173 197 0
173 197 0
174 198 0
177 199 0
174 198 0
176 199 0
173 197 0
173 197 0
173 197 0
173 197 0
175 198 0
172 196 0
174 197 0
176 198 0
174 198 0
173 197 0
175 198 0
175 198 0
175 198 0
174 197 0
176 199 0
172 197 0
173 197 0
176 199 0
175 198 0
174 197 0
173 197 0
173 197 0
174 198 0
174 198 0
173 197 0
174 197 0
174 197 0
176 199 0
173 197 0
171 196 0
173 197 0
176 198 0
173 197 0
174 198 0
173 197 0
174 197 0
174 198 0
174 198 0
175 198 0
174 198 0
174 197 0
174 198 0
175 198 0
173 197 0
174 197 0
172 196 0
174 197 0
177 199 0
174 197 0
176 198 0
175 198 0
175 198 0
174 198 0
176 198 0
173 197 0
175 198 0
175 198 0
175 198 0
174 198 0
175 198 0
173 197 0
173 196 0
175 198 0
177 199 0
175 198 0
175 198 0
172 197 0
175 198 0
176 199 0
175 198 79
179 200 155
183 202 202
184 203 228
183 202 228
184 203 228
184 203 228
183 203 228
184 203 228
184 203 228
184 203 228
184 203 228
185 204 228
183 203 228
184 203 228
185 203 228
183 203 228
184 203 228
184 203 228
184 203 228
184 203 228
184 203 228
184 203 228
184 203 228
185 203 228
185 203 228
184 203 228
185 203 228
184 203 228
184 203 228
185 203 228
184 203 228
184 203 228
185 203 228
184 203 228
183 203 228
184 203 228
184 203 228
184 203 228
185 203 228
184 203 228
184 203 228
183 203 228
185 204 228
183 202 228
185 203 228
185 203 228
183 202 228
184 203 228
185 203 228
185 203 228
184 203 228
184 203 228
183 202 228
184 203 228
183 203 228
185 203 228
184 203 228
183 203 228
184 203 228
184 203 228
184 203 228
185 203 228
184 203 228
185 203 228
184 203 228
183 203 228
184 203 228
183 203 228
184 203 228
183 202 228
183 202 228
184 203 228
183 203 228
184 203 228
184 203 228
184 203 228
184 203 228
183 202 228
183 203 228
184 203 228
184 203 228
184 203 228
184 203 228
184 203 228
181 201 180
178 200 133
173 196 0
173 197 0
173 197 0
174 197 0
175 198 0
171 196 0
174 197 0
173 196 0
175 198 0
173 197 0
175 198 0
175 198 0
173 196 0
174 198 0
175 197 0
172 196 0
173 197 0
174 198 0
173 197 0
173 196 0
174 197 0
173 197 0
178 200 0
173 197 0
175 197 0
175 197 0
173 197 0
174 196 0
172 195 0
173 197 0
174 198 0
173 197 0
174 197 0
172 196 0
173 196 0
172 196 0
174 197 0
172 196 0
170 194 0
175 198 0
173 197 0
176 198 0
174 197 0
175 198 0
173 196 0
175 198 0
174 198 0
175 198 0
174 198 0
171 195 0
174 198 0
175 198 0
175 198 0
172 196 0
175 198 0
174 196 0
173 196 0
176 199 0
171 195 0
174 198 0
172 197 0
174 197 0
174 198 0
171 195 0
176 198 0
175 198 0
173 196 0
173 197 0
175 198 0
173 196 0
177 199 0
172 196 0
173 197 0
172 195 0
173 197 0
174 198 0
173 197 0
173 197 0
175 198 0
176 199 0
174 197 0
173 196 0
172 196 0
174 198 0
176 198 0
174 197 0
174 197 0
172 196 0
173 196 0
175 198 0
171 195 0
174 198 0
173 197 0
176 198 0
173 196 0
174 197 0
172 196 0
172 196 0
173 197 0
174 197 0
172 196 0
172 197 0
174 197 0
174 198 0
173 196 0
174 198 0
173 197 0
175 198 0
173 197 0
172 196 0
174 198 0
174 198 0
174 197 0
172 196 0
177 199 0
173 197 0
172 196 0
174 197 0
175 198 0
174 197 0
175 198 0
174 197 0
175 198 0
172 195 0
173 197 0
175 198 0
174 198 0
173 197 0
173 197 0
174 198 0
172 196 0
175 198 0
174 197 0
172 195 0
174 198 0
174 198 0
173 197 0
175 198 0
176 199 0
175 198 0
174 198 0
174 196 0
174 198 0
176 199 0
173 197 0
172 196 0
176 199 0
174 197 0
174 198 0
173 197 0
174 197 0
175 198 0
174 198 0
174 198 0
174 197 0
176 199 0
176 198 0
175 198 0
175 198 0
173 197 0
176 199 0
172 196 0
173 196 0
171 196 0
174 198 0
177 198 0
175 198 0
179 200 0
175 198 0
175 198 0
173 197 0
174 198 0
177 199 0
174 198 0
175 198 0
173 196 0
176 199 0
175 197 0
175 197 0
174 198 0
175 198 0
171 195 0
174 198 0
171 196 0
175 198 0
174 197 0
175 198 0
175 198 0
172 196 0
173 197 0
173 197 0
174 198 0
174 197 0
174 197 0
174 197 0
174 198 0
175 198 0
176 199 0
174 198 0
175 198 0
176 199 0
173 196 0
175 198 0
175 198 0
176 199 0
175 198 0
174 197 0
174 196 0
174 198 0
174 197 0
173 197 0
176 199 0
175 198 0
174 198 0
174 197 0
175 198 0
173 197 0
173 197 0
174 197 0
176 198 0
176 199 0
172 196 0
172 196 0
176 199 0
174 198 0
175 198 0
176 199 0
177 199 0
174 198 0
175 198 0
175 198 0
174 198 0
174 198 0
176 199 0
177 199 0
171 196 0
173 197 0
174 198 0
174 197 0
172 197 0
174 198 0
175 198 0
172 196 0
174 198 0
174 198 0
172 197 0
173 197 0
175 198 0
174 198 0
174 198 0
174 198 0
174 197 0
174 198 0
175 198 0
171 196 0
176 199 0
173 197 0
173 197 0
174 197 0
173 197 0
175 198 0
175 198 0
174 198 0
176 198 0
176 198 0
176 198 0
173 197 0
172 197 0
174 198 0
173 197 0
174 197 0
175 198 0
176 199 0
175 198 0
173 197 0
175 198 0
175 198 0
174 198 0
175 198 0
174 197 0
174 198 0
175 198 0
175 198 0
173 197 0
174 198 0
177 199 0
174 197 0
174 197 0
174 198 0
175 198 0
173 197 0
173 197 0
174 198 0
173 197 0
173 197 0
175 198 0
174 198 0
174 198 0
174 198 0
175 198 0
175 198 0
174 198 0
174 198 0
173 197 0
174 197 0
176 198 0
176 198 0
173 197 0
174 197 0
175 198 0
176 199 79
180 201 158
181 202 202
184 203 228
185 203 228
184 203 228
185 203 228
184 203 228
184 203 228
184 203 228
184 203 228
185 203 228
184 203 228
184 203 228
184 203 228
184 203 228
183 203 228
184 203 228
185 203 228
184 203 228
184 203 228
184 203 228
185 203 228
184 203 228
184 203 228
184 203 228
185 203 228
184 203 228
183 203 228
184 203 228
184 203 228
184 203 228
183 202 228
184 203 228
184 203 228
183 202 228
185 203 228
183 203 228
185 203 228
184 203 228
184 203 228
184 203 228
183 202 228
184 203 228
184 203 228
185 203 228
184 203 228
184 203 228
184 203 228
183 202 228
185 203 228
183 203 228
184 203 228
183 203 228
184 203 228
184 203 228
184 203 228
184 203 228
184 203 228
184 203 228
185 203 228
183 202 228
183 202 228
184 203 228
183 202 228
184 203 228
184 203 228
184 203 228
183 203 228
183 202 228
184 203 228
183 202 228
184 203 228
184 203 228
184 203 228
184 203 228
183 203 228
183 202 228
183 203 228
185 203 228
184 203 228
183 203 228
184 203 228
184 203 228
183 203 228
184 203 228
185 204 228
183 203 228
183 203 228
184 203 228
182 202 207
176 199 125
176 198 0
177 199 0
176 198 0
174 198 0
174 198 0
172 195 0
175 198 0
172 197 0
174 197 0
175 198 0
175 198 0
175 197 0
172 195 0
174 198 0
173 197 0
169 193 0
174 197 0
174 197 0
174 196 0
171 195 0
172 196 0
173 196 0
174 197 0
172 197 0
173 196 0
174 198 0
175 198 0
173 197 0
173 196 0
172 196 0
175 198 0
176 199 0
177 199 0
174 198 0
174 197 0
174 197 0
174 197 0
174 198 0
175 198 0
176 199 0
173 197 0
175 198 0
171 195 0
174 198 0
173 197 0
175 198 0
176 198 0
175 198 0
174 197 0
174 196 0
175 197 0
173 196 0
175 197 0
173 197 0
173 197 0
173 197 0
174 197 0
176 199 0
172 197 0
173 197 0
173 197 0
174 197 0
171 194 0
176 198 0
173 196 0
175 198 0
173 197 0
173 197 0
175 198 0
173 196 0
173 196 0
175 198 0
174 197 0
173 197 0
174 197 0
173 196 0
174 197 0
173 197 0
176 198 0
174 197 0
175 198 0
172 197 0
172 197 0
173 197 0
170 194 0
175 198 0
175 198 0
174 198 0
175 198 0
173 197 0
172 196 0
173 197 0
174 198 0
177 199 0
176 198 0
174 197 0
174 197 0
175 198 0
176 199 0
173 196 0
175 198 0
176 199 0
173 197 0
175 198 0
173 197 0
172 196 0
174 197 0
172 197 0
171 195 0
174 197 0
174 198 0
173 197 0
175 198 0
173 197 0
173 197 0
172 196 0
172 196 0
173 197 0
173 197 0
175 198 0
177 199 0
175 198 0
175 198 0
176 199 0
176 199 0
175 198 0
173 197 0
174 198 0
175 198 0
174 198 0
175 198 0
175 198 0
173 197 0
175 198 0
173 197 0
174 198 0
175 198 0
174 198 0
173 196 0
176 199 0
174 198 0
174 197 0
176 199 0
175 198 0
173 197 0
175 198 0
174 198 0
173 197 0
172 196 0
176 199 0
173 197 0
174 198 0
176 199 0
173 197 0
174 198 0
175 198 0
175 198 0
174 198 0
175 198 0
173 196 0
174 197 0
173 197 0
172 196 0
174 198 0
173 197 0
173 197 0
176 198 0
175 198 0
176 198 0
176 198 0
172 196 0
172 197 0
174 197 0
176 199 0
173 196 0
177 199 0
173 197 0
173 197 0
174 198 0
174 198 0
176 198 0
174 198 0
171 196 0
177 199 0
172 197 0
176 198 0
173 197 0
175 198 0
173 197 0
170 195 0
172 196 0
176 199 0
174 198 0
173 197 0
174 197 0
175 198 0
176 199 0
174 198 0
175 198 0
173 197 0
174 197 0
174 198 0
176 198 0
174 198 0
174 198 0
173 197 0
174 198 0
175 198 0
175 198 0
175 198 0
175 198 0
174 198 0
174 198 0
174 198 0
173 197 0
175 198 0
175 198 0
171 196 0
174 198 0
175 198 0
176 199 0
175 198 0
174 197 0
174 198 0
176 199 0
175 198 0
176 198 0
174 197 0
172 197 0
174 197 0
177 199 0
173 197 0
174 198 0
175 198 0
175 198 0
175 198 0
174 198 0
177 199 0
174 197 0
175 198 0
173 197 0
173 197 0
174 197 0
174 198 0
174 197 0
173 197 0
174 198 0
173 197 0
173 197 0
174 197 0
174 197 0
175 198 0
174 197 0
174 198 0
173 197 0
175 198 0
176 199 0
176 199 0
174 198 0
174 197 0
174 198 0
176 199 0
174 198 0
176 198 0
176 198 0
176 198 0
173 197 0
174 198 0
174 197 0
173 197 0
173 197 0
174 197 0
175 198 0
176 199 0
175 198 0
173 197 0
175 198 0
174 198 0
174 197 0
175 198 0
175 198 0
174 198 0
174 198 0
174 197 0
173 197 0
174 198 0
177 199 0
174 197 0
178 200 0
174 197 0
175 198 0
172 196 0
173 197 0
175 198 0
174 197 0
175 198 0
174 198 0
172 197 0
173 197 0
172 196 0
173 197 0
174 198 0
173 197 0
174 198 0
175 198 0
175 198 56
179 200 151
182 202 207
183 202 224
185 203 228
184 203 228
184 203 228
185 204 228
185 204 228
184 203 228
184 203 228
184 203 228
183 202 228
184 203 228
184 203 228
185 203 228
185 204 228
184 203 228
184 203 228
184 203 228
184 203 228
184 203 228
185 203 228
183 202 228
184 203 228
184 203 228
185 203 228
184 203 228
184 203 228
183 203 228
184 203 228
184 203 228
183 202 228
184 203 228
184 203 228
183 203 228
183 203 228
183 203 228
184 203 228
184 203 228
185 203 228
185 203 228
183 203 228
184 203 228
184 203 228
184 203 228
184 203 228
184 203 228
185 203 228
184 203 228
185 204 228
184 203 228
183 202 228
183 202 228
183 203 228
186 204 228
183 202 228
184 203 228
184 203 228
184 203 228
183 203 228
184 203 228
184 203 228
183 203 228
183 202 228
183 203 228
184 203 228
184 203 228
183 203 228
185 203 228
184 203 228
184 203 228
183 203 228
184 203 228
184 203 228
184 203 228
184 203 228
184 203 228
184 203 228
184 203 228
183 202 228
182 202 228
183 202 228
183 203 228
183 202 228
183 203 228
184 203 228
183 202 228
185 203 228
184 203 228
183 203 228
184 203 228
184 203 228
184 203 228
184 203 228
182 202 214
179 200 148
171 196 32
172 197 0
173 197 0
175 198 0
173 197 0
174 197 0
174 198 0
174 198 0
175 198 0
174 197 0
173 197 0
174 197 0
176 198 0
171 195 0
174 198 0
174 198 0
173 197 0
174 196 0
173 197 0
175 198 0
173 197 0
176 198 0
173 197 0
174 198 0
176 199 0
170 194 0
173 197 0
177 199 0
174 198 0
171 195 0
174 197 0
173 197 0
174 197 0
173 197 0
176 199 0
172 196 0
176 198 0
175 198 0
174 197 0
172 197 0
174 198 0
172 196 0
175 198 0
174 197 0
172 196 0
174 198 0
176 198 0
172 197 0
175 198 0
174 197 0
172 196 0
175 197 0
176 199 0
171 195 0
172 197 0
174 198 0
176 198 0
174 197 0
175 198 0
174 197 0
172 196 0
173 197 0
173 197 0
170 194 0
174 198 0
175 198 0
174 198 0
175 198 0
173 197 0
173 197 0
173 195 0
175 198 0
176 198 0
174 197 0
174 197 0
171 196 0
175 198 0
174 198 0
173 197 0
177 199 0
173 197 0
174 197 0
176 198 0
172 196 0
174 198 0
172 194 0
177 199 0
172 196 0
174 198 0
173 196 0
175 198 0
174 198 0
172 197 0
173 197 0
175 198 0
175 198 0
174 197 0
173 196 0
174 197 0
172 197 0
173 196 0
175 198 0
173 196 0
171 196 0
174 198 0
172 196 0
175 198 0
176 198 0
172 196 0
173 196 0
175 198 0
172 196 0
172 196 0
174 198 0
173 196 0
170 196 0
175 198 0
174 197 0
177 199 0
174 197 0
174 198 0
171 195 0
171 195 0
175 198 0
173 197 0
174 197 0
172 196 0
173 197 0
174 198 0
175 198 0
175 198 0
176 198 0
174 197 0
174 197 0
176 198 0
173 197 0
176 199 0
175 198 0
173 197 0
174 198 0
174 198 0
175 198 0
173 197 0
172 197 0
170 193 0
172 196 0
175 197 0
175 198 0
175 198 0
174 198 0
174 197 0
173 197 0
175 198 0
174 198 0
175 198 0
173 197 0
173 196 0
175 198 0
175 198 0
169 194 0
174 198 0
173 196 0
174 196 0
175 198 0
174 198 0
175 198 0
174 198 0
176 199 0
174 197 0
174 198 0
176 199 0
174 197 0
174 197 0
172 196 0
174 197 0
176 198 0
175 198 0
174 198 0
172 196 0
173 197 0
174 197 0
175 198 0
176 198 0
174 198 0
174 197 0
174 198 0
173 197 0
172 196 0
175 198 0
174 198 0
176 199 0
175 198 0
175 198 0
175 198 0
172 196 0
176 198 0
175 198 0
171 196 0
175 198 0
175 198 0
177 199 0
176 198 0
174 198 0
174 198 0
174 198 0
173 197 0
173 197 0
173 197 0
176 199 0
173 197 0
173 197 0
175 198 0
173 197 0
176 198 0
174 198 0
174 198 0
174 198 0
173 197 0
176 199 0
175 198 0
174 197 0
175 198 0
176 199 0
175 198 0
174 198 0
175 198 0
174 198 0
176 199 0
177 199 0
173 197 0
175 198 0
175 198 0
175 198 0
174 198 0
175 198 0
174 198 0
176 199 0
174 198 0
174 197 0
174 197 0
173 196 0
173 197 0
173 197 0
173 197 0
174 198 0
176 199 0
177 199 0
173 197 0
175 198 0
173 197 0
174 197 0
175 198 0
176 198 0
176 199 0
174 197 0
174 198 0
176 198 0
174 198 0
174 198 0
173 197 0
173 197 0
173 197 0
175 198 0
174 197 0
174 197 0
171 196 0
176 199 0
175 198 0
174 197 0
174 198 0
173 197 0
173 197 0
173 197 0
173 197 0
175 198 0
174 198 0
175 198 0
175 198 0
174 197 0
176 198 0
174 197 0
172 196 0
173 197 0
174 198 0
174 197 0
174 197 0
175 198 0
174 198 0
174 197 0
172 196 0
175 198 0
174 197 0
176 199 0
174 198 0
174 197 0
173 197 0
173 197 0
173 197 0
173 196 0
177 199 0
174 197 32
177 199 137
179 200 186
184 203 219
185 204 228
184 203 228
184 203 228
184 203 228
184 203 228
182 202 228
186 204 228
185 203 228
183 202 228
184 203 228
185 203 228
184 203 228
183 202 228
185 203 228
184 203 228
184 203 228
184 203 228
183 203 228
183 202 228
184 203 228
183 202 228
184 203 228
184 203 228
183 203 228
184 203 228
184 203 228
183 202 228
185 203 228
184 203 228
184 203 228
183 202 228
183 203 228
184 203 228
183 203 228
184 203 228
184 203 228
184 203 228
184 203 228
183 202 228
184 203 228
183 203 228
184 203 228
184 203 228
185 203 228
184 203 228
184 203 228
184 203 228
184 203 228
183 203 228
184 203 228
183 203 228
183 203 228
184 203 228
183 202 228
184 203 228
184 203 228
183 203 228
185 203 228
184 203 228
185 203 228
183 203 228
184 203 228
184 203 228
184 203 228
183 202 228
183 203 228
183 203 228
184 203 228
184 203 228
183 203 228
184 203 228
184 203 228
183 203 228
184 203 228
184 203 228
184 203 228
184 203 228
185 203 228
184 203 228
184 203 228
183 203 228
184 203 228
185 203 228
183 202 228
185 203 228
184 203 228
185 203 228
183 202 228
183 203 228
183 202 228
182 202 228
183 202 228
183 202 228
183 202 228
184 203 228
183 202 228
183 202 221
178 200 158
173 196 45
174 197 0
172 196 0
172 196 0
173 196 0
173 197 0
175 198 0
172 195 0
173 197 0
174 197 0
174 198 0
174 198 0
174 197 0
175 198 0
173 196 0
174 198 0
171 195 0
172 195 0
172 195 0
174 197 0
172 195 0
172 196 0
174 198 0
173 196 0
174 197 0
172 196 0
172 197 0
174 197 0
175 197 0
172 196 0
175 198 0
174 198 0
172 197 0
174 197 0
170 195 0
171 195 0
175 198 0
169 193 0
173 197 0
174 198 0
174 197 0
173 197 0
174 198 0
174 198 0
173 197 0
172 197 0
173 197 0
174 197 0
173 197 0
172 196 0
176 199 0
173 197 0
174 198 0
176 198 0
173 197 0
174 198 0
174 196 0
173 196 0
172 196 0
174 197 0
175 198 0
172 196 0
173 197 0
174 197 0
174 198 0
172 196 0
176 199 0
175 198 0
175 198 0
175 198 0
175 198 0
174 197 0
173 195 0
173 196 0
176 199 0
176 198 0
176 198 0
175 198 0
173 197 0
173 197 0
172 196 0
174 197 0
174 197 0
174 197 0
174 197 0
173 197 0
174 198 0
175 198 0
173 197 0
173 196 0
174 198 0
175 198 0
175 198 0
172 196 0
173 197 0
173 197 0
173 197 0
171 196 0
173 197 0
173 197 0
173 197 0
175 198 0
174 198 0
172 196 0
172 197 0
174 198 0
175 198 0
175 198 0
177 199 0
173 197 0
175 198 0
174 198 0
174 198 0
174 198 0
175 198 0
175 198 0
175 198 0
176 199 0
174 197 0
175 198 0
173 197 0
172 196 0
174 197 0
176 198 0
173 196 0
175 198 0
176 199 0
174 197 0
173 197 0
174 198 0
172 196 0
175 198 0
177 199 0
177 199 0
176 198 0
172 196 0
175 198 0
176 199 0
176 199 0
173 197 0
172 197 0
175 198 0
173 197 0
173 197 0
172 196 0
176 199 0
176 198 0
177 199 0
172 195 0
174 197 0
174 197 0
174 198 0
176 198 0
172 197 0
174 197 0
175 198 0
173 197 0
174 197 0
174 197 0
175 198 0
174 198 0
174 198 0
177 199 0
171 196 0
174 197 0
174 198 0
173 197 0
175 197 0
174 197 0
173 197 0
174 198 0
172 196 0
175 198 0
175 198 0
175 198 0
172 195 0
174 197 0
176 199 0
174 198 0
177 199 0
176 199 0
172 196 0
175 198 0
174 196 0
175 198 0
175 198 0
175 198 0
175 198 0
176 199 0
174 198 0
174 197 0
173 197 0
173 197 0
175 198 0
173 197 0
174 197 0
174 197 0
173 197 0
176 199 0
174 198 0
176 199 0
174 198 0
176 198 0
176 198 0
169 193 0
175 198 0
174 198 0
175 198 0
175 198 0
175 198 0
171 196 0
178 199 0
175 198 0
175 198 0
175 198 0
176 199 0
176 198 0
175 198 0
175 197 0
175 198 0
177 199 0
175 198 0
173 197 0
174 198 0
174 197 0
173 197 0
173 197 0
174 198 0
175 198 0
174 198 0
175 198 0
175 198 0
174 198 0
173 197 0
173 197 0
171 196 0
174 197 0
173 197 0
173 197 0
176 199 0
177 199 0
175 198 0
174 197 0
173 196 0
175 198 0
173 197 0
175 198 0
175 198 0
174 197 0
174 197 0
173 197 0
173 197 0
173 197 0
174 198 0
178 200 0
175 198 0
174 197 0
174 198 0
175 198 0
175 197 0
174 198 0
176 199 0
176 199 0
172 196 0
176 198 0
176 199 0
174 198 0
176 198 0
173 197 0
174 198 0
176 198 0
175 197 0
174 197 0
173 197 0
174 198 0
173 197 0
173 197 0
174 198 0
174 197 0
175 198 0
174 198 0
173 197 0
175 198 0
176 198 0
176 198 0
174 197 0
171 196 0
175 198 0
174 198 0
173 197 0
172 197 0
174 197 0
174 198 0
175 198 0
174 197 0
173 197 0
173 197 0
173 197 0
171 191 121
181 200 214
184 203 228
184 203 228
185 203 228
184 203 228
184 203 228
183 202 228
185 203 228
185 204 228
184 203 228
183 203 228
183 202 228
183 202 228
185 204 228
183 202 228
184 203 228
183 202 228
184 203 228
183 202 228
184 203 228
184 203 228
184 203 228
184 203 228
184 203 228
185 203 228
182 202 228
182 202 228
183 202 228
183 203 228
184 203 228
184 203 228
184 203 228
184 203 228
184 203 228
183 203 228
184 203 228
185 203 228
184 203 228
185 204 228
184 203 228
183 202 228
183 203 228
184 203 228
184 203 228
184 203 228
184 203 228
184 203 228
183 203 228
184 203 228
182 202 228
184 203 228
183 203 228
183 202 228
183 203 228
183 203 228
183 202 228
185 203 228
183 202 228
185 203 228
184 203 228
184 203 228
184 203 228
184 203 228
184 203 228
183 202 228
183 202 228
183 203 228
183 203 228
183 203 228
183 202 228
185 204 228
184 203 228
184 203 228
183 202 228
183 202 228
184 203 228
184 203 228
184 203 228
184 203 228
183 203 228
184 203 228
185 203 228
183 203 228
184 203 228
182 202 228
183 202 228
184 203 228
185 203 228
184 203 228
185 203 228
183 202 228
183 203 228
182 202 228
184 203 228
183 203 228
184 203 228
184 203 228
183 202 228
184 203 228
183 202 226
173 192 183
162 181 97
173 196 0
173 196 0
174 197 0
174 198 0
171 196 0
175 198 0
173 197 0
175 198 0
173 196 0
174 197 0
177 199 0
174 196 0
173 196 0
171 195 0
173 196 0
172 195 0
173 197 0
174 197 0
172 196 0
173 196 0
176 198 0
174 198 0
175 198 0
172 196 0
170 195 0
177 199 0
174 197 0
172 196 0
175 198 0
171 195 0
173 197 0
173 196 0
175 198 0
173 196 0
177 199 0
174 197 0
172 196 0
174 197 0
174 197 0
173 196 0
175 198 0
174 197 0
173 196 0
173 197 0
171 194 0
174 198 0
176 198 0
174 198 0
174 198 0
175 198 0
172 195 0
174 197 0
172 196 0
175 198 0
174 197 0
175 198 0
172 197 0
174 197 0
175 198 0
177 199 0
174 198 0
176 198 0
175 198 0
174 198 0
174 197 0
174 197 0
174 198 0
176 199 0
173 197 0
174 198 0
175 198 0
171 196 0
176 198 0
173 197 0
175 197 0
174 197 0
175 198 0
175 198 0
172 196 0
176 199 0
173 196 0
175 197 0
174 198 0
173 196 0
173 197 0
177 199 0
172 196 0
176 199 0
176 198 0
174 196 0
174 198 0
174 197 0
175 198 0
173 197 0
175 198 0
173 197 0
173 197 0
173 197 0
174 198 0
174 197 0
174 198 0
172 197 0
173 197 0
172 196 0
174 197 0
174 198 0
173 197 0
172 196 0
174 197 0
172 196 0
171 196 0
176 198 0
173 197 0
174 198 0
172 196 0
175 198 0
175 198 0
174 198 0
177 199 0
173 196 0
176 198 0
175 198 0
174 197 0
173 197 0
174 197 0
173 197 0
172 197 0
176 198 0
174 197 0
175 198 0
175 198 0
176 199 0
174 197 0
174 198 0
176 198 0
174 198 0
171 196 0
176 198 0
174 198 0
173 197 0
175 198 0
173 197 0
173 197 0
173 196 0
175 198 0
173 197 0
174 197 0
175 198 0
173 197 0
174 198 0
173 197 0
173 197 0
174 197 0
174 196 0
176 198 0
174 198 0
174 197 0
176 199 0
176 199 0
174 198 0
172 197 0
173 196 0
173 197 0
176 199 0
176 199 0
174 197 0
173 197 0
173 196 0
177 199 0
176 199 0
176 199 0
174 198 0
173 196 0
174 198 0
174 198 0
175 198 0
173 196 0
175 198 0
174 198 0
176 198 0
176 198 0
175 198 0
175 198 0
175 198 0
172 197 0
174 197 0
174 197 0
175 197 0
173 197 0
175 198 0
176 198 0
174 197 0
173 197 0
173 197 0
172 196 0
174 197 0
175 198 0
174 198 0
173 197 0
175 198 0
173 197 0
174 198 0
174 197 0
172 196 0
174 197 0
174 198 0
176 199 0
173 197 0
176 198 0
174 198 0
176 199 0
174 197 0
171 195 0
174 197 0
174 197 0
175 198 0
171 196 0
175 198 0
174 198 0
176 198 0
175 197 0
173 197 0
174 198 0
174 198 0
174 198 0
173 197 0
175 198 0
175 198 0
175 198 0
174 197 0
175 198 0
177 199 0
174 198 0
175 198 0
174 198 0
173 197 0
175 198 0
174 198 0
174 198 0
171 196 0
174 198 0
176 199 0
175 198 0
173 197 0
174 198 0
174 197 0
175 198 0
175 198 0
173 197 0
173 197 0
173 197 0
173 197 0
175 198 0
176 199 0
175 198 0
173 197 0
176 199 0
174 198 0
175 198 0
173 197 0
175 198 0
173 197 0
174 198 0
175 198 0
174 198 0
177 199 0
174 198 0
173 197 0
173 197 0
174 198 0
174 198 0
175 198 0
174 197 0
175 198 0
177 199 0
173 197 0
175 198 0
174 197 0
174 197 0
176 198 0
176 198 0
173 197 0
174 198 0
175 198 0
175 198 0
176 199 0
172 196 0
174 197 0
173 197 0
173 197 0
175 198 0
173 197 0
173 197 0
174 197 0
173 197 0
173 196 0
173 197 0
165 187 0
159 179 32
170 191 168
178 198 212
184 203 228
184 203 228
185 204 228
182 202 228
184 203 228
184 203 228
184 203 228
184 203 228
184 203 228
184 203 228
183 203 228
184 203 228
184 203 228
183 203 228
185 203 228
184 203 228
183 202 228
183 203 228
185 204 228
183 202 228
183 203 228
184 203 228
183 202 228
185 203 228
184 203 228
184 203 228
184 203 228
184 203 228
183 203 228
184 203 228
184 203 228
183 203 228
184 203 228
182 202 228
184 203 228
184 203 228
184 203 228
184 203 228
184 203 228
183 202 228
184 203 228
184 203 228
183 203 228
183 202 228
183 202 228
183 203 228
183 202 228
184 203 228
183 203 228
184 203 228
183 203 228
183 203 228
183 202 228
184 203 228
183 203 228
184 203 228
184 203 228
183 203 228
183 203 228
183 202 228
183 203 228
183 203 228
183 202 228
184 203 228
183 203 228
183 203 228
185 203 228
183 203 228
184 203 228
184 203 228
184 203 228
184 203 228
183 203 228
183 202 228
183 203 228
184 203 228
184 203 228
184 203 228
183 202 228
184 203 228
183 202 228
184 203 228
184 203 228
183 203 228
184 203 228
183 202 228
184 203 228
183 202 228
184 203 228
184 203 228
183 202 228
183 202 228
185 203 228
183 202 228
181 200 217
169 189 158
156 176 64
155 174 0
157 177 0
173 197 0
173 197 0
172 197 0
173 196 0
175 198 0
173 197 0
172 196 0
173 196 0
176 198 0
173 197 0
174 197 0
174 197 0
175 197 0
174 197 0
172 196 0
172 196 0
172 196 0
174 198 0
174 197 0
174 197 0
172 196 0
174 197 0
174 198 0
172 196 0
174 197 0
174 198 0
174 198 0
173 197 0
176 198 0
173 196 0
176 198 0
175 198 0
173 197 0
173 196 0
176 199 0
172 195 0
171 195 0
172 195 0
173 196 0
173 195 0
175 198 0
172 196 0
176 198 0
175 198 0
172 196 0
173 197 0
173 196 0
174 197 0
174 197 0
174 197 0
173 197 0
175 198 0
175 198 0
172 197 0
173 197 0
174 198 0
174 197 0
174 198 0
175 198 0
172 196 0
175 198 0
173 197 0
172 196 0
172 195 0
173 196 0
175 198 0
173 197 0
170 195 0
173 197 0
176 198 0
175 198 0
174 197 0
174 197 0
174 197 0
174 198 0
174 198 0
173 197 0
177 199 0
172 196 0
172 196 0
173 197 0
173 196 0
175 198 0
172 195 0
176 199 0
173 197 0
173 196 0
171 196 0
173 197 0
175 198 0
175 198 0
174 197 0
174 198 0
174 197 0
174 197 0
173 197 0
174 197 0
173 197 0
173 196 0
175 198 0
173 197 0
174 198 0
175 198 0
171 194 0
175 198 0
173 197 0
177 199 0
175 198 0
173 197 0
174 196 0
174 197 0
175 197 0
174 197 0
174 197 0
174 197 0
173 197 0
175 198 0
172 196 0
171 196 0
174 197 0
174 198 0
175 198 0
174 198 0
175 198 0
173 197 0
175 198 0
174 197 0
174 198 0
173 197 0
173 197 0
176 199 0
175 198 0
174 197 0
173 197 0
172 196 0
174 198 0
175 198 0
175 198 0
174 198 0
174 197 0
176 199 0
174 197 0
175 198 0
173 197 0
176 198 0
172 196 0
175 198 0
177 199 0
173 197 0
175 197 0
177 199 0
174 197 0
174 198 0
174 197 0
174 197 0
176 199 0
175 198 0
174 196 0
173 197 0
173 197 0
176 199 0
174 198 0
172 196 0
173 197 0
175 198 0
172 196 0
176 199 0
175 198 0
174 198 0
174 198 0
174 197 0
174 197 0
174 198 0
176 198 0
172 197 0
174 197 0
174 196 0
174 198 0
174 198 0
173 197 0
173 197 0
173 197 0
175 198 0
172 197 0
175 198 0
173 196 0
171 195 0
173 196 0
175 198 0
173 197 0
175 198 0
174 197 0
174 197 0
174 198 0
174 197 0
176 199 0
175 198 0
174 198 0
176 199 0
174 198 0
175 198 0
175 198 0
176 198 0
175 198 0
174 198 0
174 198 0
177 199 0
173 197 0
176 198 0
176 199 0
174 197 0
173 197 0
175 197 0
173 196 0
174 198 0
174 197 0
176 199 0
174 198 0
173 197 0
174 197 0
173 197 0
172 197 0
176 199 0
172 196 0
175 198 0
175 198 0
174 198 0
172 197 0
174 198 0
174 198 0
174 197 0
179 200 0
174 197 0
174 198 0
175 198 0
175 198 0
175 198 0
174 198 0
173 197 0
174 198 0
174 198 0
175 198 0
175 198 0
176 199 0
174 197 0
173 197 0
174 197 0
176 198 0
176 199 0
173 197 0
176 198 0
175 198 0
175 198 0
172 196 0
176 199 0
174 198 0
174 197 0
174 197 0
174 197 0
173 197 0
175 198 0
176 199 0
172 197 0
175 198 0
175 198 0
176 198 0
174 197 0
174 198 0
174 198 0
176 199 0
174 197 0
174 198 0
176 199 0
174 198 0
176 198 0
176 198 0
174 197 0
175 198 0
174 198 0
174 197 0
173 197 0
176 198 0
176 198 0
172 197 0
174 198 0
176 199 0
171 196 0
173 197 0
174 198 0
175 198 0
174 197 0
172 196 0
172 197 0
173 197 0
175 198 0
174 197 0
171 195 0
170 193 0
158 178 0
155 176 0
157 178 45
173 193 174
184 202 224
184 203 228
184 203 228
183 202 228
183 203 228
183 203 228
183 202 228
184 203 228
184 203 228
184 203 228
183 202 228
183 203 228
185 203 228
184 203 228
184 203 228
184 203 228
184 203 228
184 203 228
183 202 228
184 203 228
183 202 228
183 202 228
183 202 228
184 203 228
184 203 228
185 203 228
183 203 228
184 203 228
184 203 228
183 203 228
183 203 228
184 203 228
184 203 228
184 203 228
183 202 228
183 203 228
183 202 228
183 202 228
183 203 228
183 203 228
184 203 228
184 203 228
183 202 228
184 203 228
183 203 228
183 203 228
184 203 228
183 202 228
185 203 228
184 203 228
183 202 228
183 203 228
183 202 228
183 202 228
184 203 228
184 203 228
183 202 228
184 203 228
183 202 228
183 203 228
183 203 228
184 203 228
184 203 228
184 203 228
184 203 228
184 203 228
183 203 228
183 203 228
184 203 228
184 203 228
183 202 228
182 202 228
183 202 228
184 203 228
184 203 228
183 203 228
183 202 228
182 202 228
183 202 228
184 203 228
183 202 228
183 202 228
184 203 228
183 202 228
183 202 228
184 203 228
183 202 228
183 202 228
184 203 228
184 203 228
183 202 228
176 196 196
164 184 116
152 173 0
152 173 0
152 173 0
156 176 0
158 179 0
174 198 0
174 197 0
175 198 0
174 198 0
173 196 0
174 197 0
173 197 0
176 198 0
175 198 0
173 196 0
176 198 0
172 196 0
174 197 0
175 198 0
173 197 0
170 196 0
172 195 0
174 196 0
173 196 0
173 196 0
174 197 0
175 198 0
173 197 0
173 197 0
174 198 0
173 196 0
172 196 0
170 195 0
174 198 0
171 194 0
174 198 0
172 195 0
175 198 0
175 198 0
173 197 0
174 197 0
174 196 0
174 197 0
173 197 0
172 196 0
173 197 0
171 195 0
175 197 0
175 198 0
173 197 0
175 198 0
174 197 0
172 196 0
174 197 0
174 197 0
174 198 0
174 198 0
174 198 0
176 198 0
172 196 0
173 197 0
172 196 0
175 198 0
175 198 0
176 198 0
174 196 0
174 197 0
172 196 0
174 198 0
176 198 0
175 198 0
175 198 0
173 196 0
176 199 0
174 197 0
176 199 0
174 197 0
173 197 0
174 198 0
174 197 0
174 198 0
175 198 0
175 198 0
173 196 0
175 197 0
175 197 0
175 198 0
173 197 0
173 196 0
173 197 0
175 198 0
175 198 0
171 196 0
175 197 0
173 197 0
175 198 0
173 197 0
173 197 0
172 196 0
173 197 0
173 197 0
174 198 0
173 197 0
172 195 0
174 198 0
172 196 0
174 198 0
172 196 0
177 199 0
173 197 0
174 198 0
173 197 0
172 197 0
174 197 0
173 197 0
173 196 0
175 197 0
171 195 0
173 197 0
177 199 0
173 197 0
174 198 0
175 198 0
175 198 0
175 198 0
174 197 0
174 198 0
174 196 0
175 198 0
174 197 0
174 197 0
176 199 0
173 195 0
176 199 0
177 199 0
173 197 0
172 196 0
171 195 0
176 198 0
175 198 0
174 198 0
174 198 0
174 197 0
178 200 0
176 198 0
176 198 0
175 198 0
173 197 0
174 198 0
175 198 0
174 197 0
177 199 0
175 198 0
175 198 0
174 198 0
176 199 0
175 198 0
174 197 0
175 198 0
174 198 0
174 196 0
174 197 0
174 197 0
173 197 0
175 198 0
174 197 0
174 198 0
171 195 0
175 198 0
174 198 0
176 199 0
172 197 0
175 198 0
174 198 0
177 199 0
176 198 0
173 197 0
175 198 0
171 195 0
174 198 0
172 197 0
176 199 0
175 198 0
175 198 0
174 198 0
171 196 0
174 198 0
174 197 0
174 198 0
174 197 0
177 199 0
176 199 0
173 196 0
174 198 0
174 198 0
172 197 0
175 198 0
175 198 0
173 197 0
175 198 0
176 199 0
175 198 0
175 198 0
172 197 0
172 197 0
176 199 0
176 198 0
176 199 0
177 198 0
176 198 0
174 198 0
174 197 0
178 200 0
173 197 0
174 197 0
172 197 0
172 197 0
175 197 0
175 198 0
174 198 0
175 198 0
176 198 0
174 198 0
170 195 0
174 198 0
173 197 0
172 196 0
173 196 0
173 197 0
175 198 0
176 199 0
173 197 0
175 198 0
175 198 0
176 199 0
177 199 0
174 197 0
175 198 0
174 197 0
175 198 0
173 197 0
174 197 0
176 198 0
172 197 0
173 197 0
175 198 0
175 198 0
174 197 0
173 197 0
174 197 0
175 198 0
173 197 0
171 196 0
174 197 0
174 198 0
174 197 0
174 198 0
175 198 0
175 198 0
172 196 0
175 198 0
174 197 0
173 197 0
175 197 0
175 198 0
175 198 0
176 198 0
177 199 0
172 197 0
176 199 0
176 199 0
174 198 0
174 198 0
174 197 0
176 198 0
173 197 0
174 197 0
175 198 0
174 197 0
176 199 0
176 198 0
174 197 0
174 197 0
174 198 0
173 197 0
173 197 0
176 198 0
172 197 0
175 197 0
173 196 0
175 198 0
176 198 0
174 198 0
174 197 0
173 197 0
174 198 0
175 198 0
174 198 0
173 197 0
174 197 0
175 197 0
174 197 0
171 194 0
155 176 0
157 177 0
156 177 0
155 176 0
160 180 72
175 194 186
184 203 228
183 202 228
184 203 228
183 203 228
184 203 228
184 203 228
184 203 228
184 203 228
184 203 228
184 203 228
183 203 228
185 204 228
183 202 228
183 203 228
184 203 228
183 203 228
183 203 228
183 202 228
183 203 228
184 203 228
184 203 228
184 203 228
184 203 228
184 203 228
183 202 228
183 202 228
184 203 228
184 203 228
183 202 228
183 203 228
183 203 228
183 203 228
184 203 228
184 203 228
184 203 228
184 203 228
184 203 228
183 202 228
183 202 228
184 203 228
184 203 228
184 203 228
182 202 228
184 203 228
183 202 228
184 203 228
184 203 228
184 203 228
183 202 228
183 203 228
183 202 228
184 203 228
184 203 228
184 203 228
183 202 228
183 203 228
184 203 228
183 203 228
182 202 228
183 202 228
184 203 228
182 202 228
184 203 228
183 202 228
183 202 228
184 203 228
183 202 228
184 203 228
184 203 228
183 203 228
182 202 228
183 203 228
183 203 228
182 202 228
184 203 228
183 203 228
182 202 228
183 203 228
183 202 228
184 203 228
183 203 228
183 202 228
183 202 228
184 203 228
183 203 228
183 203 228
182 201 226
171 191 171
163 184 121
151 172 0
152 172 0
150 172 0
153 175 0
153 175 0
153 174 0
154 174 0
175 198 0
171 195 0
175 197 0
173 196 0
173 197 0
175 198 0
173 197 0
177 199 0
174 197 0
172 195 0
172 196 0
175 198 0
171 195 0
175 198 0
175 198 0
175 198 0
172 197 0
178 199 0
173 197 0
172 196 0
176 199 0
171 196 0
173 197 0
172 195 0
173 197 0
175 198 0
173 197 0
173 196 0
173 197 0
173 197 0
174 197 0
174 198 0
175 197 0
173 197 0
173 197 0
174 198 0
170 193 0
174 197 0
172 195 0
174 197 0
175 197 0
174 198 0
175 198 0
170 194 0
173 196 0
176 199 0
175 198 0
173 197 0
175 198 0
175 197 0
173 196 0
174 198 0
174 198 0
174 198 0
170 194 0
175 198 0
173 197 0
173 197 0
170 195 0
171 195 0
175 198 0
177 199 0
172 195 0
174 197 0
175 196 0
176 199 0
171 196 0
171 194 0
174 198 0
172 196 0
171 195 0
174 198 0
174 198 0
173 197 0
173 197 0
174 197 0
175 198 0
173 196 0
173 197 0
175 198 0
176 198 0
172 197 0
173 197 0
174 197 0
173 196 0
174 198 0
170 194 0
176 199 0
174 198 0
175 198 0
173 196 0
176 198 0
174 198 0
176 198 0
174 198 0
174 197 0
173 197 0
174 197 0
174 197 0
175 198 0
173 196 0
173 196 0
174 197 0
171 195 0
175 197 0
175 198 0
177 199 0
175 198 0
172 196 0
172 197 0
174 197 0
175 198 0
173 196 0
173 197 0
173 196 0
173 196 0
175 198 0
171 195 0
170 196 0
178 199 0
174 197 0
177 199 0
176 199 0
175 198 0
173 197 0
175 198 0
174 198 0
172 197 0
174 198 0
172 196 0
171 196 0
173 197 0
174 197 0
173 197 0
174 197 0
176 199 0
174 197 0
175 198 0
173 196 0
175 198 0
172 196 0
175 198 0
173 197 0
173 197 0
173 197 0
174 198 0
173 197 0
174 197 0
174 197 0
173 197 0
175 198 0
173 197 0
176 199 0
175 197 0
174 198 0
176 199 0
173 197 0
174 197 0
177 199 0
174 198 0
174 197 0
174 198 0
174 197 0
173 196 0
175 198 0
173 197 0
177 199 0
172 196 0
174 197 0
175 198 0
174 197 0
174 197 0
174 197 0
174 197 0
175 198 0
176 199 0
175 198 0
174 198 0
175 198 0
174 198 0
175 198 0
173 197 0
173 197 0
174 197 0
174 198 0
173 197 0
176 199 0
172 196 0
176 199 0
173 197 0
170 194 0
176 198 0
174 197 0
174 198 0
175 198 0
172 197 0
173 197 0
173 197 0
174 197 0
173 197 0
174 198 0
173 197 0
172 196 0
175 198 0
175 198 0
175 198 0
173 197 0
176 198 0
175 198 0
174 197 0
173 196 0
174 197 0
177 199 0
174 197 0
173 197 0
173 197 0
173 197 0
176 198 0
175 198 0
174 198 0
177 199 0
174 198 0
176 198 0
174 198 0
174 198 0
175 198 0
172 197 0
174 198 0
174 198 0
174 198 0
173 197 0
174 198 0
172 197 0
174 198 0
174 197 0
175 198 0
173 197 0
172 196 0
176 199 0
175 198 0
174 197 0
174 198 0
172 196 0
175 198 0
175 198 0
173 196 0
175 198 0
174 198 0
176 199 0
174 197 0
174 197 0
175 198 0
175 198 0
174 197 0
172 197 0
176 198 0
172 196 0
172 196 0
175 198 0
172 196 0
171 196 0
175 198 0
174 198 0
174 197 0
172 197 0
174 197 0
173 197 0
175 198 0
172 197 0
173 197 0
173 197 0
175 198 0
174 197 0
175 198 0
174 198 0
176 199 0
175 198 0
174 198 0
174 198 0
173 197 0
176 199 0
175 198 0
175 198 0
174 198 0
173 197 0
175 198 0
175 198 0
174 198 0
175 198 0
176 199 0
175 198 0
176 198 0
174 197 0
173 197 0
172 197 0
173 197 0
176 198 0
172 196 0
159 180 0
156 177 0
155 176 0
157 177 0
157 178 0
157 177 0
166 186 137
183 202 221
184 203 228
184 203 228
184 203 228
184 203 228
184 203 228
184 203 228
184 203 228
183 203 228
185 203 228
184 203 228
183 202 228
185 203 228
184 203 228
184 203 228
183 203 228
183 203 228
184 203 228
183 202 228
184 203 228
184 203 228
183 202 228
183 203 228
184 203 228
184 203 228
183 202 228
184 203 228
183 203 228
183 202 228
183 202 228
183 202 228
184 203 228
183 203 228
183 202 228
183 202 228
183 203 228
183 202 228
183 203 228
184 203 228
183 202 228
183 203 228
183 202 228
183 203 228
184 203 228
183 203 228
182 202 228
183 202 228
183 203 228
183 202 228
184 203 228
183 202 228
183 202 228
182 202 228
183 202 228
184 203 228
183 203 228
182 202 228
183 202 228
183 203 228
184 203 228
183 202 228
183 202 228
183 202 228
183 203 228
184 203 228
182 202 228
183 202 228
183 202 228
182 202 228
183 202 228
184 203 228
183 203 228
183 202 228
182 202 228
184 203 228
183 202 228
183 202 228
184 203 228
184 203 228
183 202 228
183 203 228
182 202 228
183 202 228
179 199 207
169 188 148
155 175 56
153 174 0
153 175 0
154 175 0
152 173 0
153 173 0
148 168 0
153 175 0
154 174 0
155 177 0
174 197 0
173 196 0
170 194 0
173 197 0
173 197 0
174 197 0
175 198 0
174 197 0
173 197 0
176 198 0
174 197 0
174 198 0
174 197 0
173 197 0
174 197 0
173 196 0
172 196 0
173 197 0
175 198 0
175 198 0
173 197 0
171 195 0
176 199 0
173 197 0
173 197 0
175 198 0
171 194 0
174 195 0
173 195 0
174 198 0
169 194 0
172 197 0
173 197 0
174 197 0
171 195 0
175 198 0
174 197 0
175 198 0
173 196 0
173 197 0
175 198 0
173 197 0
173 197 0
172 197 0
173 197 0
174 197 0
172 195 0
173 197 0
175 198 0
173 197 0
175 198 0
177 199 0
173 197 0
176 198 0
173 197 0
171 196 0
171 195 0
175 198 0
174 197 0
175 198 0
174 197 0
172 196 0
174 197 0
174 198 0
176 198 0
173 197 0
177 198 0
174 198 0
174 197 0
174 197 0
172 196 0
171 195 0
173 196 0
173 197 0
175 198 0
177 199 0
174 197 0
172 196 0
176 198 0
173 197 0
175 198 0
176 198 0
173 197 0
176 198 0
172 196 0
176 199 0
177 199 0
174 197 0
174 197 0
174 197 0
175 198 0
174 197 0
175 198 0
174 198 0
175 198 0
174 198 0
176 199 0
174 197 0
174 197 0
174 197 0
173 197 0
173 196 0
175 198 0
172 196 0
177 199 0
174 198 0
172 196 0
175 198 0
173 196 0
171 196 0
173 197 0
174 197 0
175 198 0
173 197 0
175 197 0
176 199 0
174 197 0
174 197 0
175 198 0
173 196 0
173 197 0
176 198 0
174 197 0
174 198 0
177 199 0
172 196 0
173 197 0
172 197 0
174 197 0
177 199 0
175 198 0
174 197 0
173 196 0
173 197 0
173 197 0
175 198 0
174 198 0
174 197 0
174 197 0
174 197 0
174 198 0
175 198 0
178 200 0
175 198 0
176 199 0
176 198 0
173 197 0
175 198 0
173 197 0
174 197 0
174 197 0
175 197 0
174 198 0
172 197 0
173 197 0
173 197 0
174 197 0
174 198 0
175 198 0
176 198 0
173 197 0
174 198 0
175 198 0
173 197 0
174 198 0
175 198 0
174 198 0
172 195 0
173 197 0
174 197 0
176 198 0
177 199 0
175 198 0
175 197 0
175 198 0
174 198 0
174 197 0
174 198 0
176 199 0
175 198 0
175 198 0
174 198 0
174 197 0
174 197 0
176 199 0
174 198 0
175 198 0
175 198 0
177 198 0
173 196 0
175 198 0
175 198 0
173 197 0
175 198 0
174 198 0
174 198 0
173 196 0
173 197 0
173 197 0
176 199 0
173 197 0
175 198 0
174 198 0
175 198 0
174 197 0
175 198 0
176 199 0
174 198 0
176 198 0
174 198 0
173 197 0
175 198 0
176 198 0
173 197 0
175 198 0
174 197 0
174 198 0
173 196 0
174 197 0
175 198 0
174 198 0
174 198 0
174 197 0
175 198 0
170 194 0
173 197 0
174 198 0
173 197 0
175 198 0
174 197 0
176 199 0
174 198 0
174 197 0
176 199 0
173 197 0
177 199 0
174 197 0
174 198 0
173 197 0
174 198 0
176 199 0
172 197 0
175 198 0
176 199 0
175 198 0
172 196 0
174 198 0
174 198 0
175 198 0
177 199 0
174 198 0
174 197 0
175 198 0
174 197 0
178 200 0
174 198 0
176 198 0
175 198 0
176 199 0
172 196 0
173 197 0
173 197 0
174 197 0
174 197 0
173 197 0
172 196 0
176 198 0
173 197 0
175 198 0
176 198 0
175 198 0
173 197 0
175 198 0
174 198 0
175 198 0
172 197 0
176 199 0
174 198 0
174 197 0
174 197 0
172 197 0
174 197 0
171 196 0
174 197 0
175 198 0
175 198 0
174 198 0
175 198 0
175 198 0
173 196 0
173 197 0
175 198 0
175 198 0
175 198 0
174 197 0
176 199 0
175 198 0
174 197 0
161 182 0
157 178 0
154 176 0
155 176 0
154 176 0
156 177 0
155 176 0
155 176 0
167 186 129
182 202 224
183 203 228
183 203 228
184 203 228
183 202 228
183 202 228
182 202 228
183 203 228
183 202 228
183 202 228
183 203 228
183 203 228
183 203 228
184 203 228
183 202 228
182 202 228
184 203 228
183 202 228
183 202 228
183 202 228
184 203 228
184 203 228
184 203 228
184 203 228
184 203 228
183 202 228
183 203 228
182 202 228
184 203 228
182 202 228
184 203 228
183 203 228
184 203 228
183 202 228
183 203 228
184 203 228
185 203 228
183 202 228
183 202 228
182 202 228
182 202 228
183 203 228
182 202 228
183 202 228
184 203 228
183 203 228
184 203 228
183 203 228
183 203 228
184 203 228
183 202 228
184 203 228
184 203 228
183 202 228
183 202 228
182 202 228
184 203 228
183 202 228
183 203 228
184 203 228
183 203 228
184 203 228
183 203 228
183 202 228
184 203 228
184 203 228
184 203 228
183 202 228
183 203 228
184 203 228
183 202 228
181 202 228
183 202 228
183 202 228
184 203 228
183 202 228
183 202 228
183 203 228
182 202 226
172 192 180
158 177 97
155 176 0
155 176 0
153 174 0
150 171 0
151 172 0
153 175 0
151 171 0
153 173 0
152 174 0
151 172 0
152 172 0
157 178 0
173 196 0
176 198 0
174 197 0
172 197 0
174 198 0
173 195 0
175 198 0
172 195 0
173 196 0
172 195 0
174 197 0
174 197 0
175 198 0
170 194 0
174 197 0
175 197 0
171 195 0
173 196 0
173 197 0
175 198 0
172 195 0
173 197 0
173 197 0
174 197 0
173 196 0
173 196 0
174 197 0
170 193 0
176 198 0
174 197 0
174 197 0
171 196 0
174 197 0
171 196 0
176 199 0
174 197 0
175 198 0
173 196 0
172 196 0
176 199 0
171 196 0
173 197 0
173 197 0
172 195 0
169 192 0
174 198 0
174 195 0
174 197 0
176 198 0
171 196 0
172 195 0
175 198 0
173 197 0
171 195 0
172 197 0
176 198 0
172 196 0
173 197 0
169 193 0
172 196 0
173 197 0
171 196 0
175 198 0
173 197 0
174 198 0
174 197 0
174 197 0
176 199 0
174 198 0
173 197 0
170 194 0
174 197 0
175 198 0
173 197 0
173 197 0
176 198 0
174 198 0
173 195 0
176 198 0
174 197 0
173 196 0
174 198 0
175 198 0
172 196 0
177 199 0
174 198 0
174 198 0
173 197 0
173 197 0
174 198 0
176 198 0
174 198 0
175 198 0
174 197 0
175 198 0
175 198 0
174 198 0
174 197 0
175 198 0
174 198 0
175 197 0
173 197 0
172 197 0
174 197 0
172 197 0
176 199 0
175 198 0
176 199 0
174 197 0
175 198 0
174 197 0
172 196 0
174 198 0
176 198 0
173 197 0
174 197 0
173 195 0
173 197 0
175 198 0
172 196 0
172 195 0
176 198 0
176 199 0
176 199 0
172 195 0
175 198 0
174 198 0
175 198 0
173 197 0
173 196 0
176 198 0
173 197 0
177 199 0
174 198 0
173 197 0
175 198 0
177 199 0
173 197 0
175 198 0
170 194 0
174 198 0
174 198 0
173 196 0
171 195 0
175 198 0
177 199 0
174 198 0
174 197 0
175 198 0
174 198 0
174 198 0
175 198 0
173 197 0
175 198 0
175 198 0
173 197 0
172 197 0
175 198 0
173 196 0
174 197 0
175 198 0
176 199 0
175 198 0
175 198 0
174 197 0
173 197 0
172 196 0
176 199 0
174 197 0
174 198 0
175 198 0
172 197 0
174 198 0
176 199 0
172 196 0
174 197 0
173 196 0
176 199 0
173 197 0
174 197 0
174 197 0
175 198 0
173 196 0
176 198 0
171 195 0
176 198 0
173 197 0
175 198 0
174 197 0
176 198 0
175 198 0
173 197 0
172 197 0
173 196 0
175 198 0
175 198 0
174 198 0
174 198 0
174 198 0
176 198 0
174 198 0
173 197 0
176 199 0
174 197 0
175 198 0
177 198 0
173 197 0
174 197 0
173 197 0
174 198 0
175 198 0
173 197 0
175 198 0
175 198 0
173 197 0
173 197 0
173 196 0
174 198 0
173 197 0
173 196 0
174 197 0
172 196 0
175 198 0
175 198 0
176 199 0
173 197 0
177 199 0
173 197 0
175 198 0
175 198 0
173 197 0
173 197 0
173 197 0
174 198 0
173 197 0
175 198 0
174 197 0
173 197 0
174 198 0
175 198 0
175 198 0
174 198 0
173 197 0
173 197 0
174 198 0
173 197 0
173 197 0
174 198 0
175 198 0
174 197 0
174 198 0
173 197 0
175 198 0
174 198 0
174 198 0
174 197 0
173 197 0
175 198 0
176 199 0
174 198 0
173 197 0
174 198 0
175 198 0
173 197 0
176 198 0
175 198 0
173 197 0
173 197 0
175 198 0
174 197 0
172 196 0
174 198 0
172 197 0
175 198 0
175 198 0
175 198 0
174 198 0
175 198 0
173 197 0
175 198 0
175 198 0
176 199 0
173 197 0
174 197 0
173 197 0
172 196 0
172 197 0
174 197 0
173 197 0
174 197 0
175 198 0
173 197 0
175 198 0
175 197 0
174 198 0
173 197 0
172 196 0
174 197 0
168 190 0
157 177 0
156 177 0
155 176 0
157 177 0
156 177 0
156 177 0
156 177 0
155 176 0
155 177 56
173 192 171
183 203 228
183 202 228
183 202 228
183 202 228
183 203 228
184 203 228
184 203 228
184 203 228
184 203 228
183 202 228
184 203 228
184 203 228
184 203 228
185 203 228
183 203 228
183 203 228
184 203 228
182 202 228
184 203 228
183 202 228
184 203 228
184 203 228
184 203 228
183 202 228
183 202 228
183 203 228
183 202 228
185 204 228
183 203 228
184 203 228
184 203 228
182 202 228
183 203 228
183 203 228
183 203 228
183 202 228
183 203 228
185 203 228
183 202 228
183 202 228
183 203 228
184 203 228
183 202 228
183 203 228
182 202 228
181 201 228
183 203 228
183 203 228
184 203 228
182 202 228
183 203 228
183 203 228
182 202 228
183 203 228
185 203 228
183 202 228
183 202 228
184 203 228
184 203 228
183 202 228
184 203 228
184 203 228
183 202 228
183 202 228
183 203 228
184 203 228
183 203 228
183 202 228
184 203 228
183 202 228
182 202 228
184 203 228
182 202 228
183 202 228
175 194 207
166 186 155
149 170 72
154 173 0
151 173 0
152 172 0
155 175 0
154 175 0
150 170 0
150 172 0
156 176 0
150 171 0
151 172 0
153 173 0
154 174 0
153 174 0
151 172 0
173 196 0
172 195 0
173 196 0
172 195 0
175 198 0
172 196 0
173 197 0
175 198 0
172 196 0
173 196 0
175 198 0
173 197 0
173 196 0
170 194 0
174 197 0
174 197 0
173 196 0
174 197 0
174 197 0
173 197 0
171 195 0
173 197 0
173 197 0
174 197 0
174 198 0
174 198 0
172 195 0
172 196 0
170 194 0
173 196 0
173 197 0
175 198 0
176 198 0
174 197 0
173 197 0
173 197 0
173 197 0
175 198 0
173 196 0
171 194 0
174 197 0
174 198 0
175 197 0
174 198 0
173 196 0
175 197 0
173 196 0
175 198 0
176 198 0
173 196 0
174 198 0
173 196 0
171 195 0
174 197 0
174 198 0
176 198 0
174 198 0
174 198 0
174 198 0
175 198 0
172 196 0
174 198 0
173 197 0
170 194 0
175 197 0
173 197 0
175 198 0
176 198 0
172 196 0
172 196 0
174 197 0
173 196 0
172 194 0
173 197 0
170 194 0
173 197 0
174 198 0
172 195 0
172 196 0
176 198 0
176 199 0
174 197 0
173 197 0
175 198 0
175 198 0
175 198 0
173 197 0
174 197 0
171 195 0
173 197 0
176 199 0
175 198 0
173 197 0
175 198 0
175 198 0
176 198 0
173 197 0
175 198 0
174 197 0
174 197 0
173 197 0
171 195 0
175 197 0
172 197 0
174 197 0
174 197 0
174 198 0
174 197 0
175 198 0
175 198 0
174 197 0
174 198 0
174 198 0
175 198 0
176 198 0
173 196 0
173 196 0
175 198 0
174 198 0
173 197 0
176 198 0
174 197 0
173 197 0
176 199 0
175 198 0
174 197 0
175 198 0
174 198 0
176 199 0
174 198 0
173 197 0
173 196 0
175 198 0
174 198 0
174 198 0
175 198 0
171 195 0
174 197 0
174 198 0
172 196 0
175 198 0
173 197 0
175 197 0
175 198 0
174 198 0
175 198 0
173 197 0
173 197 0
172 196 0
172 196 0
174 197 0
175 198 0
174 197 0
172 195 0
173 197 0
174 197 0
174 197 0
174 197 0
174 198 0
174 198 0
174 197 0
175 198 0
171 195 0
170 195 0
173 195 0
174 197 0
175 198 0
176 198 0
173 197 0
174 198 0
172 197 0
175 197 0
174 197 0
174 198 0
173 196 0
174 198 0
175 198 0
174 197 0
175 198 0
174 198 0
174 198 0
173 197 0
176 198 0
174 197 0
173 197 0
172 196 0
175 197 0
174 197 0
173 197 0
175 198 0
175 198 0
174 197 0
171 195 0
176 198 0
175 198 0
174 198 0
174 197 0
173 197 0
174 198 0
175 198 0
173 196 0
176 199 0
174 196 0
174 198 0
177 199 0
173 197 0
174 197 0
173 196 0
174 197 0
175 198 0
175 198 0
173 197 0
173 196 0
174 197 0
174 197 0
173 197 0
172 197 0
174 198 0
176 199 0
176 199 0
174 198 0
176 199 0
174 198 0
174 198 0
175 198 0
174 197 0
175 198 0
175 198 0
173 197 0
176 199 0
172 197 0
174 198 0
176 199 0
175 198 0
175 198 0
174 197 0
178 200 0
174 197 0
173 197 0
173 197 0
175 198 0
176 199 0
174 198 0
173 197 0
174 197 0
174 197 0
173 197 0
174 198 0
175 198 0
176 198 0
175 198 0
172 197 0
176 198 0
173 197 0
174 197 0
174 197 0
172 196 0
173 197 0
172 196 0
174 197 0
173 197 0
173 197 0
175 198 0
175 198 0
175 198 0
173 197 0
174 197 0
175 198 0
175 198 0
175 198 0
174 198 0
173 197 0
175 198 0
175 198 0
175 198 0
176 198 0
175 198 0
173 196 0
174 197 0
172 197 0
174 197 0
172 196 0
175 198 0
175 198 0
173 197 0
176 198 0
176 198 0
172 196 0
173 197 0
173 197 0
175 198 0
173 197 0
173 196 0
174 198 0
174 197 0
175 198 0
174 197 0
173 197 0
165 187 0
157 177 0
158 178 0
156 177 0
154 176 0
154 176 0
155 176 0
156 177 0
154 176 0
154 176 0
156 177 0
163 184 116
175 195 188
183 202 228
184 203 228
184 203 228
183 203 228
182 202 228
184 203 228
184 203 228
183 202 228
184 203 228
184 203 228
184 203 228
183 202 228
183 203 228
184 203 228
183 203 228
183 202 228
184 203 228
184 203 228
183 202 228
183 203 228
184 203 228
184 203 228
183 202 228
184 203 228
183 202 228
182 202 228
182 202 228
184 203 228
182 202 228
184 203 228
183 202 228
183 203 228
184 203 228
184 203 228
183 203 228
183 202 228
183 202 228
182 202 228
184 203 228
183 202 228
182 202 228
183 202 228
183 202 228
184 203 228
183 202 228
183 202 228
183 202 228
184 203 228
183 203 228
183 203 228
184 203 228
183 202 228
183 202 228
183 203 228
184 203 228
183 203 228
183 202 228
182 202 228
184 203 228
183 202 228
183 203 228
183 203 228
183 203 228
182 202 228
184 203 228
182 202 228
183 202 228
182 202 228
182 202 228
183 202 226
170 190 174
164 184 116
149 170 0
153 174 0
155 176 0
153 174 0
153 173 0
153 173 0
151 173 0
153 172 0
152 170 0
152 174 0
155 176 0
149 169 0
152 173 0
150 170 0
152 173 0
153 174 0
155 175 0
171 193 0
173 196 0
173 196 0
176 199 0
174 197 0
170 193 0
173 196 0
176 198 0
172 196 0
173 196 0
171 195 0
174 198 0
172 196 0
175 197 0
171 195 0
170 194 0
172 195 0
172 195 0
171 195 0
175 198 0
171 195 0
175 198 0
172 196 0
174 197 0
175 198 0
174 197 0
173 196 0
174 198 0
174 197 0
174 198 0
174 197 0
174 198 0
174 197 0
175 198 0
175 198 0
175 198 0
175 197 0
170 194 0
172 196 0
172 196 0
173 195 0
172 195 0
173 197 0
173 197 0
173 197 0
172 196 0
175 198 0
173 196 0
172 195 0
174 198 0
171 195 0
172 195 0
171 195 0
173 197 0
176 199 0
173 197 0
175 198 0
174 197 0
172 196 0
173 196 0
175 198 0
173 196 0
173 197 0
173 197 0
174 198 0
175 197 0
173 197 0
171 195 0
176 199 0
173 197 0
175 198 0
173 196 0
173 197 0
173 196 0
173 197 0
173 196 0
175 198 0
175 198 0
175 198 0
175 198 0
174 197 0
175 198 0
170 195 0
175 198 0
173 197 0
174 197 0
173 197 0
173 197 0
174 197 0
175 198 0
175 198 0
172 195 0
174 198 0
175 198 0
173 197 0
172 194 0
175 198 0
169 193 0
175 198 0
173 197 0
174 197 0
174 197 0
174 198 0
176 198 0
175 198 0
173 197 0
173 197 0
172 196 0
175 198 0
175 198 0
174 197 0
175 198 0
173 197 0
175 198 0
176 199 0
175 198 0
174 196 0
174 197 0
177 199 0
173 197 0
175 198 0
173 197 0
174 197 0
173 197 0
173 197 0
171 195 0
172 196 0
174 197 0
173 197 0
176 199 0
174 198 0
174 198 0
170 194 0
177 199 0
173 197 0
173 197 0
175 198 0
175 198 0
175 198 0
174 198 0
175 198 0
176 199 0
173 197 0
172 197 0
177 199 0
175 198 0
175 198 0
174 198 0
176 198 0
172 197 0
170 194 0
172 197 0
175 198 0
171 196 0
174 198 0
173 196 0
176 198 0
173 197 0
174 198 0
175 198 0
175 198 0
172 196 0
174 197 0
173 197 0
173 197 0
174 197 0
175 198 0
174 197 0
177 199 0
173 197 0
174 198 0
175 198 0
174 197 0
174 198 0
176 198 0
174 198 0
174 198 0
172 196 0
177 199 0
177 199 0
171 195 0
173 197 0
176 198 0
173 197 0
175 198 0
175 197 0
173 196 0
173 197 0
171 195 0
173 197 0
173 196 0
176 199 0
174 198 0
176 199 0
175 198 0
172 197 0
174 197 0
175 198 0
175 198 0
173 197 0
173 197 0
175 198 0
175 198 0
172 196 0
176 198 0
172 196 0
174 197 0
174 198 0
174 198 0
175 198 0
174 197 0
176 199 0
174 197 0
175 198 0
173 197 0
175 198 0
174 198 0
176 198 0
175 198 0
175 198 0
175 198 0
174 197 0
173 197 0
175 198 0
174 198 0
173 196 0
174 197 0
177 199 0
174 197 0
174 198 0
174 197 0
176 198 0
174 198 0
174 197 0
173 197 0
178 200 0
172 197 0
175 198 0
172 196 0
174 198 0
176 198 0
173 197 0
175 198 0
175 198 0
174 197 0
175 198 0
174 197 0
175 198 0
173 197 0
174 197 0
175 198 0
173 197 0
174 197 0
174 197 0
175 198 0
177 199 0
173 197 0
173 197 0
176 199 0
173 197 0
175 198 0
176 198 0
174 198 0
173 197 0
177 199 0
172 196 0
175 198 0
174 197 0
173 197 0
174 198 0
174 197 0
174 196 0
175 198 0
174 197 0
174 198 0
174 197 0
175 198 0
175 197 0
175 198 0
177 199 0
175 198 0
174 198 0
175 198 0
174 197 0
173 197 0
174 197 0
173 197 0
175 198 0
175 198 0
173 197 0
175 198 0
176 199 0
172 196 0
172 196 0
173 197 0
173 197 0
173 197 0
176 198 0
172 195 0
155 176 0
154 175 0
155 176 0
155 176 0
154 175 0
156 177 0
155 177 0
155 176 0
154 174 0
154 176 0
155 176 0
156 177 0
162 182 107
180 200 217
183 202 228
184 203 228
184 203 228
183 203 228
184 203 228
183 203 228
184 203 228
183 202 228
183 202 228
182 202 228
184 203 228
183 203 228
183 202 228
183 202 228
183 202 228
183 202 228
183 202 228
183 202 228
184 203 228
183 203 228
182 202 228
183 202 228
183 202 228
183 203 228
184 203 228
184 203 228
183 203 228
184 203 228
183 203 228
183 203 228
183 202 228
183 202 228
182 202 228
183 202 228
183 203 228
182 202 228
184 203 228
182 202 228
183 202 228
184 203 228
183 202 228
184 203 228
183 203 228
184 203 228
183 202 228
184 203 228
183 202 228
183 202 228
183 202 228
183 202 228
184 203 228
182 202 228
183 202 228
183 203 228
183 203 228
183 203 228
184 203 228
184 203 228
183 203 228
183 202 228
183 203 228
182 202 228
182 202 228
184 203 228
182 202 228
180 200 219
172 192 171
150 172 32
151 173 0
152 172 0
151 171 0
151 172 0
151 172 0
152 173 0
153 175 0
151 172 0
152 172 0
154 174 0
155 176 0
152 172 0
155 175 0
153 173 0
154 176 0
150 170 0
153 175 0
155 175 0
156 176 0
171 194 0
173 195 0
174 198 0
174 197 0
171 195 0
174 197 0
172 197 0
171 195 0
174 197 0
174 197 0
175 198 0
171 194 0
172 196 0
170 193 0
174 196 0
172 195 0
172 196 0
174 197 0
174 198 0
171 195 0
175 197 0
172 196 0
174 197 0
172 196 0
172 197 0
173 197 0
175 198 0
177 199 0
173 197 0
174 197 0
172 196 0
174 197 0
175 198 0
173 197 0
172 197 0
172 197 0
172 196 0
173 197 0
173 197 0
175 198 0
173 197 0
173 196 0
172 196 0
172 196 0
173 197 0
172 195 0
173 197 0
172 196 0
175 198 0
171 194 0
172 196 0
172 197 0
174 197 0
171 196 0
173 197 0
173 197 0
173 197 0
173 197 0
174 197 0
172 196 0
174 197 0
173 197 0
175 198 0
175 198 0
175 198 0
174 198 0
173 197 0
170 195 0
176 199 0
174 198 0
171 195 0
174 198 0
176 198 0
174 197 0
173 196 0
175 198 0
174 198 0
171 195 0
176 199 0
170 195 0
174 197 0
173 197 0
175 198 0
174 197 0
173 197 0
175 198 0
173 197 0
174 197 0
174 197 0
174 198 0
174 198 0
172 197 0
175 198 0
173 196 0
174 198 0
176 199 0
175 198 0
173 197 0
173 197 0
178 199 0
174 197 0
171 195 0
174 196 0
171 195 0
174 198 0
172 197 0
170 194 0
173 196 0
172 196 0
174 198 0
173 197 0
174 198 0
172 197 0
174 197 0
175 198 0
173 197 0
174 198 0
173 196 0
172 195 0
173 196 0
170 195 0
173 197 0
176 198 0
172 195 0
175 198 0
174 197 0
173 197 0
172 196 0
173 196 0
172 197 0
173 197 0
172 196 0
174 197 0
173 196 0
174 197 0
172 196 0
175 198 0
174 198 0
174 198 0
174 198 0
175 198 0
174 197 0
172 195 0
174 197 0
172 196 0
175 198 0
173 197 0
171 196 0
173 197 0
172 196 0
174 197 0
174 197 0
174 197 0
175 198 0
176 199 0
175 198 0
175 198 0
172 196 0
173 197 0
176 198 0
175 198 0
174 198 0
175 198 0
173 196 0
172 196 0
176 199 0
171 195 0
174 198 0
172 197 0
174 198 0
175 198 0
176 199 0
173 197 0
174 198 0
175 198 0
176 199 0
174 198 0
175 198 0
173 197 0
174 197 0
175 198 0
175 198 0
177 199 0
176 199 0
173 196 0
175 198 0
172 196 0
173 196 0
173 197 0
174 197 0
176 199 0
175 198 0
174 196 0
175 198 0
174 197 0
174 197 0
175 198 0
173 197 0
173 197 0
176 198 0
174 197 0
176 199 0
176 198 0
172 196 0
174 198 0
177 199 0
172 196 0
174 197 0
172 197 0
174 197 0
174 197 0
173 197 0
172 196 0
175 198 0
175 198 0
175 198 0
174 198 0
174 198 0
174 197 0
174 198 0
175 198 0
176 199 0
174 198 0
172 197 0
175 198 0
173 197 0
173 197 0
174 198 0
174 197 0
173 197 0
173 197 0
173 197 0
173 197 0
173 197 0
173 197 0
176 199 0
173 197 0
172 196 0
174 197 0
174 198 0
173 197 0
174 198 0
177 199 0
175 198 0
174 198 0
175 198 0
174 198 0
176 199 0
175 198 0
174 197 0
176 199 0
174 197 0
174 198 0
175 198 0
176 199 0
175 198 0
172 196 0
175 198 0
174 198 0
175 198 0
174 198 0
175 198 0
173 197 0
174 197 0
171 196 0
173 197 0
174 197 0
173 197 0
173 197 0
171 196 0
172 197 0
174 197 0
173 197 0
174 198 0
174 197 0
175 198 0
175 198 0
176 199 0
175 198 0
174 197 0
175 198 0
177 199 0
173 197 0
172 196 0
176 199 0
175 198 0
173 197 0
173 197 0
174 198 0
176 199 0
172 196 0
175 198 0
175 198 0
172 196 0
175 198 0
172 197 0
175 198 0
175 198 0
174 198 0
157 179 0
156 177 0
156 177 0
153 175 0
155 176 0
154 176 0
156 176 0
154 176 0
154 176 0
157 177 0
157 177 0
154 176 0
155 176 0
155 177 45
171 191 168
182 202 224
183 202 228
184 203 228
183 203 228
183 202 228
183 202 228
184 203 228
184 203 228
183 203 228
183 202 228
182 202 228
182 202 228
183 202 228
183 202 228
184 203 228
183 202 228
184 203 228
183 202 228
183 202 228
183 203 228
183 203 228
184 203 228
183 203 228
184 203 228
183 203 228
183 203 228
183 202 228
183 202 228
183 203 228
182 202 228
184 203 228
183 202 228
183 202 228
183 202 228
184 203 228
183 202 228
182 202 228
182 202 228
184 203 228
183 203 228
183 203 228
183 202 228
183 202 228
183 202 228
183 203 228
182 202 228
183 202 228
182 202 228
183 203 228
183 202 228
183 203 228
184 203 228
184 203 228
183 202 228
183 203 228
182 202 228
182 202 228
183 202 228
183 202 228
182 202 228
183 203 228
183 202 228
176 195 202
168 188 155
153 174 0
151 172 0
151 173 0
149 170 0
155 176 0
152 173 0
148 168 0
152 172 0
152 173 0
154 173 0
152 172 0
153 176 0
150 171 0
154 175 0
148 169 0
150 170 0
152 173 0
154 174 0
154 176 0
152 173 0
154 176 0
155 176 0
168 192 0
173 196 0
175 198 0
174 197 0
172 196 0
175 198 0
172 196 0
172 196 0
174 196 0
173 197 0
172 196 0
175 198 0
170 194 0
172 197 0
173 197 0
173 196 0
172 196 0
175 197 0
177 199 0
171 194 0
174 197 0
175 198 0
173 197 0
176 198 0
174 198 0
173 196 0
176 198 0
174 198 0
172 196 0
173 197 0
173 196 0
175 197 0
176 198 0
174 197 0
174 197 0
173 197 0
173 197 0
172 197 0
174 197 0
171 196 0
171 195 0
172 195 0
174 197 0
174 197 0
173 197 0
174 197 0
172 195 0
176 198 0
174 196 0
170 193 0
174 198 0
171 194 0
174 197 0
173 197 0
171 196 0
172 196 0
173 197 0
173 197 0
172 196 0
175 197 0
176 198 0
171 196 0
174 197 0
174 197 0
175 198 0
174 197 0
176 198 0
175 198 0
172 196 0
173 196 0
175 198 0
173 196 0
174 197 0
172 196 0
172 196 0
173 196 0
172 196 0
174 197 0
171 195 0
175 198 0
175 198 0
170 193 0
174 198 0
174 197 0
176 198 0
174 197 0
175 198 0
171 195 0
174 197 0
174 198 0
173 197 0
172 196 0
169 194 0
172 195 0
175 198 0
175 198 0
173 197 0
175 197 0
175 198 0
175 198 0
174 196 0
175 198 0
173 197 0
173 196 0
170 193 0
175 198 0
174 197 0
175 198 0
174 198 0
173 197 0
174 198 0
174 198 0
175 198 0
172 196 0
176 199 0
175 198 0
174 197 0
174 197 0
174 197 0
175 198 0
174 198 0
174 197 0
174 198 0
175 198 0
173 197 0
172 195 0
175 198 0
173 197 0
172 196 0
175 198 0
174 197 0
172 196 0
176 199 0
174 198 0
176 199 0
175 198 0
176 199 0
174 198 0
171 195 0
174 197 0
172 196 0
175 198 0
176 198 0
172 196 0
172 196 0
174 198 0
174 198 0
174 198 0
174 197 0
173 197 0
173 197 0
173 197 0
174 197 0
172 196 0
174 198 0
173 197 0
171 195 0
175 198 0
176 199 0
173 197 0
176 198 0
175 198 0
176 199 0
175 197 0
174 198 0
174 198 0
172 197 0
174 196 0
175 198 0
175 198 0
174 197 0
172 196 0
173 197 0
175 198 0
173 196 0
173 197 0
174 198 0
174 197 0
173 195 0
176 198 0
173 197 0
174 198 0
176 198 0
173 197 0
174 198 0
174 198 0
173 196 0
172 196 0
173 196 0
178 199 0
172 197 0
174 198 0
177 199 0
174 198 0
172 196 0
175 198 0
175 198 0
176 199 0
171 196 0
174 197 0
174 197 0
173 197 0
173 197 0
173 197 0
174 197 0
173 197 0
176 199 0
171 196 0
174 197 0
175 198 0
176 199 0
175 198 0
177 199 0
173 197 0
173 197 0
174 198 0
177 199 0
174 198 0
175 198 0
175 198 0
174 198 0
175 198 0
173 197 0
174 197 0
172 195 0
177 199 0
174 198 0
175 198 0
176 199 0
174 197 0
174 197 0
175 198 0
172 196 0
174 197 0
177 199 0
173 197 0
173 197 0
174 198 0
172 196 0
174 198 0
175 198 0
172 196 0
175 198 0
177 199 0
174 198 0
173 197 0
174 197 0
172 197 0
173 197 0
172 197 0
175 198 0
175 198 0
173 196 0
174 197 0
172 197 0
174 198 0
173 196 0
175 198 0
175 198 0
174 198 0
174 197 0
172 197 0
174 197 0
174 198 0
174 197 0
172 196 0
174 197 0
175 198 0
174 197 0
174 197 0
174 197 0
173 197 0
173 197 0
172 196 0
172 197 0
174 198 0
175 198 0
172 197 0
176 199 0
175 198 0
172 196 0
175 198 0
175 198 0
173 197 0
174 197 0
173 197 0
173 197 0
173 197 0
174 197 0
173 197 0
173 197 0
173 197 0
174 198 0
173 196 0
173 197 0
175 198 0
175 198 0
173 196 0
174 197 0
158 180 0
156 177 0
157 177 0
157 177 0
157 177 0
156 177 0
155 176 0
153 173 0
155 176 0
153 175 0
154 176 0
155 176 0
154 175 0
154 176 0
156 177 0
156 177 32
172 193 180
184 203 228
184 203 228
182 202 228
185 203 228
183 202 228
184 203 228
183 202 228
183 203 228
184 203 228
183 203 228
183 203 228
185 203 228
182 202 228
183 202 228
183 202 228
182 202 228
183 202 228
182 202 228
183 203 228
184 203 228
183 202 228
182 202 228
183 202 228
183 202 228
184 203 228
183 202 228
182 202 228
183 202 228
182 202 228
182 202 228
184 203 228
183 202 228
182 202 228
183 202 228
183 203 228
183 202 228
182 202 228
184 203 228
184 203 228
183 203 228
183 202 228
183 202 228
182 202 228
183 202 228
183 202 228
183 202 228
183 202 228
182 202 228
183 202 228
182 202 228
183 202 228
184 203 228
183 202 228
183 202 228
182 202 228
183 203 228
182 202 228
177 197 215
165 185 163
143 164 75
143 163 44
149 169 22
147 167 22
153 174 22
148 169 22
154 175 0
153 173 0
150 170 0
151 172 0
155 173 0
153 173 0
156 176 0
154 174 0
155 176 0
152 172 0
154 175 0
149 169 0
153 173 0
151 172 0
148 168 0
153 174 0
152 172 0
151 171 0
153 174 0
168 191 0
170 195 0
172 196 0
174 197 0
175 198 0
176 198 0
171 196 0
174 197 0
174 197 0
172 195 0
174 196 0
170 194 0
172 196 0
173 197 0
171 195 0
176 198 0
173 197 0
171 196 0
175 198 0
173 197 0
172 195 0
173 196 0
174 197 0
174 197 0
169 192 0
171 194 0
173 197 0
174 198 0
175 198 0
174 197 0
174 197 0
172 196 0
176 199 0
176 199 0
175 198 0
174 197 0
176 198 0
174 197 0
172 196 0
173 197 0
175 198 0
175 198 0
172 195 0
172 196 0
173 197 0
173 196 0
173 197 0
174 198 0
173 197 0
171 194 0
175 198 0
173 197 0
171 195 0
173 197 0
174 197 0
174 197 0
174 197 0
174 197 0
173 196 0
173 197 0
173 197 0
173 197 0
173 196 0
174 196 0
174 197 0
175 198 0
177 199 0
172 197 0
174 195 0
174 197 0
171 196 0
172 196 0
176 199 0
175 198 0
170 193 0
172 196 0
175 197 0
175 198 0
172 197 0
174 198 0
174 198 0
172 196 0
175 198 0
175 198 0
175 198 0
173 197 0
173 196 0
173 197 0
172 195 0
172 197 0
174 197 0
175 198 0
174 197 0
174 198 0
169 193 0
170 194 0
173 196 0
174 196 0
173 197 0
174 197 0
176 198 0
176 199 0
173 197 0
175 198 0
174 198 0
172 197 0
175 198 0
170 195 0
175 198 0
176 199 0
173 197 0
174 197 0
175 198 0
176 199 0
175 198 0
170 194 0
174 197 0
174 197 0
173 197 0
175 198 0
174 197 0
176 198 0
174 197 0
176 198 0
175 198 0
174 198 0
175 197 0
176 199 0
173 197 0
170 194 0
174 196 0
173 197 0
173 197 0
174 198 0
176 198 0
171 196 0
171 195 0
174 197 0
173 197 0
174 197 0
172 195 0
174 198 0
172 196 0
172 196 0
173 197 0
171 196 0
174 197 0
172 196 0
175 198 0
172 197 0
176 199 0
173 196 0
174 198 0
174 198 0
174 198 0
175 198 0
174 197 0
174 198 0
174 198 0
172 195 0
173 197 0
174 197 0
174 198 0
176 198 0
176 198 0
174 197 0
174 197 0
173 196 0
174 198 0
172 196 0
173 197 0
174 197 0
175 198 0
173 196 0
173 197 0
173 197 0
173 197 0
175 198 0
174 198 0
173 196 0
174 197 0
175 198 0
173 197 0
176 199 0
175 198 0
174 198 0
176 198 0
174 198 0
175 198 0
174 198 0
173 196 0
175 198 0
174 197 0
174 198 0
174 197 0
176 198 0
172 195 0
173 196 0
173 197 0
174 197 0
175 197 0
172 196 0
178 200 0
175 198 0
174 197 0
173 197 0
173 197 0
176 199 0
175 198 0
174 198 0
173 197 0
174 198 0
173 197 0
175 198 0
173 197 0
173 196 0
173 197 0
174 197 0
173 196 0
173 197 0
174 198 0
175 198 0
176 199 0
173 197 0
173 197 0
176 199 0
175 198 0
175 198 0
173 197 0
175 198 0
171 195 0
173 197 0
174 197 0
175 198 0
175 198 0
174 197 0
173 197 0
173 197 0
173 197 0
173 197 0
174 197 0
174 197 0
174 197 0
174 197 0
173 197 0
174 197 0
175 198 0
175 198 0
174 197 0
177 199 0
172 196 0
171 195 0
175 198 0
174 197 0
173 196 0
174 197 0
172 196 0
173 197 0
175 198 0
174 197 0
174 197 0
176 198 0
176 199 0
174 197 0
175 198 0
174 197 0
175 198 0
175 198 0
174 198 0
174 198 0
175 198 0
174 197 0
175 198 0
173 197 0
174 198 0
172 196 0
173 197 0
176 198 0
173 196 0
175 197 0
172 196 0
174 198 0
173 197 0
173 196 0
174 197 0
174 197 0
174 198 0
175 198 0
173 197 0
174 198 0
173 197 0
172 196 0
173 197 0
174 198 0
175 198 0
174 197 0
175 197 0
173 197 0
177 199 0
166 187 0
154 176 0
156 177 0
156 177 0
155 176 0
156 177 0
152 174 0
154 176 0
155 176 0
154 176 0
156 177 0
155 176 0
156 177 0
155 176 0
155 176 0
155 176 0
157 177 0
162 182 97
176 196 202
184 203 228
184 203 228
184 203 228
183 202 228
182 202 228
184 203 228
183 203 228
182 202 228
183 202 228
183 202 228
183 203 228
183 203 228
183 202 228
183 203 228
182 202 228
184 203 228
183 203 228
182 202 228
182 202 228
183 202 228
184 203 228
183 203 228
183 203 228
183 202 228
183 202 228
181 202 228
183 202 228
182 202 228
183 202 228
182 202 228
183 202 228
182 202 228
183 203 228
183 202 228
183 202 228
183 203 228
182 202 228
183 202 228
182 202 228
183 203 228
183 202 228
182 202 228
183 202 228
183 202 228
182 202 228
183 202 228
184 203 228
183 202 228
183 203 228
184 203 228
182 202 228
182 202 228
182 202 228
174 193 196
163 182 157
146 166 63
141 161 42
148 168 0
145 166 22
146 167 22
152 172 0
150 169 0
148 170 0
153 172 0
148 167 0
150 171 0
153 174 0
146 167 0
150 171 0
147 168 0
152 173 0
151 172 0
148 168 0
152 172 0
152 173 0
151 172 0
151 172 0
152 173 0
154 175 0
149 170 0
148 168 0
150 170 0
168 190 0
171 196 0
172 196 0
173 197 0
174 197 0
174 197 0
175 197 0
175 198 0
174 197 0
173 196 0
175 197 0
172 196 0
173 197 0
171 195 0
170 195 0
169 193 0
173 197 0
172 196 0
175 198 0
172 196 0
170 193 0
173 197 0
172 196 0
174 196 0
173 196 0
174 196 0
174 197 0
173 197 0
169 193 0
170 194 0
175 198 0
174 198 0
171 195 0
175 198 0
173 196 0
172 196 0
175 197 0
174 197 0
174 197 0
175 198 0
173 197 0
172 195 0
175 198 0
172 195 0
173 196 0
173 197 0
173 197 0
173 197 0
174 197 0
175 197 0
171 195 0
174 197 0
172 196 0
175 198 0
175 197 0
174 198 0
173 197 0
174 197 0
173 197 0
173 195 0
175 198 0
171 195 0
169 192 0
173 196 0
173 196 0
173 197 0
176 198 0
175 197 0
175 198 0
171 195 0
174 196 0
174 197 0
176 198 0
172 195 0
171 195 0
175 198 0
172 197 0
175 197 0
173 196 0
174 198 0
175 198 0
175 198 0
172 196 0
175 198 0
174 198 0
176 198 0
174 198 0
176 199 0
173 195 0
174 197 0
175 198 0
175 198 0
173 196 0
174 197 0
175 198 0
175 198 0
174 198 0
173 197 0
173 197 0
173 197 0
177 199 0
172 196 0
174 198 0
171 196 0
173 197 0
174 197 0
173 197 0
172 196 0
176 199 0
174 198 0
174 197 0
174 197 0
173 196 0
172 195 0
171 195 0
173 197 0
172 196 0
173 197 0
175 198 0
172 196 0
174 198 0
174 198 0
174 198 0
171 194 0
176 199 0
174 197 0
175 198 0
174 197 0
170 194 0
174 198 0
175 198 0
174 197 0
176 199 0
173 197 0
169 195 0
173 197 0
173 196 0
175 198 0
174 198 0
174 197 0
175 198 0
175 198 0
175 198 0
174 197 0
176 199 0
171 195 0
176 198 0
175 198 0
175 198 0
173 197 0
172 195 0
175 197 0
176 198 0
172 197 0
173 196 0
175 198 0
175 198 0
175 197 0
173 197 0
174 198 0
175 198 0
175 198 0
174 197 0
171 196 0
175 198 0
175 198 0
175 198 0
174 197 0
172 196 0
173 197 0
176 198 0
176 198 0
174 197 0
175 198 0
172 196 0
175 198 0
172 196 0
174 198 0
174 197 0
174 198 0
174 198 0
172 196 0
174 198 0
172 196 0
175 198 0
174 197 0
172 196 0
175 198 0
176 198 0
174 197 0
174 197 0
173 197 0
175 197 0
174 198 0
175 198 0
172 195 0
173 197 0
175 197 0
178 199 0
172 196 0
175 198 0
173 196 0
174 198 0
176 198 0
174 198 0
173 197 0
173 197 0
175 198 0
174 198 0
174 198 0
172 195 0
177 199 0
173 197 0
174 197 0
177 199 0
173 197 0
176 199 0
173 197 0
170 194 0
174 198 0
172 197 0
176 198 0
175 198 0
176 198 0
171 195 0
173 197 0
173 197 0
174 197 0
172 196 0
175 198 0
174 198 0
171 196 0
174 197 0
173 197 0
175 198 0
176 199 0
174 198 0
175 198 0
175 198 0
174 198 0
174 197 0
175 198 0
174 198 0
175 198 0
173 197 0
174 198 0
175 198 0
175 198 0
173 197 0
174 197 0
174 198 0
173 197 0
173 197 0
173 197 0
175 198 0
172 196 0
175 198 0
174 197 0
174 197 0
175 198 0
173 197 0
173 197 0
173 197 0
174 197 0
177 199 0
174 197 0
176 198 0
175 198 0
172 196 0
176 199 0
172 197 0
176 198 0
173 197 0
175 198 0
175 198 0
176 198 0
174 197 0
172 196 0
177 199 0
173 197 0
174 197 0
175 198 0
172 196 0
175 198 0
174 198 0
175 198 0
175 198 0
172 197 0
174 198 0
174 198 0
173 197 0
176 199 0
174 197 0
173 197 0
172 196 0
174 198 0
175 198 0
176 198 0
174 197 0
168 190 0
155 176 0
155 176 0
155 176 0
158 178 0
156 176 0
154 175 0
155 176 0
157 177 0
156 177 0
154 176 0
155 176 0
158 177 0
154 176 0
155 176 0
156 177 0
156 176 0
156 177 0
154 176 0
163 183 116
182 201 224
183 202 228
183 203 228
183 203 228
184 203 228
182 202 228
183 202 228
183 203 228
183 203 228
182 202 228
184 203 228
183 202 228
182 202 228
183 202 228
182 202 228
183 202 228
183 203 228
183 202 228
183 203 228
182 202 228
183 202 228
182 202 228
183 202 228
184 203 228
182 202 228
182 202 228
182 202 228
182 202 228
183 202 228
183 202 228
183 202 228
183 202 228
184 203 228
183 202 228
183 203 228
183 202 228
183 202 228
183 203 228
182 202 228
184 203 228
183 202 228
182 202 228
182 202 228
183 202 228
182 202 228
182 202 228
184 203 228
183 202 228
183 202 228
179 199 223
159 178 178
146 167 104
128 149 75
132 153 56
142 162 39
146 166 20
148 169 22
141 162 44
148 168 32
150 171 0
151 171 0
153 173 0
153 174 0
151 172 0
149 169 0
149 170 0
151 172 0
153 174 0
153 173 0
149 169 0
151 173 0
149 169 0
152 173 0
152 172 0
158 178 0
154 174 0
151 172 0
154 174 0
150 170 0
152 173 0
153 174 0
167 190 0
169 193 0
175 198 0
170 194 0
172 195 0
174 198 0
174 197 0
175 198 0
173 196 0
172 195 0
175 198 0
174 198 0
174 197 0
175 198 0
171 195 0
174 197 0
170 194 0
174 197 0
170 194 0
172 195 0
172 195 0
173 197 0
171 194 0
173 196 0
174 197 0
175 198 0
173 197 0
173 197 0
170 193 0
173 196 0
174 197 0
173 196 0
172 195 0
175 197 0
174 197 0
172 197 0
172 196 0
172 195 0
169 192 0
174 197 0
171 195 0
175 198 0
171 196 0
172 195 0
175 198 0
172 195 0
172 195 0
174 198 0
174 196 0
176 198 0
174 197 0
172 195 0
170 193 0
175 198 0
174 198 0
173 196 0
173 197 0
174 197 0
173 197 0
175 198 0
173 196 0
174 197 0
174 197 0
175 198 0
171 194 0
173 196 0
173 196 0
173 196 0
176 199 0
173 196 0
175 197 0
176 199 0
173 197 0
171 195 0
171 195 0
173 196 0
170 193 0
175 197 0
173 196 0
173 196 0
172 195 0
172 195 0
173 197 0
172 195 0
171 195 0
171 195 0
172 196 0
171 196 0
173 197 0
174 198 0
174 197 0
174 198 0
172 196 0
175 197 0
172 195 0
171 195 0
177 199 0
175 198 0
175 198 0
173 197 0
174 198 0
176 199 0
170 195 0
172 196 0
172 196 0
172 195 0
169 194 0
176 198 0
174 197 0
175 198 0
172 194 0
173 197 0
172 195 0
172 197 0
174 198 0
170 194 0
175 198 0
174 197 0
171 195 0
173 197 0
173 197 0
174 198 0
172 196 0
173 197 0
175 198 0
175 197 0
172 197 0
174 197 0
171 195 0
174 198 0
174 198 0
172 196 0
172 197 0
177 199 0
174 197 0
174 197 0
173 197 0
173 197 0
170 195 0
173 197 0
173 197 0
171 195 0
173 197 0
175 198 0
177 199 0
175 198 0
174 197 0
175 198 0
172 196 0
174 197 0
174 198 0
174 197 0
174 198 0
173 197 0
173 197 0
175 198 0
175 198 0
174 197 0
175 198 0
174 197 0
170 194 0
174 198 0
174 198 0
176 198 0
173 197 0
173 197 0
175 198 0
174 198 0
174 197 0
176 198 0
173 196 0
173 197 0
173 197 0
174 197 0
174 198 0
173 196 0
176 199 0
174 198 0
173 196 0
174 197 0
177 199 0
171 195 0
173 197 0
175 198 0
172 197 0
174 198 0
173 197 0
175 198 0
173 197 0
173 197 0
177 199 0
176 198 0
174 197 0
173 196 0
174 197 0
173 196 0
175 198 0
175 198 0
172 196 0
175 198 0
174 197 0
174 197 0
174 197 0
177 199 0
172 197 0
171 195 0
174 197 0
172 195 0
172 197 0
171 196 0
172 197 0
173 197 0
175 198 0
174 198 0
175 198 0
173 197 0
173 197 0
173 197 0
174 198 0
175 198 0
172 196 0
174 197 0
175 198 0
173 197 0
175 198 0
177 199 0
175 198 0
176 199 0
175 198 0
176 199 0
176 199 0
173 197 0
175 198 0
175 198 0
175 198 0
174 198 0
175 198 0
176 199 0
174 198 0
175 198 0
172 197 0
174 197 0
174 197 0
172 196 0
174 197 0
174 198 0
174 198 0
173 197 0
173 197 0
174 198 0
174 198 0
175 198 0
174 197 0
174 197 0
174 198 0
175 198 0
174 197 0
174 198 0
175 198 0
176 198 0
173 197 0
176 199 0
173 197 0
175 198 0
175 198 0
172 197 0
173 197 0
173 197 0
174 197 0
174 198 0
174 197 0
173 197 0
174 198 0
174 197 0
172 196 0
174 197 0
174 197 0
172 196 0
174 198 0
178 199 0
175 198 0
174 197 0
176 198 0
174 198 0
175 198 0
177 199 0
174 197 0
174 197 0
172 196 0
174 197 0
176 198 0
175 198 0
174 197 0
174 197 0
173 196 0
173 197 0
173 196 0
173 197 0
172 196 0
171 194 0
157 177 0
156 177 0
157 177 0
156 177 0
156 177 0
155 176 0
157 177 0
157 177 0
155 176 0
155 176 0
154 176 0
157 177 0
156 177 0
153 175 0
154 175 0
156 177 0
154 175 0
156 176 0
155 176 0
159 179 64
168 188 151
181 201 221
184 203 228
183 202 228
183 202 228
184 203 228
183 203 228
182 202 228
182 202 228
183 202 228
183 203 228
182 202 228
183 202 228
184 203 228
183 202 228
182 202 228
183 203 228
183 202 228
182 202 228
183 203 228
183 202 228
183 203 228
183 202 228
183 203 228
182 202 228
183 202 228
183 202 228
182 202 228
183 202 228
183 202 228
182 202 228
182 202 228
182 202 228
183 202 228
182 202 228
182 202 228
181 202 228
182 202 228
182 202 228
182 202 228
182 202 228
182 202 228
183 203 228
182 202 228
183 202 228
183 202 228
174 193 215
146 167 148
132 154 91
124 146 60
135 156 50
133 154 59
138 158 44
138 158 38
141 160 40
148 168 30
144 165 39
149 168 32
147 167 0
148 166 22
147 167 0
148 169 22
152 172 0
152 172 0
151 172 0
151 172 0
148 169 0
155 175 0
144 164 0
156 175 0
146 168 0
155 175 0
148 168 0
152 174 0
145 167 0
152 172 0
155 175 0
151 171 0
145 167 0
145 165 0
165 188 0
169 193 0
171 196 0
173 196 0
174 198 0
175 198 0
172 194 0
171 194 0
175 198 0
173 195 0
170 194 0
174 197 0
172 196 0
175 198 0
172 196 0
175 197 0
172 195 0
175 197 0
173 196 0
175 198 0
174 197 0
174 197 0
172 195 0
170 194 0
174 197 0
173 197 0
171 195 0
173 197 0
173 197 0
172 196 0
174 197 0
174 197 0
170 195 0
174 197 0
172 196 0
172 195 0
172 196 0
174 197 0
174 197 0
174 198 0
175 198 0
172 195 0
173 197 0
174 198 0
173 196 0
171 195 0
173 197 0
173 197 0
174 197 0
172 196 0
172 195 0
175 197 0
171 195 0
172 196 0
173 196 0
176 198 0
171 196 0
175 198 0
173 196 0
173 197 0
170 195 0
173 197 0
174 197 0
173 196 0
175 198 0
175 198 0
174 197 0
175 198 0
171 195 0
169 194 0
175 198 0
173 197 0
173 196 0
172 196 0
175 198 0
174 196 0
173 196 0
174 197 0
173 197 0
174 198 0
173 196 0
172 196 0
174 197 0
174 197 0
172 195 0
172 197 0
175 198 0
172 196 0
174 197 0
173 197 0
173 197 0
173 197 0
175 198 0
172 195 0
172 196 0
172 195 0
173 197 0
172 196 0
174 198 0
176 198 0
173 196 0
173 196 0
176 199 0
171 195 0
173 197 0
172 196 0
174 197 0
174 198 0
175 198 0
170 193 0
174 197 0
176 198 0
173 197 0
174 196 0
174 197 0
173 197 0
173 197 0
171 195 0
173 196 0
174 198 0
176 198 0
172 196 0
173 197 0
171 195 0
174 198 0
174 198 0
174 197 0
174 197 0
173 197 0
175 198 0
175 198 0
173 197 0
172 195 0
174 197 0
172 196 0
175 198 0
172 196 0
174 198 0
174 198 0
173 197 0
173 197 0
177 199 0
174 198 0
173 197 0
174 196 0
172 196 0
174 198 0
172 196 0
174 197 0
169 193 0
173 197 0
174 197 0
174 198 0
175 197 0
174 198 0
173 197 0
175 198 0
170 193 0
172 197 0
172 196 0
173 197 0
176 198 0
174 198 0
175 197 0
173 197 0
175 198 0
174 197 0
176 198 0
175 198 0
172 197 0
175 198 0
175 198 0
176 198 0
173 196 0
175 198 0
174 198 0
176 197 0
173 197 0
172 196 0
174 197 0
176 198 0
175 198 0
173 197 0
172 197 0
174 197 0
174 198 0
172 196 0
175 198 0
173 197 0
174 197 0
174 197 0
173 197 0
174 197 0
174 198 0
174 198 0
174 197 0
174 198 0
174 197 0
172 196 0
174 197 0
173 197 0
176 199 0
174 198 0
175 198 0
175 198 0
172 196 0
175 197 0
173 197 0
174 197 0
174 198 0
176 198 0
175 198 0
173 197 0
173 197 0
173 197 0
176 198 0
175 198 0
174 198 0
176 198 0
174 197 0
171 195 0
175 198 0
175 198 0
174 198 0
176 198 0
176 199 0
175 198 0
175 198 0
172 196 0
172 196 0
173 197 0
174 198 0
176 199 0
175 198 0
176 199 0
175 198 0
178 200 0
174 197 0
173 197 0
175 198 0
174 198 0
175 198 0
175 198 0
175 198 0
173 197 0
176 199 0
176 198 0
175 198 0
175 198 0
175 198 0
174 198 0
174 198 0
175 198 0
174 197 0
177 199 0
174 197 0
175 198 0
173 197 0
174 197 0
175 198 0
174 197 0
175 198 0
174 198 0
173 197 0
174 198 0
173 197 0
173 197 0
173 196 0
174 197 0
174 197 0
172 196 0
173 197 0
173 197 0
175 198 0
177 199 0
174 197 0
174 197 0
172 196 0
174 197 0
176 199 0
174 198 0
174 198 0
173 197 0
174 197 0
172 196 0
173 197 0
178 199 0
173 196 0
173 197 0
174 197 0
174 197 0
172 196 0
173 197 0
173 197 0
171 196 0
174 197 0
173 197 0
174 197 0
173 197 0
173 197 0
156 178 0
155 176 0
156 177 0
153 175 0
155 176 0
155 177 0
156 177 0
156 176 0
157 177 0
156 176 0
156 177 0
156 177 0
156 176 0
155 175 0
155 176 0
155 176 0
154 176 0
155 176 0
156 176 0
156 177 0
155 177 0
156 177 45
172 192 180
184 203 228
182 202 228
183 202 228
183 202 228
184 203 228
184 203 228
182 202 228
182 202 228
183 202 228
182 202 228
182 202 228
183 202 228
183 202 228
182 202 228
182 202 228
182 202 228
181 201 228
183 202 228
183 202 228
183 202 228
183 202 228
183 203 228
183 202 228
183 202 228
183 203 228
183 203 228
184 203 228
182 202 228
183 202 228
183 203 228
182 202 228
183 202 228
183 202 228
182 202 228
182 202 228
183 202 228
183 202 228
182 202 228
183 202 228
182 202 228
181 200 226
158 178 182
139 160 121
121 142 67
124 146 85
115 136 93
137 157 48
120 139 62
145 165 22
135 157 68
138 158 44
143 163 25
140 159 44
147 167 0
148 168 32
149 168 28
152 173 22
152 172 0
146 167 0
156 176 0
155 175 0
152 172 0
153 173 0
147 168 0
152 173 0
152 172 0
146 168 0
150 170 0
152 173 0
149 170 0
149 170 0
153 172 0
149 169 0
151 171 0
150 171 0
151 172 0
151 172 0
163 186 0
172 196 0
173 196 0
174 197 0
171 196 0
170 193 0
172 194 0
174 197 0
173 197 0
174 197 0
172 195 0
172 196 0
171 194 0
172 194 0
173 196 0
173 195 0
174 197 0
170 193 0
170 194 0
171 195 0
173 197 0
171 194 0
174 196 0
173 196 0
173 196 0
170 193 0
175 197 0
175 197 0
170 193 0
174 198 0
172 196 0
167 191 0
172 197 0
174 197 0
174 198 0
175 198 0
170 194 0
173 196 0
172 197 0
172 197 0
173 197 0
174 197 0
171 195 0
173 196 0
172 195 0
172 194 0
170 194 0
174 197 0
174 197 0
173 197 0
171 195 0
174 197 0
171 194 0
174 198 0
172 195 0
175 198 0
173 196 0
173 196 0
174 197 0
172 196 0
175 198 0
174 197 0
172 196 0
172 196 0
174 198 0
171 196 0
176 198 0
174 197 0
171 195 0
173 196 0
172 196 0
174 197 0
174 197 0
174 197 0
174 198 0
175 198 0
175 198 0
175 198 0
168 192 0
172 196 0
174 197 0
172 196 0
171 195 0
175 198 0
172 195 0
174 196 0
175 198 0
172 196 0
173 197 0
174 198 0
173 196 0
174 198 0
174 197 0
173 197 0
173 196 0
172 196 0
173 197 0
175 198 0
175 197 0
171 196 0
174 198 0
175 197 0
174 197 0
174 197 0
169 194 0
174 197 0
173 197 0
174 198 0
175 198 0
175 198 0
173 197 0
176 197 0
175 197 0
173 197 0
174 197 0
172 196 0
173 196 0
174 197 0
173 197 0
174 198 0
173 196 0
174 197 0
175 197 0
175 198 0
174 197 0
175 198 0
173 197 0
174 198 0
173 196 0
172 196 0
173 197 0
175 198 0
175 198 0
174 197 0
173 197 0
174 197 0
174 197 0
172 196 0
174 196 0
177 198 0
177 199 0
172 196 0
171 195 0
172 196 0
174 197 0
172 196 0
174 197 0
174 197 0
173 197 0
175 198 0
172 196 0
172 196 0
174 197 0
174 198 0
174 198 0
176 199 0
176 199 0
175 198 0
174 197 0
175 198 0
172 196 0
173 196 0
175 198 0
176 199 0
172 196 0
175 198 0
174 197 0
174 198 0
175 198 0
173 197 0
173 197 0
177 199 0
174 197 0
174 198 0
174 197 0
173 197 0
173 196 0
174 198 0
174 197 0
175 198 0
173 197 0
174 198 0
173 196 0
172 197 0
174 198 0
173 196 0
176 199 0
173 197 0
177 199 0
174 198 0
173 197 0
173 197 0
174 198 0
173 196 0
171 196 0
172 196 0
175 198 0
174 198 0
174 197 0
172 196 0
176 198 0
174 197 0
173 197 0
175 198 0
175 197 0
175 198 0
171 196 0
171 195 0
174 198 0
174 197 0
173 197 0
175 198 0
175 197 0
174 198 0
171 195 0
174 198 0
174 197 0
174 198 0
173 196 0
176 199 0
176 199 0
173 196 0
175 198 0
175 198 0
173 196 0
174 198 0
174 198 0
173 197 0
174 198 0
174 198 0
174 197 0
174 198 0
175 198 0
174 197 0
174 198 0
176 199 0
175 198 0
176 199 0
174 198 0
174 198 0
175 198 0
173 197 0
175 198 0
174 198 0
175 198 0
174 198 0
174 197 0
174 197 0
173 197 0
173 197 0
174 198 0
173 197 0
173 197 0
174 197 0
176 198 0
174 197 0
173 197 0
174 197 0
175 198 0
174 198 0
174 197 0
175 198 0
177 199 0
176 198 0
176 199 0
175 198 0
173 197 0
173 196 0
174 197 0
174 197 0
174 197 0
177 199 0
172 196 0
173 197 0
174 198 0
172 196 0
172 196 0
173 197 0
175 198 0
173 196 0
173 197 0
173 196 0
175 198 0
172 196 0
175 198 0
174 197 0
173 196 0
172 196 0
173 197 0
176 199 0
174 197 0
171 196 0
172 196 0
174 197 0
175 198 0
173 197 0
173 197 0
175 198 0
173 196 0
174 198 0
160 182 0
158 178 0
155 176 0
154 175 0
156 177 0
156 177 0
155 176 0
156 177 0
155 176 0
155 176 0
156 177 0
154 175 0
154 176 0
155 176 0
155 176 0
156 176 0
157 177 0
154 175 0
156 176 0
157 177 0
155 175 0
157 177 0
156 177 0
159 180 97
177 197 202
182 202 228
183 202 228
183 202 228
183 202 228
182 202 228
182 202 228
182 202 228
182 202 228
183 202 228
183 203 228
183 202 228
183 202 228
184 203 228
183 202 228
182 202 228
183 202 228
183 202 228
182 202 228
182 202 228
182 202 228
182 202 228
183 202 228
183 203 228
184 203 228
183 203 228
183 202 228
183 202 228
184 203 228
182 202 228
182 202 228
184 203 228
183 203 228
184 203 228
182 202 228
183 202 228
183 203 228
172 192 212
157 176 184
120 141 113
117 138 87
108 129 91
125 145 70
120 142 75
129 149 77
123 144 74
135 154 63
131 152 56
142 162 30
130 151 62
139 160 32
144 166 32
142 162 32
146 166 45
142 163 22
148 167 0
154 174 0
151 170 0
154 175 0
147 168 0
148 169 0
151 171 0
151 171 0
150 171 0
153 174 0
153 173 0
154 175 0
149 170 0
149 170 0
149 170 0
150 171 0
151 171 0
152 172 0
152 173 0
153 175 0
146 166 0
163 186 0
175 198 0
173 197 0
172 196 0
173 197 0
169 193 0
173 197 0
169 194 0
175 198 0
170 193 0
172 195 0
174 197 0
177 199 0
173 196 0
171 194 0
173 196 0
172 196 0
174 197 0
171 194 0
173 197 0
171 194 0
172 196 0
169 193 0
173 196 0
169 192 0
171 195 0
172 195 0
174 197 0
175 198 0
173 196 0
167 191 0
169 194 0
174 198 0
173 197 0
174 197 0
172 196 0
173 196 0
174 198 0
170 193 0
174 197 0
175 198 0
173 196 0
173 195 0
171 195 0
170 193 0
175 198 0
174 198 0
174 198 0
174 197 0
173 197 0
173 197 0
175 197 0
174 197 0
171 196 0
171 193 0
175 198 0
173 197 0
173 197 0
173 197 0
175 198 0
173 197 0
174 198 0
172 196 0
172 196 0
173 196 0
174 197 0
177 199 0
176 199 0
175 198 0
171 195 0
176 199 0
174 197 0
174 198 0
174 197 0
172 194 0
172 196 0
172 195 0
173 196 0
173 196 0
175 198 0
174 197 0
174 197 0
173 197 0
171 196 0
175 198 0
173 196 0
173 196 0
173 196 0
174 197 0
173 197 0
169 193 0
167 192 0
173 197 0
174 197 0
175 198 0
173 197 0
174 198 0
173 197 0
173 197 0
173 197 0
176 199 0
173 196 0
171 195 0
175 198 0
176 198 0
175 198 0
174 198 0
175 197 0
173 196 0
176 198 0
172 196 0
174 198 0
174 198 0
174 197 0
173 197 0
172 197 0
172 196 0
173 197 0
176 199 0
171 194 0
174 198 0
174 197 0
176 198 0
171 194 0
171 195 0
175 198 0
175 198 0
174 197 0
175 197 0
173 196 0
173 195 0
172 196 0
177 199 0
175 197 0
175 198 0
173 197 0
174 198 0
176 199 0
176 199 0
174 198 0
174 198 0
175 198 0
173 196 0
175 197 0
175 198 0
174 197 0
173 196 0
172 197 0
176 199 0
176 199 0
173 197 0
175 198 0
174 198 0
174 198 0
172 196 0
174 197 0
176 199 0
174 197 0
174 198 0
176 198 0
170 194 0
175 198 0
173 197 0
178 200 0
173 197 0
174 197 0
175 198 0
174 197 0
171 195 0
176 198 0
172 195 0
173 196 0
174 197 0
173 196 0
174 197 0
173 197 0
175 198 0
174 197 0
174 198 0
174 196 0
174 197 0
174 198 0
173 197 0
173 196 0
174 198 0
176 199 0
176 198 0
176 199 0
175 198 0
173 196 0
174 198 0
174 198 0
175 198 0
175 198 0
172 196 0
173 197 0
174 197 0
174 198 0
175 198 0
173 197 0
173 197 0
174 198 0
175 198 0
173 197 0
174 198 0
173 197 0
174 198 0
177 199 0
173 197 0
175 198 0
174 198 0
174 197 0
176 199 0
175 198 0
178 200 0
175 198 0
173 197 0
177 199 0
174 198 0
175 198 0
174 198 0
176 198 0
175 198 0
172 196 0
174 198 0
176 198 0
173 197 0
175 198 0
174 197 0
172 196 0
173 197 0
173 197 0
175 198 0
174 198 0
174 198 0
173 196 0
174 197 0
174 198 0
176 198 0
176 198 0
174 197 0
177 199 0
173 196 0
176 198 0
171 196 0
175 198 0
175 198 0
174 197 0
176 199 0
174 197 0
172 197 0
176 199 0
174 197 0
173 197 0
174 198 0
174 197 0
173 197 0
175 198 0
175 198 0
173 197 0
172 197 0
172 196 0
174 197 0
176 199 0
176 198 0
173 197 0
175 198 0
174 197 0
173 197 0
173 197 0
175 198 0
173 197 0
175 198 0
173 197 0
173 197 0
176 199 0
174 198 0
174 198 0
173 197 0
172 196 0
174 198 0
172 196 0
172 197 0
173 197 0
174 197 0
173 196 0
176 198 0
174 198 0
173 197 0
171 196 0
173 197 0
173 197 0
172 196 0
173 197 0
174 197 0
174 198 0
175 198 0
175 198 0
174 197 0
176 198 0
165 187 0
155 176 0
155 176 0
155 176 0
153 175 0
155 176 0
157 177 0
154 175 0
154 176 0
154 175 0
155 176 0
156 176 0
156 177 0
155 175 0
154 175 0
156 177 0
156 176 0
158 177 0
153 174 0
156 177 0
154 175 0
158 178 0
155 176 0
155 176 0
157 177 0
166 186 144
179 198 209
183 203 228
184 203 228
183 203 228
182 202 228
181 201 228
184 203 228
183 203 228
182 202 228
182 202 228
182 202 228
183 202 228
183 202 228
182 202 228
182 202 228
183 202 228
182 202 228
182 202 228
183 202 228
182 202 228
183 202 228
183 202 228
182 202 228
182 202 228
182 202 228
183 202 228
182 202 228
183 202 228
183 202 228
182 202 228
182 202 228
183 203 228
181 201 227
158 178 189
133 153 145
104 126 99
108 129 89
100 121 94
119 140 85
128 149 71
118 139 94
120 139 74
119 140 79
122 143 75
121 141 76
131 151 60
126 147 53
145 165 38
138 157 39
147 167 45
148 169 32
143 164 22
143 164 45
146 166 0
152 173 0
150 171 0
145 165 0
144 165 0
153 174 0
150 172 0
145 165 0
146 166 0
153 172 0
151 172 0
149 170 0
153 173 0
153 173 0
147 166 0
150 171 0
153 172 0
146 167 0
152 173 0
155 176 0
148 168 0
162 183 0
173 196 0
177 199 0
171 195 0
170 195 0
173 197 0
171 195 0
173 196 0
173 197 0
172 196 0
173 196 0
173 195 0
175 198 0
173 197 0
171 194 0
175 198 0
172 195 0
172 196 0
172 196 0
173 197 0
171 196 0
171 194 0
171 194 0
175 198 0
174 197 0
172 196 0
172 195 0
172 196 0
170 194 0
170 193 0
173 196 0
173 196 0
174 197 0
175 198 0
171 195 0
174 196 0
171 195 0
172 196 0
174 197 0
175 198 0
174 198 0
173 196 0
175 198 0
171 196 0
172 195 0
174 197 0
170 195 0
174 197 0
172 196 0
175 198 0
172 196 0
173 196 0
173 197 0
173 197 0
173 196 0
173 197 0
173 196 0
174 196 0
172 195 0
172 196 0
174 197 0
174 197 0
175 197 0
176 198 0
171 194 0
174 197 0
172 195 0
173 197 0
174 196 0
172 197 0
172 195 0
174 197 0
176 198 0
174 198 0
175 198 0
174 197 0
170 194 0
174 197 0
174 197 0
174 197 0
174 197 0
175 198 0
175 198 0
173 197 0
174 197 0
172 197 0
175 198 0
173 197 0
173 196 0
173 196 0
177 199 0
173 196 0
172 196 0
176 198 0
171 195 0
173 197 0
169 193 0
175 197 0
178 199 0
174 198 0
175 198 0
168 193 0
174 197 0
175 198 0
174 197 0
174 198 0
173 196 0
174 197 0
171 195 0
172 196 0
174 197 0
172 197 0
171 195 0
174 198 0
174 197 0
174 197 0
174 198 0
176 199 0
176 198 0
174 197 0
174 198 0
173 197 0
176 198 0
176 198 0
173 197 0
174 198 0
173 196 0
172 194 0
174 198 0
174 196 0
173 197 0
178 199 0
176 199 0
174 197 0
173 197 0
173 197 0
174 197 0
171 195 0
174 198 0
173 197 0
174 197 0
174 198 0
173 197 0
172 195 0
175 198 0
172 196 0
175 198 0
174 197 0
177 199 0
174 198 0
175 198 0
174 197 0
174 197 0
173 197 0
174 198 0
171 195 0
174 198 0
173 196 0
174 198 0
175 198 0
174 197 0
173 195 0
173 196 0
173 197 0
172 197 0
174 198 0
175 198 0
174 197 0
176 198 0
172 196 0
173 197 0
172 197 0
174 198 0
174 198 0
173 197 0
175 198 0
177 199 0
172 197 0
174 197 0
173 196 0
173 197 0
177 199 0
173 197 0
175 198 0
172 196 0
174 198 0
173 196 0
177 199 0
175 198 0
175 198 0
175 198 0
172 196 0
176 199 0
174 198 0
174 197 0
175 198 0
172 196 0
174 198 0
175 198 0
175 198 0
173 196 0
176 199 0
169 194 0
174 197 0
173 196 0
175 198 0
176 198 0
175 198 0
174 198 0
172 196 0
174 198 0
174 198 0
174 198 0
174 198 0
175 198 0
174 198 0
175 198 0
172 197 0
176 199 0
174 198 0
173 197 0
174 197 0
175 197 0
172 196 0
174 198 0
176 198 0
175 198 0
175 198 0
173 197 0
176 199 0
175 198 0
175 198 0
173 197 0
174 198 0
174 197 0
175 198 0
174 198 0
173 197 0
176 198 0
174 198 0
174 197 0
173 197 0
173 196 0
175 198 0
173 197 0
175 198 0
176 198 0
176 198 0
175 198 0
175 198 0
176 198 0
175 198 0
173 197 0
173 197 0
174 198 0
172 196 0
172 197 0
174 197 0
173 197 0
172 196 0
175 198 0
172 197 0
175 198 0
172 197 0
172 197 0
174 198 0
175 198 0
176 198 0
173 197 0
174 198 0
172 196 0
176 199 0
172 196 0
175 198 0
175 198 0
173 197 0
176 199 0
175 198 0
173 197 0
173 197 0
176 199 0
175 198 0
174 197 0
175 198 0
173 196 0
175 198 0
174 197 0
173 197 0
174 197 0
175 198 0
171 195 0
173 196 0
172 196 0
175 198 0
174 197 0
174 198 0
174 197 0
174 197 0
174 197 0
174 198 0
167 189 0
155 176 0
156 177 0
156 176 0
157 177 0
157 177 0
155 176 0
155 176 0
154 175 0
156 177 0
157 177 0
155 176 0
155 176 0
153 174 0
155 176 0
157 177 0
154 175 0
154 175 0
156 177 0
155 176 0
157 177 0
157 177 0
156 176 0
154 175 0
157 177 0
156 177 0
156 177 56
172 191 165
182 201 221
184 203 228
182 202 228
183 202 228
182 202 228
183 202 228
183 202 228
182 202 228
182 202 228
182 202 228
182 202 228
182 202 228
182 202 228
182 202 228
182 202 228
182 202 228
183 202 228
183 202 228
183 203 228
183 202 228
182 202 228
182 202 228
182 202 228
183 202 228
182 202 228
182 202 228
183 202 228
182 202 228
176 196 218
153 173 183
117 139 145
96 119 100
107 129 88
98 120 97
94 116 108
111 132 93
116 136 81
115 137 78
114 136 81
117 138 84
130 151 63
126 146 60
137 158 56
132 153 39
130 150 64
138 158 30
132 150 55
133 153 44
145 164 20
143 162 32
143 163 22
151 172 0
150 171 0
148 170 22
149 168 0
150 169 0
150 169 0
152 172 0
150 170 0
152 173 0
144 165 0
150 171 0
150 171 0
148 169 0
154 173 0
150 171 0
152 172 0
152 172 0
153 173 0
149 170 0
150 170 0
144 165 0
161 183 0
174 197 0
169 192 0
171 195 0
172 194 0
172 196 0
173 197 0
173 195 0
170 194 0
174 197 0
175 197 0
174 197 0
174 197 0
175 197 0
174 197 0
173 197 0
172 196 0
173 197 0
173 196 0
173 197 0
173 197 0
174 197 0
173 197 0
174 198 0
172 196 0
169 194 0
173 196 0
172 195 0
172 197 0
174 197 0
171 194 0
172 196 0
174 197 0
172 195 0
173 196 0
173 197 0
175 198 0
174 197 0
175 198 0
173 197 0
171 195 0
173 196 0
173 196 0
173 197 0
168 192 0
171 195 0
174 197 0
173 196 0
172 195 0
171 195 0
171 194 0
172 197 0
173 197 0
172 197 0
174 198 0
173 196 0
174 197 0
174 197 0
174 196 0
173 197 0
174 197 0
173 197 0
171 196 0
174 197 0
174 197 0
173 196 0
173 197 0
175 197 0
173 196 0
177 199 0
174 197 0
174 198 0
172 196 0
174 197 0
172 197 0
174 197 0
175 197 0
170 195 0
173 196 0
172 196 0
168 193 0
172 196 0
172 195 0
174 198 0
175 198 0
174 196 0
176 199 0
174 197 0
172 195 0
173 197 0
175 197 0
172 196 0
175 198 0
172 195 0
172 195 0
175 198 0
171 196 0
174 197 0
175 198 0
174 197 0
173 196 0
173 197 0
174 197 0
176 199 0
173 196 0
170 194 0
173 196 0
173 195 0
174 197 0
174 198 0
171 195 0
173 197 0
172 195 0
175 198 0
172 196 0
171 195 0
170 194 0
173 197 0
175 198 0
175 198 0
173 197 0
173 197 0
175 198 0
175 198 0
174 197 0
175 198 0
174 198 0
172 197 0
173 196 0
174 196 0
176 199 0
172 195 0
170 195 0
174 197 0
174 197 0
174 197 0
176 199 0
174 198 0
173 197 0
172 196 0
175 198 0
174 198 0
171 196 0
172 196 0
173 197 0
175 198 0
175 198 0
177 199 0
173 197 0
174 198 0
173 197 0
171 194 0
176 198 0
175 198 0
172 197 0
173 197 0
171 196 0
174 197 0
174 198 0
174 198 0
175 198 0
175 198 0
175 198 0
172 196 0
175 198 0
174 198 0
175 198 0
174 198 0
176 199 0
173 197 0
174 198 0
173 197 0
173 197 0
172 197 0
175 198 0
173 197 0
172 197 0
172 196 0
175 198 0
175 198 0
174 197 0
174 198 0
172 195 0
173 196 0
174 198 0
174 196 0
173 197 0
176 199 0
175 198 0
174 198 0
175 198 0
172 196 0
175 198 0
172 196 0
174 197 0
174 198 0
174 198 0
176 198 0
174 197 0
175 198 0
175 198 0
175 198 0
174 198 0
173 197 0
174 196 0
177 199 0
177 199 0
174 198 0
175 198 0
173 197 0
176 198 0
174 198 0
174 197 0
174 198 0
172 197 0
176 198 0
177 199 0
173 197 0
174 198 0
174 197 0
174 197 0
177 199 0
174 197 0
173 197 0
175 198 0
174 197 0
174 198 0
174 198 0
173 197 0
174 197 0
173 197 0
174 197 0
174 197 0
174 197 0
173 197 0
174 197 0
172 197 0
173 197 0
175 198 0
174 197 0
174 197 0
172 197 0
174 198 0
174 198 0
174 198 0
174 197 0
175 197 0
174 198 0
174 198 0
174 197 0
173 197 0
174 198 0
175 198 0
174 198 0
174 197 0
173 197 0
174 198 0
176 198 0
174 197 0
176 198 0
174 198 0
172 196 0
176 198 0
174 198 0
173 197 0
176 199 0
173 197 0
174 197 0
175 198 0
174 198 0
176 199 0
173 197 0
174 197 0
175 197 0
177 199 0
175 198 0
172 196 0
171 196 0
173 197 0
173 197 0
172 196 0
173 197 0
177 199 0
175 197 0
175 198 0
172 196 0
173 196 0
174 197 0
174 197 0
174 198 0
173 197 0
170 195 0
173 197 0
173 196 0
173 196 0
174 197 0
174 198 0
174 197 0
174 197 0
174 197 0
172 194 0
155 176 0
156 177 0
157 177 0
155 176 0
155 176 0
156 177 0
154 176 0
155 176 0
156 177 0
155 176 0
156 177 0
156 177 0
155 176 0
157 177 0
154 175 0
157 177 0
157 178 0
156 176 0
157 177 0
154 176 0
155 175 0
156 177 0
155 176 0
157 176 0
154 176 0
155 176 0
155 176 0
160 181 91
174 194 188
183 202 228
182 202 228
183 202 228
183 202 228
181 202 228
183 202 228
183 202 228
182 202 228
183 202 228
182 202 228
183 202 228
181 201 228
182 202 228
182 202 228
182 202 228
183 202 228
182 202 228
182 202 228
181 202 228
181 201 228
183 203 228
182 202 228
182 202 228
183 202 228
167 187 215
126 146 172
84 108 101
83 107 118
95 118 111
81 103 104
93 116 101
100 122 102
100 122 93
109 131 98
121 140 78
120 139 77
131 152 51
128 149 53
119 138 66
124 144 81
128 148 63
131 152 50
132 152 42
136 154 50
143 164 44
139 159 32
145 165 22
145 166 22
139 159 32
149 169 32
152 173 0
151 172 0
151 172 0
144 164 0
151 172 0
150 170 0
152 173 0
154 176 0
143 163 0
153 173 0
146 166 0
152 172 0
151 172 0
153 172 0
152 173 0
149 170 0
146 167 0
151 170 0
154 174 0
154 174 0
164 187 0
171 195 0
172 196 0
171 195 0
172 195 0
172 195 0
172 195 0
171 195 0
173 197 0
172 195 0
175 198 0
171 194 0
169 193 0
173 197 0
174 197 0
172 196 0
172 196 0
173 196 0
172 196 0
171 195 0
175 197 0
175 198 0
174 198 0
171 195 0
172 196 0
173 197 0
170 193 0
173 196 0
174 197 0
172 195 0
170 194 0
170 194 0
173 196 0
171 195 0
173 197 0
175 198 0
171 195 0
175 198 0
174 198 0
172 196 0
173 196 0
173 197 0
172 196 0
173 197 0
174 197 0
174 197 0
173 196 0
173 197 0
173 196 0
172 196 0
172 196 0
174 198 0
168 191 0
170 195 0
169 193 0
174 196 0
172 196 0
171 194 0
171 194 0
173 196 0
172 196 0
173 197 0
171 195 0
176 199 0
172 196 0
175 198 0
174 198 0
169 193 0
175 197 0
174 198 0
174 198 0
174 197 0
174 197 0
172 196 0
171 195 0
174 198 0
172 195 0
171 195 0
173 196 0
173 197 0
173 197 0
171 195 0
173 196 0
172 195 0
172 195 0
176 198 0
174 198 0
174 197 0
172 196 0
172 195 0
172 196 0
176 198 0
175 198 0
173 196 0
172 195 0
172 196 0
174 197 0
176 198 0
173 196 0
175 198 0
173 195 0
172 197 0
173 197 0
172 195 0
173 197 0
175 197 0
172 195 0
169 193 0
172 197 0
176 199 0
173 197 0
174 198 0
175 198 0
173 197 0
172 196 0
171 195 0
173 196 0
173 196 0
172 195 0
174 196 0
174 198 0
176 199 0
174 197 0
174 197 0
175 198 0
173 196 0
172 195 0
175 198 0
175 198 0
175 198 0
172 196 0
174 197 0
174 197 0
174 198 0
174 197 0
173 197 0
176 199 0
172 196 0
173 197 0
172 197 0
174 197 0
170 194 0
174 198 0
171 196 0
173 197 0
170 194 0
175 198 0
177 199 0
173 197 0
173 197 0
174 198 0
174 197 0
174 197 0
175 198 0
173 197 0
175 198 0
174 197 0
173 197 0
172 196 0
172 196 0
175 198 0
174 197 0
175 198 0
172 195 0
174 198 0
175 198 0
174 198 0
175 198 0
174 198 0
174 198 0
175 197 0
175 198 0
173 197 0
176 199 0
175 198 0
173 197 0
170 195 0
171 194 0
174 198 0
173 197 0
172 195 0
174 198 0
175 198 0
174 198 0
177 199 0
175 198 0
174 197 0
176 198 0
176 198 0
173 197 0
173 197 0
172 197 0
174 197 0
172 197 0
174 197 0
172 196 0
173 196 0
173 196 0
175 198 0
174 198 0
174 198 0
175 198 0
176 198 0
172 195 0
174 198 0
173 197 0
172 197 0
174 197 0
175 198 0
175 198 0
173 197 0
175 198 0
175 198 0
172 197 0
175 197 0
172 197 0
175 198 0
173 197 0
175 198 0
174 198 0
174 198 0
175 197 0
171 195 0
174 197 0
176 199 0
175 198 0
176 198 0
175 198 0
173 197 0
174 197 0
173 197 0
174 197 0
172 196 0
177 199 0
175 198 0
173 197 0
176 198 0
173 195 0
173 197 0
175 198 0
176 198 0
174 198 0
172 196 0
174 197 0
174 197 0
173 197 0
173 197 0
173 197 0
176 198 0
173 197 0
173 197 0
175 198 0
173 197 0
176 199 0
174 198 0
174 198 0
176 199 0
174 198 0
174 197 0
172 197 0
173 197 0
172 196 0
176 199 0
173 197 0
173 197 0
173 197 0
174 198 0
174 198 0
175 198 0
173 197 0
173 197 0
172 196 0
174 197 0
175 198 0
175 198 0
174 197 0
172 196 0
172 196 0
175 198 0
174 197 0
173 197 0
175 198 0
175 197 0
175 198 0
173 196 0
174 197 0
173 197 0
174 197 0
174 197 0
174 197 0
172 196 0
174 197 0
173 197 0
173 197 0
174 198 0
172 196 0
174 197 0
174 197 0
174 197 0
173 196 0
173 197 0
154 176 0
158 178 0
156 177 0
157 177 0
157 177 0
156 176 0
155 176 0
155 176 0
155 176 0
156 176 0
154 175 0
156 176 0
155 176 0
154 175 0
155 175 0
155 176 0
156 177 0
157 178 0
156 177 0
157 177 0
157 177 0
156 176 0
154 175 0
155 175 0
155 176 0
154 175 0
155 176 0
154 176 0
154 176 0
164 184 121
180 199 214
183 202 228
183 202 228
183 202 228
182 202 228
182 202 228
182 202 228
183 202 228
182 202 228
182 202 228
182 202 228
182 202 228
183 202 228
183 202 228
183 202 228
181 201 228
183 202 228
182 202 228
182 202 228
183 202 228
179 199 225
157 176 203
105 126 138
68 94 128
88 113 124
69 93 100
84 107 113
104 126 99
105 124 85
94 115 89
98 120 86
99 120 94
108 130 93
102 123 93
118 140 63
121 143 81
126 147 53
117 137 65
128 148 54
132 153 62
139 160 38
126 145 49
133 153 57
134 153 44
141 161 30
149 169 0
145 165 0
149 170 0
143 162 0
148 169 0
145 164 0
147 168 0
146 167 0
145 165 0
149 170 0
151 172 0
149 169 0
147 168 0
151 171 0
150 171 0
147 168 0
151 171 0
150 168 0
147 168 0
153 175 0
153 174 0
152 173 0
154 173 0
155 175 0
158 180 0
172 196 0
175 197 0
173 196 0
170 194 0
172 194 0
171 195 0
174 197 0
174 197 0
173 196 0
168 192 0
171 195 0
169 192 0
174 197 0
172 195 0
172 195 0
172 194 0
174 197 0
170 193 0
171 194 0
173 196 0
173 195 0
168 193 0
173 196 0
172 196 0
175 197 0
172 195 0
171 194 0
172 195 0
173 196 0
172 195 0
170 194 0
173 197 0
172 196 0
170 194 0
172 196 0
173 196 0
174 198 0
172 196 0
175 198 0
172 196 0
172 196 0
173 196 0
173 197 0
174 198 0
173 197 0
173 196 0
171 195 0
173 196 0
174 197 0
174 197 0
171 195 0
174 197 0
172 197 0
173 196 0
174 197 0
170 193 0
173 196 0
172 195 0
171 194 0
171 195 0
172 196 0
174 197 0
175 198 0
171 195 0
171 195 0
172 195 0
173 196 0
174 198 0
172 195 0
173 196 0
172 195 0
173 197 0
174 198 0
173 197 0
174 198 0
174 197 0
168 193 0
171 194 0
171 195 0
175 198 0
173 197 0
166 190 0
173 196 0
173 197 0
174 197 0
173 196 0
172 195 0
174 198 0
170 194 0
174 196 0
173 195 0
173 197 0
170 194 0
172 196 0
172 195 0
173 197 0
172 196 0
174 198 0
173 197 0
173 197 0
171 195 0
173 196 0
174 198 0
173 197 0
174 197 0
176 198 0
176 199 0
175 197 0
173 197 0
173 196 0
170 195 0
173 196 0
171 195 0
173 197 0
176 198 0
170 195 0
176 198 0
171 196 0
175 197 0
170 195 0
174 198 0
173 197 0
174 197 0
173 197 0
176 199 0
172 194 0
170 193 0
174 197 0
173 196 0
174 197 0
173 196 0
173 197 0
174 197 0
175 198 0
174 198 0
176 199 0
173 197 0
175 198 0
177 199 0
174 197 0
176 198 0
175 197 0
176 198 0
174 198 0
174 198 0
173 196 0
172 196 0
173 197 0
174 198 0
176 198 0
176 197 0
174 197 0
173 197 0
173 197 0
173 196 0
173 197 0
174 198 0
174 198 0
173 197 0
174 197 0
175 198 0
175 197 0
175 198 0
174 198 0
174 197 0
173 197 0
174 198 0
173 197 0
175 198 0
174 197 0
174 197 0
174 197 0
177 199 0
173 197 0
174 198 0
174 197 0
175 198 0
175 198 0
175 198 0
176 198 0
174 198 0
175 198 0
174 197 0
174 197 0
175 198 0
175 198 0
173 196 0
168 193 0
173 197 0
173 196 0
173 197 0
172 196 0
175 198 0
172 197 0
175 198 0
174 198 0
173 197 0
175 197 0
176 199 0
177 198 0
174 197 0
176 199 0
174 198 0
175 198 0
174 198 0
175 198 0
173 197 0
174 198 0
173 197 0
175 198 0
175 198 0
176 198 0
175 198 0
174 198 0
173 196 0
175 198 0
175 197 0
172 197 0
172 196 0
171 195 0
173 197 0
174 197 0
174 197 0
175 198 0
173 197 0
172 196 0
175 198 0
174 198 0
174 198 0
173 197 0
174 197 0
174 198 0
171 195 0
174 197 0
172 197 0
173 197 0
176 198 0
175 198 0
173 197 0
173 197 0
173 196 0
176 199 0
174 198 0
173 197 0
173 197 0
172 197 0
173 197 0
173 196 0
174 198 0
174 198 0
173 197 0
173 197 0
175 198 0
175 198 0
176 199 0
176 199 0
172 196 0
173 197 0
175 198 0
173 197 0
173 197 0
173 196 0
175 198 0
173 196 0
174 198 0
172 196 0
174 197 0
174 197 0
172 196 0
176 198 0
173 197 0
174 197 0
173 197 0
174 197 0
172 196 0
174 198 0
174 197 0
174 197 0
172 196 0
174 197 0
175 198 0
173 197 0
172 197 0
174 197 0
171 196 0
175 198 0
173 196 0
172 196 0
173 197 0
175 198 0
172 196 0
173 197 0
172 196 0
174 197 0
175 197 0
172 196 0
172 197 0
174 197 0
171 196 0
173 197 0
159 181 0
155 176 0
154 175 0
155 176 0
155 176 0
155 176 0
156 176 0
155 176 0
153 175 0
157 177 0
156 176 0
157 177 0
156 177 0
156 175 0
156 176 0
155 176 0
158 178 0
156 177 0
155 177 0
157 177 0
156 176 0
156 176 0
156 177 0
155 175 0
156 177 0
157 177 0
152 173 0
155 176 0
156 177 0
155 176 0
157 177 32
169 189 158
181 201 221
182 202 228
182 202 228
182 202 228
183 202 228
182 202 228
183 202 228
183 202 228
183 202 228
183 203 228
182 202 228
183 202 228
181 202 228
183 202 228
182 202 228
181 202 228
164 183 206
123 143 163
78 102 118
65 90 122
69 92 114
90 112 100
91 113 96
81 105 116
88 113 116
101 121 90
74 99 119
103 126 88
119 140 89
94 117 108
109 131 82
100 121 92
118 138 68
122 143 67
125 146 71
117 138 93
138 158 48
129 150 50
133 153 55
129 149 35
135 155 38
145 163 35
146 166 38
136 158 27
151 170 22
146 168 32
152 172 22
150 171 0
141 161 22
149 167 0
146 166 0
152 172 0
153 174 0
152 173 0
148 168 0
147 167 0
151 172 0
148 168 0
147 167 0
153 174 0
150 171 0
152 171 0
147 168 0
151 173 0
149 170 0
149 170 0
147 168 0
161 183 0
173 197 0
172 196 0
169 193 0
174 197 0
171 195 0
170 194 0
169 194 0
174 196 0
174 196 0
170 194 0
172 195 0
170 194 0
170 194 0
173 196 0
171 194 0
171 194 0
173 196 0
171 195 0
173 196 0
174 196 0
173 196 0
171 195 0
170 195 0
175 197 0
171 195 0
169 193 0
170 194 0
171 195 0
171 196 0
175 198 0
171 194 0
169 192 0
171 195 0
174 197 0
173 197 0
170 193 0
174 196 0
174 197 0
174 197 0
174 196 0
174 197 0
172 196 0
170 194 0
171 195 0
174 197 0
173 195 0
172 195 0
176 199 0
173 195 0
174 197 0
175 197 0
173 196 0
172 196 0
172 196 0
172 195 0
171 195 0
173 197 0
173 197 0
173 196 0
172 195 0
172 196 0
172 196 0
173 197 0
172 196 0
175 197 0
174 197 0
173 197 0
173 196 0
174 198 0
174 197 0
170 194 0
174 197 0
173 196 0
176 199 0
171 194 0
173 196 0
174 196 0
174 198 0
174 197 0
170 194 0
172 196 0
173 197 0
173 197 0
172 196 0
173 196 0
173 196 0
173 195 0
173 196 0
172 195 0
173 197 0
169 192 0
174 197 0
175 197 0
171 195 0
171 195 0
173 196 0
172 196 0
174 198 0
174 197 0
170 193 0
173 195 0
174 198 0
172 196 0
174 198 0
176 198 0
172 195 0
174 197 0
175 197 0
175 197 0
172 196 0
173 197 0
176 198 0
174 197 0
175 198 0
174 197 0
176 198 0
175 198 0
171 194 0
173 197 0
172 196 0
172 195 0
172 197 0
172 196 0
176 198 0
173 197 0
172 196 0
175 197 0
171 196 0
173 197 0
174 197 0
175 197 0
175 198 0
174 198 0
174 198 0
173 197 0
172 197 0
172 195 0
174 197 0
172 196 0
177 199 0
173 196 0
174 198 0
174 197 0
175 197 0
172 194 0
173 197 0
173 197 0
173 197 0
178 199 0
172 195 0
175 198 0
175 198 0
173 196 0
174 197 0
175 198 0
174 197 0
178 200 0
174 196 0
174 197 0
172 196 0
175 198 0
176 199 0
171 195 0
174 196 0
172 195 0
174 198 0
173 197 0
175 198 0
174 198 0
175 198 0
174 198 0
173 197 0
171 196 0
174 197 0
172 196 0
175 198 0
174 197 0
174 197 0
175 198 0
174 197 0
169 194 0
174 198 0
174 197 0
173 196 0
175 198 0
176 199 0
175 198 0
173 197 0
174 196 0
172 196 0
176 198 0
174 198 0
174 197 0
175 198 0
174 198 0
172 197 0
176 198 0
177 199 0
173 197 0
174 198 0
176 199 0
172 196 0
173 197 0
173 197 0
173 196 0
175 197 0
175 197 0
173 196 0
174 198 0
174 198 0
175 198 0
173 197 0
173 197 0
174 198 0
174 197 0
175 198 0
173 197 0
175 198 0
174 198 0
172 196 0
174 197 0
173 197 0
174 197 0
174 197 0
175 198 0
172 196 0
174 197 0
174 198 0
175 198 0
174 197 0
177 199 0
175 198 0
176 198 0
173 197 0
173 197 0
177 199 0
175 198 0
175 198 0
174 198 0
174 198 0
174 198 0
175 198 0
176 198 0
176 198 0
175 198 0
174 197 0
173 197 0
174 197 0
176 198 0
174 198 0
173 197 0
177 199 0
174 197 0
173 197 0
172 197 0
172 197 0
173 197 0
176 198 0
174 197 0
173 197 0
175 198 0
174 197 0
174 198 0
175 197 0
175 198 0
175 198 0
173 197 0
174 197 0
174 197 0
175 198 0
176 198 0
174 197 0
173 197 0
173 196 0
174 197 0
174 197 0
174 197 0
174 197 0
172 197 0
174 197 0
173 197 0
172 196 0
174 197 0
173 196 0
175 198 0
175 198 0
172 197 0
170 196 0
175 198 0
172 196 0
174 197 0
173 197 0
175 198 0
173 197 0
176 198 0
172 196 0
174 197 0
174 197 0
172 196 0
173 197 0
161 183 0
158 177 0
156 176 0
157 177 0
156 177 0
156 177 0
155 176 0
154 175 0
156 176 0
154 176 0
154 176 0
156 176 0
155 176 0
155 176 0
156 177 0
154 176 0
155 176 0
155 175 0
154 175 0
157 177 0
157 178 0
154 174 0
156 177 0
156 176 0
155 176 0
153 175 0
154 176 0
155 176 0
155 176 0
155 176 0
155 176 0
155 176 0
156 177 64
171 192 174
181 201 224
183 202 228
182 202 228
181 202 228
182 202 228
182 202 228
182 202 228
182 202 228
182 202 228
182 202 228
183 202 228
179 199 226
160 180 207
119 139 169
64 91 117
58 83 98
50 77 123
65 92 126
76 98 105
72 97 112
74 99 104
94 117 95
93 116 105
94 116 102
91 114 113
99 121 98
99 121 94
99 122 93
102 125 81
113 134 76
125 146 60
112 132 71
132 151 45
128 148 65
134 154 63
126 148 74
128 149 51
125 146 54
137 158 32
136 155 50
141 160 20
146 167 20
146 165 30
141 161 22
147 169 32
147 166 0
147 167 0
142 161 0
148 169 0
149 169 0
147 168 0
151 173 0
150 170 0
147 169 0
151 172 0
152 171 0
149 168 0
151 172 0
150 171 0
149 170 0
152 171 0
147 168 0
152 175 0
150 171 0
153 172 0
156 178 0
172 195 0
173 196 0
170 195 0
172 196 0
174 196 0
174 198 0
172 196 0
172 196 0
171 194 0
172 195 0
172 194 0
171 195 0
171 195 0
171 195 0
172 196 0
169 193 0
171 195 0
171 194 0
172 195 0
171 196 0
172 195 0
174 197 0
172 196 0
172 195 0
173 196 0
175 198 0
171 195 0
173 197 0
173 196 0
173 196 0
173 197 0
173 197 0
173 197 0
172 194 0
174 196 0
171 195 0
169 194 0
171 195 0
171 196 0
173 197 0
173 196 0
168 192 0
171 194 0
173 196 0
175 198 0
172 197 0
174 197 0
173 196 0
173 196 0
171 195 0
173 196 0
171 196 0
170 194 0
174 197 0
171 194 0
173 197 0
172 196 0
173 197 0
174 197 0
172 196 0
173 196 0
174 197 0
172 196 0
173 197 0
172 196 0
173 197 0
175 198 0
175 198 0
175 198 0
173 196 0
173 197 0
176 199 0
172 196 0
173 195 0
172 197 0
175 198 0
171 194 0
175 198 0
172 195 0
174 197 0
174 197 0
173 197 0
174 197 0
177 199 0
173 197 0
174 197 0
173 196 0
173 197 0
173 197 0
173 197 0
172 196 0
172 197 0
172 195 0
176 198 0
172 196 0
173 197 0
170 195 0
175 198 0
172 196 0
173 197 0
171 194 0
176 199 0
170 193 0
174 197 0
173 196 0
174 197 0
175 198 0
171 195 0
172 195 0
172 196 0
173 197 0
175 198 0
172 196 0
174 198 0
174 197 0
172 197 0
175 198 0
175 198 0
174 197 0
172 196 0
174 197 0
173 197 0
177 199 0
173 195 0
173 197 0
175 198 0
173 196 0
173 197 0
175 197 0
175 197 0
174 197 0
175 197 0
171 195 0
174 197 0
170 194 0
173 196 0
170 194 0
173 197 0
172 197 0
168 193 0
173 196 0
174 198 0
173 197 0
173 197 0
174 197 0
171 195 0
172 196 0
173 196 0
173 197 0
171 196 0
175 198 0
176 198 0
173 197 0
175 198 0
173 196 0
175 197 0
175 197 0
174 197 0
175 197 0
172 196 0
174 198 0
174 198 0
173 197 0
175 198 0
173 197 0
173 197 0
175 198 0
175 198 0
173 197 0
177 198 0
176 199 0
174 197 0
175 198 0
174 197 0
173 197 0
175 197 0
175 198 0
174 198 0
175 198 0
174 197 0
174 197 0
173 197 0
174 198 0
171 195 0
174 197 0
175 198 0
176 199 0
173 197 0
173 197 0
171 195 0
174 197 0
174 198 0
176 198 0
173 197 0
173 197 0
174 198 0
171 196 0
175 198 0
176 198 0
171 194 0
176 199 0
174 198 0
172 197 0
175 198 0
173 197 0
175 198 0
173 197 0
173 196 0
175 198 0
173 197 0
171 196 0
172 196 0
176 199 0
172 196 0
175 198 0
174 197 0
175 197 0
175 198 0
175 198 0
174 197 0
176 199 0
172 196 0
175 198 0
174 198 0
175 198 0
172 197 0
174 198 0
173 197 0
173 197 0
172 196 0
173 197 0
172 196 0
176 199 0
176 198 0
175 198 0
174 197 0
174 197 0
173 197 0
173 197 0
176 199 0
173 197 0
174 197 0
177 199 0
174 198 0
176 199 0
175 198 0
172 196 0
173 197 0
175 198 0
177 199 0
174 197 0
173 197 0
175 198 0
175 198 0
174 197 0
173 197 0
174 197 0
175 198 0
173 197 0
176 198 0
175 198 0
174 197 0
173 197 0
173 197 0
176 198 0
172 197 0
173 197 0
174 197 0
174 197 0
176 198 0
172 196 0
175 198 0
174 197 0
174 197 0
176 199 0
173 197 0
175 198 0
174 198 0
172 196 0
172 197 0
176 198 0
173 197 0
173 197 0
175 198 0
176 198 0
174 198 0
173 197 0
174 196 0
174 197 0
175 198 0
172 196 0
175 197 0
174 198 0
175 198 0
173 197 0
171 196 0
174 198 0
172 196 0
173 196 0
172 196 0
166 188 0
156 176 0
154 175 0
155 176 0
155 176 0
155 176 0
154 175 0
153 175 0
157 177 0
155 175 0
153 175 0
154 175 0
155 176 0
156 177 0
155 175 0
154 175 0
155 176 0
156 176 0
156 177 0
155 176 0
155 176 0
156 177 0
155 176 0
157 177 0
154 175 0
155 176 0
155 176 0
155 176 0
156 176 0
155 176 0
156 176 0
156 177 0
155 176 0
156 177 0
161 181 79
175 195 188
182 202 228
183 202 228
183 202 228
182 202 228
181 201 228
183 202 228
183 202 228
177 197 224
135 156 183
75 99 137
60 85 110
59 86 118
54 83 128
70 93 111
59 86 118
68 94 120
59 86 102
80 106 114
90 113 109
72 95 99
82 105 103
75 99 104
94 116 94
102 123 92
92 112 85
90 114 100
110 131 75
121 141 69
108 129 85
130 150 56
121 140 64
124 144 69
123 143 65
121 142 55
129 149 51
134 154 44
139 158 48
135 155 22
138 159 39
147 166 0
145 165 0
146 168 0
143 164 0
145 166 0
146 166 0
145 165 0
146 167 0
143 163 0
151 172 0
148 169 0
149 169 0
149 170 0
147 166 0
148 168 0
150 171 0
149 170 0
152 173 0
150 171 0
142 163 0
152 172 0
148 168 0
146 168 0
151 172 0
153 176 0
172 197 0
168 191 0
171 193 0
172 195 0
174 197 0
172 195 0
173 197 0
174 196 0
174 197 0
173 196 0
172 196 0
173 195 0
172 195 0
171 194 0
173 196 0
174 197 0
171 194 0
172 195 0
176 198 0
172 195 0
173 197 0
171 195 0
169 193 0
172 195 0
171 195 0
172 195 0
170 194 0
173 197 0
169 194 0
171 195 0
176 198 0
171 194 0
172 195 0
170 194 0
174 197 0
171 194 0
172 195 0
175 198 0
170 194 0
175 198 0
173 197 0
172 196 0
175 198 0
173 196 0
174 196 0
175 198 0
174 198 0
175 198 0
172 195 0
175 198 0
169 192 0
175 198 0
173 197 0
173 195 0
170 195 0
173 197 0
175 198 0
172 196 0
173 197 0
172 196 0
173 197 0
170 195 0
172 196 0
174 197 0
172 196 0
172 195 0
168 191 0
173 196 0
173 197 0
175 198 0
171 195 0
174 198 0
174 197 0
173 197 0
174 197 0
174 197 0
175 198 0
174 198 0
174 197 0
173 196 0
170 193 0
171 194 0
173 197 0
174 197 0
174 197 0
174 197 0
171 194 0
171 194 0
170 194 0
172 196 0
174 197 0
172 197 0
173 197 0
172 196 0
170 195 0
174 198 0
171 195 0
168 193 0
171 195 0
173 197 0
174 198 0
175 198 0
173 197 0
173 196 0
172 197 0
174 197 0
170 194 0
173 196 0
173 197 0
174 197 0
173 196 0
171 195 0
172 196 0
171 195 0
172 196 0
173 197 0
173 197 0
173 196 0
173 196 0
174 198 0
175 198 0
175 198 0
174 197 0
175 198 0
174 197 0
173 197 0
171 195 0
174 197 0
171 195 0
173 196 0
172 196 0
174 196 0
173 196 0
177 199 0
176 199 0
172 195 0
176 198 0
176 199 0
173 197 0
174 197 0
173 196 0
174 197 0
175 198 0
175 198 0
174 198 0
173 197 0
176 198 0
173 196 0
174 198 0
175 198 0
176 199 0
175 198 0
174 197 0
175 198 0
175 198 0
172 196 0
175 198 0
175 198 0
175 198 0
176 198 0
173 197 0
171 194 0
173 197 0
173 197 0
171 195 0
175 198 0
175 198 0
174 198 0
174 197 0
174 198 0
174 197 0
173 196 0
176 199 0
175 198 0
174 197 0
173 196 0
173 197 0
174 197 0
174 198 0
174 197 0
173 197 0
174 197 0
174 197 0
173 196 0
175 198 0
172 196 0
172 195 0
173 196 0
174 197 0
172 197 0
173 197 0
174 198 0
175 198 0
175 198 0
174 198 0
174 197 0
173 196 0
174 198 0
175 198 0
175 198 0
171 196 0
175 198 0
173 197 0
171 195 0
172 195 0
174 197 0
176 198 0
172 195 0
173 197 0
175 198 0
175 198 0
173 196 0
175 198 0
172 196 0
175 198 0
174 198 0
174 197 0
174 197 0
174 197 0
173 197 0
175 198 0
175 198 0
175 198 0
176 199 0
173 196 0
175 198 0
174 197 0
173 197 0
174 197 0
176 198 0
175 198 0
174 197 0
174 197 0
176 198 0
176 198 0
173 197 0
172 195 0
173 197 0
175 198 0
175 198 0
173 197 0
174 198 0
173 197 0
172 195 0
177 199 0
175 198 0
176 199 0
174 198 0
176 199 0
174 197 0
175 198 0
174 197 0
174 198 0
172 196 0
173 197 0
174 197 0
175 198 0
172 196 0
174 197 0
172 197 0
173 197 0
173 196 0
171 196 0
175 198 0
173 197 0
174 197 0
173 197 0
173 197 0
174 197 0
171 196 0
176 199 0
174 197 0
174 197 0
173 197 0
174 197 0
177 198 0
174 197 0
173 197 0
175 198 0
174 198 0
174 198 0
173 197 0
177 199 0
174 197 0
173 197 0
176 198 0
174 197 0
174 197 0
174 197 0
171 195 0
176 199 0
173 197 0
173 197 0
172 196 0
175 198 0
172 196 0
171 196 0
174 197 0
172 196 0
172 196 0
169 192 0
155 176 0
158 178 0
155 176 0
156 177 0
155 176 0
157 177 0
155 176 0
156 176 0
156 177 0
154 176 0
153 174 0
156 177 0
154 175 0
154 175 0
156 177 0
155 175 0
154 176 0
155 175 0
154 175 0
156 176 0
153 175 0
155 176 0
153 175 0
156 176 0
155 176 0
154 175 0
156 175 0
157 177 0
154 175 0
153 174 0
157 177 0
155 176 0
156 177 0
156 177 0
156 177 0
164 185 129
176 196 202
182 202 228
182 202 228
181 201 227
149 168 195
104 125 162
52 79 119
54 83 128
54 83 112
57 83 121
51 79 120
62 88 125
64 89 109
70 95 112
67 93 123
78 100 100
80 104 129
75 99 102
83 105 101
79 101 98
79 102 89
101 123 88
100 122 104
85 107 89
100 122 93
97 120 86
120 141 76
118 138 67
117 135 73
118 137 73
123 143 40
126 146 60
121 141 66
135 155 39
129 149 36
134 154 48
134 153 38
140 159 32
144 164 20
139 159 22
147 167 0
145 166 0
144 164 32
149 170 0
147 166 0
144 165 0
150 171 0
146 167 0
152 174 0
149 169 0
152 172 0
154 174 0
150 172 0
151 172 0
152 171 0
151 173 0
147 168 0
147 166 0
146 166 0
152 173 0
153 174 0
152 172 0
155 176 0
171 194 0
173 196 0
172 196 0
171 195 0
169 194 0
172 196 0
171 195 0
173 196 0
171 193 0
172 196 0
170 194 0
172 195 0
173 196 0
172 195 0
173 195 0
172 195 0
172 195 0
172 194 0
171 195 0
173 197 0
174 197 0
172 195 0
175 198 0
173 196 0
171 195 0
172 195 0
168 190 0
175 198 0
172 196 0
173 196 0
172 196 0
173 196 0
167 191 0
173 196 0
171 194 0
173 195 0
172 196 0
172 195 0
171 195 0
171 194 0
170 194 0
174 197 0
170 194 0
172 196 0
172 194 0
175 198 0
174 198 0
173 196 0
172 196 0
174 198 0
168 192 0
174 197 0
174 197 0
173 196 0
171 195 0
172 195 0
171 196 0
176 198 0
173 197 0
174 198 0
173 197 0
174 197 0
167 191 0
174 197 0
172 196 0
172 195 0
173 196 0
168 192 0
173 196 0
173 196 0
175 198 0
172 194 0
171 194 0
172 197 0
176 199 0
172 196 0
172 196 0
175 198 0
172 196 0
171 195 0
173 196 0
172 195 0
173 197 0
172 196 0
175 196 0
172 195 0
171 195 0
172 196 0
174 197 0
175 198 0
173 196 0
172 196 0
173 196 0
171 195 0
174 196 0
173 197 0
174 198 0
174 197 0
172 196 0
173 197 0
172 195 0
172 194 0
173 197 0
171 195 0
174 198 0
174 198 0
170 195 0
174 198 0
176 198 0
173 196 0
173 197 0
171 195 0
173 196 0
173 196 0
174 198 0
172 195 0
173 197 0
174 198 0
173 196 0
173 196 0
172 195 0
173 197 0
172 196 0
172 196 0
172 195 0
174 198 0
173 196 0
174 197 0
176 198 0
173 197 0
174 198 0
172 196 0
174 197 0
174 197 0
172 196 0
173 197 0
173 197 0
172 195 0
174 197 0
172 195 0
172 196 0
175 198 0
176 198 0
174 197 0
173 196 0
174 197 0
177 199 0
171 195 0
173 196 0
173 197 0
173 197 0
174 198 0
171 196 0
174 198 0
175 198 0
174 197 0
175 198 0
175 198 0
175 198 0
174 198 0
175 198 0
172 196 0
174 197 0
176 199 0
173 197 0
172 194 0
173 196 0
174 198 0
173 196 0
173 197 0
172 197 0
173 196 0
173 197 0
172 196 0
173 197 0
173 197 0
172 195 0
172 196 0
174 198 0
174 197 0
175 198 0
173 196 0
172 196 0
174 197 0
172 196 0
175 198 0
173 197 0
173 196 0
174 198 0
173 197 0
174 197 0
175 198 0
173 197 0
173 197 0
172 195 0
174 197 0
174 197 0
175 198 0
175 198 0
173 197 0
176 199 0
173 197 0
176 199 0
175 198 0
174 196 0
172 194 0
174 197 0
176 199 0
175 198 0
171 195 0
174 197 0
172 195 0
175 198 0
174 197 0
175 198 0
175 198 0
172 197 0
173 196 0
175 198 0
174 198 0
176 199 0
173 197 0
174 198 0
174 197 0
175 197 0
175 198 0
173 197 0
173 197 0
173 197 0
174 198 0
174 198 0
172 197 0
174 197 0
173 197 0
172 196 0
175 198 0
173 197 0
174 197 0
175 198 0
176 199 0
174 197 0
174 197 0
173 197 0
175 198 0
174 197 0
174 197 0
173 197 0
174 197 0
173 197 0
174 198 0
174 197 0
175 198 0
173 196 0
174 197 0
174 197 0
171 196 0
175 197 0
173 197 0
176 198 0
173 197 0
174 198 0
173 196 0
174 198 0
175 197 0
176 198 0
172 196 0
173 197 0
174 197 0
174 197 0
174 197 0
173 197 0
175 198 0
174 197 0
174 197 0
175 198 0
174 197 0
174 197 0
173 196 0
172 196 0
174 197 0
173 196 0
175 198 0
174 197 0
173 197 0
174 197 0
176 198 0
173 196 0
174 197 0
174 197 0
175 198 0
174 197 0
173 196 0
173 196 0
174 197 0
172 196 0
172 196 0
176 198 0
172 196 0
171 195 0
171 195 0
172 195 0
154 176 0
156 176 0
155 176 0
157 177 0
157 177 0
155 176 0
156 177 0
155 176 0
153 174 0
154 175 0
154 175 0
158 177 0
156 176 0
154 176 0
154 175 0
151 173 0
154 176 0
155 177 0
157 177 0
157 177 0
154 175 0
155 176 0
154 176 0
155 176 0
156 176 0
157 177 0
155 175 0
155 175 0
154 175 0
155 176 0
156 177 0
157 177 0
155 176 0
155 176 0
155 176 0
157 177 0
157 178 64
167 187 144
133 152 180
80 104 148
49 77 116
53 79 108
56 84 132
49 79 123
51 78 120
59 86 119
55 81 118
57 82 117
63 88 105
59 85 118
73 97 106
66 92 117
75 99 108
78 103 118
79 104 115
87 109 91
97 119 88
93 115 94
90 112 94
89 110 87
103 126 90
102 123 79
122 140 55
116 136 77
127 147 58
115 135 73
136 157 33
127 148 57
127 146 33
128 148 50
132 153 60
133 153 48
130 150 27
136 157 39
149 168 22
139 159 22
144 166 0
152 172 0
145 164 22
148 169 0
148 167 0
152 172 0
145 165 0
148 168 0
155 175 0
143 162 0
151 172 0
151 171 0
147 168 0
145 167 0
149 170 0
153 173 0
147 167 0
150 171 0
147 169 0
152 173 0
149 169 0
146 166 0
154 175 0
173 195 0
171 194 0
171 195 0
173 196 0
171 194 0
173 196 0
168 192 0
171 194 0
173 197 0
173 196 0
173 197 0
171 194 0
172 196 0
172 195 0
172 196 0
170 193 0
173 196 0
172 195 0
169 193 0
173 196 0
171 194 0
172 195 0
169 193 0
173 196 0
175 196 0
171 195 0
174 197 0
170 194 0
173 195 0
172 195 0
173 196 0
171 194 0
168 192 0
176 198 0
172 196 0
173 195 0
173 196 0
171 194 0
170 194 0
173 196 0
175 197 0
172 195 0
176 198 0
173 197 0
174 197 0
174 197 0
172 196 0
172 195 0
172 195 0
171 196 0
173 197 0
174 197 0
172 194 0
169 193 0
173 197 0
172 196 0
172 197 0
172 196 0
172 195 0
174 197 0
171 194 0
174 197 0
172 196 0
172 195 0
170 194 0
173 197 0
172 195 0
171 195 0
175 197 0
173 197 0
174 198 0
172 195 0
172 197 0
172 196 0
172 197 0
176 198 0
173 196 0
171 195 0
174 196 0
173 196 0
176 198 0
173 196 0
174 198 0
171 195 0
174 197 0
172 195 0
173 196 0
173 196 0
176 199 0
176 199 0
173 197 0
173 197 0
173 197 0
175 197 0
172 195 0
173 197 0
173 197 0
176 198 0
170 193 0
176 199 0
171 194 0
175 198 0
174 197 0
174 198 0
170 194 0
176 199 0
169 193 0
171 195 0
174 198 0
171 194 0
174 198 0
174 196 0
173 196 0
174 198 0
174 196 0
176 199 0
175 198 0
175 198 0
176 199 0
175 198 0
174 197 0
172 197 0
176 199 0
174 197 0
174 197 0
175 198 0
173 197 0
176 199 0
175 198 0
174 196 0
173 197 0
174 197 0
172 195 0
174 197 0
175 198 0
174 197 0
172 195 0
173 197 0
177 199 0
174 198 0
174 197 0
175 197 0
173 197 0
174 198 0
174 197 0
174 197 0
170 194 0
173 196 0
170 194 0
176 199 0
173 197 0
174 197 0
174 197 0
171 195 0
174 198 0
170 195 0
174 197 0
173 196 0
173 196 0
175 198 0
174 198 0
175 198 0
175 198 0
175 198 0
173 197 0
171 195 0
174 197 0
172 197 0
176 199 0
174 197 0
172 196 0
175 198 0
172 196 0
175 198 0
174 197 0
175 198 0
174 197 0
174 198 0
171 194 0
174 198 0
176 199 0
171 195 0
174 197 0
175 198 0
174 197 0
173 196 0
173 197 0
173 197 0
174 197 0
173 196 0
176 198 0
176 199 0
175 198 0
176 199 0
175 198 0
173 197 0
175 198 0
173 197 0
174 198 0
175 198 0
175 198 0
176 199 0
174 197 0
174 198 0
173 197 0
174 197 0
175 198 0
174 198 0
175 198 0
173 197 0
175 198 0
174 197 0
173 196 0
174 198 0
176 199 0
176 198 0
177 199 0
173 197 0
174 198 0
171 195 0
173 196 0
173 197 0
171 195 0
175 198 0
174 198 0
175 198 0
174 198 0
170 196 0
174 198 0
174 197 0
174 197 0
174 198 0
174 197 0
172 196 0
176 199 0
173 196 0
172 195 0
172 196 0
175 198 0
174 197 0
173 197 0
171 196 0
174 198 0
175 198 0
174 198 0
172 196 0
175 198 0
175 198 0
172 196 0
177 199 0
175 198 0
174 197 0
173 197 0
173 196 0
173 196 0
175 197 0
177 199 0
173 197 0
175 198 0
173 196 0
176 198 0
174 197 0
175 198 0
174 198 0
175 198 0
173 197 0
174 197 0
173 196 0
172 196 0
175 198 0
174 197 0
176 199 0
173 197 0
172 196 0
172 196 0
173 197 0
174 197 0
175 198 0
175 198 0
174 197 0
173 196 0
174 197 0
173 196 0
174 197 0
175 198 0
172 195 0
173 196 0
174 196 0
174 197 0
174 197 0
175 198 0
175 198 0
172 196 0
171 196 0
173 196 0
174 196 0
172 195 0
173 197 0
173 196 0
174 197 0
173 196 0
158 179 0
156 176 0
154 175 0
155 176 0
156 176 0
156 176 0
155 176 0
156 177 0
155 176 0
156 177 0
155 176 0
156 176 0
154 175 0
154 176 0
158 178 0
156 177 0
156 177 0
155 176 0
153 174 0
153 175 0
156 176 0
158 177 0
156 177 0
156 176 0
156 176 0
155 176 0
154 175 0
154 175 0
154 175 0
155 176 0
154 175 0
154 175 0
154 175 0
156 176 0
153 175 0
155 176 0
157 177 0
154 175 0
72 97 120
50 81 130
46 74 111
49 79 121
51 77 113
45 72 106
51 78 121
53 81 117
54 81 112
57 85 122
52 80 102
61 89 122
77 101 117
65 90 117
74 98 119
80 101 94
76 99 108
78 100 99
97 119 93
79 102 101
98 119 89
95 115 75
104 126 95
118 138 72
101 119 61
110 129 67
120 140 50
121 141 49
122 143 75
124 144 73
123 142 61
131 152 43
132 152 49
131 151 57
136 155 30
139 160 22
139 160 22
145 166 0
144 165 22
149 168 0
146 168 22
144 165 0
142 162 0
143 164 0
148 167 0
144 164 0
147 167 0
149 169 0
145 166 0
149 170 0
150 170 0
149 170 0
149 170 0
146 166 0
150 170 0
143 163 0
151 170 0
149 169 0
147 166 0
149 170 0
151 172 0
170 193 0
173 196 0
174 197 0
170 194 0
169 194 0
171 195 0
173 196 0
171 194 0
174 197 0
174 196 0
172 195 0
174 197 0
170 193 0
170 194 0
167 190 0
175 197 0
170 194 0
171 194 0
173 196 0
171 193 0
176 198 0
169 192 0
173 197 0
170 194 0
171 195 0
174 197 0
173 196 0
173 197 0
174 197 0
171 196 0
175 198 0
170 194 0
175 198 0
171 195 0
171 195 0
174 197 0
173 196 0
172 196 0
171 194 0
172 195 0
170 195 0
176 198 0
174 197 0
169 192 0
173 196 0
172 196 0
174 197 0
175 198 0
172 196 0
171 194 0
175 198 0
170 194 0
173 196 0
171 194 0
172 196 0
169 193 0
168 192 0
175 198 0
169 193 0
171 195 0
174 197 0
176 199 0
169 194 0
173 196 0
174 197 0
175 198 0
173 196 0
174 197 0
175 198 0
173 197 0
173 197 0
172 194 0
173 196 0
172 196 0
172 196 0
173 196 0
173 197 0
173 196 0
172 196 0
177 199 0
172 197 0
174 198 0
176 199 0
171 196 0
173 196 0
172 196 0
174 196 0
172 195 0
176 198 0
173 197 0
169 193 0
175 198 0
177 199 0
168 192 0
173 197 0
175 198 0
172 195 0
173 196 0
175 198 0
174 196 0
174 197 0
174 197 0
172 195 0
173 196 0
171 196 0
175 198 0
175 197 0
173 197 0
172 196 0
173 197 0
176 199 0
175 197 0
174 197 0
171 195 0
170 193 0
173 196 0
174 197 0
175 197 0
174 198 0
171 195 0
174 198 0
175 198 0
174 197 0
175 198 0
175 198 0
173 197 0
173 197 0
173 196 0
173 197 0
174 198 0
171 195 0
175 198 0
171 196 0
175 197 0
173 197 0
174 198 0
173 197 0
176 198 0
173 196 0
174 198 0
172 196 0
174 197 0
173 197 0
170 194 0
173 196 0
173 197 0
175 197 0
173 197 0
174 198 0
173 196 0
176 198 0
173 197 0
172 196 0
175 198 0
176 198 0
173 197 0
174 198 0
174 198 0
173 196 0
172 197 0
175 198 0
175 198 0
174 198 0
171 195 0
174 198 0
175 198 0
171 196 0
172 196 0
173 197 0
173 197 0
174 197 0
171 195 0
174 198 0
174 197 0
175 198 0
172 197 0
174 198 0
172 197 0
174 198 0
175 198 0
173 196 0
172 195 0
176 199 0
174 198 0
174 198 0
177 199 0
172 197 0
173 197 0
173 197 0
172 196 0
174 198 0
175 198 0
174 197 0
172 195 0
175 198 0
174 197 0
173 197 0
172 196 0
175 198 0
176 198 0
175 198 0
176 199 0
173 197 0
175 198 0
174 197 0
174 197 0
174 198 0
172 197 0
175 198 0
175 198 0
172 196 0
175 198 0
173 197 0
174 197 0
171 196 0
174 197 0
173 197 0
174 197 0
174 198 0
176 199 0
172 197 0
172 196 0
174 197 0
176 199 0
173 197 0
174 197 0
174 197 0
173 197 0
174 198 0
174 197 0
175 198 0
173 196 0
175 198 0
177 199 0
174 197 0
175 198 0
174 198 0
174 198 0
176 198 0
173 197 0
175 198 0
174 198 0
173 196 0
173 197 0
172 196 0
171 196 0
173 197 0
174 198 0
174 197 0
173 197 0
174 197 0
173 197 0
173 196 0
176 198 0
174 198 0
174 197 0
174 197 0
174 197 0
173 197 0
176 198 0
174 196 0
174 197 0
173 196 0
173 197 0
175 198 0
175 198 0
172 196 0
175 198 0
176 198 0
174 197 0
174 197 0
171 196 0
175 198 0
172 196 0
174 197 0
174 197 0
176 198 0
172 196 0
173 196 0
173 197 0
174 197 0
172 196 0
174 197 0
172 196 0
173 197 0
174 197 0
175 198 0
173 197 0
173 196 0
175 198 0
172 196 0
172 196 0
173 197 0
172 195 0
177 198 0
174 197 0
172 196 0
171 195 0
175 198 0
172 196 0
171 195 0
163 185 0
155 176 0
155 176 0
154 175 0
156 177 0
156 176 0
155 176 0
154 175 0
154 175 0
156 177 0
155 176 0
154 176 0
155 176 0
156 176 0
154 175 0
156 177 0
155 176 0
155 176 0
154 176 0
156 177 0
156 176 0
154 176 0
156 176 0
154 175 0
157 177 0
157 177 0
153 175 0
157 177 0
154 176 0
156 177 0
154 176 0
156 176 0
156 176 0
153 174 0
156 177 0
155 176 0
156 176 0
155 176 0
73 97 116
48 76 128
48 77 117
50 79 126
49 79 109
52 79 118
54 82 117
52 79 107
60 86 116
67 91 106
59 84 109
68 92 106
74 98 102
78 101 82
70 93 115
69 93 103
81 104 102
83 106 95
91 114 83
105 126 83
86 107 83
104 125 80
94 116 85
94 116 93
113 131 66
104 124 74
116 137 61
102 122 77
128 149 49
124 145 45
125 142 67
124 144 64
131 152 38
132 152 40
131 152 52
140 161 30
131 150 0
148 169 22
145 164 0
136 156 22
136 157 0
146 166 0
146 167 0
144 164 0
143 163 0
137 157 0
146 166 0
147 168 0
144 165 0
148 169 0
149 169 0
151 171 0
152 173 0
153 174 0
152 173 0
148 169 0
150 171 0
146 166 0
149 171 0
147 169 0
153 174 0
172 195 0
172 195 0
168 192 0
170 193 0
172 193 0
173 196 0
171 193 0
170 192 0
173 197 0
169 192 0
172 195 0
171 194 0
170 194 0
172 194 0
172 196 0
173 197 0
171 194 0
170 193 0
171 196 0
170 192 0
173 196 0
173 196 0
169 192 0
170 193 0
173 196 0
173 196 0
173 196 0
172 196 0
173 196 0
172 196 0
173 196 0
172 195 0
173 196 0
172 194 0
169 194 0
172 195 0
172 195 0
170 194 0
174 197 0
176 199 0
171 195 0
172 196 0
171 195 0
173 196 0
172 195 0
173 196 0
175 197 0
168 191 0
168 193 0
173 196 0
174 197 0
173 196 0
173 197 0
173 197 0
172 195 0
173 197 0
172 195 0
172 195 0
171 194 0
173 197 0
173 197 0
173 196 0
170 194 0
172 196 0
172 196 0
174 196 0
171 196 0
176 198 0
173 197 0
173 196 0
172 195 0
173 196 0
174 197 0
173 197 0
174 197 0
174 197 0
173 195 0
171 194 0
174 197 0
173 197 0
173 196 0
173 196 0
170 194 0
174 197 0
173 197 0
172 196 0
175 197 0
171 195 0
175 198 0
176 199 0
173 197 0
174 197 0
171 194 0
172 196 0
171 194 0
173 196 0
174 197 0
174 197 0
174 197 0
172 197 0
174 197 0
176 198 0
176 199 0
168 191 0
174 198 0
174 197 0
171 193 0
174 197 0
173 197 0
174 197 0
174 197 0
173 197 0
175 197 0
173 197 0
174 197 0
174 198 0
173 197 0
172 197 0
175 198 0
176 198 0
177 199 0
174 197 0
174 197 0
170 195 0
173 197 0
174 198 0
172 197 0
173 197 0
175 198 0
172 194 0
172 196 0
175 198 0
175 198 0
173 197 0
174 197 0
173 197 0
174 198 0
175 198 0
175 198 0
175 198 0
175 198 0
173 196 0
174 197 0
174 197 0
172 195 0
172 197 0
173 196 0
171 195 0
174 197 0
175 198 0
174 197 0
173 196 0
176 199 0
173 197 0
173 196 0
175 198 0
171 194 0
171 195 0
172 197 0
174 197 0
174 198 0
175 198 0
174 198 0
176 199 0
174 198 0
172 197 0
173 197 0
173 197 0
172 195 0
172 197 0
175 198 0
172 196 0
174 198 0
173 196 0
172 195 0
176 199 0
175 198 0
171 194 0
176 199 0
173 197 0
174 197 0
174 198 0
173 197 0
173 196 0
174 198 0
175 198 0
175 198 0
174 197 0
171 196 0
175 198 0
172 196 0
175 198 0
173 197 0
173 196 0
173 197 0
175 198 0
175 198 0
176 198 0
173 197 0
172 197 0
173 197 0
174 198 0
174 198 0
175 198 0
175 198 0
171 195 0
173 197 0
172 196 0
175 198 0
175 198 0
174 198 0
174 198 0
175 198 0
173 197 0
173 197 0
174 198 0
174 197 0
173 197 0
171 195 0
175 198 0
171 195 0
175 198 0
174 197 0
175 198 0
172 196 0
175 198 0
177 199 0
175 198 0
175 198 0
174 197 0
174 197 0
175 198 0
175 198 0
173 197 0
173 197 0
175 198 0
174 198 0
174 198 0
174 197 0
175 198 0
172 196 0
174 197 0
175 198 0
174 197 0
175 198 0
176 198 0
177 199 0
172 196 0
175 198 0
172 196 0
174 198 0
173 197 0
174 197 0
174 197 0
175 198 0
172 196 0
176 198 0
174 197 0
172 197 0
172 196 0
175 197 0
175 198 0
176 198 0
175 198 0
176 198 0
171 196 0
173 197 0
173 197 0
171 196 0
173 196 0
173 196 0
172 197 0
175 198 0
173 197 0
174 197 0
176 198 0
173 197 0
174 198 0
174 197 0
173 196 0
173 197 0
174 197 0
173 197 0
174 197 0
175 198 0
173 196 0
173 195 0
171 196 0
175 198 0
172 196 0
173 196 0
175 198 0
177 198 0
173 196 0
174 197 0
171 194 0
174 197 0
171 195 0
171 196 0
173 197 0
171 195 0
165 187 0
155 176 0
156 177 0
154 176 0
153 174 0
157 177 0
153 175 0
154 175 0
153 175 0
156 177 0
154 175 0
154 175 0
155 176 0
155 176 0
155 175 0
157 177 0
155 177 0
155 176 0
155 176 0
154 175 0
154 175 0
155 176 0
154 175 0
155 175 0
156 176 0
155 176 0
157 177 0
154 175 0
157 177 0
154 175 0
155 176 0
154 176 0
155 176 0
155 176 0
153 175 0
154 175 0
153 173 0
156 176 0
107 129 96
50 79 118
51 81 133
48 76 117
54 83 124
53 79 110
46 75 113
54 82 123
56 83 118
67 91 113
56 81 112
70 93 106
72 96 112
64 90 107
56 81 108
88 109 92
77 98 99
79 99 85
94 114 71
89 111 87
82 104 85
104 124 89
99 121 79
98 119 88
107 126 65
105 124 54
106 127 94
120 140 50
114 134 45
132 149 43
140 160 22
123 144 46
132 151 39
140 159 30
138 160 22
136 155 20
141 162 0
139 160 22
142 161 0
146 167 0
147 168 0
148 167 0
148 168 0
146 166 0
148 167 0
152 172 0
141 162 0
151 172 0
153 173 0
143 164 0
147 168 0
149 169 0
146 167 0
150 171 0
155 176 0
152 173 0
152 173 0
150 171 0
148 170 0
145 166 0
156 177 0
172 196 0
170 193 0
171 195 0
169 193 0
173 196 0
172 194 0
172 196 0
168 192 0
174 197 0
171 195 0
175 198 0
174 197 0
170 195 0
169 191 0
171 194 0
172 195 0
171 195 0
171 195 0
170 193 0
173 196 0
171 194 0
170 194 0
175 198 0
170 193 0
172 196 0
170 193 0
173 197 0
169 193 0
171 193 0
175 198 0
173 196 0
171 195 0
170 193 0
170 194 0
173 196 0
171 194 0
174 197 0
169 193 0
171 195 0
169 192 0
170 193 0
172 195 0
173 196 0
175 197 0
173 197 0
174 196 0
171 194 0
172 195 0
172 196 0
171 195 0
174 197 0
173 195 0
172 195 0
174 198 0
174 196 0
171 195 0
173 196 0
171 194 0
173 195 0
174 196 0
174 197 0
176 198 0
172 195 0
172 197 0
172 197 0
173 196 0
175 197 0
172 195 0
170 195 0
174 198 0
171 195 0
171 195 0
175 198 0
171 195 0
175 198 0
173 197 0
172 196 0
173 197 0
172 196 0
175 197 0
174 197 0
170 194 0
173 196 0
173 196 0
169 193 0
174 197 0
168 192 0
171 195 0
173 197 0
173 196 0
172 196 0
173 196 0
174 197 0
175 197 0
171 195 0
172 196 0
173 196 0
176 198 0
173 196 0
173 196 0
174 197 0
176 198 0
172 196 0
172 196 0
173 197 0
176 198 0
171 194 0
173 196 0
175 197 0
175 198 0
172 196 0
173 196 0
176 199 0
173 197 0
175 197 0
171 196 0
172 194 0
173 197 0
172 197 0
174 197 0
175 198 0
175 198 0
175 198 0
176 199 0
175 198 0
174 198 0
175 198 0
168 191 0
173 197 0
176 199 0
172 197 0
172 196 0
174 197 0
173 197 0
170 194 0
173 197 0
175 198 0
172 197 0
172 196 0
173 196 0
172 196 0
173 197 0
173 196 0
174 198 0
175 198 0
176 199 0
174 197 0
172 194 0
174 197 0
173 195 0
173 197 0
174 198 0
175 198 0
174 196 0
172 195 0
174 198 0
172 197 0
174 198 0
174 198 0
176 199 0
172 196 0
174 198 0
173 197 0
174 197 0
174 198 0
174 197 0
174 197 0
175 198 0
174 198 0
173 197 0
176 198 0
175 198 0
175 198 0
174 198 0
174 197 0
173 197 0
171 196 0
173 197 0
173 196 0
174 197 0
174 197 0
172 196 0
170 194 0
173 197 0
172 196 0
175 198 0
175 198 0
174 197 0
173 197 0
174 198 0
173 197 0
176 198 0
173 197 0
173 197 0
175 198 0
175 198 0
173 197 0
175 198 0
174 198 0
175 198 0
172 197 0
174 196 0
176 199 0
173 197 0
174 198 0
176 198 0
175 198 0
175 198 0
174 197 0
174 197 0
175 198 0
173 197 0
174 198 0
174 196 0
175 198 0
175 198 0
173 197 0
174 197 0
177 199 0
172 196 0
174 198 0
173 196 0
174 198 0
175 198 0
178 200 0
175 198 0
176 198 0
176 199 0
177 199 0
175 198 0
175 198 0
173 197 0
175 198 0
175 198 0
172 196 0
172 196 0
172 197 0
174 198 0
176 198 0
175 197 0
172 197 0
175 198 0
175 198 0
171 196 0
173 197 0
173 197 0
177 199 0
172 195 0
175 197 0
173 197 0
172 196 0
176 199 0
175 197 0
172 196 0
174 197 0
175 198 0
172 196 0
175 198 0
175 198 0
176 198 0
174 198 0
173 197 0
172 196 0
174 197 0
174 198 0
173 197 0
173 196 0
176 198 0
174 197 0
173 197 0
173 197 0
174 197 0
174 198 0
174 197 0
177 199 0
172 196 0
172 196 0
174 197 0
174 198 0
173 196 0
176 198 0
177 199 0
175 198 0
175 198 0
177 199 0
174 196 0
172 196 0
173 196 0
174 197 0
174 196 0
173 196 0
172 196 0
172 196 0
174 197 0
175 198 0
173 196 0
173 196 0
171 194 0
173 196 0
173 197 0
172 196 0
168 191 0
154 176 0
156 176 0
156 176 0
154 176 0
156 177 0
155 176 0
154 175 0
156 176 0
154 175 0
155 176 0
157 177 0
155 176 0
155 176 0
156 176 0
156 176 0
154 175 0
154 175 0
154 175 0
156 176 0
154 176 0
154 175 0
153 174 0
155 176 0
155 176 0
155 176 0
156 177 0
150 173 0
154 176 0
152 173 0
155 176 0
155 176 0
154 175 0
155 176 0
154 175 0
155 175 0
152 173 0
154 175 0
121 142 67
49 78 128
49 78 121
48 77 129
53 81 119
58 85 113
52 79 109
46 73 115
67 93 113
55 81 103
58 84 98
55 81 101
63 87 102
77 100 97
66 86 88
65 90 112
73 96 98
69 92 98
101 121 85
94 115 79
103 124 89
86 109 77
105 124 74
95 116 77
114 135 77
119 139 55
125 147 72
110 132 89
133 153 30
126 147 32
126 147 48
131 151 44
132 153 30
134 155 43
139 160 39
133 152 25
138 156 0
151 170 0
136 156 20
142 160 0
141 161 0
146 165 0
149 170 0
143 164 0
149 170 0
141 162 0
152 173 0
146 168 0
143 162 0
149 170 0
139 160 0
148 168 0
146 167 0
151 171 0
147 167 0
151 172 0
154 173 0
151 171 0
148 169 0
147 168 0
149 169 0
170 193 0
169 193 0
171 194 0
171 195 0
172 196 0
173 196 0
173 196 0
171 194 0
171 195 0
171 194 0
169 192 0
175 197 0
170 194 0
171 195 0
170 193 0
173 196 0
175 197 0
173 196 0
170 194 0
171 195 0
172 195 0
170 194 0
174 195 0
171 194 0
172 196 0
170 194 0
171 193 0
174 197 0
173 196 0
172 195 0
171 195 0
171 195 0
169 193 0
171 195 0
171 195 0
172 196 0
172 195 0
171 195 0
172 197 0
170 194 0
173 196 0
171 193 0
172 196 0
172 196 0
175 198 0
168 190 0
175 198 0
174 196 0
172 196 0
173 197 0
174 197 0
169 193 0
171 195 0
172 195 0
176 198 0
170 193 0
169 194 0
172 196 0
169 191 0
172 196 0
174 198 0
173 196 0
172 196 0
173 196 0
170 194 0
171 194 0
174 198 0
169 191 0
172 196 0
173 197 0
172 196 0
173 197 0
175 198 0
172 196 0
174 197 0
173 195 0
169 194 0
174 197 0
174 198 0
174 197 0
175 198 0
176 197 0
174 197 0
170 192 0
172 194 0
172 196 0
172 196 0
172 196 0
174 197 0
169 193 0
175 198 0
175 198 0
171 194 0
172 196 0
172 195 0
173 196 0
170 194 0
171 195 0
175 198 0
174 197 0
172 195 0
171 195 0
173 197 0
169 193 0
174 196 0
172 195 0
176 199 0
173 197 0
175 198 0
174 197 0
172 197 0
175 198 0
174 198 0
171 195 0
170 195 0
174 198 0
173 196 0
175 197 0
175 198 0
172 197 0
174 197 0
172 195 0
172 194 0
174 198 0
176 198 0
173 197 0
171 195 0
171 195 0
174 197 0
175 198 0
173 197 0
172 196 0
174 198 0
175 198 0
177 198 0
174 197 0
173 197 0
173 196 0
174 198 0
172 196 0
173 197 0
174 198 0
172 196 0
173 197 0
173 197 0
176 199 0
172 196 0
173 197 0
173 196 0
170 194 0
172 197 0
172 196 0
174 197 0
175 198 0
173 197 0
176 198 0
175 198 0
175 198 0
174 197 0
172 195 0
173 197 0
173 197 0
175 198 0
174 198 0
173 197 0
173 196 0
175 198 0
175 198 0
176 199 0
177 199 0
176 198 0
175 198 0
174 197 0
172 196 0
174 198 0
175 198 0
174 198 0
172 196 0
172 197 0
174 197 0
175 198 0
175 198 0
173 197 0
173 197 0
173 197 0
174 197 0
172 196 0
174 198 0
173 196 0
174 198 0
173 197 0
173 197 0
172 196 0
175 198 0
174 198 0
173 197 0
173 197 0
175 198 0
175 198 0
173 197 0
171 195 0
175 198 0
175 197 0
175 198 0
176 199 0
174 198 0
175 197 0
173 197 0
174 197 0
174 198 0
177 199 0
175 197 0
173 197 0
174 198 0
174 197 0
174 198 0
176 198 0
172 196 0
174 198 0
173 196 0
173 197 0
175 198 0
170 194 0
175 198 0
174 198 0
178 200 0
173 197 0
174 198 0
173 197 0
174 198 0
173 197 0
176 198 0
175 198 0
175 198 0
171 194 0
174 197 0
173 197 0
175 198 0
174 197 0
175 198 0
175 198 0
177 199 0
173 197 0
173 197 0
176 198 0
176 199 0
173 197 0
172 196 0
174 197 0
174 197 0
173 197 0
174 197 0
174 198 0
176 198 0
174 197 0
173 197 0
173 197 0
175 198 0
173 197 0
176 199 0
173 197 0
176 198 0
173 196 0
176 199 0
172 197 0
173 197 0
176 198 0
172 196 0
175 198 0
172 196 0
175 198 0
172 196 0
173 197 0
172 196 0
174 197 0
174 197 0
176 198 0
173 196 0
173 197 0
174 197 0
173 197 0
174 197 0
172 196 0
173 196 0
176 198 0
172 196 0
173 197 0
174 197 0
172 195 0
171 196 0
173 196 0
171 195 0
174 197 0
173 197 0
175 197 0
173 196 0
173 196 0
170 194 0
172 196 0
172 196 0
172 195 0
172 195 0
154 175 0
155 176 0
154 175 0
154 175 0
154 176 0
156 177 0
156 176 0
155 176 0
155 176 0
156 177 0
155 176 0
154 175 0
156 176 0
154 175 0
156 176 0
157 177 0
155 176 0
155 176 0
155 176 0
154 175 0
157 177 0
153 174 0
155 176 0
154 175 0
156 176 0
155 175 0
155 176 0
155 176 0
155 176 0
157 177 0
155 176 0
153 175 0
156 176 0
156 176 0
156 176 0
153 174 0
154 176 0
123 144 76
48 78 116
49 78 111
53 81 111
48 76 109
53 80 119
56 82 118
51 79 115
63 88 113
63 88 111
53 79 112
68 90 99
54 81 111
72 95 86
74 98 107
65 88 92
82 103 96
83 104 88
100 121 80
96 117 85
101 122 68
84 105 79
92 114 88
100 122 72
108 128 73
119 138 59
116 135 57
107 128 72
124 145 75
117 138 39
122 141 45
127 147 44
138 157 30
133 153 39
132 151 32
139 159 0
141 160 12
140 161 0
141 161 0
148 168 0
143 162 0
141 161 0
148 168 0
138 156 0
143 164 0
148 168 0
147 167 0
146 166 0
146 166 0
144 165 0
150 170 0
150 171 0
149 167 0
149 170 0
149 170 0
154 173 0
153 172 0
152 172 0
146 167 0
147 167 0
147 168 0
171 194 0
172 194 0
169 192 0
173 195 0
171 195 0
170 194 0
170 194 0
171 194 0
171 194 0
173 196 0
171 194 0
170 193 0
169 193 0
171 193 0
174 197 0
172 196 0
174 197 0
172 194 0
172 195 0
172 195 0
172 194 0
171 194 0
171 194 0
168 192 0
172 195 0
169 193 0
171 195 0
173 197 0
173 196 0
172 196 0
171 194 0
166 191 0
172 195 0
172 196 0
171 194 0
171 193 0
171 195 0
172 196 0
171 196 0
172 194 0
170 194 0
171 196 0
175 197 0
171 195 0
170 194 0
168 192 0
175 198 0
173 197 0
173 197 0
173 196 0
175 198 0
174 196 0
171 194 0
171 194 0
174 197 0
175 198 0
174 197 0
175 198 0
173 196 0
175 198 0
171 195 0
173 196 0
172 196 0
172 195 0
169 194 0
170 194 0
174 197 0
170 194 0
172 196 0
172 196 0
174 198 0
172 195 0
174 197 0
172 196 0
169 193 0
173 197 0
174 197 0
173 197 0
171 194 0
172 195 0
170 194 0
173 197 0
173 197 0
173 196 0
175 197 0
172 196 0
173 196 0
173 197 0
174 197 0
171 194 0
171 195 0
172 196 0
173 196 0
171 195 0
171 193 0
175 198 0
172 196 0
172 195 0
173 196 0
173 196 0
173 197 0
171 195 0
174 198 0
172 196 0
172 196 0
171 195 0
172 197 0
173 196 0
174 197 0
173 196 0
174 197 0
173 196 0
174 197 0
172 196 0
176 198 0
176 198 0
174 197 0
174 197 0
176 198 0
172 195 0
174 197 0
174 198 0
174 196 0
174 197 0
174 198 0
176 199 0
173 195 0
172 195 0
171 194 0
172 196 0
174 197 0
173 197 0
175 198 0
173 197 0
174 198 0
173 196 0
172 196 0
172 197 0
172 196 0
171 195 0
172 195 0
172 195 0
173 197 0
177 199 0
173 196 0
174 198 0
172 197 0
175 197 0
175 198 0
176 199 0
173 197 0
174 197 0
175 198 0
173 196 0
175 198 0
176 198 0
172 195 0
173 197 0
173 197 0
174 198 0
173 197 0
175 198 0
174 197 0
173 197 0
172 197 0
173 197 0
171 195 0
175 198 0
171 195 0
172 196 0
173 197 0
175 198 0
172 195 0
173 197 0
173 197 0
175 198 0
174 198 0
172 195 0
175 198 0
171 196 0
173 197 0
174 198 0
172 195 0
173 197 0
175 197 0
174 198 0
175 198 0
175 198 0
174 197 0
171 195 0
175 198 0
174 196 0
174 198 0
176 199 0
177 199 0
175 197 0
174 198 0
172 196 0
174 198 0
174 197 0
176 198 0
175 198 0
172 196 0
173 197 0
175 198 0
174 197 0
171 196 0
172 196 0
173 197 0
173 197 0
172 196 0
174 197 0
170 194 0
173 197 0
176 199 0
175 198 0
174 198 0
175 197 0
174 198 0
176 199 0
173 196 0
174 198 0
175 198 0
175 198 0
175 198 0
173 197 0
173 197 0
173 197 0
170 195 0
173 197 0
178 199 0
174 198 0
174 197 0
172 197 0
171 196 0
171 196 0
173 196 0
175 198 0
175 198 0
173 197 0
174 198 0
172 196 0
174 197 0
174 198 0
175 198 0
176 199 0
174 198 0
176 198 0
173 196 0
174 198 0
173 197 0
174 197 0
173 197 0
172 197 0
173 196 0
175 198 0
173 197 0
173 197 0
173 197 0
173 196 0
172 196 0
172 196 0
172 196 0
173 197 0
175 198 0
174 197 0
174 197 0
175 198 0
173 197 0
175 198 0
172 196 0
172 196 0
174 197 0
175 198 0
173 197 0
175 198 0
173 197 0
173 196 0
175 197 0
173 196 0
171 195 0
171 196 0
174 197 0
175 198 0
175 198 0
173 196 0
173 197 0
171 195 0
173 197 0
175 197 0
174 197 0
172 196 0
175 198 0
171 195 0
173 196 0
171 195 0
172 195 0
173 197 0
173 197 0
171 195 0
173 196 0
172 195 0
157 178 0
155 176 0
155 176 0
154 175 0
155 176 0
156 177 0
156 177 0
155 176 0
156 176 0
154 175 0
156 176 0
154 175 0
155 176 0
154 175 0
156 175 0
155 176 0
155 176 0
156 177 0
155 176 0
156 177 0
155 176 0
155 176 0
154 175 0
155 176 0
152 173 0
155 176 0
154 175 0
154 176 0
155 176 0
152 173 0
154 176 0
154 175 0
153 175 0
154 175 0
155 176 0
155 176 0
154 175 0
142 163 45
54 83 118
58 85 116
50 76 107
63 89 110
57 85 116
51 76 112
59 83 109
51 77 108
58 83 105
69 91 95
67 89 107
68 90 98
60 83 89
59 84 88
67 90 79
87 108 87
89 111 81
102 122 75
89 111 84
98 118 83
105 125 65
98 118 81
102 124 66
103 123 62
113 133 67
115 135 52
109 129 62
119 138 57
130 151 58
126 145 45
119 140 32
131 151 30
125 144 38
139 158 0
142 163 0
140 160 0
140 158 32
147 166 0
134 155 0
147 167 0
138 159 0
148 168 0
141 159 0
145 167 0
141 160 0
140 162 0
145 166 0
148 168 0
149 170 0
150 170 0
144 165 0
145 165 0
146 167 0
153 174 0
149 169 0
148 168 0
149 170 0
151 172 0
150 171 0
150 171 0
171 193 0
173 196 0
171 193 0
167 192 0
167 190 0
169 193 0
173 196 0
172 195 0
171 195 0
170 193 0
172 196 0
170 193 0
171 194 0
175 197 0
169 193 0
172 196 0
173 196 0
170 194 0
172 195 0
169 191 0
170 194 0
172 196 0
169 194 0
170 193 0
173 196 0
173 196 0
172 196 0
174 197 0
172 196 0
169 192 0
171 194 0
171 195 0
173 196 0
170 195 0
174 197 0
172 195 0
170 193 0
171 195 0
173 195 0
171 194 0
171 194 0
173 196 0
173 196 0
171 194 0
174 197 0
166 190 0
172 196 0
175 198 0
171 195 0
171 195 0
175 198 0
170 194 0
168 193 0
173 197 0
174 197 0
173 196 0
174 197 0
174 196 0
173 197 0
173 196 0
170 195 0
173 196 0
174 198 0
171 194 0
174 197 0
172 195 0
169 193 0
171 195 0
173 196 0
173 196 0
171 194 0
169 192 0
170 194 0
175 197 0
170 194 0
174 198 0
173 196 0
174 198 0
175 198 0
171 195 0
173 196 0
172 196 0
171 194 0
173 196 0
171 194 0
174 197 0
173 197 0
175 198 0
170 196 0
175 198 0
175 198 0
175 197 0
173 196 0
173 197 0
171 195 0
171 196 0
171 195 0
172 195 0
174 197 0
175 198 0
173 196 0
170 194 0
172 197 0
174 197 0
173 197 0
169 192 0
173 197 0
174 198 0
173 197 0
172 195 0
172 196 0
171 195 0
175 198 0
174 197 0
173 197 0
172 195 0
173 196 0
171 194 0
173 197 0
174 197 0
174 196 0
172 196 0
175 198 0
174 197 0
174 197 0
174 197 0
175 198 0
173 196 0
176 199 0
172 196 0
171 195 0
175 198 0
174 197 0
173 197 0
173 197 0
173 196 0
173 197 0
175 198 0
173 197 0
175 197 0
176 198 0
171 194 0
172 196 0
174 197 0
175 197 0
172 196 0
175 198 0
172 195 0
173 197 0
174 196 0
174 198 0
172 196 0
172 196 0
173 197 0
175 197 0
174 198 0
172 195 0
175 198 0
174 198 0
173 197 0
174 197 0
171 195 0
174 196 0
175 197 0
174 198 0
174 197 0
171 195 0
172 197 0
173 197 0
172 196 0
172 196 0
175 198 0
173 197 0
174 198 0
175 198 0
173 197 0
176 198 0
172 197 0
172 196 0
173 197 0
176 198 0
173 197 0
173 197 0
174 198 0
175 198 0
174 198 0
174 197 0
172 196 0
175 198 0
174 197 0
173 197 0
173 196 0
176 198 0
172 196 0
171 196 0
175 198 0
174 197 0
175 198 0
175 198 0
173 197 0
173 197 0
173 197 0
175 197 0
175 198 0
173 196 0
176 198 0
175 198 0
175 198 0
175 198 0
175 198 0
176 199 0
172 197 0
175 198 0
173 196 0
172 196 0
174 198 0
173 196 0
173 197 0
173 197 0
173 197 0
174 198 0
171 195 0
176 199 0
174 198 0
174 197 0
174 198 0
175 198 0
176 199 0
175 198 0
175 198 0
174 198 0
174 197 0
176 199 0
176 198 0
173 197 0
176 198 0
175 198 0
176 199 0
174 197 0
175 198 0
174 198 0
173 197 0
173 197 0
171 195 0
174 198 0
175 198 0
174 198 0
176 199 0
173 196 0
172 196 0
175 198 0
175 198 0
176 198 0
172 197 0
174 198 0
176 199 0
173 197 0
173 196 0
174 198 0
174 197 0
173 197 0
173 197 0
173 197 0
175 198 0
172 196 0
174 197 0
174 197 0
175 198 0
173 197 0
173 196 0
173 197 0
175 197 0
172 196 0
173 197 0
177 199 0
175 198 0
174 197 0
172 196 0
174 197 0
174 197 0
176 199 0
173 197 0
173 197 0
174 197 0
173 196 0
173 196 0
173 196 0
174 197 0
175 197 0
174 198 0
172 196 0
173 196 0
173 196 0
173 196 0
175 197 0
172 196 0
173 197 0
172 195 0
172 196 0
173 196 0
171 195 0
173 195 0
160 181 0
155 176 0
155 176 0
154 175 0
155 175 0
154 176 0
155 174 0
156 176 0
154 176 0
155 176 0
155 176 0
155 176 0
153 175 0
155 176 0
156 176 0
154 175 0
154 175 0
155 175 0
156 176 0
153 175 0
156 177 0
156 177 0
155 176 0
154 175 0
154 174 0
155 175 0
155 176 0
155 176 0
152 174 0
155 176 0
153 174 0
155 176 0
154 175 0
153 174 0
153 175 0
153 175 0
155 174 0
152 173 20
52 79 109
47 76 105
48 77 109
59 86 112
50 77 100
55 82 105
46 74 98
60 86 97
59 85 103
60 87 110
73 94 95
62 86 109
70 92 95
83 104 91
85 108 98
76 98 90
79 101 86
67 92 102
89 109 81
91 113 77
94 115 83
108 127 78
111 132 76
107 125 70
114 136 68
97 116 73
118 138 48
125 146 60
139 158 22
122 141 42
133 152 44
130 149 45
137 158 39
143 163 0
140 159 22
141 162 22
140 160 0
138 157 22
149 168 0
141 161 0
143 165 0
140 161 0
140 160 0
145 165 0
147 167 0
150 169 0
151 171 0
147 166 0
150 169 0
151 172 0
140 160 0
151 172 0
141 163 0
154 174 0
142 162 0
148 169 0
147 167 0
147 167 0
154 173 0
153 174 0
169 192 0
172 195 0
168 190 0
171 194 0
172 195 0
172 195 0
172 194 0
171 195 0
169 193 0
168 191 0
172 195 0
169 192 0
170 193 0
173 196 0
171 195 0
168 191 0
170 194 0
173 196 0
173 196 0
171 194 0
172 195 0
172 194 0
171 195 0
174 197 0
170 193 0
174 197 0
166 188 0
173 196 0
172 195 0
171 194 0
174 196 0
170 192 0
169 193 0
172 196 0
171 194 0
172 195 0
171 196 0
169 194 0
171 196 0
165 189 0
172 195 0
171 196 0
170 193 0
170 192 0
171 195 0
173 196 0
174 197 0
173 196 0
171 195 0
170 193 0
171 195 0
173 196 0
170 193 0
171 195 0
172 197 0
176 199 0
172 195 0
173 197 0
173 197 0
172 196 0
169 191 0
172 195 0
172 195 0
170 195 0
171 195 0
172 197 0
171 195 0
174 197 0
175 198 0
175 198 0
173 195 0
173 197 0
173 195 0
173 196 0
172 195 0
167 190 0
172 196 0
172 196 0
170 194 0
173 197 0
176 198 0
172 196 0
172 196 0
173 197 0
170 194 0
174 197 0
170 193 0
176 199 0
175 197 0
174 197 0
171 194 0
171 194 0
173 196 0
174 197 0
174 197 0
172 195 0
174 196 0
172 197 0
169 191 0
170 193 0
171 195 0
174 197 0
174 197 0
171 195 0
170 194 0
173 196 0
173 197 0
173 197 0
170 193 0
174 198 0
173 197 0
174 197 0
171 195 0
172 196 0
173 196 0
174 197 0
173 196 0
174 197 0
174 197 0
172 196 0
172 195 0
173 197 0
172 196 0
171 194 0
169 194 0
175 198 0
172 195 0
170 193 0
175 198 0
172 196 0
174 198 0
171 195 0
172 196 0
175 198 0
174 197 0
174 198 0
175 198 0
173 197 0
172 195 0
174 196 0
175 198 0
171 194 0
172 197 0
173 196 0
174 198 0
172 195 0
170 194 0
172 195 0
176 198 0
172 197 0
174 196 0
176 199 0
176 199 0
172 196 0
173 196 0
173 196 0
173 196 0
173 196 0
177 198 0
176 199 0
174 198 0
172 195 0
173 197 0
174 198 0
175 198 0
173 197 0
175 198 0
172 195 0
174 196 0
171 196 0
177 198 0
174 196 0
174 197 0
173 196 0
173 197 0
175 198 0
175 198 0
174 197 0
176 197 0
175 198 0
174 197 0
177 199 0
175 198 0
176 198 0
173 197 0
171 195 0
174 197 0
175 198 0
176 198 0
174 197 0
171 196 0
173 197 0
172 196 0
177 199 0
174 197 0
174 198 0
170 193 0
174 197 0
174 197 0
175 198 0
173 197 0
176 199 0
177 199 0
173 197 0
174 197 0
176 199 0
174 197 0
174 197 0
174 197 0
174 196 0
176 199 0
175 198 0
173 196 0
172 196 0
174 198 0
176 199 0
176 199 0
171 195 0
175 197 0
173 197 0
172 195 0
175 198 0
176 199 0
173 196 0
172 197 0
175 198 0
173 196 0
175 198 0
171 196 0
175 198 0
174 197 0
174 198 0
175 198 0
172 197 0
173 197 0
173 197 0
174 198 0
173 197 0
173 197 0
174 198 0
172 197 0
175 198 0
175 198 0
175 198 0
174 197 0
174 197 0
174 197 0
174 197 0
175 198 0
173 197 0
175 198 0
175 197 0
175 197 0
174 197 0
175 198 0
172 196 0
174 198 0
173 197 0
172 196 0
173 197 0
174 197 0
174 197 0
173 197 0
173 196 0
171 195 0
174 197 0
171 196 0
176 198 0
174 198 0
175 197 0
175 197 0
175 198 0
172 196 0
173 197 0
172 196 0
174 196 0
175 197 0
173 197 0
175 198 0
173 196 0
173 196 0
174 197 0
176 198 0
175 197 0
174 197 0
174 197 0
171 194 0
174 197 0
173 196 0
172 196 0
171 195 0
174 197 0
172 196 0
175 197 0
175 197 0
173 196 0
174 196 0
172 196 0
172 195 0
172 196 0
172 195 0
175 197 0
164 185 0
155 175 0
154 175 0
153 175 0
155 175 0
156 177 0
157 177 0
155 175 0
154 174 0
151 174 0
155 176 0
155 176 0
153 175 0
156 176 0
154 175 0
154 175 0
156 177 0
158 178 0
156 177 0
157 177 0
153 174 0
156 176 0
155 176 0
156 176 0
153 174 0
156 176 0
154 176 0
153 174 0
154 175 0
156 176 0
157 177 0
157 177 0
151 173 0
154 175 0
152 173 0
154 174 0
154 175 0
153 175 0
51 79 110
53 80 110
56 81 108
47 76 107
53 80 111
50 76 101
51 76 101
50 77 99
60 86 111
59 86 112
71 94 98
78 98 83
68 92 99
86 107 91
74 96 81
85 106 79
99 119 77
89 109 48
77 97 73
102 122 84
110 130 66
96 117 67
109 129 76
119 138 70
103 125 71
121 141 67
118 139 45
120 138 36
123 142 39
127 147 22
144 165 39
125 147 0
138 158 32
138 158 22
137 156 22
142 163 22
143 162 0
143 164 0
146 165 0
140 159 0
150 169 0
148 167 0
136 156 0
141 159 0
145 165 0
149 170 0
146 166 0
139 159 0
143 164 0
152 171 0
151 170 0
143 163 0
146 167 0
142 164 0
150 171 0
147 167 0
148 169 0
151 172 0
146 167 0
146 166 0
166 191 0
171 194 0
170 192 0
173 195 0
167 190 0
170 193 0
170 192 0
172 195 0
169 192 0
173 196 0
174 195 0
168 191 0
174 196 0
169 192 0
172 196 0
171 192 0
172 196 0
170 194 0
167 190 0
172 195 0
169 192 0
170 194 0
171 194 0
170 193 0
170 194 0
174 197 0
170 193 0
172 195 0
174 197 0
173 195 0
173 196 0
170 194 0
174 196 0
174 197 0
171 195 0
171 195 0
174 196 0
172 195 0
174 196 0
170 192 0
169 192 0
167 190 0
171 194 0
169 192 0
173 197 0
172 196 0
170 194 0
173 196 0
173 196 0
175 197 0
173 196 0
173 197 0
173 196 0
171 195 0
172 196 0
172 195 0
169 192 0
171 194 0
172 195 0
173 197 0
172 195 0
173 197 0
175 197 0
173 195 0
171 195 0
174 197 0
171 194 0
173 195 0
172 196 0
171 195 0
173 196 0
172 196 0
174 197 0
169 193 0
174 197 0
172 196 0
170 194 0
174 197 0
174 197 0
170 193 0
172 195 0
169 193 0
167 191 0
169 193 0
172 197 0
169 193 0
175 197 0
171 195 0
172 194 0
174 197 0
172 196 0
176 198 0
173 196 0
173 197 0
171 194 0
171 195 0
173 196 0
171 193 0
172 197 0
174 198 0
173 197 0
168 192 0
173 197 0
174 196 0
175 198 0
173 196 0
172 195 0
173 197 0
173 195 0
172 196 0
172 195 0
173 196 0
172 196 0
171 194 0
174 197 0
172 196 0
175 198 0
172 195 0
176 198 0
171 195 0
173 197 0
176 199 0
171 195 0
172 195 0
171 195 0
174 198 0
174 197 0
172 196 0
173 197 0
173 197 0
174 198 0
175 198 0
175 198 0
172 196 0
173 197 0
173 196 0
176 198 0
172 195 0
174 198 0
172 196 0
172 196 0
174 198 0
173 197 0
173 197 0
173 197 0
173 197 0
174 197 0
175 198 0
173 197 0
173 197 0
172 197 0
175 197 0
175 198 0
175 198 0
172 195 0
173 197 0
173 197 0
172 196 0
176 198 0
173 197 0
174 197 0
173 197 0
174 197 0
171 194 0
174 198 0
174 197 0
173 196 0
171 195 0
171 195 0
172 197 0
174 197 0
175 198 0
175 197 0
174 198 0
174 197 0
173 197 0
173 196 0
172 196 0
174 197 0
172 196 0
170 195 0
174 198 0
172 196 0
176 199 0
172 197 0
174 198 0
175 198 0
172 196 0
174 197 0
174 198 0
172 196 0
174 198 0
172 196 0
174 197 0
172 195 0
172 196 0
173 197 0
176 199 0
174 198 0
174 198 0
176 198 0
173 197 0
176 199 0
174 197 0
174 197 0
175 198 0
172 196 0
175 198 0
175 198 0
175 198 0
175 198 0
174 197 0
174 197 0
170 195 0
172 196 0
175 198 0
174 198 0
174 198 0
174 197 0
175 198 0
175 198 0
174 197 0
175 198 0
174 197 0
174 198 0
173 197 0
174 197 0
172 196 0
177 199 0
175 198 0
173 197 0
175 197 0
174 197 0
173 197 0
173 197 0
173 196 0
174 196 0
176 198 0
173 197 0
176 198 0
175 197 0
172 196 0
174 197 0
172 197 0
175 198 0
174 197 0
175 198 0
174 197 0
174 198 0
174 198 0
172 196 0
173 197 0
175 197 0
171 195 0
174 197 0
174 198 0
174 198 0
173 197 0
173 197 0
173 197 0
172 196 0
173 197 0
174 198 0
174 197 0
175 198 0
174 197 0
174 197 0
172 196 0
173 197 0
174 197 0
173 196 0
173 196 0
172 196 0
172 196 0
173 197 0
173 197 0
174 197 0
172 195 0
176 198 0
172 196 0
173 197 0
172 196 0
174 197 0
173 196 0
174 197 0
174 197 0
173 197 0
174 197 0
174 197 0
172 195 0
176 198 0
174 197 0
172 196 0
173 196 0
173 196 0
175 197 0
175 198 0
173 196 0
173 197 0
174 196 0
173 196 0
173 196 0
166 188 0
155 176 0
154 176 0
154 176 0
156 177 0
155 176 0
156 177 0
152 174 0
154 175 0
156 176 0
153 175 0
152 173 0
157 177 0
153 174 0
154 174 0
153 174 0
154 175 0
157 177 0
154 175 0
153 175 0
154 175 0
152 174 0
155 176 0
153 175 0
154 175 0
153 174 0
155 176 0
155 176 0
156 176 0
154 175 0
155 175 0
151 173 0
155 176 0
154 174 0
155 176 0
155 175 0
155 176 0
155 176 0
73 95 97
58 84 97
55 82 103
62 87 92
53 81 107
58 83 100
65 88 98
63 87 104
70 93 96
57 81 88
71 94 88
73 95 94
72 94 89
68 92 89
90 111 62
83 105 89
93 113 70
95 114 72
68 92 82
102 121 59
104 122 59
107 128 63
110 130 75
105 124 59
107 127 53
110 130 50
135 155 30
120 141 36
120 140 28
120 139 44
125 145 45
130 149 39
137 156 22
138 157 32
138 159 20
139 158 0
142 161 0
138 158 0
149 168 0
144 164 0
138 158 0
141 162 0
142 163 0
146 167 0
146 165 0
138 157 0
150 169 0
140 161 0
153 174 0
145 166 0
151 170 0
150 172 0
146 165 0
149 168 0
147 168 0
139 159 0
151 170 0
146 167 0
146 166 0
149 170 0
168 191 0
172 195 0
169 192 0
167 191 0
170 193 0
169 193 0
172 195 0
167 191 0
171 193 0
170 194 0
168 193 0
168 191 0
168 191 0
173 195 0
166 188 0
174 197 0
172 195 0
171 194 0
169 192 25
163 185 62
158 180 67
138 162 111
141 166 108
136 160 120
132 157 122
141 165 99
143 167 102
143 168 99
154 178 88
166 190 51
173 196 0
171 194 0
169 193 0
175 197 0
170 193 0
166 190 0
169 192 0
170 193 0
174 197 0
170 194 0
170 195 0
173 196 0
174 197 0
172 196 0
172 195 0
175 198 0
172 195 0
173 197 0
167 190 0
168 191 0
173 196 0
174 198 0
171 195 0
170 193 0
175 198 0
171 192 0
173 196 0
173 197 0
172 196 0
172 197 0
170 194 0
171 195 0
173 197 0
173 196 0
173 196 0
175 198 0
172 196 0
175 198 0
174 197 0
172 196 0
174 198 0
173 197 0
171 195 0
173 196 0
175 197 0
172 195 0
172 196 0
175 198 0
173 197 0
175 198 0
174 198 0
168 192 0
174 197 0
172 196 0
173 196 0
169 193 0
172 195 0
174 197 0
170 194 0
174 198 0
173 196 0
172 195 0
171 194 0
174 197 0
171 194 0
174 198 0
175 197 0
174 196 0
172 195 0
173 196 0
173 196 0
172 195 0
172 196 0
171 193 0
173 195 0
173 197 0
177 199 0
174 197 0
174 197 0
174 197 0
174 197 0
174 197 0
175 198 0
174 198 0
174 197 0
174 197 0
173 196 0
173 197 0
173 197 0
174 197 0
172 196 0
168 191 0
172 195 0
174 197 0
175 198 0
176 198 0
176 198 0
173 196 0
169 193 0
171 195 0
176 199 0
171 195 0
174 197 0
173 197 0
176 198 0
174 197 0
173 195 0
172 197 0
174 198 0
173 197 0
174 198 0
174 198 0
173 197 0
175 198 0
173 197 0
173 197 0
170 193 0
173 197 0
174 197 0
174 198 0
173 196 0
175 197 0
175 198 0
173 197 0
173 197 0
174 198 0
175 198 0
174 197 0
176 198 0
172 195 0
171 195 0
174 197 0
172 195 0
174 198 0
175 198 0
173 197 0
176 199 0
174 197 0
174 197 0
174 197 0
175 198 0
174 198 0
171 195 0
173 196 0
174 197 0
174 198 0
175 198 0
175 198 0
173 197 0
172 197 0
173 196 0
176 198 0
175 198 0
174 197 0
172 196 0
171 195 0
173 196 0
175 198 0
175 198 0
174 197 0
172 197 0
173 197 0
174 198 0
173 196 0
173 197 0
174 198 0
174 198 0
174 197 0
173 196 0
174 197 0
175 198 0
172 196 0
175 198 0
173 196 0
176 198 0
175 198 0
174 197 0
176 199 0
175 198 0
175 198 0
176 199 0
172 197 0
174 198 0
176 198 0
175 198 0
175 198 0
175 198 0
173 197 0
176 198 0
170 194 0
174 197 0
174 198 0
175 198 0
173 197 0
175 198 0
176 198 0
173 196 0
172 196 0
173 197 0
172 197 0
174 198 0
174 197 0
174 197 0
176 199 0
172 197 0
173 197 0
174 198 0
173 197 0
176 198 0
173 197 0
174 198 0
174 197 0
175 198 0
176 198 0
173 196 0
173 197 0
174 198 0
174 197 0
172 196 0
173 197 0
173 197 0
172 196 0
174 197 0
175 198 0
176 198 0
173 197 0
173 196 0
173 197 0
174 197 0
173 196 0
175 198 0
173 197 0
175 198 0
175 198 0
176 198 0
172 196 0
172 194 0
169 193 0
173 197 0
172 197 0
174 197 0
174 198 0
174 197 0
175 198 0
173 197 0
175 198 0
172 196 0
175 197 0
174 197 0
175 198 0
174 197 0
172 195 0
172 196 0
173 196 0
173 196 0
172 196 0
173 196 0
174 196 0
171 196 0
172 196 0
173 196 0
174 197 0
175 197 0
172 195 0
173 197 0
173 196 0
172 195 0
173 196 0
173 196 0
172 195 0
173 196 0
170 194 0
168 191 0
154 175 0
154 176 0
154 176 0
156 176 0
155 176 0
154 175 0
153 174 0
155 175 0
152 174 0
155 176 0
153 174 0
156 176 0
155 175 0
155 176 0
152 174 0
155 176 0
154 175 0
154 176 0
155 176 0
154 174 0
154 175 0
152 173 0
155 176 0
154 175 0
154 175 0
154 175 0
153 175 0
157 177 0
153 174 0
155 175 0
154 175 0
154 175 0
155 176 0
156 176 0
155 175 0
156 176 0
153 174 0
90 112 85
48 76 101
54 80 110
48 73 91
60 85 98
46 74 110
58 83 85
69 92 94
67 89 92
62 86 94
69 92 88
65 89 92
80 102 86
93 113 83
91 111 71
89 109 79
89 109 85
87 106 72
99 119 65
87 106 61
89 110 85
101 121 61
98 118 64
115 135 61
118 137 46
114 135 67
115 135 63
129 147 30
120 140 36
135 156 50
133 152 39
123 142 38
137 157 22
144 164 22
131 151 22
140 161 22
143 164 0
134 154 0
136 157 0
135 155 0
131 152 0
145 166 0
140 161 0
143 163 0
144 165 0
148 169 0
146 168 0
151 173 0
140 160 0
151 171 0
147 168 0
147 168 0
151 172 0
150 169 0
150 171 0
148 168 0
145 166 0
150 170 0
150 172 0
143 165 0
165 187 0
171 195 0
169 193 0
170 192 0
171 195 0
170 194 0
170 193 0
173 196 0
173 196 0
172 196 0
168 191 0
169 192 0
171 195 0
170 194 0
154 179 80
140 164 111
121 147 132
102 131 153
76 109 167
61 99 181
61 98 175
61 98 175
62 99 181
61 99 179
62 99 177
61 98 179
61 98 176
61 97 176
61 99 179
61 98 179
69 104 177
89 120 163
129 155 128
144 170 99
151 175 80
173 196 0
172 195 0
170 193 0
171 195 0
169 194 0
172 196 0
167 190 0
173 195 0
173 196 0
171 194 0
172 195 0
173 197 0
171 194 0
176 199 0
173 195 0
171 194 0
169 192 0
171 194 0
174 197 0
173 196 0
173 195 0
169 191 0
173 196 0
173 197 0
173 195 0
173 197 0
170 194 0
170 194 0
172 194 0
173 196 0
174 196 0
173 196 0
167 190 0
172 196 0
172 195 0
174 197 0
173 196 0
172 195 0
171 195 0
169 192 0
173 197 0
171 194 0
170 192 0
173 197 0
169 191 0
173 196 0
173 197 0
172 195 0
175 197 0
174 197 0
174 196 0
169 192 0
173 197 0
172 196 0
171 194 0
173 197 0
173 196 0
174 198 0
170 194 0
172 194 0
168 192 0
172 195 0
174 197 0
172 195 0
175 198 0
171 192 0
172 197 0
170 195 0
173 197 0
174 198 0
170 194 0
173 197 0
175 198 0
172 195 0
171 195 0
173 196 0
172 196 0
173 196 0
173 196 0
174 197 0
173 196 0
175 197 0
174 197 0
174 197 0
171 195 0
175 198 0
173 195 0
175 198 0
175 198 0
176 199 0
172 194 0
171 195 0
174 197 0
174 197 0
174 197 0
173 196 0
173 197 0
174 197 0
173 196 0
174 197 0
175 198 0
171 196 0
174 197 0
173 196 0
174 197 0
171 195 0
175 197 0
172 195 0
170 195 0
173 197 0
170 195 0
174 197 0
175 198 0
174 198 0
175 198 0
175 198 0
174 197 0
175 198 0
174 198 0
172 196 0
175 198 0
172 196 0
176 199 0
174 197 0
171 196 0
172 197 0
174 197 0
176 198 0
171 194 0
172 197 0
173 196 0
171 195 0
175 197 0
173 197 0
173 196 0
174 197 0
172 196 0
172 196 0
172 194 0
174 197 0
173 197 0
175 198 0
175 197 0
173 196 0
171 196 0
174 196 0
174 197 0
176 198 0
174 196 0
176 199 0
174 197 0
170 195 0
174 196 0
176 199 0
175 198 0
175 198 0
177 199 0
174 197 0
173 197 0
174 197 0
174 198 0
174 196 0
171 194 0
175 198 0
174 197 0
173 197 0
174 198 0
173 197 0
173 197 0
172 197 0
174 197 0
173 197 0
174 197 0
175 198 0
173 197 0
174 198 0
170 194 0
172 196 0
173 197 0
174 197 0
174 197 0
175 198 0
172 197 0
173 197 0
173 197 0
174 197 0
173 197 0
173 197 0
174 198 0
173 197 0
175 198 0
175 198 0
173 196 0
176 198 0
174 197 0
174 198 0
174 198 0
174 197 0
175 198 0
177 199 0
175 198 0
175 198 0
173 197 0
172 196 0
176 198 0
172 197 0
174 198 0
172 196 0
174 197 0
172 196 0
175 197 0
173 197 0
173 196 0
175 198 0
172 196 0
174 197 0
173 196 0
174 197 0
173 196 0
173 197 0
171 195 0
174 197 0
174 197 0
174 197 0
174 197 0
172 196 0
176 198 0
173 197 0
171 196 0
173 197 0
172 196 0
172 196 0
175 197 0
175 198 0
171 196 0
173 196 0
174 197 0
173 197 0
173 196 0
171 196 0
173 196 0
173 196 0
175 197 0
173 197 0
171 195 0
172 195 0
173 197 0
172 197 0
172 196 0
173 196 0
171 196 0
173 196 0
173 196 0
173 197 0
173 196 0
175 198 0
173 197 0
172 195 0
172 196 0
172 195 0
172 194 0
172 195 0
171 194 0
172 195 0
173 197 0
173 196 0
171 194 0
171 195 0
154 176 0
154 175 0
155 176 0
156 176 0
155 176 0
153 175 0
157 177 0
155 176 0
154 175 0
154 174 0
156 176 0
152 175 0
154 174 0
154 174 0
153 174 0
154 176 0
154 175 0
154 176 0
155 175 0
156 176 0
155 176 0
154 176 0
156 176 0
153 174 0
158 177 0
155 176 0
155 176 0
154 174 0
156 176 0
153 173 0
155 176 0
153 174 0
154 174 0
156 177 0
153 174 0
156 176 0
151 172 0
121 141 81
48 73 91
60 86 111
53 80 117
57 83 90
54 80 98
59 86 107
57 81 90
68 91 92
62 86 93
57 80 91
84 106 92
66 87 79
79 98 87
79 99 70
92 112 75
93 113 81
91 111 67
93 113 66
108 127 57
110 129 68
101 120 59
94 114 70
113 133 62
116 136 59
127 147 35
121 141 44
106 125 48
126 146 32
117 133 39
130 150 14
125 144 27
129 149 22
134 153 0
140 161 0
141 160 22
138 159 0
143 163 0
136 158 0
144 164 0
143 162 0
142 163 0
140 160 0
142 163 0
142 163 0
147 168 0
146 165 0
144 165 0
147 167 0
142 163 0
139 161 0
145 166 0
148 168 0
145 166 0
150 171 0
143 164 0
149 170 0
139 160 0
149 170 0
146 167 0
168 191 0
171 194 0
172 194 0
170 194 0
170 192 0
169 192 0
168 192 0
167 189 0
168 191 0
172 195 0
172 195 25
151 175 86
116 142 134
80 112 169
61 99 179
61 98 180
62 99 179
62 99 181
62 99 178
60 97 179
61 98 179
60 98 179
61 99 181
61 99 179
61 98 181
61 98 181
61 98 179
61 98 179
62 99 177
61 98 179
62 99 179
61 98 179
61 98 177
61 98 179
61 98 171
88 119 161
113 140 137
159 183 72
167 191 36
170 193 0
167 191 0
169 193 0
170 194 0
165 190 0
172 196 0
171 194 0
172 196 0
172 195 0
169 193 0
172 194 0
174 197 0
172 196 0
172 195 0
171 194 0
175 197 0
172 196 0
170 193 0
172 195 0
173 197 0
170 194 0
173 196 0
172 195 0
172 196 0
170 193 0
173 195 0
171 194 0
170 194 0
171 195 0
172 196 0
174 197 0
172 196 0
169 194 0
173 196 0
173 196 0
172 194 0
172 195 0
170 193 0
171 195 0
174 197 0
166 190 0
172 196 0
174 197 0
172 195 0
170 193 0
173 196 0
174 197 0
169 192 0
174 197 0
173 197 0
173 197 0
174 197 0
171 195 0
174 197 0
171 194 0
172 195 0
172 197 0
175 197 0
175 197 0
174 197 0
171 196 0
172 195 0
173 196 0
171 195 0
173 196 0
174 197 0
168 193 0
172 196 0
174 197 0
175 197 0
173 197 0
174 197 0
175 198 0
174 196 0
173 197 0
172 195 0
173 196 0
173 196 0
175 198 0
171 195 0
172 196 0
172 195 0
173 196 0
174 196 0
174 197 0
175 197 0
174 197 0
174 197 0
171 194 0
171 195 0
170 195 0
173 197 0
173 197 0
168 192 0
171 194 0
173 197 0
171 196 0
174 197 0
172 197 0
175 197 0
175 198 0
173 197 0
171 195 0
173 197 0
173 197 0
171 196 0
173 196 0
174 198 0
174 198 0
174 198 0
173 197 0
170 195 0
175 198 0
174 197 0
176 198 0
174 197 0
171 195 0
174 197 0
173 197 0
170 195 0
173 197 0
175 198 0
173 197 0
173 197 0
172 194 0
173 196 0
172 195 0
172 195 0
172 196 0
174 197 0
173 197 0
173 197 0
173 196 0
174 197 0
177 199 0
172 195 0
173 195 0
173 197 0
172 195 0
175 198 0
174 198 0
175 198 0
175 198 0
172 196 0
175 197 0
174 197 0
173 197 0
174 198 0
175 198 0
173 197 0
174 197 0
173 196 0
174 197 0
172 197 0
172 197 0
174 197 0
172 196 0
175 198 0
171 195 0
171 195 0
173 197 0
176 198 0
174 198 0
174 197 0
175 198 0
173 196 0
172 197 0
173 197 0
173 197 0
175 198 0
174 198 0
173 196 0
173 196 0
173 196 0
175 198 0
175 198 0
174 197 0
172 196 0
174 198 0
173 197 0
173 197 0
175 198 0
172 195 0
176 198 0
176 199 0
174 198 0
173 197 0
176 198 0
174 198 0
173 197 0
175 198 0
174 198 0
175 198 0
176 198 0
175 198 0
175 198 0
174 198 0
174 197 0
175 198 0
172 196 0
173 197 0
175 198 0
173 197 0
173 196 0
173 196 0
176 199 0
173 197 0
173 197 0
175 198 0
175 198 0
173 197 0
170 194 0
174 198 0
172 196 0
171 196 0
175 198 0
173 196 0
175 198 0
173 196 0
173 197 0
175 198 0
174 197 0
173 197 0
174 197 0
175 198 0
174 197 0
174 197 0
173 197 0
171 195 0
173 196 0
172 196 0
174 197 0
173 196 0
173 197 0
173 197 0
174 197 0
174 197 0
174 197 0
171 195 0
174 197 0
174 197 0
173 197 0
173 197 0
174 197 0
174 197 0
174 197 0
174 197 0
174 197 0
171 196 0
174 197 0
173 196 0
174 197 0
172 195 0
173 197 0
176 198 0
171 195 0
174 197 0
171 194 0
173 196 0
171 194 0
172 196 0
172 195 0
174 197 0
173 195 0
159 180 0
153 174 0
156 177 0
156 176 0
157 177 0
153 174 0
155 176 0
155 176 0
155 175 0
156 176 0
155 176 0
154 175 0
157 177 0
157 177 0
156 176 0
154 175 0
151 174 0
153 175 0
154 175 0
154 175 0
155 176 0
154 174 0
154 175 0
153 175 0
155 176 0
155 175 0
155 176 0
153 174 0
155 176 0
155 176 0
154 175 0
153 175 0
154 175 0
154 176 0
156 177 0
152 173 0
153 174 0
127 147 55
53 80 103
54 79 101
49 75 105
60 85 93
65 88 88
66 88 88
60 83 82
58 81 85
76 96 92
68 91 96
76 98 87
72 93 81
79 99 79
78 97 60
81 103 79
100 118 67
99 120 75
96 116 66
108 126 65
115 135 44
97 117 70
109 128 67
126 144 35
120 140 50
104 124 71
118 138 56
123 144 36
130 149 0
122 142 26
129 148 20
132 150 0
124 142 20
141 161 0
142 162 0
145 164 22
136 155 0
148 168 0
137 157 0
142 162 0
141 163 0
140 160 0
145 166 0
136 156 0
150 169 0
148 168 0
148 169 0
142 163 0
142 163 0
142 163 0
151 171 0
141 162 0
149 170 0
146 166 0
143 164 0
150 170 0
148 168 0
151 171 0
147 168 0
149 171 0
166 188 0
170 193 0
167 189 0
167 191 0
170 192 0
170 193 0
171 194 0
168 192 0
158 181 64
130 155 117
84 115 159
61 98 172
60 97 176
60 97 175
61 98 178
62 99 181
61 97 177
61 98 179
61 98 178
61 98 179
62 99 181
61 98 179
61 98 181
60 98 181
62 99 181
61 98 179
61 98 181
61 98 177
61 99 181
62 99 181
61 99 181
61 98 179
61 99 181
61 98 175
61 98 177
62 99 179
62 99 179
61 98 177
94 124 157
121 147 122
155 179 76
169 193 0
169 192 0
172 195 0
174 198 0
167 191 0
169 193 0
172 196 0
170 194 0
168 190 0
173 196 0
172 195 0
173 196 0
171 194 0
174 197 0
173 196 0
169 192 0
173 195 0
169 192 0
175 198 0
172 195 0
174 196 0
173 197 0
170 193 0
173 196 0
170 193 0
173 196 0
169 194 0
173 196 0
173 196 0
174 198 0
172 195 0
172 196 0
175 198 0
170 192 0
172 196 0
171 195 0
173 196 0
173 197 0
171 195 0
169 193 0
172 196 0
168 191 0
174 197 0
172 196 0
167 190 0
172 195 0
168 192 0
170 192 0
173 196 0
170 195 0
172 196 0
175 197 0
172 196 0
171 195 0
171 196 0
172 195 0
169 192 0
173 196 0
173 197 0
172 196 0
174 198 0
173 197 0
175 198 0
173 196 0
173 197 0
175 198 0
172 195 0
172 196 0
173 196 0
172 196 0
172 196 0
171 194 0
170 194 0
174 198 0
170 194 0
173 196 0
172 196 0
174 197 0
172 195 0
172 196 0
170 194 0
172 196 0
172 196 0
173 196 0
173 196 0
175 198 0
171 195 0
171 193 0
174 197 0
171 195 0
172 195 0
176 199 0
170 193 0
176 199 0
174 197 0
173 196 0
172 197 0
173 196 0
172 194 0
172 196 0
172 195 0
175 198 0
171 195 0
172 196 0
176 198 0
174 198 0
176 198 0
173 196 0
171 195 0
173 196 0
174 198 0
173 197 0
172 197 0
173 195 0
175 197 0
173 197 0
175 198 0
176 198 0
175 198 0
170 194 0
173 197 0
173 196 0
175 198 0
173 197 0
173 196 0
172 195 0
173 197 0
174 196 0
175 198 0
172 195 0
175 197 0
175 198 0
174 198 0
172 196 0
175 196 0
173 197 0
175 198 0
175 197 0
171 196 0
175 198 0
176 199 0
173 197 0
175 198 0
173 196 0
175 198 0
175 198 0
172 196 0
173 197 0
171 195 0
175 198 0
175 198 0
172 196 0
172 196 0
174 198 0
173 196 0
176 198 0
174 198 0
174 198 0
175 198 0
172 197 0
175 198 0
175 198 0
171 195 0
173 197 0
173 196 0
174 198 0
175 198 0
175 198 0
176 198 0
174 198 0
175 197 0
172 197 0
175 198 0
174 197 0
176 199 0
176 198 0
173 197 0
173 197 0
173 196 0
176 198 0
175 198 0
176 199 0
173 197 0
172 197 0
173 197 0
174 198 0
173 197 0
174 197 0
174 197 0
174 197 0
175 198 0
175 198 0
174 197 0
173 197 0
173 197 0
172 196 0
174 197 0
174 197 0
174 197 0
172 196 0
176 198 0
172 196 0
173 196 0
174 197 0
176 198 0
176 198 0
173 196 0
175 198 0
173 196 0
174 197 0
175 198 0
173 196 0
173 197 0
176 199 0
172 196 0
174 197 0
174 197 0
174 197 0
173 196 0
173 197 0
177 199 0
174 198 0
173 196 0
173 197 0
171 196 0
175 198 0
173 196 0
175 197 0
175 197 0
175 198 0
172 196 0
172 196 0
174 197 0
175 198 0
172 196 0
173 196 0
172 196 0
173 196 0
173 197 0
173 197 0
174 197 0
171 195 0
172 196 0
175 197 0
174 197 0
174 197 0
172 195 0
173 197 0
172 196 0
173 196 0
170 194 0
173 196 0
173 196 0
173 196 0
172 195 0
174 197 0
172 195 0
171 194 0
173 196 0
174 197 0
172 195 0
172 195 0
165 188 0
155 175 0
153 174 0
155 175 0
155 176 0
155 175 0
154 175 0
156 176 0
155 176 0
153 175 0
153 175 0
154 175 0
153 174 0
155 175 0
156 177 0
153 175 0
154 175 0
155 175 0
155 176 0
154 174 0
153 175 0
154 175 0
153 175 0
155 176 0
153 175 0
157 176 0
155 176 0
153 174 0
155 176 0
154 175 0
154 175 0
153 175 0
154 175 0
154 175 0
154 176 0
153 174 0
154 175 0
142 162 45
60 84 86
53 77 95
67 89 89
62 86 93
63 87 91
53 79 100
59 83 91
80 100 82
76 97 77
75 96 99
86 107 74
85 105 72
86 107 78
85 106 78
83 103 88
92 112 63
91 111 53
91 112 77
108 128 59
102 123 55
114 133 62
115 135 58
99 120 66
101 122 71
114 133 33
131 150 30
125 145 30
123 142 27
122 141 33
122 142 30
136 154 39
134 154 0
136 156 0
137 157 0
147 168 0
135 154 0
138 157 0
138 156 0
135 155 0
142 162 0
136 156 0
150 169 0
133 154 0
144 164 0
146 165 0
143 164 0
146 166 0
146 165 0
144 165 0
142 162 0
140 162 0
145 166 0
145 166 0
137 157 0
147 168 0
148 169 0
145 166 0
151 173 0
152 173 0
155 176 0
169 192 0
169 192 0
165 189 0
170 192 0
171 194 0
148 173 92
107 133 137
64 99 173
62 99 178
62 98 178
61 98 179
61 98 175
61 99 181
61 99 179
62 99 181
61 98 178
61 99 179
61 99 181
61 98 179
62 99 181
61 99 181
61 99 181
62 99 181
61 99 181
61 99 181
61 99 181
61 98 181
61 99 181
61 99 181
61 98 181
61 99 179
62 99 179
61 98 173
61 99 179
61 99 179
61 98 177
60 98 175
61 99 181
62 99 175
65 101 173
109 136 149
161 184 62
172 196 0
170 194 0
174 196 0
174 197 0
174 197 0
170 194 0
172 194 0
173 196 0
173 196 0
174 197 0
170 193 0
175 198 0
172 196 0
172 196 0
172 195 0
172 195 0
173 195 0
173 197 0
171 196 0
174 196 0
171 194 0
170 194 0
172 196 0
175 197 0
173 196 0
168 192 0
168 191 0
171 195 0
170 194 0
166 189 0
171 194 0
176 199 0
172 195 0
173 196 0
170 193 0
169 192 0
169 192 0
170 194 0
172 195 0
170 193 0
171 194 0
174 197 0
171 195 0
171 195 0
173 196 0
172 194 0
173 195 0
172 196 0
175 197 0
168 192 0
171 195 0
170 194 0
175 198 0
170 195 0
174 197 0
174 197 0
171 194 0
175 198 0
172 195 0
171 195 0
174 197 0
174 197 0
171 194 0
174 197 0
176 198 0
173 197 0
176 198 0
173 195 0
173 197 0
172 196 0
172 195 0
173 196 0
174 198 0
175 197 0
175 198 0
171 194 0
173 197 0
171 193 0
173 197 0
174 198 0
176 199 0
173 197 0
172 197 0
174 196 0
176 199 0
174 198 0
172 195 0
173 197 0
175 198 0
175 198 0
173 196 0
173 197 0
172 195 0
175 198 0
170 195 0
175 198 0
175 198 0
172 196 0
174 197 0
175 198 0
172 196 0
172 196 0
174 198 0
175 198 0
170 194 0
174 198 0
176 197 0
172 196 0
172 196 0
174 197 0
172 195 0
174 198 0
174 198 0
172 196 0
173 196 0
174 198 0
173 197 0
172 196 0
173 195 0
175 198 0
176 197 0
174 197 0
173 196 0
174 197 0
175 198 0
171 195 0
174 197 0
174 198 0
176 199 0
176 198 0
175 198 0
174 197 0
171 195 0
175 198 0
175 198 0
173 197 0
175 198 0
175 198 0
172 195 0
169 194 0
174 197 0
173 197 0
171 194 0
174 196 0
171 195 0
173 197 0
174 197 0
172 197 0
173 197 0
175 197 0
172 195 0
173 196 0
174 197 0
172 196 0
172 197 0
175 198 0
174 198 0
176 198 0
174 197 0
175 198 0
175 198 0
171 195 0
174 197 0
172 196 0
171 195 0
173 197 0
173 197 0
173 196 0
174 197 0
175 197 0
173 197 0
175 198 0
176 199 0
173 197 0
173 197 0
174 198 0
174 197 0
171 194 0
174 197 0
173 197 0
173 197 0
174 198 0
173 197 0
174 197 0
175 198 0
174 197 0
175 198 0
173 197 0
171 196 0
171 196 0
172 196 0
173 197 0
175 198 0
174 197 0
173 197 0
174 197 0
175 198 0
172 197 0
172 197 0
175 198 0
172 197 0
176 199 0
173 197 0
173 197 0
171 195 0
174 198 0
175 198 0
172 195 0
173 197 0
172 196 0
173 197 0
174 197 0
175 198 0
173 197 0
173 197 0
170 195 0
173 197 0
173 196 0
173 197 0
170 193 0
175 198 0
173 196 0
174 197 0
173 196 0
175 198 0
175 198 0
174 197 0
171 195 0
175 197 0
173 197 0
173 196 0
173 197 0
171 194 0
173 196 0
172 196 0
172 195 0
171 194 0
173 196 0
176 199 0
174 197 0
174 197 0
171 195 0
173 196 0
173 196 0
172 196 0
172 196 0
173 196 0
173 196 0
173 195 0
170 194 0
172 195 0
170 194 0
173 195 0
173 196 0
172 195 0
174 196 0
173 196 0
173 196 0
169 193 0
172 195 0
166 189 0
154 175 0
153 173 0
154 174 0
156 176 0
155 176 0
155 176 0
155 176 0
154 175 0
154 175 0
154 175 0
154 174 0
154 174 0
155 176 0
156 177 0
156 176 0
155 176 0
156 176 0
156 176 0
154 174 0
156 176 0
155 175 0
153 175 0
155 176 0
155 176 0
153 174 0
154 176 0
155 176 0
156 176 0
155 175 0
156 176 0
156 176 0
151 172 0
155 175 0
153 175 0
154 176 0
154 175 0
145 167 38
52 76 97
58 83 85
84 103 88
70 92 85
59 82 94
61 85 87
67 89 73
75 98 94
75 96 91
74 96 75
74 95 64
63 85 73
88 110 74
85 107 89
92 111 55
86 107 78
84 105 68
97 117 62
103 122 77
98 120 56
112 130 53
103 123 52
98 118 46
108 127 57
119 140 58
125 144 20
125 143 30
130 148 39
134 156 36
132 153 0
114 135 20
132 152 0
138 158 22
135 154 22
145 167 0
138 159 0
135 155 0
149 169 0
141 160 0
140 158 0
139 159 0
138 159 0
136 156 0
141 161 0
146 165 0
134 154 0
143 162 0
142 162 0
138 158 0
154 175 0
138 157 0
141 161 0
147 169 0
145 165 0
146 166 0
144 165 0
143 163 0
150 170 0
146 166 0
158 181 0
166 189 0
169 193 0
169 191 0
160 183 57
102 130 149
61 98 171
61 98 181
62 98 179
61 98 177
62 99 179
61 99 179
61 98 179
61 98 179
61 99 181
61 98 177
62 99 181
62 99 181
62 99 181
62 99 179
60 98 181
62 99 181
61 98 181
61 99 179
61 99 181
62 99 181
62 99 181
61 98 181
61 99 181
61 99 181
61 98 177
62 99 179
62 99 181
60 97 181
61 99 177
62 99 181
62 99 175
62 98 175
62 99 181
61 98 177
61 98 177
62 99 179
61 98 175
101 130 147
159 182 72
173 196 0
171 195 0
169 192 0
164 188 0
172 196 0
168 192 0
168 191 0
170 194 0
171 194 0
169 194 0
169 193 0
173 197 0
171 194 0
169 194 0
170 194 0
171 195 0
169 194 0
172 194 0
170 194 0
171 195 0
171 195 0
173 196 0
171 195 0
171 194 0
170 194 0
173 196 0
168 190 0
166 190 0
171 195 0
168 191 0
171 196 0
170 193 0
176 198 0
173 196 0
169 193 0
172 195 0
170 194 0
175 197 0
171 195 0
171 195 0
173 194 0
175 198 0
174 196 0
176 199 0
172 196 0
172 196 0
171 194 0
172 193 0
175 198 0
172 195 0
173 196 0
176 197 0
171 195 0
166 190 0
176 199 0
170 195 0
174 198 0
175 197 0
174 197 0
173 196 0
173 197 0
173 197 0
172 195 0
172 195 0
172 195 0
171 195 0
166 190 0
175 198 0
174 197 0
172 196 0
172 196 0
176 198 0
171 195 0
175 198 0
171 194 0
171 194 0
170 194 0
174 197 0
173 197 0
169 194 0
175 198 0
172 195 0
174 197 0
174 197 0
175 198 0
173 197 0
174 197 0
172 196 0
172 195 0
173 197 0
172 195 0
174 197 0
174 197 0
172 195 0
173 197 0
175 198 0
174 198 0
173 196 0
174 197 0
175 198 0
173 197 0
172 196 0
172 196 0
174 197 0
175 198 0
176 198 0
174 198 0
174 198 0
171 195 0
174 197 0
172 196 0
173 196 0
175 198 0
172 196 0
174 197 0
173 196 0
173 197 0
174 198 0
173 197 0
171 195 0
172 196 0
171 195 0
171 195 0
173 197 0
175 198 0
172 196 0
175 198 0
173 195 0
172 197 0
174 197 0
174 198 0
174 197 0
171 196 0
175 197 0
173 196 0
173 197 0
175 198 0
173 197 0
175 198 0
173 196 0
175 198 0
177 199 0
175 198 0
174 198 0
174 197 0
171 194 0
175 198 0
175 197 0
173 196 0
173 197 0
173 197 0
174 197 0
174 198 0
171 196 0
172 195 0
173 197 0
174 198 0
174 196 0
173 197 0
173 196 0
175 198 0
174 198 0
174 198 0
174 197 0
174 198 0
174 198 0
175 198 0
175 198 0
174 198 0
174 198 0
175 198 0
171 194 0
176 198 0
172 195 0
172 196 0
173 196 0
172 195 0
174 197 0
172 196 0
172 196 0
172 197 0
173 197 0
173 197 0
175 198 0
175 198 0
171 196 0
173 197 0
173 197 0
176 198 0
173 196 0
173 197 0
175 198 0
173 196 0
172 197 0
174 197 0
176 198 0
172 196 0
171 194 0
173 197 0
175 198 0
174 197 0
176 198 0
172 196 0
173 197 0
173 196 0
173 197 0
172 196 0
172 197 0
175 197 0
173 197 0
174 198 0
175 198 0
171 194 0
174 197 0
175 198 0
172 196 0
174 197 0
172 196 0
173 197 0
172 196 0
170 194 0
174 197 0
173 197 0
172 196 0
171 196 0
174 197 0
174 197 0
173 196 0
172 196 0
172 196 0
170 194 0
174 197 0
173 197 0
173 195 0
172 194 0
174 197 0
172 196 0
172 195 0
170 194 0
173 196 0
172 195 0
175 197 0
174 197 0
173 196 0
172 196 0
171 195 0
172 194 0
172 195 0
171 195 0
175 197 0
174 197 0
174 197 0
171 194 0
171 195 0
172 195 0
170 195 0
172 195 0
170 193 0
171 194 0
156 176 0
153 174 0
153 175 0
155 176 0
154 175 0
156 177 0
154 175 0
154 174 0
152 174 0
154 175 0
156 175 0
152 174 0
154 176 0
156 176 0
153 173 0
152 173 0
153 174 0
156 177 0
153 174 0
153 175 0
153 175 0
157 177 0
154 175 0
154 175 0
154 175 0
156 176 0
154 175 0
155 175 0
155 176 0
153 175 0
157 177 0
154 175 0
154 175 0
154 175 0
153 175 0
154 175 0
151 171 20
65 88 89
69 91 81
63 86 88
63 86 98
69 91 93
58 81 86
72 92 71
66 87 91
65 88 86
74 95 75
79 100 89
75 95 58
84 103 48
81 101 75
94 114 67
97 118 53
105 122 61
96 116 62
110 130 53
96 116 57
97 114 49
107 127 53
102 122 59
115 135 42
122 141 22
119 138 43
119 139 38
127 147 38
128 149 32
126 146 22
136 156 20
142 163 0
135 156 0
134 152 22
142 161 0
135 156 0
140 161 0
137 158 0
143 163 0
144 164 0
144 165 0
137 157 0
144 164 0
142 163 0
145 165 0
144 164 0
144 164 0
144 165 0
148 168 0
150 170 0
142 162 0
142 162 0
149 171 0
150 171 0
150 170 0
146 166 0
144 165 0
147 168 0
143 163 0
158 181 0
167 190 0
168 191 36
122 147 114
58 94 170
60 96 174
61 97 173
62 99 178
61 98 179
62 99 177
61 98 177
62 99 181
61 99 179
62 99 179
62 99 181
62 99 177
61 98 181
61 99 180
61 99 181
61 98 181
62 99 181
61 98 181
61 98 181
62 99 181
62 99 181
61 98 181
61 99 181
62 99 181
62 99 181
62 99 181
61 98 179
61 99 179
62 99 181
62 99 179
61 98 179
62 99 181
62 99 179
62 99 181
62 99 179
62 99 175
61 99 179
61 98 177
62 98 173
62 99 175
66 101 173
128 153 128
169 192 36
172 195 0
172 196 0
171 194 0
173 196 0
172 196 0
174 198 0
167 190 0
171 194 0
175 197 0
170 194 0
171 194 0
167 190 0
170 193 0
171 194 0
172 195 0
172 196 0
172 195 0
171 194 0
164 188 0
172 195 0
170 193 0
170 193 0
170 194 0
171 194 0
172 196 0
171 194 0
172 195 0
172 195 0
167 190 0
174 197 0
170 194 0
168 191 0
173 197 0
172 195 0
171 195 0
173 197 0
171 194 0
171 194 0
173 197 0
171 195 0
172 196 0
173 196 0
174 198 0
172 196 0
170 193 0
171 195 0
172 196 0
169 193 0
170 194 0
173 196 0
173 197 0
172 196 0
174 197 0
176 198 0
172 196 0
174 197 0
168 192 0
172 194 0
174 197 0
172 196 0
173 197 0
174 197 0
173 196 0
175 197 0
167 190 0
174 196 0
165 188 0
170 195 0
174 198 0
173 196 0
174 197 0
175 198 0
174 198 0
171 194 0
171 195 0
172 196 0
172 194 0
174 197 0
173 197 0
171 193 0
175 197 0
175 197 0
168 192 0
176 198 0
174 197 0
172 196 0
172 197 0
171 193 0
173 197 0
171 193 0
173 197 0
175 198 0
173 196 0
172 197 0
172 195 0
174 196 0
173 196 0
173 196 0
172 196 0
172 197 0
175 198 0
172 196 0
174 198 0
174 198 0
175 198 0
174 196 0
173 196 0
174 198 0
172 196 0
174 198 0
176 198 0
173 196 0
173 195 0
170 194 0
173 197 0
171 195 0
173 197 0
173 197 0
172 196 0
176 199 0
173 197 0
174 197 0
171 195 0
173 197 0
175 198 0
176 199 0
174 198 0
175 198 0
172 195 0
173 196 0
173 196 0
173 196 0
175 197 0
173 197 0
174 197 0
173 197 0
174 198 0
174 198 0
175 198 0
174 197 0
171 195 0
174 198 0
172 196 0
175 198 0
174 198 0
175 198 0
173 197 0
174 197 0
174 197 0
174 198 0
173 196 0
173 197 0
174 198 0
174 198 0
174 198 0
174 198 0
173 197 0
176 198 0
172 197 0
174 197 0
175 198 0
174 197 0
174 198 0
173 196 0
172 195 0
175 197 0
172 196 0
175 197 0
175 197 0
175 198 0
173 197 0
174 198 0
174 197 0
174 196 0
173 197 0
175 198 0
175 198 0
174 198 0
174 197 0
174 198 0
175 198 0
176 198 0
175 198 0
174 198 0
173 197 0
176 199 0
173 197 0
173 197 0
173 196 0
177 199 0
174 198 0
174 197 0
173 197 0
172 196 0
173 196 0
173 197 0
172 196 0
173 197 0
175 198 0
173 196 0
175 198 0
175 197 0
172 196 0
173 197 0
173 196 0
175 198 0
172 196 0
173 196 0
171 196 0
177 198 0
175 198 0
175 198 0
172 196 0
172 196 0
172 196 0
173 196 0
173 196 0
173 196 0
174 197 0
174 197 0
172 196 0
174 197 0
175 198 0
173 197 0
171 195 0
172 195 0
174 197 0
173 196 0
172 195 0
173 196 0
172 196 0
173 196 0
175 197 0
174 197 0
175 197 0
173 196 0
174 197 0
173 197 0
171 194 0
174 197 0
175 197 0
174 197 0
172 197 0
173 196 0
170 193 0
172 196 0
172 195 0
174 197 0
172 196 0
173 195 0
172 195 0
174 196 0
173 195 0
171 195 0
171 194 0
173 196 0
171 194 0
154 176 0
153 175 0
154 175 0
155 176 0
152 173 0
153 174 0
152 173 0
155 176 0
154 175 0
156 176 0
155 176 0
154 176 0
155 175 0
154 175 0
154 174 0
154 175 0
156 176 0
154 174 0
155 175 0
154 175 0
156 176 0
152 174 0
155 175 0
155 176 0
153 174 0
153 175 0
156 176 0
154 175 0
154 175 0
155 176 0
153 174 0
147 168 0
154 175 0
155 176 0
152 174 0
152 173 0
153 175 0
84 105 84
51 74 81
57 81 82
61 83 94
61 82 83
63 85 77
68 91 77
70 92 81
74 95 82
69 90 71
86 107 83
85 104 68
79 100 75
56 79 66
74 95 84
89 109 67
97 117 42
90 110 35
93 113 58
111 131 51
110 128 58
110 130 33
102 121 53
112 131 36
136 155 27
126 144 30
122 141 36
127 146 20
133 152 14
131 151 27
136 156 20
133 151 0
130 151 32
122 141 0
129 149 0
139 159 0
143 165 0
142 162 0
142 164 0
135 156 0
146 167 0
143 164 0
139 158 0
146 166 0
142 163 0
141 162 0
142 162 0
147 168 0
143 164 0
144 165 0
148 168 0
151 171 0
142 163 0
143 163 0
142 163 0
151 170 0
144 166 0
145 166 0
150 171 0
159 181 0
148 172 90
72 106 171
61 98 173
61 98 174
61 97 169
62 99 180
61 98 173
61 98 176
62 99 179
62 99 178
61 98 179
61 98 181
62 99 181
62 99 181
61 98 181
62 99 181
61 99 181
61 99 181
61 98 181
61 98 179
61 99 181
62 99 181
62 99 181
62 99 181
62 99 181
61 98 181
62 99 181
61 99 181
61 99 181
62 99 181
61 99 181
62 99 181
62 99 179
62 99 179
61 99 181
61 98 181
60 98 179
62 99 181
60 98 179
61 99 179
60 97 173
62 99 177
61 98 171
61 98 171
61 98 173
91 121 163
139 164 95
170 193 0
171 195 0
171 195 0
171 195 0
171 194 0
173 196 0
173 196 0
174 197 0
167 190 0
170 193 0
170 193 0
171 194 0
170 194 0
171 194 0
169 192 0
168 193 0
170 194 0
174 197 0
172 196 0
172 195 0
173 196 0
171 194 0
170 194 0
171 195 0
170 193 0
174 198 0
170 193 0
172 196 0
173 197 0
169 193 0
174 197 0
172 196 0
169 191 0
172 196 0
164 188 0
170 193 0
175 198 0
171 194 0
170 194 0
171 195 0
171 195 0
172 196 0
173 196 0
171 194 0
170 193 0
173 196 0
174 197 0
173 196 0
173 196 0
173 196 0
172 196 0
174 197 0
174 197 0
172 195 0
168 192 0
173 197 0
174 197 0
171 195 0
175 198 0
176 198 0
174 198 0
172 195 0
171 195 0
175 197 0
173 197 0
170 193 0
174 197 0
172 196 0
175 198 0
174 197 0
175 198 0
172 196 0
172 196 0
172 194 0
173 196 0
169 193 0
173 197 0
172 195 0
172 196 0
174 197 0
173 196 0
175 198 0
173 196 0
173 196 0
174 196 0
172 196 0
173 196 0
173 196 0
173 195 0
171 195 0
170 194 0
175 198 0
170 194 0
172 195 0
174 198 0
175 197 0
173 195 0
172 195 0
173 197 0
173 197 0
173 197 0
171 195 0
173 197 0
171 195 0
175 197 0
174 198 0
175 198 0
171 194 0
176 198 0
173 197 0
175 197 0
173 196 0
174 197 0
171 196 0
172 196 0
172 196 0
172 196 0
172 197 0
173 197 0
174 198 0
169 193 0
172 195 0
174 198 0
175 198 0
172 196 0
172 196 0
176 199 0
171 194 0
172 195 0
173 197 0
176 199 0
173 197 0
173 195 0
175 198 0
175 198 0
176 199 0
173 197 0
173 196 0
172 197 0
173 196 0
173 196 0
175 198 0
172 196 0
173 197 0
175 198 0
174 197 0
175 198 0
175 198 0
175 198 0
172 195 0
172 195 0
175 198 0
174 198 0
173 197 0
176 198 0
175 198 0
174 198 0
171 195 0
174 198 0
172 196 0
172 197 0
175 198 0
174 197 0
173 197 0
171 195 0
172 196 0
177 199 0
174 198 0
178 200 0
174 198 0
175 198 0
174 197 0
174 197 0
172 197 0
173 197 0
173 197 0
174 197 0
172 196 0
174 197 0
174 197 0
174 197 0
176 199 0
172 196 0
173 197 0
172 196 0
173 197 0
176 198 0
173 197 0
175 197 0
174 198 0
172 197 0
176 198 0
175 198 0
173 197 0
174 197 0
176 199 0
175 197 0
174 197 0
174 197 0
175 198 0
174 197 0
174 197 0
173 196 0
175 197 0
172 196 0
173 196 0
176 198 0
172 195 0
174 197 0
174 197 0
173 197 0
174 197 0
175 198 0
172 196 0
174 197 0
173 197 0
171 195 0
174 197 0
174 197 0
171 195 0
173 197 0
173 196 0
174 197 0
175 197 0
171 195 0
172 196 0
175 198 0
171 195 0
171 194 0
173 197 0
172 195 0
174 197 0
173 197 0
173 196 0
176 198 0
172 195 0
172 196 0
174 197 0
173 196 0
171 195 0
175 197 0
172 196 0
173 196 0
171 195 0
173 195 0
168 192 0
172 196 0
173 195 0
171 195 0
172 195 0
172 196 0
171 195 0
172 195 0
172 195 0
169 193 0
174 196 0
159 180 0
155 176 0
155 175 0
154 175 0
154 174 0
155 176 0
152 173 0
155 175 0
156 176 0
151 173 0
155 176 0
155 175 0
155 176 0
152 173 0
156 176 0
153 175 0
155 176 0
154 175 0
154 174 0
155 176 0
154 175 0
157 177 0
152 174 0
153 173 0
153 174 0
155 176 0
154 175 0
154 175 0
153 174 0
155 176 0
155 175 0
156 176 0
152 174 0
154 175 0
156 176 0
155 176 0
155 176 0
88 109 96
76 97 79
69 91 99
65 89 70
61 82 73
70 92 74
73 94 70
69 90 74
85 105 72
68 88 71
79 101 72
81 101 63
84 103 58
79 97 70
98 118 63
98 117 38
99 120 66
101 121 63
91 109 46
100 119 35
105 125 63
109 128 36
105 125 45
114 132 55
117 136 43
130 148 0
115 134 30
124 142 30
137 156 0
122 141 22
128 148 0
127 146 0
117 137 0
128 148 0
137 155 0
137 155 0
142 163 0
136 155 0
138 159 0
140 161 0
133 152 0
144 164 0
141 161 0
143 163 0
152 174 0
139 158 0
145 165 0
141 161 0
142 162 0
150 170 0
141 160 0
140 160 0
140 160 0
142 163 0
136 156 0
151 170 0
145 167 0
149 170 0
150 170 0
118 143 132
59 95 172
61 97 173
60 97 171
61 98 178
61 98 179
61 98 173
63 100 181
61 99 181
61 98 175
60 98 175
61 98 173
62 99 175
61 98 179
61 98 181
61 99 181
62 99 181
61 99 181
61 99 181
61 98 179
61 98 179
62 99 181
61 98 181
61 98 181
62 99 179
61 98 181
62 99 181
62 99 181
61 98 179
62 99 181
61 98 181
61 99 181
61 98 177
61 99 181
62 99 179
61 98 177
61 98 179
62 99 179
61 98 179
62 99 179
61 98 177
62 99 179
62 99 179
61 98 175
61 98 173
60 96 163
62 99 175
61 97 171
126 152 108
172 196 0
169 193 0
168 192 0
169 192 0
167 191 0
170 193 0
175 197 0
174 198 0
173 196 0
169 193 0
171 193 0
172 195 0
171 195 0
171 195 0
169 193 0
169 192 0
173 197 0
172 195 0
173 196 0
174 197 0
170 194 0
171 194 0
171 194 0
169 192 0
173 195 0
167 190 0
171 194 0
172 195 0
170 193 0
170 193 0
171 195 0
171 195 0
171 194 0
173 197 0
169 193 0
168 191 0
173 196 0
173 196 0
172 196 0
174 198 0
171 195 0
168 191 0
174 198 0
173 196 0
168 191 0
171 193 0
172 195 0
169 193 0
169 194 0
173 197 0
175 198 0
174 196 0
171 194 0
173 196 0
171 195 0
177 199 0
172 194 0
174 197 0
174 196 0
170 193 0
172 196 0
175 198 0
174 197 0
176 199 0
171 195 0
173 196 0
174 197 0
174 198 0
172 196 0
174 197 0
173 196 0
173 194 0
170 194 0
174 197 0
174 198 0
170 195 0
172 195 0
173 196 0
173 196 0
174 198 0
171 194 0
174 197 0
173 196 0
178 199 0
173 197 0
171 195 0
171 194 0
171 195 0
173 197 0
173 196 0
173 196 0
174 197 0
174 197 0
173 197 0
174 198 0
174 197 0
173 196 0
173 197 0
171 193 0
169 193 0
173 196 0
174 197 0
171 195 0
176 199 0
174 197 0
174 196 0
173 196 0
174 197 0
173 197 0
176 198 0
173 196 0
173 197 0
174 197 0
175 197 0
172 194 0
169 193 0
172 196 0
173 197 0
172 196 0
174 198 0
173 197 0
175 197 0
176 198 0
174 197 0
174 197 0
174 197 0
173 196 0
174 198 0
173 196 0
170 194 0
175 198 0
173 197 0
173 197 0
173 197 0
173 196 0
174 197 0
172 196 0
175 198 0
172 196 0
173 197 0
176 199 0
174 198 0
173 195 0
174 198 0
173 196 0
172 196 0
171 196 0
175 198 0
174 197 0
174 197 0
174 198 0
174 197 0
171 196 0
173 197 0
175 198 0
172 196 0
174 197 0
175 198 0
173 197 0
173 197 0
174 198 0
174 196 0
174 198 0
173 197 0
172 196 0
177 199 0
178 199 0
173 197 0
174 198 0
175 198 0
172 195 0
173 197 0
174 198 0
173 197 0
174 197 0
177 199 0
175 198 0
175 198 0
173 196 0
173 196 0
174 196 0
175 198 0
175 198 0
175 198 0
171 196 0
172 196 0
173 197 0
173 197 0
176 198 0
172 196 0
172 195 0
173 197 0
174 198 0
173 197 0
175 198 0
174 197 0
174 197 0
175 198 0
174 198 0
174 197 0
173 197 0
173 197 0
170 195 0
173 197 0
174 198 0
176 198 0
173 197 0
175 197 0
176 198 0
173 197 0
174 197 0
173 196 0
174 197 0
176 198 0
175 198 0
174 198 0
171 195 0
174 197 0
173 196 0
172 196 0
174 197 0
172 196 0
173 196 0
174 197 0
174 197 0
173 197 0
174 197 0
174 197 0
172 195 0
171 194 0
170 194 0
172 196 0
173 195 0
172 195 0
175 197 0
172 195 0
172 194 0
174 197 0
172 195 0
172 195 0
172 195 0
170 193 0
173 196 0
173 196 0
172 196 0
170 194 0
171 194 0
171 194 0
170 193 0
169 193 0
172 194 0
170 193 0
171 193 0
173 196 0
173 195 0
157 179 0
154 176 0
154 174 0
154 175 0
154 175 0
156 177 0
153 175 0
154 175 0
155 175 0
153 174 0
153 174 0
152 173 0
153 174 0
154 175 0
155 175 0
154 174 0
152 173 0
151 172 0
153 174 0
155 175 0
154 175 0
154 174 0
155 176 0
153 174 0
156 176 0
155 176 0
154 175 0
155 176 0
157 177 0
156 176 0
155 175 0
152 174 0
157 177 0
154 174 0
155 174 0
154 176 0
154 174 0
117 138 57
69 91 77
63 84 69
69 91 81
66 85 75
63 86 89
63 82 55
72 91 63
74 95 57
78 99 86
77 99 77
89 110 72
85 106 57
77 97 61
96 116 55
100 119 26
94 114 56
98 116 54
98 117 39
108 126 43
114 133 47
105 125 36
111 129 30
119 139 65
113 133 30
126 146 38
119 138 28
114 133 20
137 156 0
121 140 0
125 144 22
146 164 0
133 153 0
140 160 0
129 147 0
143 163 0
139 159 0
144 164 0
141 160 0
140 161 0
138 158 0
139 158 0
139 158 0
142 164 0
140 159 0
143 162 0
135 156 0
143 163 0
142 163 0
142 163 0
149 171 0
148 170 0
142 163 0
145 166 0
143 163 0
144 165 0
148 168 0
149 170 25
89 117 153
61 98 167
60 96 171
60 96 171
62 99 177
59 95 168
61 98 175
60 98 177
62 99 177
61 98 175
61 98 181
61 98 181
60 97 179
61 99 179
61 98 181
62 99 181
61 98 179
61 98 181
61 99 181
62 99 181
62 99 181
61 98 179
62 99 181
61 99 181
61 99 181
61 98 181
62 99 181
61 98 181
61 99 181
62 99 179
61 99 181
61 99 181
61 98 181
61 98 181
61 98 179
61 99 181
62 99 181
62 99 179
61 98 181
62 99 179
61 98 177
61 98 177
62 99 179
62 99 179
62 99 175
61 98 173
61 98 175
62 98 175
61 98 171
61 97 171
99 128 147
168 190 36
170 192 0
173 195 0
171 194 0
170 191 0
170 195 0
175 198 0
173 196 0
170 193 0
172 195 0
171 194 0
172 194 0
172 194 0
172 195 0
173 197 0
174 196 0
170 193 0
170 194 0
172 195 0
172 196 0
167 190 0
173 196 0
167 191 0
172 195 0
171 195 0
171 194 0
174 197 0
174 197 0
174 196 0
173 197 0
171 195 0
169 193 0
169 193 0
173 196 0
172 195 0
170 193 0
172 196 0
172 196 0
174 196 0
172 194 0
173 195 0
174 197 0
172 195 0
171 194 0
173 197 0
171 194 0
172 195 0
174 197 0
171 195 0
173 196 0
169 192 0
175 197 0
175 197 0
174 198 0
173 197 0
171 194 0
174 197 0
170 192 0
174 197 0
175 198 0
171 194 0
175 198 0
172 196 0
173 197 0
171 195 0
171 195 0
173 196 0
167 190 0
172 196 0
173 196 0
174 198 0
174 198 0
175 198 0
175 198 0
171 195 0
175 198 0
171 194 0
174 197 0
174 197 0
173 197 0
171 195 0
174 197 0
173 196 0
172 196 0
173 196 0
173 195 0
170 194 0
174 198 0
170 193 0
174 197 0
174 196 0
174 197 0
173 196 0
171 195 0
174 198 0
174 197 0
172 196 0
175 198 0
171 195 0
171 196 0
172 195 0
172 195 0
173 196 0
174 197 0
173 197 0
172 197 0
174 198 0
171 195 0
174 198 0
176 197 0
170 194 0
173 196 0
175 198 0
174 197 0
175 197 0
173 196 0
175 198 0
177 199 0
173 196 0
174 198 0
174 198 0
173 197 0
172 196 0
174 197 0
174 198 0
172 197 0
173 197 0
178 200 0
174 198 0
175 198 0
171 196 0
173 197 0
174 197 0
173 196 0
175 198 0
173 196 0
174 197 0
174 198 0
175 198 0
173 197 0
173 197 0
174 197 0
175 197 0
172 196 0
173 197 0
175 198 0
175 197 0
173 197 0
174 197 0
172 196 0
174 198 0
173 197 0
175 198 0
174 198 0
174 197 0
173 197 0
172 196 0
172 195 0
174 197 0
174 196 0
171 193 0
174 197 0
174 197 0
174 198 0
172 196 0
175 198 0
171 195 0
174 198 0
175 198 0
175 198 0
173 196 0
175 198 0
172 196 0
175 198 0
173 197 0
174 198 0
173 197 0
172 196 0
173 197 0
173 197 0
174 197 0
175 198 0
174 198 0
172 196 0
173 197 0
170 196 0
174 198 0
174 197 0
173 197 0
177 199 0
175 198 0
174 197 0
174 197 0
174 198 0
174 197 0
174 197 0
175 198 0
175 197 0
177 199 0
175 197 0
175 198 0
173 196 0
172 195 0
174 197 0
173 197 0
176 198 0
172 195 0
172 196 0
172 196 0
175 198 0
173 196 0
174 196 0
177 199 0
173 197 0
173 197 0
169 193 0
175 198 0
174 197 0
169 192 0
170 194 0
174 197 0
174 197 0
173 196 0
174 197 0
172 196 0
172 196 0
171 195 0
172 195 0
172 195 0
171 195 0
168 193 0
172 195 0
173 196 0
172 195 0
177 198 0
176 198 0
172 196 0
171 196 0
173 196 0
169 193 0
170 193 0
173 196 0
172 196 0
174 197 0
173 195 0
174 197 0
170 193 0
172 195 0
172 196 0
172 194 0
170 193 0
171 195 0
170 192 0
170 193 0
166 188 0
154 174 0
153 175 0
155 176 0
154 175 0
153 173 0
156 176 0
154 174 0
155 176 0
154 175 0
154 175 0
153 174 0
151 172 0
153 174 0
152 173 0
152 173 0
155 175 0
154 175 0
153 173 0
153 175 0
153 175 0
152 173 0
152 173 0
154 174 0
156 176 0
156 176 0
155 174 0
156 176 0
153 174 0
156 176 0
154 175 0
152 173 0
155 175 0
154 175 0
154 173 0
154 175 0
153 174 0
120 139 58
60 81 69
65 87 64
69 92 81
67 88 73
66 88 85
81 101 67
67 88 61
77 95 54
61 82 64
80 102 73
89 106 48
81 102 72
86 105 50
85 104 48
91 110 55
94 113 30
91 109 35
109 126 54
103 123 39
118 136 44
113 132 39
109 128 32
115 133 30
111 132 30
121 140 42
128 146 22
128 146 22
131 151 22
115 135 20
123 143 22
134 153 22
130 146 0
135 155 0
128 147 0
133 154 0
138 158 0
136 156 0
135 155 0
141 161 0
133 152 0
139 158 0
138 159 0
146 166 0
141 161 0
142 164 0
141 161 0
143 165 0
150 170 0
147 168 0
139 157 0
149 169 0
145 166 0
146 166 0
148 167 0
143 164 0
134 157 76
79 110 160
60 95 162
61 97 172
61 97 176
61 98 178
60 96 172
61 98 175
61 98 175
61 98 179
60 97 169
61 99 181
62 99 179
62 99 175
61 98 177
61 98 177
61 99 177
62 99 181
61 98 177
61 98 177
61 99 181
61 98 181
61 98 181
62 99 181
61 98 181
63 100 181
61 99 179
61 99 181
62 99 179
61 98 179
61 99 181
61 98 177
61 98 179
61 99 181
61 98 179
61 99 181
62 99 181
62 99 179
62 99 181
62 99 181
61 98 177
62 99 181
61 98 179
61 97 172
62 98 174
60 97 179
61 98 181
60 97 167
62 99 177
61 98 173
62 98 173
60 96 165
62 98 171
99 129 149
151 174 80
170 192 0
171 194 0
169 192 0
173 196 0
171 194 0
172 195 0
173 197 0
169 193 0
164 186 0
172 196 0
173 197 0
171 195 0
168 192 0
170 194 0
168 192 0
170 193 0
172 196 0
174 197 0
176 198 0
171 193 0
171 193 0
171 194 0
171 195 0
172 194 0
171 194 0
174 196 0
172 195 0
172 197 0
174 197 0
174 197 0
170 194 0
170 193 0
173 196 0
172 195 0
168 192 0
172 195 0
170 194 0
171 194 0
170 194 0
173 196 0
170 193 0
173 195 0
171 195 0
173 196 0
173 196 0
170 193 0
172 197 0
174 197 0
171 195 0
174 197 0
175 198 0
174 198 0
174 198 0
173 196 0
171 196 0
176 199 0
172 195 0
172 195 0
176 198 0
174 197 0
173 197 0
175 197 0
174 196 0
172 196 0
173 196 0
170 194 0
171 195 0
174 197 0
172 196 0
174 198 0
173 196 0
172 195 0
175 196 0
170 194 0
172 196 0
177 199 0
174 197 0
176 198 0
173 197 0
175 198 0
170 194 0
171 194 0
172 196 0
171 195 0
173 195 0
173 197 0
174 198 0
174 197 0
173 197 0
171 194 0
173 197 0
173 196 0
173 197 0
172 196 0
174 198 0
175 198 0
170 195 0
172 196 0
170 194 0
173 197 0
174 198 0
169 193 0
172 196 0
175 198 0
171 194 0
172 196 0
174 197 0
173 197 0
173 196 0
169 194 0
176 198 0
174 198 0
172 196 0
172 195 0
176 199 0
174 197 0
174 197 0
172 196 0
175 198 0
172 196 0
172 195 0
169 193 0
172 196 0
173 197 0
175 197 0
173 197 0
173 197 0
172 196 0
173 196 0
171 195 0
174 197 0
172 196 0
173 197 0
175 198 0
174 196 0
174 198 0
172 196 0
174 196 0
170 195 0
174 197 0
173 196 0
174 198 0
173 197 0
174 197 0
173 197 0
173 196 0
175 198 0
170 194 0
173 196 0
174 197 0
174 196 0
173 197 0
174 197 0
175 198 0
175 198 0
172 195 0
173 197 0
175 198 0
174 198 0
172 196 0
173 196 0
173 197 0
175 198 0
171 195 0
172 196 0
174 198 0
175 198 0
174 197 0
174 198 0
172 196 0
174 198 0
173 197 0
174 197 0
173 197 0
176 198 0
173 197 0
176 198 0
174 197 0
171 195 0
173 197 0
175 197 0
176 198 0
172 196 0
173 197 0
175 197 0
171 195 0
174 197 0
174 197 0
173 197 0
174 197 0
173 197 0
174 198 0
175 198 0
174 197 0
173 196 0
172 196 0
173 197 0
171 196 0
174 197 0
172 196 0
172 196 0
173 196 0
173 196 0
174 197 0
171 196 0
171 194 0
175 198 0
172 197 0
174 197 0
170 194 0
172 196 0
174 197 0
170 193 0
173 197 0
172 196 0
172 196 0
172 196 0
174 198 0
173 196 0
174 197 0
173 197 0
175 198 0
172 196 0
173 196 0
172 195 0
173 196 0
173 196 0
171 195 0
174 197 0
174 197 0
174 197 0
171 195 0
171 194 0
176 197 0
172 195 0
171 194 0
171 195 0
173 196 0
175 197 0
174 197 0
172 195 0
171 194 0
171 195 0
174 197 0
172 196 0
170 194 0
170 193 0
172 195 0
171 195 0
171 193 0
170 193 0
169 193 0
166 190 0
156 176 0
154 175 0
153 174 0
154 174 0
154 175 0
153 174 0
154 175 0
155 176 0
157 177 0
155 176 0
150 172 0
154 175 0
154 175 0
156 176 0
154 174 0
154 175 0
154 175 0
154 174 0
153 174 0
152 173 0
154 175 0
157 177 0
153 173 0
153 174 0
153 173 0
156 176 0
151 172 0
155 176 0
154 174 0
155 175 0
151 172 0
154 175 0
155 175 0
152 174 0
154 174 0
156 177 0
138 158 30
71 91 58
77 97 70
75 97 73
68 90 64
76 95 72
78 99 62
78 96 58
83 102 69
91 110 74
83 102 58
85 105 68
95 113 48
84 104 66
97 116 43
83 103 57
94 114 32
101 119 49
100 119 48
113 130 49
103 122 62
117 136 30
111 129 35
125 142 0
109 128 0
125 144 22
112 131 20
141 159 0
129 147 0
128 148 14
140 159 0
138 159 0
136 156 0
136 156 0
130 150 0
130 150 0
127 147 0
133 152 0
142 161 0
138 159 0
142 161 0
133 153 0
146 168 0
146 166 0
148 169 0
141 162 0
140 159 0
133 154 0
144 163 0
143 164 0
145 167 0
146 166 0
144 164 0
150 170 0
139 160 0
131 153 77
74 106 158
61 98 170
61 98 171
61 98 171
62 98 173
61 98 171
62 99 177
62 99 177
62 99 178
61 98 173
61 99 177
62 98 175
62 99 179
61 98 175
62 99 179
61 98 179
62 99 177
61 99 181
61 98 179
61 98 179
61 98 177
62 99 179
61 98 177
62 99 179
61 98 181
61 99 181
62 99 181
62 99 181
61 99 181
61 98 181
62 99 181
61 98 179
61 98 179
61 98 181
62 99 179
61 98 179
62 99 181
61 98 179
61 98 177
60 98 181
61 98 179
62 98 177
61 98 175
60 97 175
62 99 179
62 99 181
61 97 168
61 98 169
60 96 166
61 98 169
61 98 177
61 98 169
61 98 171
61 98 167
70 104 171
143 166 80
173 195 0
171 194 0
172 197 0
170 193 0
170 192 0
170 194 0
171 196 0
169 193 0
169 192 0
174 196 0
170 194 0
166 190 0
168 193 0
173 197 0
167 191 0
170 193 0
172 196 0
171 195 0
169 193 0
169 192 0
176 198 0
173 196 0
172 194 0
171 195 0
174 197 0
172 195 0
173 196 0
172 196 0
171 195 0
168 192 0
172 196 0
172 195 0
173 196 0
173 196 0
175 198 0
174 196 0
172 195 0
170 193 0
172 196 0
173 197 0
173 197 0
173 196 0
173 196 0
174 197 0
173 196 0
173 196 0
173 197 0
174 197 0
172 197 0
173 197 0
174 198 0
171 193 0
173 197 0
174 197 0
172 194 0
172 196 0
173 196 0
172 196 0
174 197 0
174 197 0
173 196 0
177 199 0
169 194 0
172 194 0
170 193 0
172 196 0
175 198 0
174 197 0
175 198 0
173 197 0
172 196 0
172 195 0
175 197 0
168 190 0
172 196 0
176 199 0
174 196 0
172 197 0
175 198 0
169 192 0
174 198 0
175 197 0
172 195 0
175 197 0
174 197 0
174 197 0
172 195 0
171 195 0
168 191 0
176 198 0
173 197 0
172 197 0
175 198 0
176 198 0
173 197 0
174 197 0
176 198 0
173 197 0
173 197 0
171 195 0
171 195 0
170 194 0
172 196 0
174 197 0
174 198 0
174 198 0
175 198 0
176 199 0
172 195 0
174 198 0
174 198 0
172 195 0
174 196 0
174 198 0
175 196 0
174 197 0
172 195 0
177 199 0
172 196 0
172 196 0
174 196 0
173 197 0
173 197 0
174 197 0
174 197 0
171 195 0
174 197 0
172 196 0
173 197 0
174 197 0
173 197 0
174 198 0
175 198 0
174 197 0
170 193 0
175 198 0
173 196 0
175 198 0
175 197 0
174 197 0
174 197 0
174 196 0
174 197 0
172 196 0
175 198 0
174 197 0
175 198 0
173 197 0
174 197 0
176 199 0
171 195 0
173 197 0
174 198 0
174 197 0
176 199 0
176 199 0
172 196 0
175 198 0
173 197 0
171 194 0
173 196 0
174 196 0
173 196 0
174 196 0
171 196 0
177 199 0
177 199 0
173 197 0
174 198 0
174 198 0
175 198 0
175 198 0
175 197 0
173 197 0
174 197 0
175 198 0
174 197 0
172 196 0
174 197 0
175 198 0
172 196 0
172 196 0
174 197 0
173 197 0
174 197 0
173 196 0
173 197 0
174 197 0
174 198 0
172 196 0
174 197 0
174 197 0
173 197 0
176 198 0
174 197 0
175 198 0
171 196 0
173 196 0
172 196 0
173 197 0
173 197 0
173 196 0
173 197 0
174 198 0
174 197 0
173 196 0
174 197 0
172 196 0
173 197 0
173 196 0
174 197 0
172 196 0
173 197 0
172 196 0
174 197 0
175 198 0
172 195 0
172 196 0
173 197 0
176 198 0
171 195 0
172 196 0
173 197 0
175 198 0
171 195 0
170 193 0
176 198 0
173 197 0
172 195 0
173 196 0
172 196 0
170 193 0
172 196 0
169 192 0
172 196 0
174 197 0
172 196 0
172 195 0
169 193 0
172 195 0
172 195 0
172 195 0
171 194 0
171 194 0
171 193 0
170 193 0
170 193 0
172 195 0
173 196 0
171 194 0
173 195 0
170 192 0
156 176 0
157 177 0
155 174 0
150 170 0
154 175 0
151 172 0
153 174 0
156 176 0
153 175 0
154 174 0
153 173 0
153 174 0
153 174 0
153 174 0
152 173 0
158 178 0
154 175 0
152 173 0
152 173 0
153 174 0
154 174 0
154 174 0
150 171 0
148 170 0
152 174 0
153 174 0
151 172 0
155 175 0
153 175 0
155 175 0
155 175 0
151 172 0
155 175 0
152 173 0
153 172 0
151 172 0
139 159 20
67 88 75
75 95 60
86 105 70
79 96 48
71 91 69
76 94 51
90 109 64
67 87 56
88 106 58
93 111 55
81 100 46
91 109 57
87 106 57
96 114 31
110 128 55
118 137 43
103 122 54
105 123 52
113 129 32
107 126 48
109 128 38
120 139 28
117 135 22
118 137 32
122 141 0
122 140 28
138 158 0
133 153 22
134 153 0
128 147 0
131 150 0
133 152 0
132 152 0
136 155 0
129 149 0
140 159 0
138 158 0
136 156 0
131 151 0
146 167 0
136 155 0
139 159 0
140 160 0
139 159 0
135 156 0
145 166 0
137 159 0
144 164 0
141 162 0
143 164 0
140 160 0
142 161 0
151 170 0
124 146 80
66 100 164
61 96 169
61 98 179
62 99 175
62 98 169
62 98 175
60 97 169
61 98 178
61 98 173
61 98 173
61 98 175
61 98 177
62 99 179
62 99 177
61 97 171
60 98 175
61 99 181
61 98 179
62 99 175
62 99 179
62 98 173
61 99 181
60 98 181
62 99 179
62 99 181
62 99 181
62 99 181
61 98 181
61 99 181
61 98 179
61 97 175
62 99 181
61 98 175
62 98 177
61 97 175
61 98 179
61 99 179
61 98 177
62 98 179
62 99 181
61 98 175
61 98 177
62 98 179
61 99 179
61 97 170
61 98 175
62 98 175
62 99 179
61 97 174
61 98 177
62 99 175
60 96 168
61 98 167
62 98 169
61 97 169
60 97 161
73 107 163
151 176 80
167 190 0
170 193 0
170 193 0
171 194 0
171 196 0
172 196 0
167 191 0
169 194 0
169 193 0
170 193 0
172 195 0
171 194 0
171 194 0
169 193 0
170 194 0
171 195 0
171 194 0
168 193 0
169 192 0
173 195 0
169 192 0
172 196 0
170 193 0
173 195 0
172 195 0
171 193 0
172 196 0
171 195 0
175 196 0
173 196 0
168 191 0
173 196 0
169 193 0
170 194 0
169 192 0
174 197 0
171 194 0
172 196 0
170 194 0
173 196 0
175 198 0
168 192 0
169 192 0
171 194 0
170 193 0
172 195 0
169 192 0
171 194 0
172 195 0
172 197 0
169 193 0
171 194 0
173 197 0
173 196 0
171 195 0
173 197 0
173 196 0
174 197 0
173 196 0
171 195 0
172 195 0
170 194 0
176 198 0
171 193 0
171 194 0
174 197 0
173 197 0
173 196 0
171 195 0
174 197 0
172 195 0
174 198 0
169 193 0
173 196 0
171 195 0
173 196 0
169 193 0
174 197 0
169 193 0
176 198 0
174 196 0
172 195 0
175 197 0
172 195 0
174 197 0
172 195 0
174 198 0
171 195 0
174 196 0
171 196 0
172 196 0
175 198 0
174 198 0
173 196 0
172 196 0
174 197 0
171 195 0
175 198 0
174 197 0
172 197 0
174 197 0
173 197 0
171 194 0
175 198 0
172 196 0
173 196 0
173 196 0
173 196 0
173 197 0
174 197 0
175 198 0
171 196 0
174 198 0
173 197 0
178 200 0
171 194 0
174 197 0
174 197 0
173 196 0
174 197 0
174 198 0
173 195 0
173 195 0
173 196 0
173 197 0
172 194 0
175 198 0
173 197 0
173 197 0
174 197 0
175 198 0
171 196 0
173 197 0
170 195 0
177 199 0
171 196 0
174 197 0
173 197 0
173 197 0
175 198 0
171 194 0
174 197 0
174 197 0
172 195 0
170 194 0
174 197 0
173 197 0
173 196 0
173 196 0
174 198 0
175 197 0
173 196 0
173 196 0
173 197 0
173 197 0
174 198 0
172 195 0
171 195 0
173 196 0
174 198 0
174 197 0
173 197 0
173 197 0
174 197 0
173 197 0
173 197 0
176 198 0
173 197 0
175 198 0
175 198 0
176 199 0
176 199 0
171 196 0
173 197 0
175 198 0
175 198 0
177 199 0
173 197 0
173 197 0
174 196 0
171 195 0
174 198 0
172 196 0
173 197 0
175 198 0
174 197 0
174 197 0
172 196 0
173 196 0
173 196 0
174 197 0
176 198 0
175 197 0
173 196 0
175 198 0
171 194 0
174 197 0
171 195 0
174 197 0
174 198 0
172 196 0
171 195 0
173 197 0
174 197 0
170 195 0
174 197 0
175 197 0
173 197 0
174 197 0
172 196 0
172 196 0
174 197 0
172 196 0
173 197 0
170 194 0
175 198 0
172 196 0
175 198 0
172 196 0
173 197 0
172 195 0
173 196 0
173 196 0
172 196 0
173 196 0
174 197 0
173 197 0
173 197 0
174 197 0
173 196 0
172 195 0
172 196 0
173 196 0
173 196 0
171 195 0
173 196 0
172 196 0
172 196 0
173 196 0
173 196 0
174 195 0
172 195 0
171 194 0
175 197 0
167 191 0
173 195 0
170 194 0
171 195 0
170 193 0
169 193 0
171 194 0
157 179 0
153 174 0
153 174 0
154 175 0
152 173 0
151 171 0
154 175 0
154 175 0
154 175 0
155 176 0
156 176 0
154 175 0
154 174 0
155 175 0
154 174 0
155 175 0
155 175 0
155 176 0
154 173 0
154 175 0
154 175 0
153 174 0
155 176 0
154 175 0
155 176 0
154 175 0
155 176 0
154 175 0
153 173 0
154 175 0
149 171 0
152 173 0
154 175 0
154 174 0
154 175 0
152 173 0
146 166 30
65 86 61
76 95 51
86 105 60
79 98 67
67 90 58
77 95 58
85 105 61
77 96 67
89 110 71
77 96 46
85 104 63
87 108 57
87 106 33
107 126 58
101 118 36
100 118 39
109 128 56
114 132 30
124 143 20
110 128 31
112 131 30
118 137 32
114 133 32
113 132 0
123 143 22
123 142 0
118 137 0
126 146 0
129 147 0
131 150 0
129 148 0
133 153 0
129 147 0
131 152 0
139 158 0
131 151 0
135 155 0
131 151 0
145 165 0
137 157 0
142 162 0
145 165 0
140 159 0
136 156 0
143 163 0
145 165 0
145 165 0
141 160 0
140 159 0
146 166 0
151 172 0
150 170 0
119 141 80
67 99 154
59 95 163
59 94 165
61 97 171
60 96 170
60 96 168
59 96 166
61 98 177
61 98 175
61 98 174
61 98 181
62 99 176
62 99 173
61 98 173
62 99 177
61 98 173
61 98 177
62 99 181
62 99 177
61 98 179
61 98 175
61 98 179
61 99 181
62 99 181
61 98 181
62 99 179
60 98 177
61 98 179
61 98 179
60 97 175
61 98 179
61 97 177
62 99 181
62 98 177
61 97 177
61 99 179
61 98 179
62 99 179
62 99 181
61 97 175
61 98 179
62 99 179
62 99 177
61 99 179
62 99 179
61 98 179
62 98 174
62 99 179
61 98 177
59 95 168
60 96 172
62 99 175
61 97 170
61 97 163
61 97 170
61 98 169
61 98 169
61 96 162
71 104 147
148 172 72
169 192 0
170 195 0
171 194 0
171 195 0
170 193 0
169 193 0
164 187 0
166 189 0
172 195 0
173 195 0
173 196 0
170 194 0
169 192 0
171 194 0
172 195 0
166 190 0
172 196 0
170 193 0
168 191 0
172 196 0
172 196 0
172 195 0
170 194 0
171 195 0
173 196 0
171 194 0
170 194 0
171 194 0
171 194 0
172 194 0
171 195 0
172 195 0
172 195 0
172 195 0
171 195 0
169 192 0
170 194 0
167 191 0
174 196 0
173 196 0
174 197 0
170 192 0
176 198 0
172 195 0
174 198 0
171 195 0
172 196 0
172 195 0
172 196 0
172 195 0
177 199 0
171 195 0
170 193 0
171 194 0
171 194 0
172 195 0
173 197 0
174 197 0
171 193 0
172 194 0
175 198 0
172 195 0
174 198 0
173 196 0
171 194 0
176 198 0
172 196 0
172 196 0
175 198 0
174 196 0
172 195 0
170 193 0
173 196 0
171 193 0
174 197 0
174 197 0
174 197 0
174 198 0
173 196 0
175 197 0
171 195 0
172 195 0
172 195 0
171 195 0
173 196 0
172 196 0
173 197 0
175 197 0
172 196 0
173 196 0
170 194 0
172 196 0
172 197 0
175 198 0
174 198 0
173 197 0
173 196 0
174 197 0
177 199 0
173 197 0
175 198 0
169 193 0
174 197 0
173 196 0
170 192 0
174 197 0
175 198 0
174 197 0
177 199 0
170 194 0
174 197 0
172 196 0
174 196 0
171 194 0
172 195 0
175 197 0
173 197 0
173 197 0
176 199 0
177 199 0
174 197 0
174 197 0
174 196 0
173 196 0
177 199 0
172 197 0
171 194 0
174 197 0
173 197 0
174 197 0
173 196 0
175 197 0
172 197 0
174 196 0
172 196 0
173 196 0
175 198 0
173 197 0
174 197 0
174 197 0
174 197 0
175 198 0
168 193 0
176 198 0
173 197 0
175 198 0
173 197 0
173 196 0
173 197 0
174 197 0
173 195 0
174 198 0
176 198 0
173 197 0
173 197 0
175 198 0
172 195 0
173 197 0
174 198 0
174 197 0
173 195 0
175 198 0
176 198 0
171 195 0
174 198 0
176 199 0
175 198 0
172 196 0
174 198 0
174 198 0
175 198 0
174 197 0
173 197 0
176 199 0
172 196 0
173 197 0
175 198 0
174 197 0
173 197 0
175 198 0
173 196 0
174 198 0
174 198 0
173 197 0
174 197 0
175 198 0
172 196 0
172 196 0
175 197 0
172 197 0
174 198 0
172 196 0
172 196 0
176 198 0
174 198 0
173 197 0
174 197 0
174 197 0
171 195 0
172 196 0
173 197 0
175 198 0
173 197 0
174 197 0
173 196 0
174 197 0
174 197 0
173 196 0
175 198 0
172 195 0
172 196 0
174 197 0
173 197 0
173 196 0
172 196 0
170 195 0
172 196 0
174 197 0
174 197 0
172 196 0
172 196 0
173 196 0
172 196 0
171 196 0
172 196 0
173 197 0
173 196 0
170 195 0
173 196 0
173 196 0
172 195 0
172 195 0
171 196 0
171 194 0
173 196 0
176 198 0
173 196 0
170 192 0
170 193 0
171 194 0
172 195 0
171 194 0
171 194 0
171 195 0
169 192 0
172 195 0
171 194 0
171 194 0
172 195 0
170 194 0
162 183 0
152 173 0
152 173 0
153 174 0
153 172 0
154 174 0
154 174 0
155 175 0
152 173 0
154 174 0
153 174 0
154 174 0
152 173 0
153 174 0
155 175 0
152 172 0
154 175 0
150 171 0
153 174 0
152 173 0
153 175 0
154 175 0
152 173 0
155 175 0
154 174 0
153 174 0
155 175 0
151 173 0
152 174 0
154 174 0
152 172 0
153 174 0
155 175 0
156 176 0
152 173 0
155 176 0
154 175 0
83 103 70
71 90 55
66 86 72
66 85 61
68 88 57
87 105 45
85 104 67
84 104 67
86 105 50
86 104 59
97 115 48
96 113 43
108 128 57
100 118 53
105 124 33
95 113 31
113 131 0
103 121 38
122 141 22
121 140 30
119 139 22
125 143 22
116 135 30
116 134 12
117 136 0
120 139 0
130 148 0
138 158 0
128 147 0
120 139 0
140 159 0
140 160 0
134 154 0
134 154 0
133 152 0
134 153 0
125 144 0
133 152 0
136 156 0
136 157 0
138 158 0
140 160 0
144 165 0
132 153 0
138 159 0
131 151 0
142 162 0
144 164 0
137 157 0
146 166 0
141 161 0
136 157 73
75 106 158
60 96 164
61 97 161
61 98 173
60 95 162
60 97 174
61 98 169
61 97 174
60 97 167
61 98 175
61 98 175
61 98 175
61 98 173
62 99 177
60 97 169
62 99 179
62 99 179
61 99 179
62 99 179
61 98 175
61 98 177
62 99 181
60 97 169
61 98 177
61 98 179
62 99 181
61 98 177
61 98 173
61 98 181
62 99 177
61 99 181
61 98 179
60 97 177
61 97 173
61 98 181
63 100 181
61 99 181
61 99 181
61 98 177
60 96 175
61 99 181
62 98 179
61 99 179
60 97 177
62 98 179
62 99 181
60 97 177
60 96 170
63 100 179
61 98 177
61 98 177
60 97 174
62 98 166
61 97 175
62 99 175
61 97 167
61 98 167
61 98 177
61 97 165
61 98 165
78 111 159
161 184 57
169 193 0
169 192 0
171 195 0
170 193 0
172 194 0
171 194 0
169 193 0
173 194 0
171 194 0
172 193 0
171 193 0
170 193 0
168 192 0
175 198 0
167 190 0
171 194 0
172 195 0
170 193 0
169 193 0
172 196 0
173 197 0
171 194 0
176 198 0
168 190 0
168 193 0
171 194 0
173 196 0
167 191 0
173 195 0
170 194 0
173 197 0
171 194 0
169 192 0
171 194 0
171 194 0
173 196 0
170 193 0
169 194 0
172 196 0
171 195 0
173 196 0
173 195 0
170 193 0
173 197 0
175 198 0
172 194 0
174 197 0
173 196 0
173 197 0
172 196 0
173 197 0
172 195 0
173 196 0
171 196 0
171 194 0
170 192 0
172 195 0
174 196 0
173 196 0
172 196 0
173 197 0
174 196 0
172 195 0
172 196 0
174 197 0
172 196 0
173 196 0
175 198 0
174 196 0
172 195 0
174 197 0
175 198 0
173 197 0
173 197 0
171 194 0
172 196 0
171 194 0
171 195 0
172 197 0
170 194 0
171 194 0
175 198 0
173 196 0
172 196 0
176 198 0
173 196 0
173 196 0
172 196 0
173 197 0
168 190 0
175 198 0
174 197 0
175 198 0
170 193 0
173 197 0
172 197 0
173 197 0
172 196 0
172 196 0
174 196 0
172 196 0
173 196 0
173 196 0
172 196 0
173 196 0
174 197 0
177 199 0
175 197 0
173 195 0
171 195 0
171 195 0
174 198 0
173 197 0
172 194 0
177 199 0
173 197 0
170 194 0
173 196 0
176 199 0
172 195 0
174 198 0
173 197 0
173 197 0
173 197 0
173 197 0
177 199 0
174 197 0
173 197 0
169 194 0
174 197 0
170 193 0
174 197 0
171 194 0
175 197 0
174 197 0
174 197 0
172 196 0
174 197 0
174 198 0
173 195 0
175 198 0
174 197 0
173 196 0
172 196 0
174 198 0
172 197 0
175 198 0
172 196 0
176 199 0
172 197 0
169 194 0
174 198 0
171 195 0
174 198 0
173 197 0
175 198 0
174 197 0
172 196 0
175 198 0
175 197 0
174 198 0
175 198 0
173 196 0
176 198 0
173 196 0
173 197 0
177 199 0
173 197 0
174 197 0
174 196 0
176 198 0
172 196 0
175 198 0
171 196 0
173 196 0
175 198 0
174 197 0
174 197 0
173 197 0
173 197 0
174 197 0
173 197 0
174 197 0
173 196 0
172 196 0
172 197 0
174 197 0
172 195 0
175 197 0
176 198 0
174 197 0
172 196 0
176 199 0
173 197 0
172 196 0
172 195 0
173 196 0
174 197 0
174 198 0
172 196 0
173 197 0
176 198 0
174 197 0
171 196 0
175 198 0
174 197 0
173 195 0
174 197 0
173 196 0
175 198 0
174 197 0
174 196 0
173 196 0
174 197 0
171 195 0
172 196 0
170 193 0
174 196 0
174 197 0
173 196 0
173 196 0
172 196 0
174 197 0
173 196 0
173 196 0
170 194 0
173 196 0
173 197 0
172 195 0
172 196 0
172 195 0
171 195 0
173 196 0
174 197 0
172 196 0
174 196 0
172 195 0
171 195 0
173 195 0
172 195 0
171 195 0
171 193 0
172 195 0
168 191 0
171 193 0
173 196 0
170 193 0
170 193 0
170 193 0
166 188 0
156 176 0
153 174 0
154 175 0
153 174 0
153 174 0
152 173 0
155 176 0
152 173 0
153 173 0
154 174 0
154 174 0
152 173 0
155 175 0
155 175 0
154 175 0
155 175 0
156 176 0
152 173 0
154 174 0
155 175 0
154 175 0
154 175 0
153 173 0
152 172 0
149 171 0
153 173 0
152 172 0
153 174 0
151 173 0
157 176 0
154 172 0
152 173 0
157 177 0
154 175 0
152 174 0
156 176 0
92 113 74
78 100 84
90 108 44
76 97 66
81 98 49
76 96 75
83 103 50
79 97 49
92 110 61
80 101 70
95 113 48
92 111 62
87 106 38
94 113 50
101 119 34
90 106 30
114 133 42
113 131 22
108 127 0
106 125 32
113 133 28
113 132 22
117 136 20
118 136 32
117 135 0
130 149 0
120 139 30
124 142 0
126 146 0
125 145 0
127 146 0
129 147 0
132 152 0
136 156 0
132 151 0
127 146 0
132 153 0
130 151 0
128 148 0
144 164 0
135 155 0
135 155 0
136 156 0
145 166 0
139 159 0
137 158 0
149 171 0
143 163 0
145 166 0
145 166 0
147 167 49
79 109 155
60 96 162
61 98 173
62 99 175
61 98 172
60 97 168
61 97 165
62 99 174
62 99 173
61 98 173
62 99 181
61 98 177
61 98 175
61 98 179
61 98 171
61 98 175
61 98 169
61 98 173
61 98 175
61 98 175
61 98 175
61 99 181
61 99 179
61 98 181
61 98 177
61 98 173
62 99 181
61 99 181
62 99 181
61 98 179
61 98 177
61 98 179
61 98 177
61 99 181
61 98 175
61 99 177
62 98 179
61 99 179
61 99 181
62 99 179
61 98 175
61 97 178
61 98 179
62 99 177
61 98 175
60 97 175
62 99 181
60 97 174
59 94 168
61 98 175
61 97 172
61 98 172
62 98 172
61 97 171
60 97 171
62 97 170
60 96 168
63 100 181
61 97 166
62 99 175
61 98 167
61 97 164
96 124 147
154 178 51
173 196 0
172 195 0
174 197 0
169 193 0
170 193 0
169 192 0
173 196 0
175 197 0
174 196 0
174 197 0
175 197 0
167 191 0
169 191 0
167 190 0
169 192 0
169 193 0
170 194 0
171 195 0
170 194 0
173 196 0
174 197 0
169 193 0
165 188 0
169 192 0
167 190 0
171 194 0
171 194 0
176 198 0
172 195 0
173 197 0
171 195 0
170 194 0
172 194 0
174 197 0
175 198 0
173 196 0
171 193 0
175 198 0
175 198 0
174 197 0
174 197 0
168 191 0
171 194 0
170 193 0
171 194 0
172 195 0
172 196 0
175 198 0
173 197 0
173 196 0
173 197 0
175 197 0
168 191 0
170 194 0
171 195 0
173 196 0
173 196 0
170 195 0
174 197 0
171 195 0
172 196 0
172 196 0
173 197 0
176 198 0
171 194 0
173 196 0
171 194 0
171 192 0
170 194 0
172 195 0
174 196 0
174 197 0
174 197 0
172 197 0
174 197 0
174 197 0
170 192 0
174 197 0
173 196 0
175 198 0
171 195 0
175 196 0
173 196 0
174 197 0
176 199 0
170 192 0
173 196 0
172 196 0
174 197 0
172 196 0
174 198 0
176 199 0
173 197 0
173 196 0
173 197 0
167 191 0
172 196 0
173 197 0
175 198 0
172 197 0
173 195 0
173 197 0
174 198 0
174 197 0
173 196 0
174 197 0
175 198 0
173 196 0
174 197 0
174 198 0
174 197 0
174 198 0
175 197 0
174 198 0
174 198 0
173 197 0
172 196 0
172 195 0
174 197 0
174 197 0
172 196 0
173 197 0
171 194 0
175 198 0
176 199 0
172 194 0
173 197 0
176 199 0
172 196 0
170 195 0
174 198 0
174 198 0
174 198 0
174 197 0
172 196 0
174 198 0
175 197 0
173 197 0
175 198 0
175 198 0
177 199 0
173 197 0
174 197 0
174 198 0
173 196 0
175 198 0
175 198 0
176 198 0
172 197 0
173 197 0
172 195 0
174 198 0
173 197 0
173 197 0
176 199 0
174 198 0
175 197 0
171 194 0
171 195 0
174 198 0
175 198 0
174 197 0
173 197 0
174 197 0
174 198 0
175 198 0
173 197 0
174 197 0
174 197 0
172 196 0
172 197 0
173 197 0
174 197 0
172 196 0
176 199 0
174 197 0
173 195 0
173 197 0
172 196 0
174 197 0
175 198 0
173 196 0
175 198 0
174 198 0
173 197 0
171 196 0
172 196 0
174 197 0
174 197 0
172 196 0
172 196 0
172 196 0
172 196 0
174 197 0
173 197 0
173 197 0
174 197 0
174 197 0
172 196 0
173 196 0
172 197 0
174 197 0
173 196 0
175 197 0
173 197 0
172 196 0
174 197 0
173 196 0
173 196 0
173 197 0
174 196 0
172 195 0
175 198 0
174 197 0
172 195 0
172 196 0
174 197 0
174 196 0
173 196 0
173 196 0
173 196 0
168 192 0
171 196 0
175 198 0
172 195 0
173 195 0
172 195 0
172 195 0
174 197 0
173 197 0
173 195 0
171 195 0
170 194 0
172 196 0
170 194 0
172 196 0
176 198 0
172 195 0
172 196 0
172 195 0
175 197 0
171 194 0
172 195 0
173 196 0
171 193 0
173 196 0
170 192 0
170 192 0
164 188 0
153 173 0
153 174 0
154 175 0
155 175 0
151 173 0
153 174 0
152 173 0
152 173 0
153 174 0
149 170 0
154 174 0
154 174 0
152 173 0
152 172 0
151 172 0
154 175 0
151 172 0
153 174 0
152 173 0
154 174 0
153 174 0
152 173 0
154 174 0
153 175 0
152 173 0
154 175 0
152 173 0
152 173 0
153 173 0
153 174 0
151 172 0
152 173 0
156 176 0
152 174 0
151 172 0
152 172 0
118 137 20
73 94 81
75 96 56
77 96 54
98 116 33
83 104 46
97 114 45
84 102 57
90 109 69
94 111 43
96 114 52
92 109 27
83 102 50
100 119 42
108 126 0
104 122 14
109 127 22
109 129 28
98 118 30
115 134 32
115 134 0
121 139 20
117 136 14
118 136 0
119 139 32
128 148 0
128 148 0
129 147 0
128 146 0
131 152 0
136 156 0
127 148 0
142 162 0
141 160 0
130 152 0
133 152 0
136 156 0
128 148 0
138 159 0
135 155 0
134 154 0
139 159 0
141 161 0
141 163 0
134 155 0
143 164 0
139 158 0
143 163 0
141 161 0
143 163 0
102 128 118
59 94 166
60 97 171
58 93 162
60 96 161
62 99 178
60 97 168
62 99 171
61 98 171
61 97 167
61 98 173
60 97 168
61 99 179
62 99 177
62 99 177
62 99 175
61 98 178
61 98 169
62 99 181
62 99 179
61 99 179
62 99 179
62 99 179
61 98 171
61 99 179
62 99 175
61 99 179
62 99 177
61 98 179
61 98 175
62 99 179
60 97 176
61 98 179
62 99 181
61 98 175
62 99 179
61 98 177
60 97 173
62 98 175
62 99 179
61 97 176
61 98 177
60 96 173
62 99 177
60 96 171
60 97 175
62 99 175
60 96 172
61 98 177
61 97 174
62 99 177
61 98 174
60 97 175
62 99 173
59 95 168
60 96 169
60 95 162
61 97 166
59 95 160
61 98 175
61 97 165
61 96 162
61 97 169
61 98 168
111 138 137
171 194 0
172 195 0
169 192 0
171 194 0
170 194 0
167 191 0
173 196 0
169 193 0
170 195 0
169 191 0
172 195 0
170 193 0
169 193 0
168 190 0
171 195 0
172 195 0
171 195 0
171 194 0
170 193 0
173 197 0
170 192 0
172 196 0
175 198 0
173 197 0
173 196 0
171 194 0
175 197 0
172 194 0
171 195 0
173 196 0
168 192 0
169 193 0
169 192 0
172 195 0
172 196 0
169 193 0
172 195 0
168 191 0
165 190 0
173 197 0
175 198 0
172 196 0
172 195 0
167 190 0
172 195 0
170 193 0
170 194 0
171 194 0
169 191 0
171 194 0
170 193 0
172 195 0
177 199 0
172 196 0
172 196 0
171 194 0
174 197 0
176 198 0
173 196 0
168 191 0
173 195 0
171 194 0
168 191 0
173 197 0
172 197 0
172 196 0
174 196 0
175 198 0
174 197 0
174 197 0
172 196 0
172 196 0
172 196 0
171 195 0
173 195 0
171 195 0
173 196 0
171 195 0
174 198 0
172 197 0
174 197 0
174 198 0
177 199 0
173 196 0
177 198 0
172 195 0
174 197 0
174 197 0
171 195 0
173 196 0
173 196 0
173 196 0
171 195 0
170 193 0
172 196 0
175 198 0
173 195 0
172 196 0
172 196 0
171 195 0
175 196 0
173 196 0
175 198 0
172 197 0
172 195 0
175 198 0
175 198 0
173 197 0
173 197 0
172 196 0
176 198 0
173 197 0
174 197 0
175 198 0
172 195 0
175 198 0
172 197 0
174 198 0
173 197 0
176 198 0
174 197 0
171 195 0
173 196 0
171 195 0
173 197 0
172 196 0
175 198 0
173 197 0
172 197 0
174 197 0
173 196 0
173 196 0
173 197 0
174 198 0
173 197 0
174 198 0
173 196 0
173 196 0
173 196 0
174 197 0
172 196 0
174 197 0
171 196 0
173 196 0
171 195 0
175 198 0
173 196 0
172 195 0
170 194 0
174 196 0
176 199 0
174 197 0
174 197 0
176 199 0
173 196 0
174 197 0
171 194 0
174 198 0
173 196 0
174 197 0
176 199 0
174 198 0
172 196 0
175 197 0
175 198 0
175 198 0
173 197 0
175 198 0
175 198 0
176 198 0
173 197 0
174 197 0
172 196 0
173 196 0
175 198 0
175 197 0
171 196 0
174 198 0
172 196 0
172 197 0
173 197 0
173 197 0
176 197 0
172 197 0
175 197 0
173 197 0
174 198 0
170 194 0
175 198 0
175 197 0
173 197 0
173 196 0
175 198 0
174 197 0
175 198 0
173 197 0
171 195 0
176 198 0
173 196 0
175 197 0
169 194 0
171 195 0
174 197 0
173 197 0
173 197 0
173 197 0
173 196 0
173 197 0
175 196 0
175 198 0
173 196 0
172 196 0
173 196 0
173 196 0
173 197 0
175 197 0
173 196 0
176 198 0
172 195 0
170 193 0
172 196 0
169 192 0
176 198 0
173 196 0
172 195 0
172 195 0
170 194 0
172 195 0
172 195 0
171 195 0
168 192 0
172 194 0
172 196 0
170 195 0
170 194 0
171 194 0
174 196 0
171 193 0
172 195 0
171 194 0
173 196 0
169 193 0
173 195 0
172 195 0
174 196 0
170 193 0
170 193 0
170 193 0
168 190 0
155 175 0
148 169 0
152 173 0
154 174 0
152 174 0
153 174 0
153 174 0
152 173 0
152 174 0
152 173 0
155 175 0
154 175 0
153 173 0
154 174 0
152 173 0
153 173 0
148 169 0
152 173 0
151 171 0
154 175 0
153 174 0
155 175 0
153 175 0
153 174 0
153 174 0
150 171 0
154 175 0
152 173 0
155 175 0
155 175 0
154 174 0
153 174 0
154 174 0
152 172 0
152 173 0
154 175 0
119 139 38
82 101 38
88 107 56
79 98 54
97 117 38
78 97 43
77 95 53
101 118 28
83 101 40
105 124 30
101 119 35
96 112 46
98 117 50
106 123 20
102 118 28
112 131 22
105 122 0
107 125 28
115 133 20
117 137 0
110 129 0
121 139 0
122 141 0
116 135 0
130 151 0
123 141 0
127 145 0
121 141 0
124 143 0
122 140 0
125 145 0
137 157 0
130 150 0
134 154 0
139 160 0
133 153 0
133 153 0
125 146 0
125 144 0
135 155 0
130 150 0
148 167 0
144 165 0
137 157 0
136 157 0
135 155 0
138 159 0
141 163 0
135 156 0
125 146 86
57 93 160
61 97 163
60 96 166
61 97 172
61 98 174
61 98 167
61 98 173
61 98 173
60 97 171
61 98 169
62 99 175
61 98 169
62 99 177
62 99 177
62 99 177
61 98 177
61 98 175
61 98 179
61 98 173
61 98 181
61 98 177
62 99 179
61 98 175
60 97 171
62 99 175
62 99 177
61 98 177
62 99 175
62 99 179
61 98 177
61 98 175
60 97 173
61 97 166
61 98 173
61 98 175
63 99 177
62 99 177
63 100 181
62 99 179
61 98 175
61 98 179
61 97 169
61 97 177
60 97 177
62 99 179
61 98 177
60 97 175
61 96 172
60 96 166
61 98 173
61 98 175
61 97 172
61 98 173
60 96 172
61 98 174
62 98 175
61 97 172
62 98 174
61 98 175
62 98 174
60 95 162
60 97 171
60 96 164
61 98 167
60 95 153
139 163 99
169 192 0
169 192 0
172 195 0
171 195 0
168 191 0
171 193 0
174 196 0
171 194 0
169 192 0
169 192 0
171 196 0
172 196 0
172 197 0
172 195 0
173 196 0
171 194 0
165 188 0
173 196 0
172 195 0
172 195 0
173 196 0
171 194 0
170 193 0
175 198 0
172 196 0
171 194 0
171 195 0
171 195 0
172 194 0
173 196 0
169 193 0
170 194 0
170 194 0
171 195 0
166 188 0
170 193 0
172 195 0
172 194 0
170 193 0
171 196 0
171 195 0
172 195 0
174 197 0
172 196 0
168 191 0
168 191 0
174 197 0
170 193 0
171 195 0
174 196 0
172 196 0
174 197 0
173 196 0
173 196 0
174 196 0
169 193 0
173 195 0
169 191 0
173 196 0
171 195 0
170 195 0
174 197 0
175 198 0
175 198 0
171 193 0
173 196 0
172 195 0
171 196 0
171 194 0
174 198 0
173 196 0
172 197 0
172 194 0
175 198 0
174 197 0
168 192 0
172 195 0
172 196 0
176 199 0
168 192 0
174 197 0
171 194 0
172 195 0
172 195 0
174 197 0
173 197 0
176 198 0
170 195 0
174 198 0
173 197 0
171 194 0
175 198 0
173 196 0
173 195 0
171 196 0
173 196 0
171 194 0
174 197 0
174 197 0
173 195 0
173 195 0
174 197 0
174 197 0
174 197 0
177 199 0
174 197 0
173 196 0
171 196 0
174 196 0
173 196 0
172 196 0
175 198 0
172 196 0
174 196 0
173 196 0
175 198 0
173 197 0
174 197 0
175 198 0
173 197 0
175 198 0
172 193 0
174 197 0
173 197 0
173 196 0
171 195 0
175 197 0
171 195 0
174 198 0
175 198 0
177 199 0
174 196 0
172 195 0
175 198 0
173 197 0
174 197 0
174 198 0
175 198 0
170 194 0
174 198 0
174 197 0
174 198 0
172 195 0
175 198 0
171 196 0
176 198 0
173 197 0
175 198 0
176 199 0
172 194 0
176 199 0
175 198 0
175 198 0
176 198 0
173 197 0
173 197 0
174 197 0
175 198 0
174 198 0
172 195 0
174 197 0
174 197 0
176 199 0
174 198 0
172 197 0
176 199 0
173 197 0
175 197 0
172 196 0
171 196 0
174 197 0
176 198 0
173 197 0
174 198 0
174 198 0
175 197 0
175 198 0
170 194 0
173 197 0
175 198 0
172 196 0
177 199 0
172 196 0
172 195 0
174 197 0
172 196 0
174 197 0
173 196 0
173 197 0
172 197 0
174 196 0
175 198 0
171 196 0
174 197 0
174 197 0
172 195 0
172 195 0
173 196 0
170 194 0
174 197 0
172 196 0
174 198 0
172 196 0
174 197 0
174 197 0
172 195 0
174 197 0
172 196 0
172 196 0
172 196 0
174 197 0
173 197 0
170 194 0
172 195 0
172 195 0
176 198 0
169 193 0
174 197 0
173 196 0
174 197 0
174 197 0
173 196 0
173 196 0
172 195 0
172 196 0
173 196 0
172 195 0
174 197 0
176 198 0
173 196 0
172 196 0
172 195 0
173 196 0
171 194 0
170 193 0
173 195 0
173 195 0
171 194 0
171 194 0
171 194 0
172 195 0
172 195 0
171 194 0
168 192 0
168 191 0
170 192 0
171 194 0
172 195 0
157 178 0
152 172 0
154 174 0
153 173 0
155 175 0
154 174 0
152 174 0
154 174 0
154 175 0
153 173 0
152 173 0
152 174 0
154 174 0
155 175 0
152 173 0
154 174 0
153 174 0
153 174 0
153 173 0
153 174 0
154 174 0
154 173 0
152 173 0
154 174 0
151 172 0
154 175 0
151 172 0
152 173 0
152 171 0
151 173 0
154 175 0
152 172 0
155 175 0
153 173 0
153 174 0
152 172 0
131 151 22
92 110 57
88 106 43
89 109 72
88 106 32
101 118 36
89 104 43
90 110 46
81 96 36
87 106 30
80 97 51
98 116 46
104 121 28
103 120 0
105 122 28
113 131 22
109 126 20
103 120 20
116 133 0
99 117 0
116 134 20
107 126 0
123 141 0
129 147 0
121 141 0
119 137 0
118 137 0
133 151 0
126 145 0
132 152 0
123 143 0
123 142 0
126 145 0
132 152 0
130 148 0
133 152 0
130 150 0
136 154 0
139 157 0
143 163 0
132 153 0
139 160 0
143 163 0
134 154 0
143 163 0
141 162 0
142 162 0
138 158 0
119 141 81
64 97 150
61 97 162
60 96 162
60 96 162
60 96 166
60 97 167
61 98 174
60 97 170
61 97 171
61 97 172
61 97 166
62 99 175
61 98 173
62 99 179
62 99 171
61 97 163
62 99 175
61 98 179
61 98 167
61 98 179
61 98 175
62 99 175
62 99 179
62 99 175
61 98 171
61 98 177
62 99 177
61 97 175
61 98 175
61 98 181
62 99 179
61 99 179
61 98 177
61 98 177
61 97 176
61 98 173
61 98 181
62 99 175
62 99 177
61 98 174
60 97 169
62 98 177
61 98 179
60 96 172
61 97 174
61 97 176
61 98 177
61 97 176
61 97 174
60 97 175
61 97 174
62 98 174
61 97 173
60 96 168
61 97 168
61 98 177
61 97 169
62 98 174
61 98 173
61 97 175
61 97 168
60 97 167
60 96 163
61 96 160
60 97 163
62 97 167
69 102 156
162 186 62
165 188 0
173 196 0
172 195 0
169 192 0
171 193 0
172 196 0
172 195 0
169 192 0
171 194 0
169 192 0
168 191 0
167 192 0
173 195 0
171 194 0
172 194 0
172 195 0
170 193 0
171 194 0
173 196 0
172 194 0
172 195 0
166 189 0
168 194 0
167 191 0
172 196 0
174 198 0
173 197 0
171 194 0
172 195 0
173 195 0
168 193 0
164 187 0
169 192 0
174 197 0
173 196 0
170 193 0
167 191 0
170 193 0
172 195 0
168 191 0
172 196 0
173 197 0
170 194 0
171 194 0
173 196 0
171 195 0
175 198 0
169 192 0
177 199 0
170 193 0
171 194 0
170 193 0
169 193 0
170 194 0
174 197 0
172 197 0
173 196 0
174 197 0
174 197 0
173 196 0
171 194 0
173 197 0
173 196 0
176 198 0
170 194 0
171 195 0
170 194 0
170 195 0
172 196 0
171 195 0
175 198 0
174 196 0
176 198 0
173 196 0
171 194 0
171 194 0
173 197 0
173 196 0
171 194 0
172 195 0
174 197 0
172 196 0
172 194 0
174 198 0
174 197 0
173 196 0
171 195 0
172 196 0
174 197 0
174 197 0
174 198 0
174 197 0
171 194 0
173 195 0
173 197 0
174 198 0
174 197 0
173 197 0
172 195 0
177 198 0
172 194 0
173 196 0
174 197 0
173 196 0
173 197 0
174 196 0
174 196 0
175 198 0
175 197 0
172 196 0
174 197 0
172 196 0
174 197 0
175 198 0
174 197 0
173 197 0
172 196 0
174 198 0
172 196 0
175 198 0
176 199 0
175 198 0
175 198 0
174 198 0
174 197 0
175 197 0
175 198 0
174 197 0
172 195 0
173 196 0
173 197 0
173 196 0
175 198 0
171 194 0
176 199 0
175 198 0
174 197 0
175 197 0
173 196 0
174 198 0
172 196 0
178 199 0
173 197 0
173 197 0
173 196 0
174 198 0
172 195 0
171 194 0
176 199 0
174 198 0
173 196 0
175 198 0
174 196 0
175 198 0
174 197 0
175 197 0
176 198 0
173 197 0
173 196 0
176 198 0
173 196 0
177 199 0
175 197 0
172 196 0
173 197 0
172 197 0
175 198 0
173 197 0
174 197 0
174 197 0
173 197 0
174 197 0
174 197 0
175 198 0
170 196 0
176 199 0
174 197 0
173 197 0
172 196 0
174 197 0
176 199 0
173 196 0
172 196 0
175 198 0
174 197 0
172 195 0
173 197 0
175 198 0
172 196 0
172 196 0
172 196 0
172 196 0
174 197 0
172 195 0
173 197 0
173 196 0
173 197 0
173 196 0
172 195 0
174 197 0
173 196 0
173 196 0
175 198 0
174 197 0
174 197 0
174 197 0
176 198 0
173 197 0
174 197 0
171 195 0
175 197 0
172 195 0
172 196 0
176 199 0
174 197 0
171 196 0
173 195 0
172 195 0
172 195 0
170 194 0
173 196 0
170 194 0
171 195 0
173 196 0
171 194 0
171 193 0
173 195 0
174 196 0
171 195 0
172 196 0
173 195 0
171 194 0
170 194 0
172 196 0
175 197 0
171 194 0
171 194 0
172 195 0
173 196 0
172 195 0
173 195 0
169 194 0
170 193 0
173 195 0
169 193 0
168 191 0
171 193 0
157 179 0
154 175 0
152 173 0
153 173 0
154 175 0
153 173 0
155 175 0
154 175 0
155 175 0
156 176 0
152 173 0
152 174 0
153 173 0
149 169 0
155 175 0
155 174 0
152 172 0
152 172 0
154 174 0
153 174 0
152 172 0
152 173 0
155 175 0
156 176 0
156 175 0
154 175 0
155 175 0
152 174 0
151 172 0
153 174 0
152 172 0
154 174 0
154 175 0
154 175 0
154 175 0
154 175 0
142 162 0
85 106 64
83 103 60
95 113 53
92 110 38
108 125 20
93 113 50
76 93 35
91 108 42
102 119 28
108 126 35
110 128 22
94 112 43
106 124 30
109 128 0
110 128 36
116 133 0
119 137 22
122 141 0
122 139 0
119 138 0
117 136 0
111 128 0
113 131 0
127 146 0
135 156 0
128 147 0
128 148 0
137 157 0
143 163 0
136 155 0
137 155 0
132 152 0
143 164 0
134 154 0
138 157 0
140 159 0
146 166 0
133 152 0
143 163 0
126 146 0
142 163 0
135 156 0
137 157 0
145 163 0
142 162 0
137 158 0
142 162 25
82 112 142
60 95 164
60 96 159
62 99 171
60 96 159
59 96 161
60 96 164
62 99 175
62 99 177
60 97 167
62 99 173
61 97 170
61 98 173
62 99 171
62 99 175
63 100 179
62 99 175
61 98 175
62 99 173
61 98 171
61 98 175
61 98 177
62 98 174
61 98 173
61 98 175
62 99 175
61 98 179
61 99 179
61 98 177
62 99 175
60 97 175
61 98 177
61 98 171
61 98 177
61 98 171
60 97 171
61 98 175
61 97 175
61 99 177
61 97 177
61 98 175
61 97 170
62 98 174
62 98 175
61 98 179
62 99 179
60 97 177
61 98 177
62 99 179
60 95 165
60 96 168
60 96 165
61 98 177
61 98 175
62 99 175
61 97 170
59 94 164
60 96 170
60 95 168
61 98 175
61 98 171
60 95 166
60 95 160
61 97 163
60 97 167
60 95 160
60 96 158
61 97 167
110 136 128
167 189 0
167 191 0
165 189 0
173 196 0
168 192 0
173 195 0
172 194 0
169 193 0
174 197 0
170 193 0
171 193 0
170 192 0
174 195 0
169 191 0
169 192 0
169 192 0
172 195 0
164 186 0
173 195 0
174 196 0
172 195 0
172 196 0
166 189 0
170 194 0
171 194 0
174 196 0
172 194 0
170 194 0
173 196 0
169 192 0
173 196 0
169 191 0
171 194 0
174 197 0
170 193 0
175 198 0
171 194 0
172 196 0
171 194 0
169 193 0
172 194 0
165 188 0
173 196 0
169 193 0
172 196 0
173 196 0
167 189 0
173 196 0
174 197 0
173 197 0
169 193 0
173 196 0
172 196 0
175 198 0
173 197 0
171 193 0
172 194 0
175 198 0
170 192 0
172 195 0
170 193 0
173 196 0
171 195 0
173 196 0
172 196 0
171 195 0
173 197 0
174 196 0
174 197 0
173 197 0
171 195 0
169 193 0
171 194 0
172 196 0
173 196 0
175 198 0
174 198 0
172 195 0
170 194 0
172 196 0
172 196 0
173 196 0
174 197 0
174 197 0
174 198 0
171 195 0
173 197 0
170 195 0
171 193 0
175 197 0
170 193 0
172 195 0
171 194 0
168 192 0
174 197 0
176 198 0
170 193 0
176 199 0
171 194 0
174 197 0
174 198 0
172 196 0
173 195 0
173 196 0
173 197 0
175 197 0
174 197 0
172 195 0
173 196 0
175 198 0
174 198 0
172 196 0
174 197 0
173 197 0
171 195 0
176 199 0
174 197 0
171 194 0
174 198 0
171 195 0
174 197 0
172 195 0
172 196 0
173 196 0
176 198 0
174 197 0
174 198 0
174 198 0
168 192 0
176 196 0
172 197 0
175 198 0
174 198 0
172 195 0
176 199 0
172 197 0
167 191 0
173 197 0
175 197 0
174 198 0
173 196 0
173 197 0
173 197 0
173 197 0
174 198 0
175 198 0
173 196 0
172 196 0
174 198 0
172 196 0
174 197 0
174 198 0
173 196 0
174 197 0
176 198 0
173 196 0
171 195 0
175 198 0
174 197 0
173 197 0
170 194 0
175 198 0
173 197 0
172 197 0
174 197 0
173 197 0
174 198 0
175 198 0
174 197 0
173 197 0
175 198 0
174 197 0
172 195 0
173 196 0
173 197 0
172 196 0
174 197 0
172 196 0
173 197 0
174 198 0
174 197 0
175 198 0
170 194 0
174 197 0
174 197 0
174 197 0
172 196 0
173 197 0
174 197 0
174 198 0
173 196 0
171 196 0
172 196 0
174 197 0
174 198 0
174 197 0
174 197 0
174 197 0
174 197 0
173 196 0
173 195 0
174 197 0
175 198 0
172 196 0
172 195 0
171 195 0
173 197 0
173 196 0
172 196 0
172 196 0
174 197 0
175 198 0
172 196 0
169 194 0
173 196 0
173 197 0
174 197 0
174 196 0
171 195 0
173 196 0
174 197 0
174 197 0
172 196 0
172 195 0
170 194 0
172 195 0
171 195 0
173 196 0
174 196 0
174 196 0
172 196 0
175 197 0
171 195 0
171 195 0
171 194 0
169 192 0
169 192 0
172 195 0
172 195 0
174 196 0
170 193 0
171 194 0
174 196 0
171 195 0
169 192 0
170 192 0
171 193 0
162 183 0
148 169 0
152 173 0
155 176 0
152 173 0
155 174 0
150 171 0
153 174 0
153 173 0
154 174 0
155 175 0
153 174 0
153 174 0
152 172 0
156 175 0
152 173 0
151 173 0
154 174 0
152 171 0
152 173 0
149 169 0
157 177 0
155 175 0
154 174 0
152 173 0
153 173 0
152 173 0
152 173 0
154 174 0
153 173 0
151 171 0
153 173 0
152 173 0
153 173 0
154 175 0
154 174 0
142 163 32
74 91 43
95 112 36
86 106 22
89 107 0
99 117 30
93 111 38
76 93 32
96 114 39
96 115 46
102 119 38
95 114 33
107 123 28
100 118 30
115 134 25
110 129 20
96 114 30
113 131 20
122 140 0
128 147 0
113 131 0
128 148 0
126 145 0
121 141 0
128 147 0
123 143 0
136 156 0
127 146 0
127 147 0
131 150 0
135 155 0
133 153 0
134 154 0
122 142 0
133 154 0
129 148 0
141 162 0
128 148 0
132 153 0
139 160 0
134 154 0
139 159 0
141 162 0
135 155 0
140 162 0
130 149 0
138 160 0
118 139 80
60 96 159
60 97 159
60 95 156
60 96 164
61 98 171
61 97 165
61 98 169
61 97 168
61 98 173
61 98 171
62 98 165
61 98 165
61 97 167
62 98 169
61 98 173
61 98 169
61 98 173
62 99 175
61 97 173
62 99 177
62 99 175
61 98 177
62 99 177
61 98 175
61 98 171
63 100 179
61 98 175
61 98 181
61 98 179
61 98 175
61 98 169
61 98 172
61 98 175
60 98 177
62 99 177
61 98 173
61 98 175
61 98 177
60 96 169
61 98 177
63 99 175
62 98 174
62 98 177
61 98 177
61 98 175
60 97 174
60 96 168
61 97 172
60 95 168
61 98 171
60 97 168
61 97 175
61 98 172
61 98 177
60 96 172
62 99 174
61 97 170
60 97 171
60 96 168
61 98 175
60 95 160
60 96 172
60 96 162
61 97 164
60 96 160
59 94 162
62 99 173
61 97 172
59 94 151
128 152 99
170 192 0
166 188 0
169 193 0
171 194 0
172 196 0
170 194 0
168 189 0
171 194 0
169 193 0
167 192 0
169 191 0
172 195 0
172 195 0
173 196 0
173 196 0
170 193 0
170 193 0
171 195 0
170 195 0
171 193 0
171 194 0
171 193 0
171 194 0
169 192 0
161 185 0
169 192 0
170 194 0
168 192 0
168 191 0
175 198 0
168 192 0
172 194 0
166 190 0
172 195 0
174 197 0
171 194 0
174 197 0
172 195 0
171 194 0
171 195 0
172 195 0
168 192 0
171 194 0
174 197 0
174 198 0
169 194 0
168 191 0
174 197 0
173 196 0
174 197 0
173 195 0
168 192 0
171 194 0
176 198 0
170 194 0
172 194 0
175 198 0
169 193 0
173 196 0
174 197 0
173 196 0
174 196 0
175 197 0
173 197 0
173 197 0
171 195 0
172 197 0
172 195 0
173 196 0
172 196 0
174 197 0
173 194 0
171 193 0
171 194 0
170 194 0
172 193 0
172 194 0
174 197 0
174 198 0
174 197 0
172 195 0
172 195 0
173 196 0
173 197 0
173 195 0
172 194 0
170 194 0
175 198 0
174 197 0
174 196 0
174 197 0
171 194 0
172 196 0
174 198 0
170 194 0
176 199 0
176 199 0
174 197 0
172 196 0
173 196 0
172 196 0
171 195 0
174 198 0
174 196 0
173 197 0
174 198 0
173 197 0
174 197 0
174 195 0
175 198 0
169 193 0
174 197 0
177 199 0
172 196 0
171 195 0
173 196 0
171 195 0
173 197 0
172 196 0
175 198 0
173 196 0
170 194 0
172 195 0
174 197 0
172 195 0
174 196 0
173 196 0
172 197 0
174 198 0
173 197 0
174 198 0
173 196 0
175 198 0
172 196 0
174 198 0
173 197 0
173 197 0
174 197 0
172 196 0
173 197 0
170 194 0
171 195 0
175 198 0
174 197 0
171 195 0
176 199 0
173 196 0
175 197 0
173 197 0
175 198 0
176 198 0
173 195 0
172 196 0
176 199 0
172 196 0
174 198 0
173 196 0
174 198 0
174 198 0
176 198 0
174 198 0
175 198 0
172 195 0
173 197 0
176 198 0
175 197 0
174 197 0
173 196 0
175 197 0
174 197 0
176 199 0
174 197 0
174 197 0
174 197 0
176 199 0
174 198 0
174 198 0
171 195 0
173 196 0
173 197 0
175 198 0
172 196 0
174 197 0
174 197 0
173 197 0
174 197 0
173 196 0
171 196 0
175 198 0
174 197 0
173 197 0
175 197 0
177 199 0
175 197 0
174 196 0
172 196 0
172 196 0
172 196 0
173 197 0
171 195 0
174 197 0
174 197 0
174 197 0
173 197 0
175 198 0
174 197 0
173 197 0
174 197 0
171 195 0
173 197 0
175 198 0
172 196 0
173 196 0
173 195 0
174 197 0
172 195 0
173 196 0
172 194 0
174 196 0
172 196 0
169 193 0
171 195 0
173 196 0
169 193 0
170 194 0
170 194 0
171 194 0
170 194 0
171 195 0
171 195 0
171 193 0
173 196 0
170 193 0
169 192 0
171 195 0
172 194 0
171 194 0
169 192 0
171 194 0
172 195 0
174 196 0
169 192 0
170 193 0
172 194 0
173 195 0
169 192 0
161 184 0
152 173 0
154 174 0
152 171 0
154 174 0
150 172 0
150 171 0
153 174 0
155 175 0
151 173 0
152 173 0
154 175 0
153 174 0
151 172 0
152 172 0
151 172 0
154 175 0
150 170 0
153 174 0
153 174 0
153 174 0
153 174 0
150 170 0
154 174 0
152 172 0
153 174 0
149 170 0
154 174 0
152 174 0
152 174 0
154 174 0
153 173 0
152 172 0
149 170 0
149 170 0
155 176 0
151 172 0
93 111 46
93 111 48
73 94 44
98 115 22
98 116 43
88 106 28
99 118 42
97 115 40
106 123 19
105 122 40
110 128 39
89 107 0
105 121 0
117 136 20
115 133 14
115 132 0
123 141 0
113 133 20
106 123 0
118 136 20
126 144 0
134 151 0
118 137 0
125 143 0
115 133 0
129 148 0
125 145 0
124 144 0
141 161 0
131 151 0
131 150 0
137 158 0
134 155 0
136 156 0
143 164 0
132 152 0
131 152 0
147 168 0
129 149 0
137 157 0
141 161 0
133 153 0
140 160 0
137 157 0
137 157 0
142 162 25
73 105 146
61 96 159
61 97 164
59 94 154
59 95 164
62 99 171
60 96 164
61 97 165
62 99 177
62 98 171
61 97 167
62 99 177
62 99 171
61 98 177
61 98 167
61 98 171
62 99 181
63 100 181
61 98 171
60 97 169
61 98 171
61 98 169
62 99 175
61 98 173
61 98 173
61 98 177
62 99 175
62 99 177
63 99 171
61 98 175
61 97 174
63 99 179
60 97 170
61 98 174
61 98 173
61 98 177
61 97 175
60 97 175
61 97 169
62 99 175
61 98 175
61 97 173
60 97 172
61 97 177
59 95 167
61 98 174
61 98 176
60 96 169
60 97 171
61 98 173
61 98 175
60 94 161
60 97 173
61 97 173
61 97 174
62 98 177
60 97 171
62 98 174
61 97 172
59 94 162
61 96 168
60 96 170
60 95 162
60 96 172
61 98 174
59 94 154
60 95 159
62 98 172
60 97 166
62 98 171
86 115 147
168 191 0
171 195 0
169 193 0
173 196 0
168 192 0
169 193 0
169 192 0
167 191 0
166 191 0
172 195 0
171 196 0
172 196 0
165 188 0
172 195 0
165 188 0
170 193 0
168 194 0
166 190 0
167 191 0
171 193 0
171 195 0
170 194 0
173 196 0
172 196 0
170 193 0
171 195 0
173 196 0
166 189 0
168 192 0
171 195 0
173 196 0
169 192 0
174 198 0
175 197 0
174 196 0
171 194 0
169 191 0
173 195 0
173 196 0
171 195 0
171 194 0
168 190 0
174 197 0
171 195 0
170 194 0
171 194 0
174 197 0
172 195 0
170 194 0
172 196 0
174 197 0
173 196 0
168 192 0
174 196 0
170 194 0
172 195 0
172 194 0
172 195 0
171 194 0
175 198 0
174 197 0
171 196 0
173 197 0
175 198 0
173 197 0
173 196 0
173 196 0
169 193 0
173 197 0
177 199 0
175 198 0
171 195 0
166 190 0
175 198 0
173 196 0
175 197 0
175 198 0
173 197 0
173 195 0
170 193 0
175 198 0
172 195 0
171 195 0
173 196 0
173 197 0
173 196 0
173 196 0
173 196 0
170 195 0
174 196 0
172 195 0
171 194 0
171 196 0
174 197 0
175 197 0
174 198 0
172 196 0
171 195 0
171 195 0
174 198 0
175 197 0
171 194 0
174 196 0
171 195 0
175 198 0
176 198 0
172 196 0
173 197 0
175 198 0
174 198 0
174 198 0
171 196 0
176 198 0
175 198 0
175 197 0
173 197 0
174 198 0
173 196 0
174 197 0
172 196 0
171 195 0
173 195 0
170 195 0
174 196 0
175 197 0
173 197 0
172 194 0
172 196 0
175 198 0
174 197 0
173 196 0
173 197 0
175 198 0
173 196 0
175 198 0
174 197 0
173 197 0
173 196 0
174 197 0
174 196 0
175 197 0
175 198 0
173 197 0
169 193 0
175 197 0
172 195 0
172 196 0
173 196 0
174 197 0
173 196 0
174 197 0
175 197 0
173 197 0
173 196 0
174 198 0
168 192 0
175 198 0
173 197 0
174 197 0
176 198 0
175 198 0
173 197 0
173 197 0
176 199 0
175 198 0
172 196 0
174 197 0
175 198 0
173 196 0
173 197 0
172 196 0
174 197 0
172 196 0
175 198 0
176 198 0
175 198 0
173 197 0
175 198 0
176 198 0
174 197 0
175 198 0
175 198 0
175 197 0
172 196 0
174 197 0
174 197 0
173 197 0
175 198 0
174 197 0
173 196 0
173 197 0
174 197 0
173 196 0
173 197 0
171 195 0
172 196 0
174 196 0
175 198 0
175 197 0
173 196 0
170 194 0
173 196 0
174 197 0
171 195 0
175 197 0
173 197 0
173 197 0
168 193 0
172 196 0
172 195 0
172 196 0
171 194 0
172 195 0
171 195 0
171 194 0
170 193 0
168 192 0
170 194 0
172 195 0
171 195 0
172 195 0
171 194 0
170 193 0
170 194 0
167 192 0
172 195 0
170 194 0
167 191 0
172 195 0
170 192 0
170 193 0
168 192 0
174 196 0
170 195 0
173 196 0
171 194 0
170 194 0
170 193 0
170 192 0
169 192 0
169 193 0
173 196 0
171 194 0
169 193 0
168 192 0
170 194 0
168 191 0
153 174 0
150 171 0
154 174 0
148 168 0
151 172 0
150 171 0
151 172 0
153 174 0
150 171 0
152 172 0
151 172 0
150 171 0
154 174 0
151 172 0
154 173 0
154 175 0
153 173 0
154 174 0
152 173 0
151 172 0
153 174 0
154 174 0
151 173 0
154 174 0
148 168 0
154 175 0
152 172 0
150 170 0
154 174 0
152 172 0
152 172 0
154 173 0
152 173 0
153 173 0
153 173 0
152 173 0
97 115 22
91 108 28
87 104 41
100 118 40
95 113 33
111 130 30
79 99 36
95 113 30
95 113 39
104 122 22
115 134 30
99 118 0
109 126 20
119 138 28
113 130 0
116 135 0
121 140 0
123 142 0
131 150 0
118 137 0
133 153 0
119 139 0
122 140 0
121 140 0
124 144 0
132 152 0
124 143 0
129 149 0
125 143 0
129 149 0
123 142 0
128 147 0
140 159 0
132 152 0
130 149 0
136 156 0
126 146 0
136 155 0
136 156 0
146 167 0
140 160 0
138 159 0
148 168 0
139 160 0
144 164 0
118 140 95
60 96 166
60 96 167
61 96 159
61 97 159
61 97 168
62 98 169
61 97 165
60 97 157
60 96 153
61 97 167
61 97 161
62 98 173
60 97 167
63 99 173
62 99 167
62 99 171
60 98 175
61 98 171
61 99 181
62 99 177
60 97 165
61 98 177
61 99 179
61 98 171
62 99 179
61 99 179
61 98 175
60 98 175
61 98 175
62 98 175
60 98 173
61 98 173
62 99 179
62 99 173
61 97 174
61 98 173
60 96 168
62 99 179
61 99 177
61 97 174
61 98 168
61 98 175
61 97 176
59 95 164
61 99 181
60 96 162
60 97 170
62 98 174
63 99 176
61 96 166
62 98 175
62 98 177
60 96 170
60 96 174
61 97 168
60 97 169
60 95 163
61 97 175
61 97 170
60 97 174
61 96 168
61 96 168
63 99 172
61 96 170
63 98 171
58 93 162
60 95 158
58 92 148
61 98 170
58 93 155
61 96 158
125 151 120
174 197 0
173 196 0
168 192 0
170 191 0
172 196 0
158 181 0
170 194 0
167 191 0
166 190 0
165 189 0
172 195 0
171 194 0
173 196 0
172 195 0
173 195 0
173 196 0
170 194 0
171 195 0
168 191 0
166 190 0
168 191 0
169 193 0
170 194 0
171 194 0
169 193 0
173 197 0
172 195 0
171 194 0
172 195 0
169 192 0
169 192 0
172 196 0
167 190 0
169 193 0
174 197 0
169 193 0
174 197 0
169 192 0
173 195 0
171 194 0
170 194 0
173 195 0
171 195 0
167 191 0
169 194 0
172 196 0
173 196 0
174 197 0
170 193 0
172 194 0
171 195 0
175 198 0
170 195 0
174 196 0
169 193 0
172 196 0
171 194 0
172 196 0
174 197 0
173 197 0
173 195 0
173 196 0
172 195 0
171 195 0
172 196 0
174 198 0
171 195 0
173 197 0
174 197 0
171 195 0
167 191 0
174 198 0
173 196 0
172 195 0
175 198 0
174 197 0
174 198 0
172 196 0
177 199 0
170 195 0
171 195 0
171 194 0
175 198 0
173 196 0
174 197 0
173 197 0
173 196 0
175 198 0
173 197 0
172 196 0
172 195 0
170 194 0
174 198 0
172 196 0
176 197 0
172 196 0
175 197 0
172 196 0
175 198 0
174 198 0
171 195 0
174 197 0
173 197 0
173 196 0
173 195 0
174 197 0
175 198 0
174 196 0
173 196 0
173 197 0
172 196 0
174 197 0
172 195 0
174 198 0
172 194 0
174 198 0
173 197 0
174 197 0
174 198 0
173 197 0
174 197 0
171 195 0
174 198 0
175 198 0
173 197 0
175 197 0
175 198 0
175 198 0
175 198 0
176 198 0
174 198 0
175 196 0
171 195 0
174 198 0
173 197 0
172 194 0
173 197 0
173 196 0
175 198 0
173 197 0
174 198 0
175 198 0
174 197 0
175 198 0
169 191 0
174 198 0
176 197 0
174 196 0
174 196 0
173 196 0
174 197 0
173 196 0
176 198 0
173 197 0
173 197 0
175 198 0
174 197 0
170 194 0
171 195 0
173 197 0
174 198 0
174 198 0
174 198 0
172 197 0
174 197 0
173 196 0
177 199 0
172 196 0
176 198 0
173 197 0
173 196 0
174 197 0
173 197 0
175 197 0
174 197 0
173 196 0
171 195 0
169 194 0
173 197 0
174 197 0
176 198 0
175 198 0
171 195 0
173 196 0
173 197 0
173 196 0
175 198 0
175 198 0
173 196 0
174 198 0
172 195 0
174 197 0
172 196 0
173 196 0
176 198 0
174 197 0
174 196 0
173 196 0
176 198 0
171 195 0
171 195 0
170 193 0
171 195 0
172 195 0
173 196 0
172 195 0
171 195 0
171 195 0
169 194 0
170 194 0
174 197 0
171 193 0
173 196 0
172 195 0
171 195 0
172 196 0
173 195 0
171 195 0
172 196 0
171 195 0
172 196 0
174 196 0
172 194 0
170 194 0
174 196 0
170 193 0
173 196 0
172 195 0
168 192 0
174 197 0
169 192 0
173 196 0
168 191 0
170 193 0
171 194 0
171 195 0
169 191 0
167 189 0
169 192 0
172 195 0
172 195 0
174 197 0
173 195 0
170 194 0
168 191 0
169 191 0
153 174 0
154 174 0
153 172 0
149 170 0
150 170 0
154 175 0
153 173 0
151 172 0
152 173 0
149 171 0
152 172 0
153 173 0
155 175 0
151 172 0
152 172 0
151 172 0
150 172 0
149 170 0
152 172 0
152 173 0
153 173 0
153 173 0
152 173 0
150 171 0
151 171 0
154 174 0
152 173 0
151 172 0
151 170 0
150 170 0
151 171 0
152 172 0
152 173 0
152 173 0
153 174 0
151 172 0
122 140 28
108 125 26
95 114 27
97 114 38
112 130 0
90 107 20
110 129 38
103 120 12
108 126 0
111 128 0
113 132 28
105 124 0
122 141 22
102 120 26
110 129 0
119 138 0
119 138 0
120 140 20
122 141 0
119 137 0
125 143 0
113 132 0
136 156 0
128 146 0
139 158 0
142 162 0
134 154 0
130 149 0
141 161 0
129 149 0
137 156 0
143 163 0
134 154 0
126 146 0
142 162 0
141 162 0
136 156 0
138 159 0
143 163 0
147 167 0
142 162 0
131 152 0
136 156 0
142 161 0
132 154 49
67 101 161
60 96 163
60 96 160
60 96 166
61 97 161
61 98 171
60 96 162
60 96 161
61 97 163
62 99 171
61 98 168
60 97 163
61 98 167
62 99 177
61 98 171
61 97 169
62 98 169
62 98 171
63 99 177
61 97 167
61 98 169
62 99 171
61 98 173
61 98 171
61 98 175
61 97 167
61 98 167
62 99 175
61 98 175
61 98 173
62 98 173
62 99 177
62 98 171
63 100 179
61 97 168
61 98 175
62 99 177
61 97 174
61 98 173
61 98 179
62 98 177
61 98 172
61 97 173
61 98 173
61 97 172
61 98 176
59 96 167
62 98 172
61 96 167
61 98 175
61 97 168
63 99 177
60 93 156
61 97 170
61 97 174
61 97 168
61 98 167
60 95 165
61 97 175
61 96 165
61 97 172
61 96 167
59 92 155
60 95 164
58 93 154
59 94 161
59 93 155
60 95 160
60 95 160
61 95 163
60 94 154
61 97 157
70 102 152
162 186 0
163 185 0
171 193 0
174 198 0
167 190 0
172 195 0
168 192 0
171 194 0
170 193 0
172 194 0
169 194 0
171 195 0
162 186 0
173 196 0
171 194 0
173 196 0
170 194 0
172 195 0
172 195 0
170 193 0
171 193 0
168 191 0
172 195 0
168 192 0
171 194 0
174 197 0
171 194 0
170 194 0
173 196 0
173 197 0
172 194 0
173 196 0
172 195 0
172 195 0
170 193 0
169 192 0
170 194 0
168 192 0
172 195 0
171 195 0
174 197 0
172 193 0
171 194 0
172 194 0
174 197 0
172 195 0
172 196 0
172 196 0
166 189 0
169 191 0
169 192 0
169 193 0
169 193 0
172 195 0
171 193 0
174 198 0
167 189 0
172 196 0
176 198 0
169 194 0
172 194 0
171 193 0
171 195 0
174 197 0
172 194 0
172 196 0
175 198 0
174 197 0
174 197 0
174 196 0
170 192 0
171 192 0
172 195 0
172 195 0
173 195 0
173 197 0
170 193 0
172 195 0
174 196 0
174 196 0
170 193 0
173 195 0
174 198 0
173 196 0
173 197 0
172 195 0
172 196 0
172 196 0
173 196 0
177 199 0
176 198 0
174 197 0
174 198 0
174 197 0
173 196 0
175 198 0
173 197 0
172 194 0
174 197 0
172 196 0
173 197 0
173 196 0
174 197 0
174 196 0
172 196 0
171 195 0
170 194 0
172 195 0
172 195 0
170 192 0
171 194 0
173 197 0
173 197 0
174 197 0
173 196 0
173 197 0
174 196 0
174 198 0
169 193 0
175 197 0
175 198 0
175 198 0
173 196 0
172 197 0
172 195 0
174 197 0
173 196 0
174 197 0
176 198 0
168 193 0
173 196 0
174 197 0
173 196 0
174 197 0
173 197 0
175 198 0
173 197 0
173 197 0
173 197 0
171 194 0
173 196 0
172 196 0
173 197 0
172 195 0
173 197 0
175 198 0
173 196 0
173 197 0
172 196 0
171 194 0
176 198 0
175 198 0
175 198 0
171 195 0
172 196 0
176 198 0
174 197 0
173 196 0
173 197 0
176 198 0
172 195 0
175 198 0
175 198 0
173 196 0
174 197 0
170 195 0
175 198 0
174 197 0
175 198 0
173 196 0
174 196 0
175 198 0
178 199 0
172 197 0
174 197 0
174 197 0
172 196 0
172 197 0
174 197 0
172 196 0
171 195 0
173 197 0
173 196 0
174 197 0
173 196 0
174 197 0
174 197 0
173 196 0
173 196 0
174 196 0
175 197 0
174 197 0
172 194 0
175 198 0
174 197 0
173 196 0
172 196 0
172 196 0
173 196 0
174 196 0
176 198 0
172 196 0
171 194 0
172 195 0
172 196 0
171 196 0
174 197 0
174 197 0
174 197 0
173 196 0
171 195 0
171 195 0
174 196 0
173 196 0
173 196 0
173 196 0
174 197 0
171 194 0
173 195 0
169 194 0
171 194 0
171 194 0
172 194 0
169 192 0
173 196 0
172 194 0
172 195 0
170 194 0
174 196 0
171 194 0
171 195 0
172 194 0
169 192 0
170 192 0
171 193 0
169 191 0
169 192 0
171 194 0
172 194 0
171 193 0
170 193 0
170 193 0
168 191 0
172 194 0
170 192 0
169 192 0
157 177 0
149 170 0
150 170 0
152 172 0
152 173 0
148 168 0
152 172 0
154 175 0
151 171 0
151 172 0
152 172 0
151 172 0
152 173 0
152 172 0
149 169 0
150 170 0
153 174 0
155 175 0
152 172 0
150 171 0
152 172 0
153 173 0
150 170 0
150 171 0
150 170 0
150 170 0
153 173 0
152 173 0
151 171 0
155 174 0
153 174 0
150 171 0
154 174 0
152 173 0
151 171 0
152 173 0
111 129 38
104 122 44
106 123 30
110 128 0
110 126 0
92 109 0
115 133 22
114 132 20
107 124 28
109 127 35
116 135 0
119 137 22
99 116 14
113 130 20
108 127 0
122 140 0
123 140 0
112 132 0
109 126 0
117 135 0
123 141 0
123 142 0
97 115 0
135 155 0
122 141 0
132 152 0
119 138 0
137 156 0
125 143 0
131 151 0
128 148 0
137 157 0
131 151 0
138 158 0
135 153 0
133 153 0
131 151 0
134 154 0
140 161 0
133 154 0
135 155 0
140 160 0
140 159 0
142 163 0
112 136 110
59 94 159
60 96 156
60 95 155
59 95 149
60 96 156
62 98 171
61 97 165
61 97 167
62 98 171
61 98 171
61 98 169
61 98 169
61 97 165
62 99 177
60 97 159
61 98 167
61 97 171
62 98 165
60 97 165
61 97 167
60 97 162
62 98 171
61 98 169
62 99 177
61 98 177
61 97 161
62 99 175
62 98 171
62 99 175
62 99 174
61 97 170
62 98 173
61 98 175
62 99 175
61 98 171
62 99 175
62 98 173
61 98 174
60 97 171
60 97 174
61 98 175
61 97 171
61 97 168
61 98 169
62 99 177
60 96 168
60 95 161
60 96 170
60 95 165
61 98 174
61 98 171
60 96 168
60 96 172
59 95 164
61 98 174
59 95 158
60 95 165
61 97 169
61 95 165
60 96 166
62 97 169
61 95 167
59 95 166
62 98 176
60 97 169
60 94 157
61 95 155
57 90 146
60 95 162
61 96 162
60 95 152
59 94 154
59 94 147
132 156 105
168 191 0
169 192 0
170 193 0
169 193 0
164 186 0
167 190 0
171 194 0
172 195 0
168 192 0
165 188 0
159 185 0
168 191 0
173 196 0
170 192 0
164 186 0
173 196 0
168 192 0
169 192 0
169 192 0
172 193 0
170 194 0
169 192 0
170 193 0
169 192 0
163 186 0
168 190 0
172 195 0
172 195 0
172 195 0
170 193 0
173 197 0
171 193 0
172 196 0
172 196 0
170 193 0
173 196 0
175 198 0
169 192 0
172 196 0
171 195 0
168 191 0
172 196 0
168 190 0
172 196 0
173 196 0
170 194 0
176 198 0
168 192 0
174 196 0
167 192 0
173 196 0
173 196 0
175 197 0
173 196 0
172 195 0
173 196 0
171 194 0
170 194 0
171 194 0
171 195 0
171 194 0
170 193 0
173 196 0
174 197 0
173 196 0
173 197 0
173 196 0
170 193 0
174 197 0
166 190 0
172 195 0
173 197 0
169 192 0
173 195 0
175 198 0
175 198 0
174 196 0
173 195 0
174 197 0
173 196 0
174 197 0
172 195 0
174 196 0
171 195 0
176 199 0
171 196 0
173 196 0
176 199 0
174 198 0
173 197 0
171 194 0
175 197 0
174 197 0
173 195 0
171 195 0
172 196 0
175 198 0
169 192 0
173 197 0
171 194 0
175 197 0
172 195 0
173 196 0
175 198 0
172 195 0
174 198 0
169 192 0
170 194 0
171 194 0
173 196 0
175 198 0
175 198 0
172 195 0
173 197 0
175 198 0
175 198 0
175 198 0
173 197 0
176 199 0
172 196 0
175 198 0
175 198 0
173 196 0
175 198 0
172 195 0
174 196 0
175 197 0
173 196 0
173 196 0
174 197 0
172 196 0
172 196 0
171 195 0
173 197 0
172 195 0
176 199 0
174 197 0
175 198 0
172 196 0
176 199 0
172 197 0
174 197 0
175 197 0
176 199 0
173 196 0
174 197 0
171 196 0
172 196 0
173 195 0
175 198 0
175 198 0
175 198 0
171 194 0
175 198 0
174 197 0
174 197 0
175 198 0
169 194 0
175 197 0
174 197 0
172 197 0
172 196 0
175 197 0
173 197 0
173 197 0
175 198 0
173 196 0
174 197 0
172 196 0
173 196 0
174 197 0
174 197 0
175 197 0
173 197 0
173 197 0
173 196 0
173 196 0
170 194 0
173 197 0
176 199 0
175 197 0
174 197 0
174 197 0
174 197 0
174 198 0
172 195 0
170 194 0
174 198 0
172 195 0
174 197 0
174 197 0
173 196 0
173 197 0
173 196 0
174 197 0
173 196 0
170 194 0
172 196 0
175 198 0
174 197 0
174 197 0
172 196 0
170 194 0
172 196 0
173 197 0
173 196 0
174 197 0
173 196 0
173 196 0
173 195 0
170 194 0
173 196 0
170 194 0
171 194 0
173 196 0
172 195 0
173 195 0
169 193 0
172 195 0
173 197 0
168 193 0
171 194 0
172 195 0
171 195 0
173 196 0
172 195 0
172 195 0
169 193 0
172 195 0
171 194 0
172 195 0
170 194 0
171 194 0
168 191 0
169 192 0
170 193 0
167 190 0
169 192 0
171 194 0
174 195 0
164 186 0
169 191 0
171 194 0
169 192 0
169 192 0
152 174 0
149 169 0
151 172 0
152 173 0
151 171 0
151 170 0
148 169 0
149 170 0
147 167 0
147 167 0
153 173 0
151 170 0
151 172 0
150 171 0
153 173 0
152 173 0
150 171 0
152 172 0
151 171 0
150 170 0
150 170 0
152 173 0
148 168 0
150 171 0
149 170 0
149 169 0
152 172 0
150 171 0
151 172 0
152 172 0
152 172 0
153 174 0
149 170 0
151 172 0
153 173 0
152 172 0
132 151 32
97 112 0
111 127 22
91 109 20
116 134 0
111 130 0
106 122 0
106 124 33
121 140 0
109 126 0
106 123 0
122 141 0
116 133 22
121 139 0
117 136 0
116 134 0
127 146 0
130 148 0
136 155 0
118 136 0
127 146 0
118 135 0
127 147 0
117 136 0
135 153 0
137 156 0
142 160 0
128 148 0
119 139 0
129 150 0
124 144 0
134 153 0
132 151 0
129 147 0
139 159 0
143 164 0
134 153 0
144 164 0
127 147 0
134 154 0
145 165 0
135 156 0
139 159 0
138 159 25
70 101 130
60 96 154
61 97 165
61 98 163
60 96 166
59 95 161
62 98 174
61 98 161
61 97 162
61 98 167
62 98 167
61 98 165
61 98 165
62 98 167
62 99 173
62 98 167
61 98 171
62 99 177
62 99 171
62 99 175
62 99 169
61 98 171
61 98 171
62 99 173
61 98 167
62 99 175
62 98 174
62 99 175
61 97 167
60 97 173
62 99 177
61 98 172
61 98 171
62 98 174
60 97 169
62 98 174
62 98 177
62 98 168
62 99 179
61 98 170
60 97 175
60 96 164
59 95 168
61 97 168
61 97 173
61 97 170
61 97 174
61 97 170
62 98 172
61 97 175
60 96 166
62 98 170
61 97 174
60 96 170
61 98 177
59 94 163
61 98 171
60 97 173
60 96 170
60 96 169
61 96 169
58 93 160
59 95 167
61 97 169
61 96 166
61 97 168
61 96 161
59 91 142
61 96 163
62 97 166
59 92 149
57 90 148
58 92 143
59 93 141
70 101 142
169 192 0
165 189 0
166 189 0
166 190 0
165 189 0
170 194 0
169 194 0
168 190 0
168 193 0
171 195 0
168 192 0
168 192 0
170 193 0
173 197 0
165 188 0
170 194 0
170 195 0
169 192 0
170 193 0
172 195 0
170 193 0
174 197 0
168 192 0
168 191 0
169 194 0
165 186 0
174 198 0
169 192 0
172 195 0
170 193 0
172 196 0
171 195 0
173 196 0
169 193 0
172 194 0
172 196 0
170 194 0
168 193 0
170 193 0
175 197 0
171 196 0
174 196 0
173 196 0
174 197 0
171 195 0
175 198 0
170 194 0
174 197 0
172 196 0
170 195 0
175 197 0
171 194 0
174 197 0
173 194 0
173 197 0
172 195 0
173 195 0
173 196 0
172 196 0
172 195 0
171 194 0
174 198 0
173 197 0
170 194 0
171 195 0
171 195 0
173 197 0
169 194 0
173 196 0
173 197 0
170 194 0
171 194 0
172 195 0
174 196 0
173 196 0
173 196 0
174 197 0
172 195 0
172 195 0
171 195 0
173 197 0
172 195 0
172 196 0
173 197 0
171 196 0
173 196 0
169 191 0
172 195 0
172 194 0
175 198 0
172 195 0
171 195 0
173 196 0
174 198 0
174 197 0
169 192 0
174 196 0
173 196 0
174 197 0
171 195 0
173 196 0
174 198 0
175 198 0
174 197 0
171 194 0
172 196 0
174 196 0
174 197 0
172 196 0
176 199 0
173 197 0
173 195 0
173 196 0
174 198 0
172 196 0
173 197 0
174 196 0
171 195 0
173 196 0
173 197 0
171 196 0
175 198 0
174 198 0
174 198 0
175 198 0
172 196 0
175 198 0
173 196 0
173 196 0
174 198 0
174 198 0
175 198 0
175 198 0
175 197 0
173 196 0
173 197 0
169 194 0
173 197 0
171 195 0
176 198 0
174 197 0
170 195 0
173 197 0
172 195 0
173 196 0
174 197 0
174 197 0
175 198 0
174 198 0
173 194 0
174 196 0
174 197 0
174 197 0
174 197 0
173 197 0
174 197 0
172 196 0
173 196 0
174 197 0
172 196 0
172 197 0
173 197 0
175 198 0
177 199 0
174 197 0
174 197 0
176 198 0
172 196 0
175 197 0
173 197 0
172 196 0
174 197 0
174 197 0
174 197 0
173 196 0
178 200 0
168 191 0
172 196 0
173 196 0
174 197 0
173 196 0
171 195 0
176 198 0
172 197 0
175 197 0
173 196 0
174 197 0
174 197 0
174 197 0
173 197 0
174 197 0
174 197 0
174 198 0
174 197 0
174 197 0
173 196 0
175 198 0
176 199 0
175 197 0
175 197 0
172 196 0
172 196 0
174 197 0
171 194 0
169 192 0
172 196 0
173 197 0
173 197 0
171 195 0
171 196 0
171 195 0
169 193 0
170 193 0
170 194 0
172 196 0
170 193 0
174 197 0
173 196 0
172 196 0
173 197 0
170 194 0
176 198 0
171 193 0
171 194 0
174 197 0
173 196 0
174 197 0
172 195 0
171 195 0
170 193 0
173 196 0
167 189 0
172 194 0
170 193 0
165 188 0
170 193 0
167 190 0
164 187 0
170 194 0
171 194 0
173 196 0
169 192 0
163 185 0
171 193 0
169 192 0
166 187 0
152 172 0
149 168 0
156 175 0
151 170 0
152 172 0
149 170 0
152 172 0
150 170 0
148 168 0
152 173 0
151 171 0
144 165 0
153 172 0
148 170 0
151 171 0
152 171 0
148 168 0
153 174 0
152 172 0
151 172 0
149 169 0
152 172 0
154 173 0
151 172 0
149 170 0
151 171 0
152 172 0
151 171 0
151 172 0
152 173 0
152 173 0
149 169 0
148 169 0
152 173 0
152 172 0
134 154 20
116 134 0
107 123 42
102 119 32
100 118 22
106 123 22
114 133 20
111 128 22
116 133 0
108 127 30
119 137 0
116 134 20
121 141 0
126 143 0
115 133 0
128 147 0
121 139 0
120 138 0
128 147 0
125 143 0
131 150 0
115 135 0
133 153 0
122 141 0
137 156 0
133 152 0
135 154 0
134 153 0
123 142 0
130 149 0
141 161 0
129 150 0
130 151 0
144 164 0
136 158 0
143 163 0
130 151 0
136 156 0
142 162 0
140 161 0
133 152 0
143 164 0
139 160 0
130 150 44
57 92 145
58 93 155
59 95 157
60 96 157
61 97 161
61 97 161
62 98 163
60 97 161
61 98 169
60 96 147
62 98 167
60 96 161
61 97 153
61 98 163
61 98 169
61 98 169
62 98 169
61 98 163
62 98 171
61 98 171
60 96 163
61 98 161
61 97 171
61 98 173
62 98 173
61 98 171
61 98 171
62 99 169
61 98 173
61 98 171
61 97 172
61 97 174
61 97 165
61 98 173
61 97 171
61 98 171
63 99 179
62 98 169
61 98 172
61 97 175
60 96 168
61 98 175
62 97 170
61 98 170
61 97 170
61 96 163
60 96 168
61 97 171
61 98 171
60 95 168
60 96 168
59 95 164
61 97 170
59 93 161
59 94 156
60 95 163
61 96 169
59 94 166
60 95 166
59 94 157
60 93 158
59 95 168
61 95 163
59 94 152
60 96 168
60 94 157
60 95 162
57 90 151
59 92 152
61 96 162
54 87 143
59 93 156
60 95 151
60 95 149
59 94 146
139 164 92
175 197 0
169 192 0
165 187 0
166 189 0
168 190 0
170 193 0
169 192 0
172 195 0
165 188 0
172 195 0
169 194 0
163 187 0
171 193 0
168 190 0
165 187 0
170 193 0
172 196 0
169 192 0
172 195 0
170 193 0
168 191 0
170 194 0
175 197 0
173 196 0
171 195 0
169 193 0
166 189 0
172 195 0
173 196 0
169 193 0
172 196 0
166 189 0
168 192 0
171 194 0
170 193 0
172 195 0
171 195 0
169 194 0
173 197 0
172 194 0
173 196 0
175 197 0
169 192 0
175 198 0
168 192 0
170 193 0
169 191 0
172 195 0
172 195 0
170 194 0
171 193 0
168 192 0
174 197 0
172 195 0
169 192 0
170 194 0
171 194 0
175 198 0
171 193 0
173 196 0
174 195 0
172 195 0
171 194 0
174 197 0
173 197 0
171 194 0
175 198 0
171 195 0
172 196 0
172 196 0
170 195 0
170 193 0
173 196 0
174 197 0
168 192 0
174 197 0
172 195 0
174 197 0
167 189 0
173 196 0
174 197 0
174 198 0
172 195 0
173 197 0
170 194 0
174 197 0
173 197 0
173 196 0
175 198 0
173 196 0
173 196 0
173 195 0
173 197 0
172 195 0
171 195 0
172 196 0
173 197 0
172 197 0
172 196 0
172 196 0
175 198 0
172 196 0
172 196 0
172 193 0
171 195 0
172 195 0
172 194 0
173 196 0
174 197 0
172 196 0
175 198 0
174 197 0
173 196 0
172 195 0
175 198 0
176 198 0
172 195 0
177 199 0
174 196 0
172 196 0
173 197 0
174 198 0
174 198 0
173 196 0
174 197 0
175 198 0
174 197 0
174 198 0
172 195 0
176 199 0
173 196 0
174 196 0
170 193 0
174 197 0
175 198 0
172 195 0
174 197 0
171 195 0
172 195 0
174 197 0
173 196 0
170 193 0
174 197 0
174 197 0
173 196 0
173 195 0
173 196 0
174 197 0
173 197 0
174 197 0
173 197 0
172 196 0
174 197 0
173 197 0
173 197 0
172 196 0
173 196 0
173 197 0
176 198 0
174 198 0
175 198 0
175 198 0
172 196 0
176 198 0
175 198 0
174 197 0
175 197 0
175 198 0
173 196 0
173 197 0
173 197 0
173 197 0
175 197 0
174 197 0
173 196 0
176 198 0
172 196 0
171 195 0
172 196 0
170 194 0
174 197 0
174 197 0
174 198 0
172 197 0
173 197 0
173 195 0
174 198 0
172 195 0
170 194 0
175 198 0
173 196 0
172 196 0
171 195 0
172 196 0
171 194 0
172 195 0
173 197 0
172 195 0
171 195 0
174 197 0
173 196 0
172 195 0
172 196 0
176 198 0
174 197 0
175 197 0
172 195 0
169 193 0
174 197 0
175 197 0
172 195 0
172 195 0
174 197 0
173 196 0
170 194 0
172 195 0
172 195 0
173 196 0
170 193 0
171 194 0
174 196 0
172 194 0
172 195 0
175 197 0
170 193 0
171 194 0
172 195 0
174 195 0
172 195 0
171 194 0
172 195 0
170 192 0
168 191 0
169 193 0
169 192 0
170 194 0
165 189 0
171 193 0
166 189 0
168 192 0
172 195 0
168 190 0
166 188 0
168 191 0
166 188 0
149 169 32
151 170 0
147 168 0
149 169 0
151 170 0
149 170 0
149 170 0
150 169 0
151 170 0
150 171 0
152 172 0
149 169 0
152 171 0
151 172 0
150 170 0
151 172 0
150 170 0
149 170 0
150 170 0
154 174 0
151 171 0
151 171 0
150 170 0
152 172 0
151 171 0
147 169 0
152 173 0
151 172 0
149 169 0
151 171 0
153 173 0
149 170 0
150 170 0
150 171 0
147 169 0
139 159 28
104 122 20
96 114 30
106 123 19
113 131 20
111 129 0
124 142 22
126 146 25
126 145 0
97 114 0
117 134 0
120 139 0
131 150 0
122 140 0
125 143 0
125 144 0
137 157 0
122 140 0
125 144 0
127 147 0
141 160 0
119 138 0
136 155 0
129 149 0
126 145 0
128 146 0
126 145 0
130 150 0
133 152 0
126 146 0
133 152 0
135 155 0
140 159 0
139 157 0
138 157 0
137 158 0
129 148 0
133 152 0
140 160 0
143 162 0
131 150 0
146 166 0
139 160 0
92 117 122
59 94 154
59 95 158
60 96 156
60 96 153
60 95 156
59 95 156
61 97 155
61 98 163
61 97 159
60 97 161
61 97 168
60 97 163
61 98 169
62 98 169
61 98 167
61 98 173
61 97 165
61 98 169
61 98 171
61 97 162
63 99 175
62 99 173
62 99 179
61 97 163
61 98 169
62 98 175
62 98 171
62 99 177
62 98 169
62 98 171
62 99 173
62 99 175
61 98 173
61 98 175
61 98 173
61 97 170
61 98 174
60 96 167
61 98 170
61 97 167
60 96 164
61 98 171
62 98 170
59 95 162
60 95 164
61 97 170
61 97 173
62 98 170
61 97 174
61 97 166
62 98 177
62 98 172
60 97 174
62 98 168
60 95 165
61 96 166
60 95 163
60 95 166
60 95 160
60 96 164
61 96 166
61 97 170
61 96 166
58 92 152
60 95 165
60 95 154
60 95 163
61 96 166
60 94 160
60 94 155
59 92 157
59 93 154
60 95 154
60 95 157
59 93 145
108 133 120
163 186 0
162 184 0
170 192 0
171 193 0
170 194 0
168 192 0
167 190 0
172 195 0
170 194 0
173 196 0
164 186 0
172 195 0
169 194 0
163 185 0
168 191 0
169 193 0
163 185 0
167 190 0
170 193 0
171 194 0
174 196 0
165 187 0
169 192 0
169 193 0
170 191 0
166 189 0
167 192 0
169 193 0
175 198 0
170 193 0
170 194 0
171 193 0
167 190 0
173 197 0
170 193 0
174 198 0
171 194 0
169 193 0
169 191 0
170 193 0
173 196 0
171 195 0
166 189 0
173 196 0
169 193 0
170 193 0
166 189 0
169 192 0
174 197 0
171 195 0
172 194 0
174 197 0
173 197 0
175 198 0
167 189 0
173 195 0
169 193 0
174 197 0
170 194 0
169 193 0
173 197 0
173 195 0
171 195 0
171 195 0
171 195 0
174 196 0
169 191 0
171 195 0
169 192 0
171 195 0
172 195 0
175 197 0
171 194 0
174 198 0
171 193 0
173 196 0
170 194 0
172 195 0
168 190 0
172 195 0
172 196 0
168 191 0
172 193 0
174 197 0
166 190 0
172 195 0
173 196 0
174 197 0
171 195 0
175 198 0
173 196 0
175 198 0
174 197 0
174 197 0
172 195 0
172 196 0
172 194 0
175 198 0
173 196 0
174 196 0
172 196 0
175 198 0
174 197 0
173 197 0
174 197 0
174 197 0
170 194 0
169 193 0
174 197 0
175 198 0
174 197 0
175 198 0
174 197 0
173 197 0
173 197 0
176 199 0
176 199 0
175 196 0
171 194 0
172 195 0
174 197 0
175 198 0
171 195 0
173 196 0
173 196 0
174 197 0
175 198 0
174 197 0
173 196 0
172 196 0
174 194 0
174 198 0
175 198 0
172 196 0
171 194 0
174 198 0
176 198 0
175 197 0
175 197 0
174 198 0
174 198 0
174 197 0
169 193 0
174 198 0
173 195 0
171 196 0
173 197 0
175 198 0
173 196 0
174 198 0
173 197 0
174 197 0
175 198 0
175 198 0
170 196 0
172 196 0
174 198 0
174 197 0
171 196 0
174 196 0
173 197 0
174 197 0
172 196 0
174 197 0
176 199 0
175 198 0
174 197 0
175 198 0
172 196 0
173 197 0
172 195 0
173 196 0
173 197 0
173 197 0
170 194 0
174 197 0
173 196 0
174 197 0
173 197 0
172 196 0
175 197 0
174 197 0
175 198 0
173 196 0
172 196 0
171 195 0
175 198 0
176 198 0
173 196 0
170 195 0
173 196 0
173 197 0
174 197 0
172 195 0
172 197 0
171 195 0
173 196 0
169 193 0
173 196 0
172 196 0
173 196 0
173 196 0
171 196 0
171 195 0
171 195 0
169 193 0
172 195 0
171 195 0
173 195 0
173 195 0
173 196 0
170 193 0
175 196 0
168 191 0
173 196 0
171 195 0
170 193 0
173 195 0
173 195 0
174 197 0
174 196 0
172 194 0
173 196 0
171 194 0
169 193 0
170 193 0
170 193 0
170 193 0
171 193 0
173 196 0
172 194 0
167 191 0
171 193 0
169 192 0
169 191 0
167 190 0
172 195 0
170 193 0
169 191 0
171 193 0
166 189 0
172 194 0
170 194 0
168 191 0
162 185 0
157 178 32
153 173 45
149 169 0
149 169 0
150 171 0
149 169 0
147 167 0
149 169 0
152 172 0
151 169 0
148 169 0
149 169 0
149 169 0
152 172 0
150 171 0
152 171 0
150 170 0
149 169 0
152 171 0
148 168 0
151 171 0
152 173 0
148 169 0
151 171 0
151 172 0
150 171 0
151 173 0
152 172 0
151 171 0
149 170 0
152 172 0
151 171 0
150 170 0
146 168 0
155 174 0
154 173 0
109 127 20
108 125 0
103 122 0
107 125 22
113 131 0
112 130 0
105 123 0
110 128 0
125 142 0
127 145 0
118 136 0
125 142 0
119 136 0
127 146 0
104 122 0
133 153 0
124 144 0
116 135 0
134 153 0
126 146 0
134 153 0
132 152 0
128 148 0
128 148 0
133 153 0
132 152 0
124 143 0
139 159 0
132 152 0
131 151 0
134 153 0
139 159 0
139 158 0
140 160 0
132 152 0
136 156 0
142 163 0
129 148 0
136 156 0
133 153 0
137 157 0
130 151 25
66 99 147
60 95 151
59 95 146
58 93 144
60 97 162
61 97 168
62 98 165
60 96 157
61 96 159
61 97 169
61 98 165
61 97 163
60 96 161
61 97 165
61 97 159
61 98 169
61 98 167
60 97 164
62 99 175
61 98 171
62 98 165
61 98 177
61 98 161
61 97 158
61 97 169
62 98 166
61 97 167
62 99 169
61 98 165
62 98 169
62 99 177
61 97 162
61 98 169
60 96 161
60 95 161
62 98 168
60 96 173
61 98 173
61 97 169
62 99 177
60 97 167
61 98 175
61 98 175
61 97 168
61 98 170
62 97 167
60 96 166
61 97 164
60 96 163
58 93 156
60 96 170
60 94 161
61 95 160
61 98 175
60 95 165
60 95 164
60 95 161
61 97 167
60 96 170
60 95 165
58 91 151
60 96 167
59 94 164
59 93 153
60 96 167
57 90 144
59 93 161
61 96 165
59 94 161
61 95 161
59 94 166
58 93 153
60 95 160
60 94 147
59 92 140
59 94 154
69 103 156
168 192 0
162 185 0
167 190 0
164 187 0
166 187 0
168 190 0
167 188 0
171 195 0
166 189 0
167 191 0
170 193 0
167 191 0
166 190 0
167 192 0
171 194 0
165 187 0
170 192 0
165 188 0
163 186 0
169 191 0
168 190 0
166 190 0
172 194 0
167 191 0
170 192 0
173 195 0
171 195 0
168 193 0
172 195 0
170 193 0
171 195 0
175 197 0
171 195 0
173 196 0
171 194 0
168 192 0
171 194 0
174 197 0
171 193 0
174 196 0
172 195 0
171 194 0
165 189 0
172 195 0
168 191 0
173 196 0
165 188 0
173 196 0
172 196 0
170 192 0
168 191 0
173 195 0
172 195 0
173 195 0
171 196 0
172 195 0
172 196 0
167 191 0
167 189 0
166 189 0
171 194 0
173 196 0
173 196 0
174 196 0
173 195 0
169 191 0
171 195 0
172 195 0
175 198 0
171 194 0
173 197 0
173 195 0
173 196 0
170 194 0
167 189 0
174 198 0
173 195 0
173 196 0
172 194 0
170 194 0
173 197 0
172 196 0
171 196 0
171 194 0
172 194 0
170 194 0
172 195 0
173 197 0
168 192 0
175 197 0
170 195 0
170 194 0
172 195 0
176 198 0
172 196 0
174 197 0
175 198 0
174 198 0
172 195 0
174 198 0
175 198 0
172 196 0
173 196 0
174 198 0
175 198 0
171 194 0
172 196 0
175 198 0
173 197 0
173 197 0
170 193 0
174 197 0
169 192 0
175 198 0
173 197 0
176 199 0
171 194 0
173 196 0
172 195 0
173 195 0
170 195 0
171 194 0
174 196 0
175 198 0
174 197 0
172 196 0
175 198 0
173 197 0
175 198 0
176 199 0
171 194 0
174 197 0
171 194 0
172 195 0
176 198 0
172 196 0
175 198 0
175 198 0
175 198 0
174 197 0
174 198 0
174 197 0
174 197 0
174 198 0
175 197 0
173 197 0
177 199 0
174 198 0
174 197 0
176 199 0
172 195 0
174 197 0
172 196 0
173 196 0
174 198 0
175 198 0
170 195 0
174 197 0
178 200 0
176 198 0
175 197 0
174 197 0
173 196 0
174 197 0
173 197 0
174 197 0
174 197 0
173 196 0
173 196 0
172 196 0
172 195 0
173 196 0
173 197 0
172 196 0
175 198 0
173 196 0
173 196 0
170 195 0
175 198 0
173 196 0
172 195 0
174 198 0
174 197 0
172 196 0
173 197 0
172 196 0
172 196 0
175 198 0
174 197 0
173 197 0
173 197 0
176 198 0
173 196 0
171 195 0
174 197 0
172 195 0
174 197 0
172 195 0
173 196 0
173 196 0
173 197 0
171 194 0
171 196 0
174 197 0
172 195 0
172 196 0
174 197 0
174 197 0
171 195 0
174 197 0
172 195 0
171 194 0
169 193 0
171 194 0
169 193 0
174 196 0
175 197 0
174 196 0
171 195 0
172 196 0
171 194 0
170 194 0
169 192 0
171 195 0
174 196 0
175 197 0
170 194 0
165 188 0
171 194 0
171 194 0
171 194 0
169 193 0
172 196 0
169 191 0
172 195 0
167 190 0
166 188 0
169 191 0
164 186 0
167 192 0
169 192 0
167 190 0
171 193 0
168 189 0
166 187 0
167 189 0
164 186 0
155 175 32
138 158 0
143 163 0
148 168 0
146 165 0
148 169 0
151 171 0
150 169 0
150 171 0
148 168 0
148 169 0
154 172 0
151 171 0
146 165 0
151 171 0
147 167 0
151 171 0
150 170 0
150 170 0
152 172 0
150 171 0
149 169 0
151 170 0
151 171 0
152 172 0
152 173 0
151 172 0
151 172 0
153 173 0
148 169 0
150 171 0
151 171 0
150 171 0
150 170 0
103 120 20
115 133 0
108 125 20
126 143 0
104 122 0
103 120 0
119 137 0
118 137 0
121 140 0
120 139 0
114 132 0
123 141 0
128 146 0
114 132 0
127 146 0
129 149 0
121 140 0
116 135 0
120 138 0
129 149 0
129 148 0
130 149 0
125 143 0
117 136 0
135 155 0
138 159 0
127 146 0
133 153 0
124 143 0
139 159 0
140 159 0
128 147 0
128 148 0
123 143 0
125 146 0
138 159 0
133 152 0
134 155 0
136 156 0
140 161 0
135 155 0
118 139 79
59 94 151
60 96 149
61 97 165
60 95 147
59 94 144
60 96 164
60 97 155
62 99 173
61 97 163
61 97 161
61 97 163
62 98 165
61 97 159
61 98 167
62 98 167
61 98 163
62 99 173
61 98 163
61 97 167
61 98 169
62 98 167
62 98 165
60 97 167
61 98 171
62 98 171
61 97 164
61 98 177
62 98 171
61 97 165
59 94 157
60 97 167
61 98 170
61 98 174
62 98 169
60 96 166
61 96 164
62 98 172
61 98 171
61 97 175
60 95 160
61 97 172
61 97 169
60 96 166
61 97 173
62 98 175
59 94 164
61 98 169
60 97 169
61 97 170
62 98 172
60 96 164
60 95 162
59 94 163
62 98 174
61 97 174
59 94 158
61 97 170
60 95 168
61 96 167
60 96 164
58 92 163
59 93 161
60 95 162
60 95 160
59 93 154
59 93 157
60 96 168
60 96 162
60 94 162
58 92 156
59 93 156
57 91 144
60 95 163
57 90 152
61 96 159
59 94 157
61 96 158
133 156 88
160 183 0
169 192 0
172 196 0
168 190 0
172 195 0
166 189 0
168 191 0
171 194 0
173 195 0
167 191 0
169 190 0
167 191 0
168 192 0
172 194 0
171 195 0
171 193 0
166 190 0
175 196 0
170 193 0
171 194 0
167 190 0
170 193 0
168 192 0
169 192 0
172 193 0
170 192 0
169 192 0
169 192 0
171 195 0
168 193 0
172 195 0
170 192 0
162 186 0
169 193 0
169 193 0
169 193 0
174 195 0
169 193 0
169 192 0
172 196 0
171 194 0
170 193 0
167 191 0
171 194 0
170 194 0
171 194 0
172 196 0
174 197 0
174 196 0
173 196 0
175 197 0
170 194 0
171 195 0
173 195 0
176 198 0
169 193 0
173 196 0
173 196 0
169 192 0
173 197 0
171 196 0
174 198 0
174 197 0
170 194 0
176 196 0
170 194 0
171 194 0
173 194 0
175 198 0
167 191 0
171 195 0
170 192 0
173 196 0
172 194 0
175 197 0
175 198 0
173 197 0
166 190 0
175 197 0
176 198 0
174 197 0
175 197 0
175 198 0
172 197 0
173 196 0
171 193 0
170 194 0
176 198 0
174 197 0
174 197 0
173 197 0
170 194 0
172 195 0
173 196 0
176 199 0
174 195 0
172 196 0
172 195 0
170 194 0
173 196 0
173 196 0
172 195 0
171 194 0
173 195 0
173 195 0
174 198 0
170 194 0
174 198 0
170 195 0
175 198 0
172 196 0
173 197 0
172 195 0
172 196 0
173 197 0
173 197 0
171 193 0
175 197 0
173 195 0
175 198 0
174 197 0
167 191 0
175 198 0
173 197 0
173 197 0
171 195 0
175 198 0
174 196 0
173 197 0
173 196 0
171 194 0
174 197 0
173 195 0
174 197 0
174 196 0
173 196 0
172 196 0
173 196 0
174 197 0
173 197 0
176 199 0
173 196 0
175 197 0
174 198 0
176 199 0
173 197 0
172 196 0
173 196 0
173 196 0
174 196 0
174 197 0
174 197 0
174 197 0
174 198 0
174 198 0
175 198 0
173 197 0
172 196 0
174 198 0
176 197 0
175 198 0
172 196 0
173 197 0
174 197 0
175 198 0
174 198 0
174 198 0
172 196 0
174 197 0
174 197 0
175 197 0
174 197 0
174 197 0
173 197 0
174 197 0
173 196 0
169 193 0
171 195 0
171 195 0
172 196 0
174 197 0
171 196 0
175 198 0
173 197 0
173 196 0
173 196 0
171 194 0
173 196 0
173 195 0
171 195 0
171 196 0
171 195 0
176 198 0
170 194 0
172 195 0
174 197 0
173 196 0
171 195 0
171 195 0
173 197 0
172 196 0
172 196 0
173 197 0
173 196 0
174 197 0
169 193 0
172 196 0
173 196 0
174 197 0
175 197 0
171 195 0
171 194 0
175 198 0
171 194 0
170 194 0
169 192 0
172 195 0
175 197 0
174 197 0
177 199 0
173 196 0
170 194 0
172 195 0
171 194 0
171 194 0
173 196 0
169 191 0
168 191 0
171 193 0
172 195 0
173 196 0
169 191 0
168 191 0
172 195 0
164 187 0
169 193 0
173 196 0
172 195 0
172 194 0
171 193 0
169 192 0
167 191 0
171 193 0
165 189 0
164 187 0
166 189 0
162 183 0
159 181 0
145 165 0
148 167 0
150 171 0
148 167 0
147 167 0
150 169 0
144 162 0
152 173 0
148 167 0
151 171 0
150 169 0
148 167 0
150 170 0
149 169 0
149 169 0
147 168 0
149 170 0
148 169 0
150 170 0
149 170 0
149 170 0
150 169 0
149 170 0
149 170 0
150 170 0
153 173 0
149 170 0
151 172 0
149 169 0
147 168 0
155 175 0
151 172 0
114 132 0
116 134 22
119 138 0
115 132 20
109 127 0
109 128 0
117 136 0
121 139 0
128 147 0
129 148 0
127 147 0
125 143 0
131 151 0
121 140 0
125 144 0
135 154 0
127 145 0
131 150 0
130 151 0
138 158 0
122 141 0
129 149 0
131 150 0
127 146 0
135 155 0
136 156 0
134 153 0
125 145 0
134 153 0
139 159 0
140 160 0
135 156 0
134 155 0
145 165 0
138 157 0
140 159 0
134 154 0
138 158 0
137 159 0
132 151 0
133 152 0
93 117 105
56 90 136
59 95 158
59 94 147
59 95 147
61 97 151
60 96 147
60 97 159
60 97 159
62 98 159
62 98 163
60 96 151
61 98 167
62 98 167
62 99 171
62 99 171
61 97 161
62 98 165
62 99 173
62 98 159
61 98 169
62 98 169
61 98 166
60 97 167
60 97 165
62 98 167
61 98 163
61 97 163
61 98 165
61 97 165
62 98 166
60 97 163
61 98 169
61 98 175
62 98 169
62 99 171
60 97 164
60 97 173
61 97 170
61 97 168
61 97 167
62 98 172
61 97 168
60 95 163
61 97 170
61 97 167
61 97 172
60 97 165
59 94 163
60 94 163
60 96 165
62 98 170
61 96 168
60 96 166
60 94 161
60 94 162
60 94 163
59 93 151
61 97 168
61 97 166
59 94 146
60 95 165
59 95 160
61 97 168
61 96 164
62 97 162
62 96 162
60 94 158
57 90 146
59 93 156
59 93 151
58 91 152
60 94 163
61 95 152
60 95 158
59 92 142
58 91 148
60 95 156
120 145 101
162 184 0
166 190 0
166 190 0
163 187 0
169 193 0
164 188 0
166 189 0
165 188 0
171 193 0
167 190 0
168 192 0
165 189 0
168 191 0
165 188 0
170 194 0
175 197 0
169 193 0
168 190 0
164 187 0
172 195 0
170 194 0
170 193 0
167 188 0
167 190 0
169 192 0
173 196 0
171 195 0
167 188 0
173 196 0
168 190 0
171 194 0
166 190 0
172 194 0
172 195 0
174 197 0
174 196 0
169 190 0
170 194 0
171 194 0
171 196 0
174 197 0
172 195 0
165 188 0
174 197 0
171 195 0
172 194 0
171 194 0
170 194 0
173 196 0
171 195 0
176 198 0
175 196 0
169 192 0
169 193 0
173 196 0
172 194 0
168 192 0
174 197 0
172 195 0
172 195 0
170 193 0
173 196 0
170 193 0
174 198 0
169 192 0
172 196 0
174 196 0
175 198 0
169 194 0
169 193 0
174 196 0
172 194 0
171 194 0
173 197 0
171 194 0
172 195 0
172 194 0
172 196 0
173 196 0
173 197 0
173 196 0
172 194 0
172 195 0
176 198 0
174 197 0
168 193 0
173 195 0
172 195 0
173 196 0
173 196 0
171 195 0
172 195 0
172 195 0
174 195 0
173 196 0
172 194 0
173 196 0
174 198 0
169 192 0
173 197 0
175 198 0
176 198 0
177 198 0
172 195 0
171 193 0
171 195 0
173 196 0
174 197 0
176 199 0
173 195 0
173 197 0
172 195 0
172 195 0
173 195 0
174 197 0
172 196 0
173 196 0
173 196 0
171 194 0
174 196 0
172 195 0
173 197 0
176 197 0
175 198 0
171 195 0
175 197 0
175 198 0
174 198 0
174 197 0
175 197 0
177 199 0
173 197 0
172 195 0
174 198 0
172 196 0
174 198 0
172 195 0
173 196 0
171 194 0
174 198 0
173 197 0
173 197 0
173 196 0
174 197 0
174 196 0
169 194 0
173 196 0
175 198 0
174 198 0
175 198 0
174 198 0
170 193 0
173 196 0
173 196 0
174 198 0
176 199 0
175 198 0
175 198 0
175 198 0
172 196 0
172 195 0
175 198 0
175 198 0
172 196 0
175 198 0
176 198 0
174 197 0
177 199 0
173 197 0
172 196 0
172 196 0
172 196 0
172 196 0
173 197 0
173 196 0
172 196 0
174 197 0
176 198 0
176 199 0
172 196 0
173 196 0
173 197 0
176 198 0
173 196 0
173 196 0
171 196 0
174 196 0
171 196 0
173 197 0
173 196 0
172 196 0
174 197 0
170 194 0
173 197 0
171 195 0
175 197 0
173 197 0
173 196 0
171 195 0
173 195 0
171 194 0
172 196 0
171 194 0
170 194 0
173 196 0
169 193 0
173 197 0
175 197 0
171 194 0
171 194 0
170 192 0
173 194 0
170 194 0
173 197 0
174 197 0
171 195 0
168 191 0
172 195 0
171 195 0
172 195 0
168 192 0
167 192 0
170 192 0
171 194 0
173 196 0
172 195 0
171 195 0
172 194 0
173 195 0
169 192 0
172 195 0
172 195 0
168 190 0
172 195 0
169 193 0
171 194 0
168 190 0
171 194 0
170 193 0
166 189 0
170 192 0
169 192 0
166 188 0
166 188 0
169 191 0
169 192 0
160 181 0
169 190 0
157 178 0
154 174 32
147 168 0
148 168 0
144 163 0
148 167 0
149 169 0
148 168 0
153 172 0
150 171 0
149 169 0
149 170 0
151 169 0
151 172 0
150 171 0
147 168 0
146 166 0
150 171 0
146 165 0
148 169 0
150 170 0
146 168 0
154 174 0
150 170 0
154 174 0
152 172 0
148 169 0
151 171 0
149 170 0
148 168 0
153 173 0
149 170 0
130 148 0
118 136 0
124 141 0
132 151 0
119 137 0
116 135 0
118 138 0
118 136 0
100 117 20
118 137 0
122 140 0
126 145 0
116 135 0
124 142 0
126 143 0
131 151 0
133 153 0
126 146 0
121 140 0
133 153 0
136 156 0
132 152 0
136 155 0
124 145 0
127 145 0
135 156 0
137 157 0
132 152 0
136 155 0
123 142 0
134 153 0
132 153 0
142 161 0
138 157 0
136 156 0
132 151 0
133 154 0
129 149 0
141 161 0
133 153 0
139 158 0
74 104 142
60 96 153
61 96 151
62 98 163
60 96 162
62 98 159
61 96 156
60 97 157
59 95 154
63 99 167
61 97 161
61 97 157
61 97 161
61 97 159
62 98 169
62 99 171
60 97 163
60 96 155
61 98 167
61 98 171
62 98 167
60 96 161
61 98 165
61 98 167
61 98 165
63 99 175
61 97 162
60 96 162
62 98 171
61 97 168
61 98 171
61 98 163
60 97 165
60 97 161
60 96 157
61 98 172
62 99 177
61 98 171
61 97 163
61 97 165
60 94 161
62 98 172
60 96 162
59 94 161
60 95 154
61 98 168
60 96 164
60 95 161
60 96 164
61 97 167
60 95 163
59 94 161
60 96 162
60 95 166
59 94 165
60 94 161
61 97 164
59 94 163
59 93 154
60 95 160
60 93 157
59 94 158
59 93 160
58 92 159
59 93 158
59 94 158
60 94 157
58 90 149
58 91 151
60 94 151
57 90 142
60 94 152
59 93 156
60 94 148
58 92 143
58 90 139
58 90 145
60 93 156
101 127 120
164 187 0
168 191 0
169 191 0
169 193 0
166 188 0
164 188 0
169 194 0
168 191 0
161 185 0
168 191 0
167 190 0
165 188 0
170 192 0
165 189 0
164 188 0
170 191 0
169 193 0
164 187 0
168 191 0
171 195 0
169 190 0
167 191 0
164 186 0
173 196 0
169 193 0
168 190 0
174 196 0
170 192 0
167 191 0
172 195 0
166 189 0
169 192 0
165 189 0
168 191 0
168 193 0
173 197 0
167 190 0
169 192 0
173 195 0
171 194 0
170 192 0
168 191 0
172 193 0
167 191 0
166 190 0
170 193 0
172 195 0
171 195 0
169 193 0
167 190 0
170 194 0
169 193 0
172 196 0
172 195 0
169 193 0
170 193 0
169 192 0
173 197 0
172 195 0
172 196 0
174 197 0
171 194 0
173 195 0
170 194 0
170 192 0
172 196 0
171 195 0
172 195 0
170 193 0
170 192 0
167 190 0
172 195 0
168 192 0
174 197 0
174 197 0
172 195 0
171 195 0
173 196 0
171 194 0
172 195 0
174 198 0
172 196 0
170 193 0
173 196 0
173 196 0
172 196 0
172 196 0
170 193 0
171 193 0
174 197 0
174 197 0
171 193 0
168 192 0
173 197 0
172 196 0
171 195 0
169 193 0
175 198 0
173 196 0
170 192 0
168 191 0
173 196 0
173 197 0
173 197 0
174 197 0
169 194 0
173 196 0
174 198 0
176 197 0
174 196 0
176 198 0
175 197 0
171 195 0
171 195 0
176 198 0
174 197 0
174 196 0
173 196 0
174 197 0
176 198 0
174 197 0
171 195 0
168 191 0
174 197 0
176 198 0
171 195 0
170 195 0
173 195 0
174 198 0
174 196 0
174 197 0
175 198 0
174 197 0
174 198 0
176 199 0
175 198 0
174 196 0
173 197 0
173 196 0
172 196 0
175 198 0
173 195 0
172 196 0
174 197 0
175 198 0
174 197 0
175 198 0
172 196 0
176 198 0
175 198 0
173 197 0
174 197 0
172 195 0
171 195 0
173 197 0
173 196 0
173 196 0
173 197 0
173 196 0
172 196 0
175 197 0
174 198 0
174 197 0
174 197 0
173 197 0
175 198 0
173 197 0
171 196 0
172 196 0
174 197 0
172 195 0
174 197 0
173 197 0
172 196 0
173 197 0
175 197 0
173 197 0
172 195 0
173 196 0
173 196 0
171 194 0
175 197 0
173 196 0
172 196 0
174 197 0
171 194 0
174 197 0
173 196 0
169 193 0
173 196 0
173 196 0
172 196 0
173 197 0
172 195 0
174 197 0
174 198 0
173 196 0
169 193 0
171 195 0
172 195 0
173 196 0
171 196 0
174 197 0
172 196 0
173 196 0
174 197 0
173 196 0
170 194 0
173 196 0
169 193 0
173 195 0
172 195 0
170 194 0
172 195 0
171 194 0
171 195 0
171 193 0
169 192 0
170 193 0
173 195 0
172 195 0
170 192 0
171 194 0
173 195 0
171 195 0
170 193 0
169 194 0
172 194 0
171 194 0
169 193 0
172 194 0
171 194 0
170 194 0
171 194 0
169 193 0
171 195 0
167 192 0
169 192 0
169 191 0
169 192 0
166 188 0
168 190 0
166 189 0
164 187 0
164 186 0
168 190 0
164 187 0
163 185 0
159 180 0
163 184 0
153 173 0
150 169 32
147 165 0
145 165 0
150 169 0
144 164 0
148 167 0
149 168 0
149 169 0
149 168 0
147 168 0
149 170 0
150 170 0
147 167 0
151 171 0
150 171 0
150 171 0
147 167 0
146 167 0
146 168 0
149 169 0
151 171 0
151 171 0
150 170 0
152 172 0
151 171 0
149 170 0
147 168 0
150 171 0
151 172 0
134 153 0
108 125 0
116 135 0
130 149 0
124 144 0
128 147 0
133 151 0
125 145 0
120 138 0
130 149 0
132 151 0
137 157 0
126 145 0
128 148 0
131 150 0
121 141 0
134 153 0
128 147 0
134 153 0
136 155 0
121 140 0
135 154 0
136 155 0
130 150 0
138 159 0
137 157 0
131 150 0
129 148 0
131 150 0
131 152 0
127 145 0
130 150 0
126 145 0
133 153 0
140 160 0
132 151 0
139 158 0
134 154 0
135 155 0
141 161 0
128 150 60
61 96 151
57 92 148
59 94 147
61 96 151
60 95 157
61 97 155
61 97 159
62 98 167
60 96 157
61 97 163
61 97 157
61 97 155
61 98 165
61 97 163
62 98 163
62 99 175
62 98 165
61 98 167
61 97 161
61 98 163
60 97 157
60 97 159
62 99 173
62 98 169
60 96 163
60 95 149
61 98 175
62 98 166
61 97 161
60 96 157
61 98 167
60 97 170
60 97 163
61 97 167
61 97 166
61 97 166
60 96 162
61 98 171
62 98 169
61 96 154
61 98 164
61 98 171
62 98 169
61 97 168
60 96 170
59 94 162
61 97 165
61 97 166
58 92 156
60 95 166
60 95 162
62 98 172
59 93 157
60 96 163
61 95 163
61 96 169
59 95 168
61 95 162
59 93 153
60 94 156
60 95 162
59 93 157
57 89 145
58 91 146
59 93 162
60 95 159
60 94 159
59 92 153
56 87 135
58 91 146
59 93 151
59 92 152
58 91 155
57 89 134
57 89 140
57 88 128
60 94 145
59 93 141
57 89 134
160 185 45
168 190 0
165 187 0
161 183 0
161 184 0
164 187 0
166 188 0
166 190 0
168 189 0
168 192 0
168 192 0
168 190 0
172 193 0
159 183 0
168 191 0
170 193 0
170 193 0
168 190 0
168 192 0
164 186 0
170 193 0
168 192 0
170 194 0
165 189 0
170 194 0
171 195 0
170 194 0
171 195 0
167 191 0
173 196 0
169 192 0
169 192 0
174 197 0
171 194 0
171 193 0
174 196 0
169 191 0
171 194 0
169 193 0
173 197 0
172 196 0
168 191 0
167 191 0
171 194 0
172 195 0
168 192 0
169 192 0
164 187 0
172 195 0
172 195 0
172 196 0
169 192 0
171 194 0
172 195 0
172 195 0
172 195 0
173 195 0
166 189 0
168 191 0
170 193 0
170 194 0
173 196 0
173 194 0
172 195 0
172 194 0
172 194 0
176 198 0
171 194 0
175 198 0
171 193 0
174 197 0
173 195 0
170 194 0
175 198 0
172 195 0
171 195 0
170 193 0
169 190 0
169 192 0
172 195 0
171 195 0
172 195 0
174 197 0
172 195 0
172 194 0
172 195 0
171 195 0
174 197 0
169 194 0
171 195 0
170 193 0
173 196 0
172 195 0
172 195 0
172 194 0
172 196 0
175 197 0
176 198 0
174 197 0
175 198 0
170 194 0
175 198 0
173 195 0
172 196 0
174 197 0
171 194 0
170 194 0
171 194 0
171 196 0
172 195 0
173 197 0
174 198 0
171 195 0
172 196 0
173 195 0
176 199 0
170 194 0
173 196 0
173 196 0
173 197 0
173 196 0
176 198 0
174 198 0
170 195 0
173 196 0
172 196 0
169 193 0
173 196 0
174 197 0
174 198 0
173 197 0
171 194 0
169 193 0
172 197 0
175 197 0
173 196 0
170 194 0
173 196 0
173 196 0
173 197 0
173 196 0
174 197 0
175 198 0
176 198 0
174 197 0
171 195 0
173 196 0
175 198 0
172 195 0
174 198 0
173 195 0
174 197 0
172 197 0
172 196 0
174 197 0
173 196 0
174 198 0
174 197 0
171 195 0
174 198 0
174 197 0
172 196 0
173 196 0
173 196 0
172 195 0
174 197 0
172 197 0
175 198 0
173 197 0
172 196 0
173 197 0
173 197 0
174 197 0
173 197 0
173 197 0
173 197 0
175 197 0
174 197 0
172 195 0
174 197 0
176 198 0
174 197 0
173 197 0
174 197 0
171 195 0
174 197 0
173 197 0
173 195 0
173 197 0
175 198 0
174 197 0
172 196 0
172 195 0
172 196 0
173 196 0
173 196 0
172 196 0
176 199 0
173 196 0
172 195 0
173 196 0
172 195 0
173 195 0
173 196 0
172 196 0
172 195 0
171 195 0
171 195 0
172 196 0
173 196 0
170 193 0
169 193 0
170 192 0
169 193 0
173 195 0
172 195 0
169 193 0
170 194 0
170 193 0
170 193 0
169 193 0
172 195 0
169 192 0
172 195 0
169 192 0
171 194 0
169 192 0
169 193 0
170 193 0
167 189 0
172 194 0
173 196 0
172 194 0
171 193 0
170 193 0
172 194 0
170 193 0
170 193 0
170 192 0
170 192 0
169 192 0
165 188 0
167 189 0
168 191 0
168 189 0
165 187 0
165 186 0
168 190 0
167 189 0
166 188 0
162 184 0
159 182 0
151 170 32
148 168 0
145 164 0
147 168 0
146 167 0
145 166 0
142 161 0
149 168 0
151 170 0
153 173 0
145 167 0
148 168 0
149 169 0
150 170 0
147 167 0
153 173 0
149 170 0
151 171 0
151 172 0
148 169 0
152 172 0
149 170 0
150 171 0
152 172 0
150 170 0
150 171 0
150 171 0
147 169 0
142 162 0
135 154 0
112 130 0
113 130 0
131 150 0
117 134 0
129 149 0
125 144 0
118 136 0
119 139 0
129 149 0
125 143 0
115 134 0
133 153 0
126 146 0
120 139 0
122 142 0
132 153 0
126 146 0
125 145 0
121 140 0
140 159 0
124 143 0
131 151 0
134 154 0
136 155 0
134 155 0
129 148 0
142 162 0
132 151 0
134 154 0
135 155 0
135 155 0
142 162 0
140 160 0
138 158 0
136 156 0
141 162 0
133 153 0
133 152 0
125 145 63
57 91 126
59 94 149
61 97 167
60 96 154
61 97 161
60 96 151
60 96 156
61 97 157
61 98 165
59 96 153
61 97 163
61 98 161
61 97 161
61 97 157
61 98 161
62 98 169
61 97 159
61 97 158
60 97 167
60 96 159
62 97 159
61 98 171
60 96 160
60 95 151
61 97 159
61 97 161
60 95 154
61 98 169
61 98 166
61 98 161
60 96 159
61 98 170
62 98 161
61 98 173
62 98 168
62 98 171
61 98 170
60 96 161
62 99 174
61 96 160
60 96 158
60 97 164
60 95 160
60 94 162
61 97 166
61 97 169
59 94 162
61 97 167
60 95 166
61 96 164
60 95 164
61 96 162
59 94 159
58 92 154
60 95 165
59 93 160
60 95 162
61 96 157
62 97 158
60 95 159
58 91 150
60 93 155
57 89 142
57 89 140
59 94 158
61 97 169
57 91 158
60 95 166
60 94 156
58 90 141
57 89 140
57 89 143
59 92 154
59 91 145
61 95 159
58 92 148
59 93 152
57 90 138
58 92 150
151 175 80
166 190 0
166 190 0
168 191 0
162 185 0
169 192 0
170 194 0
166 190 0
163 187 0
163 186 0
165 188 0
168 192 0
166 190 0
172 194 0
164 186 0
169 192 0
167 191 0
161 184 0
168 190 0
167 189 0
165 188 0
171 195 0
172 195 0
166 189 0
166 189 0
166 189 0
168 191 0
166 189 0
173 197 0
170 192 0
171 193 0
169 193 0
167 190 0
165 188 0
169 192 0
169 193 0
171 194 0
170 193 0
167 189 0
170 193 0
172 195 0
166 189 0
170 193 0
168 191 0
170 194 0
171 194 0
168 191 0
169 192 0
165 186 0
166 186 24
161 178 28
151 165 24
148 155 25
117 110 25
121 114 30
111 103 24
120 107 42
136 127 55
114 95 36
127 110 36
130 125 43
114 97 29
113 97 39
129 122 44
117 106 40
124 122 33
142 140 47
133 129 35
146 149 25
135 141 16
153 163 25
164 179 8
169 190 17
172 196 0
168 191 0
172 196 0
173 197 0
169 193 0
172 194 0
168 192 0
171 195 0
172 196 0
169 192 0
169 192 0
175 198 0
170 193 0
172 195 0
174 197 0
171 195 0
173 196 0
171 195 0
174 196 0
173 196 0
171 195 0
172 196 0
171 194 0
173 196 0
169 192 0
174 197 0
172 194 0
173 196 0
171 194 0
170 193 0
172 195 0
174 197 0
172 195 0
173 197 0
170 194 0
172 196 0
174 196 0
171 194 0
173 196 0
175 198 0
171 194 0
172 196 0
172 196 0
173 197 0
170 194 0
175 198 0
175 198 0
172 195 0
173 197 0
172 195 0
175 198 0
174 197 0
173 197 0
172 195 0
174 197 0
175 197 0
174 198 0
173 196 0
175 198 0
172 197 0
174 197 0
174 198 0
171 195 0
174 198 0
176 198 0
174 197 0
173 197 0
176 198 0
174 197 0
173 197 0
172 196 0
176 198 0
172 197 0
173 197 0
170 196 0
175 197 0
176 198 0
173 196 0
174 196 0
173 195 0
171 196 0
172 196 0
174 197 0
175 198 0
175 197 0
175 197 0
174 196 0
176 198 0
176 198 0
172 196 0
173 197 0
174 196 0
174 197 0
171 195 0
173 197 0
173 197 0
172 196 0
173 197 0
173 196 0
173 197 0
176 198 0
176 198 0
176 198 0
172 195 0
174 197 0
175 198 0
175 197 0
172 195 0
170 195 0
174 197 0
174 197 0
171 196 0
172 195 0
174 197 0
173 196 0
172 196 0
173 196 0
172 195 0
169 194 0
173 196 0
174 197 0
172 195 0
171 196 0
171 195 0
173 196 0
173 196 0
170 194 0
171 194 0
174 197 0
172 195 0
171 195 0
172 196 0
172 195 0
173 196 0
172 195 0
174 197 0
171 193 0
171 194 0
174 196 0
171 193 0
173 196 0
168 190 0
171 195 0
169 193 0
173 195 0
171 195 0
172 195 0
171 194 0
171 193 0
170 194 0
169 192 0
169 192 0
168 190 0
170 193 0
174 196 0
171 194 0
172 194 0
171 194 0
171 194 0
170 192 0
171 193 0
169 192 0
167 191 0
171 193 0
166 189 0
169 192 0
168 190 0
170 192 0
164 186 0
165 187 0
168 190 0
165 187 0
163 186 0
166 188 0
164 187 0
170 191 0
163 185 0
164 185 0
165 187 0
164 186 0
158 179 0
152 171 32
145 164 0
148 168 0
148 168 0
148 168 0
147 167 0
144 165 0
151 172 0
149 169 0
146 165 0
150 170 0
151 171 0
151 171 0
149 169 0
151 171 0
149 169 0
150 169 0
150 171 0
151 171 0
150 171 0
150 169 0
149 169 0
150 171 0
148 168 0
151 172 0
151 171 0
143 163 0
111 130 0
115 133 0
122 140 0
133 152 0
130 148 0
133 153 0
125 144 0
125 145 0
126 146 0
126 144 0
126 145 0
134 154 0
131 151 0
131 150 0
132 152 0
137 156 0
130 149 0
135 154 0
134 155 0
134 154 0
134 153 0
136 156 0
137 156 0
136 155 0
135 155 0
132 152 0
138 157 0
134 153 0
134 153 0
136 156 0
135 155 0
133 153 0
138 159 0
132 151 0
138 158 0
136 155 0
132 152 0
138 158 0
134 153 0
95 117 95
56 90 133
61 96 152
60 96 154
60 95 147
61 97 155
61 97 155
61 97 158
61 97 148
61 98 165
60 96 155
61 97 163
61 98 169
60 96 149
62 98 167
61 98 165
61 98 169
62 98 169
60 97 155
60 96 153
61 98 167
62 98 165
62 98 167
62 98 169
61 97 153
61 98 165
61 98 165
60 96 165
61 97 169
61 97 164
61 97 172
62 98 171
61 97 162
59 96 160
61 98 170
62 98 168
61 97 160
61 96 167
59 94 151
61 96 156
61 97 166
62 99 169
60 96 159
61 96 166
59 95 161
60 95 161
60 96 164
62 98 172
60 96 163
61 97 160
60 95 164
60 96 162
60 95 164
60 94 158
61 96 166
60 95 162
61 96 162
59 95 160
61 97 166
60 95 162
59 93 156
60 96 164
57 91 158
60 94 160
57 90 137
60 94 157
58 92 157
59 93 158
59 91 150
59 92 147
57 90 135
59 92 154
59 93 155
59 92 150
57 89 141
59 91 147
57 89 143
59 91 140
58 91 143
57 88 131
139 163 81
168 192 0
158 181 0
167 190 0
158 181 0
170 194 0
161 183 0
166 189 0
164 187 0
170 193 0
168 192 0
166 189 0
166 191 0
164 187 0
164 187 0
174 195 0
169 193 0
171 194 0
165 188 0
171 194 0
171 194 0
170 193 0
166 191 0
164 186 0
163 186 0
171 194 0
171 194 0
174 196 0
166 190 0
172 196 0
169 192 0
168 192 0
171 193 0
171 193 0
168 193 0
171 192 0
170 194 0
172 194 0
169 194 0
170 193 0
170 193 0
172 193 0
171 195 0
166 187 16
144 156 20
143 154 18
132 128 35
127 119 26
115 91 45
126 102 45
117 99 51
93 71 23
114 98 49
121 103 54
99 79 33
125 107 47
102 84 34
108 87 31
107 86 39
114 92 37
107 85 35
123 104 47
101 81 40
116 96 42
121 100 45
112 94 40
106 90 44
120 102 53
110 89 34
93 74 18
106 90 37
117 95 42
101 79 27
108 89 36
118 113 25
133 126 36
149 157 28
164 179 25
168 189 0
171 194 0
173 196 0
171 195 0
171 194 0
173 195 0
169 194 0
174 196 0
169 192 0
172 196 0
171 194 0
175 197 0
173 196 0
171 194 0
174 198 0
173 195 0
172 194 0
173 195 0
172 196 0
173 197 0
172 195 0
172 194 0
170 194 0
173 196 0
172 196 0
173 196 0
173 196 0
173 196 0
172 194 0
174 198 0
172 195 0
173 196 0
174 198 0
175 198 0
174 196 0
174 196 0
172 195 0
173 196 0
177 199 0
174 197 0
171 195 0
171 195 0
172 195 0
169 193 0
174 197 0
175 197 0
172 196 0
173 196 0
170 194 0
172 196 0
172 195 0
174 196 0
171 195 0
173 196 0
174 197 0
174 197 0
172 196 0
173 197 0
174 197 0
173 197 0
173 197 0
175 198 0
173 196 0
176 198 0
173 196 0
175 198 0
172 194 0
172 197 0
173 196 0
173 197 0
171 192 0
173 195 0
173 195 0
173 197 0
173 196 0
175 198 0
172 195 0
176 199 0
176 198 0
174 198 0
176 198 0
173 197 0
175 198 0
174 198 0
172 196 0
176 198 0
170 194 0
172 195 0
175 197 0
172 196 0
173 197 0
174 197 0
174 197 0
170 194 0
172 196 0
173 197 0
175 198 0
172 196 0
173 197 0
171 194 0
174 197 0
175 198 0
171 195 0
173 197 0
175 197 0
173 196 0
172 196 0
173 196 0
172 195 0
174 197 0
171 194 0
173 196 0
174 197 0
174 197 0
174 197 0
170 194 0
173 196 0
172 194 0
173 196 0
171 195 0
173 196 0
170 194 0
172 194 0
173 196 0
171 195 0
173 196 0
173 196 0
170 193 0
173 196 0
171 194 0
171 195 0
175 198 0
173 195 0
172 195 0
169 193 0
173 195 0
169 192 0
174 196 0
174 197 0
170 193 0
171 195 0
171 195 0
171 194 0
172 195 0
169 192 0
171 194 0
171 195 0
173 195 0
170 193 0
168 192 0
175 197 0
171 193 0
172 194 0
172 195 0
172 195 0
168 191 0
169 192 0
169 193 0
170 192 0
169 192 0
170 192 0
168 191 0
168 192 0
164 187 0
167 190 0
166 188 0
164 187 0
167 189 0
165 187 0
165 186 0
166 189 0
164 185 0
165 187 0
165 188 0
168 189 0
170 192 0
162 184 0
149 169 0
146 166 0
149 170 0
149 170 0
145 165 0
148 168 0
148 168 0
150 170 0
146 166 0
149 168 0
147 167 0
152 173 0
147 166 0
154 173 0
150 170 0
147 166 0
150 169 0
144 164 0
149 170 0
149 169 0
148 169 0
148 169 0
148 169 0
150 171 0
150 171 0
144 163 0
124 143 0
125 144 0
133 152 0
127 146 0
126 145 0
131 150 0
127 146 0
131 150 0
132 152 0
135 154 0
133 152 0
136 157 0
129 148 0
126 146 0
129 149 0
140 161 0
122 141 0
128 148 0
128 147 0
125 144 0
134 154 0
131 151 0
134 153 0
136 158 0
129 149 0
128 148 0
131 152 0
136 156 0
139 158 0
133 153 0
134 156 0
134 154 0
138 158 0
129 149 0
133 153 0
140 160 0
129 149 0
136 155 0
131 150 0
83 108 100
58 92 138
61 97 157
60 96 152
60 96 144
61 96 152
60 96 153
60 96 153
61 97 157
61 97 153
61 97 155
59 95 149
61 98 170
61 96 153
60 96 151
61 97 159
61 98 163
61 97 163
61 98 159
61 97 161
61 97 157
62 98 163
61 97 163
60 97 159
60 96 159
62 99 171
61 97 168
60 96 163
60 95 155
61 98 168
61 97 162
61 98 171
61 97 162
60 97 166
60 96 163
61 98 163
61 96 163
61 96 164
61 96 158
62 98 169
61 97 167
61 97 164
61 97 166
61 97 166
61 97 170
59 93 154
60 93 152
60 95 156
60 94 161
58 93 160
59 94 154
60 95 161
59 94 154
59 93 153
61 95 157
61 96 167
59 95 164
59 92 147
59 94 157
59 94 161
60 95 158
59 93 159
60 95 163
61 96 162
58 92 147
61 95 159
59 93 156
58 92 149
56 87 142
59 93 161
57 89 143
57 89 136
58 91 155
59 93 148
56 87 143
57 89 142
58 91 143
57 90 132
59 92 137
57 89 116
106 133 117
164 187 0
163 186 0
164 186 0
169 192 0
166 190 0
165 188 0
166 188 0
163 187 0
160 185 0
165 189 0
169 190 0
160 183 0
161 185 0
172 196 0
168 192 0
164 188 0
164 186 0
167 191 0
162 184 0
163 186 0
172 195 0
168 191 0
173 197 0
160 183 0
169 191 0
171 195 0
168 191 0
167 190 0
169 191 0
167 189 0
172 195 0
173 196 0
167 191 0
163 186 0
171 195 0
170 194 0
168 190 0
170 193 0
167 191 0
161 178 33
149 154 43
110 102 34
122 104 48
104 83 32
110 89 41
104 84 38
122 101 45
117 95 37
120 104 50
110 91 37
105 90 39
88 73 33
114 96 43
123 104 50
115 93 42
126 108 54
117 96 47
114 93 40
98 80 33
110 90 40
122 100 47
128 107 48
116 96 47
108 91 37
130 109 53
121 101 47
115 94 38
121 102 49
111 93 47
112 90 35
116 97 46
102 81 31
112 95 40
114 97 45
116 95 34
130 107 49
99 78 24
101 84 30
123 113 43
127 129 26
143 153 28
155 174 0
174 195 0
172 195 0
174 197 0
174 196 0
175 198 0
171 194 0
169 193 0
172 196 0
174 197 0
175 198 0
172 195 0
173 195 0
174 196 0
169 191 0
173 195 0
174 198 0
171 194 0
173 197 0
175 198 0
171 194 0
174 196 0
171 193 0
172 195 0
174 197 0
170 195 0
172 194 0
173 196 0
174 198 0
173 196 0
170 194 0
173 196 0
175 198 0
170 194 0
174 196 0
172 196 0
173 196 0
174 198 0
174 198 0
172 197 0
173 197 0
171 194 0
175 197 0
177 198 0
172 194 0
171 195 0
174 197 0
172 196 0
174 198 0
173 196 0
173 196 0
175 198 0
174 197 0
173 195 0
172 196 0
170 194 0
172 196 0
172 196 0
172 195 0
174 198 0
173 197 0
173 197 0
170 195 0
171 195 0
175 198 0
170 194 0
169 192 0
174 198 0
172 195 0
173 197 0
174 197 0
172 196 0
175 197 0
172 196 0
176 197 0
175 198 0
174 198 0
171 195 0
176 198 0
173 196 0
173 197 0
175 198 0
171 196 0
175 197 0
172 197 0
173 197 0
173 197 0
173 197 0
175 198 0
173 197 0
173 197 0
170 194 0
175 198 0
174 197 0
174 197 0
175 197 0
173 196 0
174 197 0
171 194 0
175 198 0
171 196 0
171 194 0
173 196 0
175 198 0
175 198 0
170 195 0
172 196 0
175 197 0
175 198 0
175 198 0
174 197 0
174 197 0
174 197 0
174 197 0
173 196 0
172 195 0
174 198 0
173 196 0
173 196 0
172 195 0
172 196 0
172 195 0
168 192 0
170 193 0
171 195 0
171 195 0
171 194 0
172 195 0
172 195 0
170 193 0
173 196 0
173 196 0
173 196 0
171 195 0
167 190 0
173 196 0
173 196 0
170 194 0
172 195 0
171 195 0
171 194 0
169 192 0
173 196 0
169 192 0
171 194 0
170 192 0
173 195 0
168 192 0
169 192 0
169 193 0
171 193 0
172 195 0
168 191 0
171 193 0
171 194 0
168 192 0
170 192 0
169 192 0
168 190 0
167 189 0
168 190 0
165 188 0
169 191 0
166 189 0
167 188 0
168 189 0
166 189 0
167 190 0
162 184 0
162 184 0
163 185 0
164 187 0
160 183 0
167 189 32
154 176 0
147 167 0
146 166 0
146 166 0
148 168 0
148 167 0
142 163 0
150 169 0
144 164 0
150 170 0
146 166 0
147 166 0
147 167 0
151 171 0
149 169 0
147 168 0
148 169 0
148 168 0
149 170 0
148 169 0
149 170 0
148 169 0
148 168 0
152 172 0
149 169 0
129 149 0
133 152 0
131 150 0
128 145 0
124 145 0
129 149 0
130 148 0
124 144 0
132 152 0
126 145 0
123 144 0
137 157 0
131 151 0
137 157 0
122 141 0
134 154 0
142 162 0
134 155 0
130 149 0
136 156 0
141 160 0
143 163 0
138 158 0
138 158 0
138 158 0
134 153 0
136 156 0
137 157 0
141 162 0
132 151 0
139 160 0
133 153 0
134 153 0
130 150 0
137 157 0
137 157 0
139 159 0
133 152 0
141 160 32
96 121 97
59 94 144
60 96 151
62 98 157
61 97 153
60 95 145
60 96 151
61 97 151
60 97 159
62 98 159
61 97 151
61 97 159
60 96 147
61 97 159
61 97 155
61 97 166
61 97 153
60 96 149
61 98 167
61 98 163
61 97 161
62 98 157
62 99 173
60 96 157
62 98 161
61 96 152
60 96 155
61 97 164
61 98 169
60 96 162
62 98 169
62 98 167
61 97 164
61 97 163
60 96 164
61 96 168
62 99 174
61 97 167
60 94 152
61 96 164
60 95 153
60 94 164
61 97 163
59 94 152
61 96 165
61 95 161
60 95 159
60 96 165
61 96 161
62 98 173
60 95 158
60 95 159
62 97 162
61 97 169
60 94 156
59 93 153
60 94 163
59 93 157
62 97 168
59 93 161
59 93 148
59 93 156
61 96 164
60 95 162
59 92 154
57 88 135
60 96 159
58 91 149
58 91 153
59 93 152
58 90 141
59 93 154
60 95 162
59 92 156
56 87 138
61 93 151
59 92 144
58 90 139
57 89 137
57 89 135
89 115 104
167 191 0
168 190 0
165 189 0
162 185 0
164 188 0
169 192 0
161 184 0
169 191 0
164 187 0
166 189 0
166 189 0
169 192 0
166 190 0
161 184 0
168 192 0
168 191 0
167 189 0
174 196 0
167 189 0
167 190 0
172 195 0
170 193 0
163 187 0
170 192 0
168 191 0
170 194 0
171 195 0
165 188 0
171 193 0
168 191 0
170 193 0
168 191 0
170 194 0
170 192 0
167 189 0
165 188 0
159 173 24
137 143 23
113 98 41
96 77 38
99 81 37
109 87 36
113 98 49
106 84 43
111 89 35
107 87 36
113 92 44
105 85 38
97 77 33
108 85 32
110 91 36
117 97 45
106 86 40
98 79 27
110 86 30
88 68 10
90 65 13
115 92 41
106 84 35
109 88 21
114 90 32
104 84 36
118 103 51
106 86 29
113 94 35
106 88 40
122 100 44
112 91 33
108 86 27
104 83 37
122 106 50
114 96 40
109 88 30
116 97 40
114 96 44
106 84 29
116 96 45
112 96 39
114 95 47
103 83 32
115 95 45
111 91 39
121 111 43
140 143 37
155 169 32
168 189 0
174 197 0
172 194 0
171 193 0
174 196 0
175 198 0
173 196 0
173 195 0
171 194 0
176 198 0
173 196 0
174 197 0
171 195 0
171 195 0
172 196 0
171 195 0
169 193 0
172 196 0
174 197 0
172 197 0
174 197 0
174 197 0
172 196 0
173 197 0
172 195 0
171 193 0
170 195 0
170 193 0
173 197 0
174 196 0
171 193 0
174 197 0
173 196 0
170 195 0
172 197 0
174 197 0
174 197 0
176 198 0
172 195 0
173 196 0
175 197 0
176 198 0
173 196 0
172 196 0
174 198 0
174 197 0
173 197 0
170 194 0
174 198 0
176 199 0
171 194 0
173 197 0
176 199 0
172 195 0
174 196 0
173 197 0
175 198 0
174 196 0
172 194 0
172 197 0
175 197 0
175 197 0
173 197 0
174 197 0
174 198 0
174 198 0
175 197 0
174 198 0
173 196 0
171 195 0
170 195 0
174 197 0
175 198 0
175 198 0
173 197 0
172 196 0
174 197 0
175 197 0
174 197 0
173 197 0
171 195 0
174 197 0
174 197 0
173 197 0
172 195 0
174 197 0
172 194 0
173 196 0
171 196 0
174 197 0
173 197 0
173 196 0
171 196 0
173 196 0
172 195 0
173 197 0
172 196 0
173 196 0
172 195 0
175 197 0
171 194 0
172 195 0
170 194 0
173 196 0
173 196 0
173 195 0
173 197 0
172 195 0
174 197 0
172 194 0
171 194 0
174 197 0
170 195 0
175 197 0
174 196 0
171 194 0
171 194 0
170 194 0
172 196 0
173 195 0
171 195 0
172 195 0
173 196 0
171 195 0
171 195 0
172 195 0
173 197 0
171 194 0
174 197 0
172 195 0
172 195 0
172 193 0
170 194 0
170 194 0
170 194 0
171 194 0
169 192 0
173 196 0
171 194 0
169 193 0
170 194 0
170 192 0
169 192 0
170 193 0
168 190 0
168 192 0
171 194 0
168 192 0
171 194 0
169 191 0
172 194 0
168 192 0
167 189 0
167 189 0
170 192 0
169 192 0
169 192 0
165 188 0
166 190 0
167 188 0
168 189 0
167 189 0
164 187 0
167 189 0
160 182 0
168 190 0
165 188 0
168 190 0
170 191 0
167 189 0
166 187 0
155 174 45
150 169 32
142 161 0
145 164 0
146 166 0
146 167 0
146 166 0
147 166 0
151 170 0
148 170 0
147 167 0
145 165 0
148 167 0
148 169 0
147 168 0
147 167 0
147 167 0
144 165 0
148 169 0
149 168 0
149 169 0
150 170 0
150 170 0
153 172 0
136 156 0
120 139 0
127 145 0
125 144 0
128 147 0
132 151 0
131 150 0
129 149 0
121 141 0
136 154 0
139 160 0
125 145 0
124 143 0
125 145 0
134 152 0
138 158 0
129 148 0
133 152 0
136 155 0
134 154 0
135 154 0
140 161 0
137 156 0
135 155 0
138 158 0
132 153 0
137 157 0
140 161 0
132 152 0
123 142 0
141 162 0
127 146 0
133 150 0
135 155 0
135 155 0
140 160 0
132 152 0
133 155 0
140 161 32
88 115 118
59 94 147
59 94 151
60 95 139
59 95 146
61 96 148
61 97 159
60 95 147
61 98 161
61 97 159
61 97 155
60 96 153
60 96 151
61 97 157
60 95 151
60 97 161
60 96 149
62 98 163
60 96 151
61 97 151
60 97 159
61 98 165
61 97 157
60 97 159
62 98 161
60 96 155
61 97 164
62 98 162
61 97 161
62 99 171
62 98 163
62 98 165
60 96 155
62 98 171
61 97 156
60 96 160
61 97 157
60 96 161
60 97 167
61 96 158
61 97 166
60 95 156
61 98 166
60 95 161
59 94 156
59 93 156
60 96 157
61 97 160
59 93 148
60 95 162
60 95 158
59 92 148
60 95 158
61 96 163
59 92 156
62 96 164
60 95 156
60 94 159
57 90 149
58 92 145
59 93 154
59 92 150
57 90 143
58 89 142
58 93 158
60 93 153
57 90 149
61 95 161
58 91 154
60 93 153
60 93 151
60 92 145
58 90 141
56 88 136
57 89 139
56 88 141
55 87 140
57 88 126
56 88 133
59 92 135
93 120 112
167 190 0
167 189 0
167 190 0
161 185 0
161 183 0
164 187 0
159 183 0
159 181 0
165 188 0
162 186 0
166 188 0
160 182 0
166 190 0
167 191 0
163 186 0
168 190 0
169 193 0
168 190 0
166 189 0
163 185 0
168 190 0
164 187 0
167 190 0
167 189 0
170 193 0
167 192 0
163 186 0
168 190 0
172 194 0
165 189 0
173 196 0
172 194 0
173 197 0
165 185 22
140 151 12
126 118 49
118 98 40
107 89 41
109 89 35
105 83 35
98 79 27
109 92 44
92 72 24
98 76 25
99 80 31
97 80 34
103 83 26
99 82 41
109 92 41
105 88 44
103 85 31
113 91 39
113 89 38
114 95 47
109 89 38
99 78 30
105 85 30
117 98 47
99 83 34
106 89 41
118 97 41
105 87 38
113 91 36
112 93 38
114 94 42
112 91 44
118 93 32
98 80 33
105 83 31
106 85 33
107 87 37
110 94 45
104 83 34
115 94 36
113 93 41
99 76 29
110 92 31
104 84 32
120 99 38
101 83 29
110 93 44
122 104 45
128 108 52
121 103 50
118 96 36
111 94 38
137 133 51
148 151 39
169 193 0
176 199 0
171 194 0
172 194 0
172 195 0
173 197 0
173 195 0
173 195 0
172 196 0
172 195 0
174 197 0
173 196 0
172 196 0
171 194 0
170 193 0
168 192 0
173 196 0
172 195 0
172 195 0
174 196 0
174 196 0
169 193 0
173 197 0
172 196 0
174 197 0
174 197 0
171 195 0
173 196 0
174 198 0
172 196 0
170 195 0
173 196 0
172 196 0
173 196 0
174 197 0
174 196 0
169 193 0
174 197 0
172 194 0
173 196 0
174 198 0
173 197 0
174 197 0
174 198 0
175 198 0
172 196 0
174 198 0
171 196 0
177 199 0
171 195 0
171 194 0
174 198 0
175 198 0
175 198 0
173 197 0
176 198 0
172 195 0
170 194 0
175 197 0
175 198 0
172 195 0
175 198 0
175 198 0
170 193 0
168 192 0
173 196 0
172 196 0
177 199 0
176 199 0
173 195 0
173 197 0
171 194 0
173 196 0
173 197 0
174 197 0
175 198 0
174 197 0
173 197 0
174 197 0
175 198 0
172 196 0
173 196 0
173 196 0
174 197 0
173 196 0
173 197 0
173 196 0
168 193 0
174 197 0
175 198 0
173 197 0
172 195 0
171 196 0
173 197 0
172 196 0
174 197 0
172 196 0
172 197 0
173 195 0
172 196 0
172 196 0
174 197 0
172 195 0
173 196 0
172 195 0
173 197 0
173 196 0
172 196 0
173 197 0
172 195 0
173 196 0
171 195 0
168 191 0
172 196 0
172 195 0
172 195 0
173 196 0
170 194 0
171 194 0
174 197 0
171 194 0
171 195 0
171 194 0
168 192 0
172 195 0
170 193 0
169 192 0
173 196 0
168 193 0
174 197 0
171 195 0
173 196 0
173 196 0
167 191 0
173 195 0
169 192 0
171 195 0
172 194 0
171 192 0
171 193 0
172 195 0
167 191 0
171 194 0
170 193 0
168 191 0
169 191 0
172 194 0
167 189 0
168 191 0
168 191 0
171 193 0
170 192 0
166 188 0
167 189 0
168 190 0
169 192 0
167 190 0
166 189 0
167 189 0
163 185 0
166 189 0
166 188 0
167 190 0
166 188 0
164 185 0
163 186 0
161 180 0
162 183 0
161 183 0
156 178 0
143 162 0
143 163 0
148 168 0
147 166 0
148 168 0
149 169 0
149 168 0
149 169 0
148 169 0
146 166 0
150 169 0
153 172 0
148 168 0
150 170 0
148 168 0
151 170 0
144 164 0
151 171 0
150 170 0
149 170 0
147 168 0
148 169 0
139 158 0
133 152 0
138 159 0
134 153 0
133 153 0
139 159 0
130 149 0
131 149 0
134 153 0
132 152 0
130 150 0
136 157 0
134 154 0
137 158 0
143 162 0
133 153 0
129 149 0
133 153 0
130 150 0
133 153 0
142 161 0
132 153 0
140 160 0
144 164 0
134 154 0
129 150 0
125 145 0
133 153 0
125 145 0
136 155 0
140 160 0
136 156 0
137 157 0
136 155 0
137 156 0
152 173 0
140 161 0
151 172 0
160 182 0
70 102 130
58 92 137
60 95 144
61 97 153
60 96 148
60 95 152
61 97 161
60 96 144
61 97 155
61 96 147
60 96 147
61 98 163
62 98 157
61 97 155
61 97 151
60 96 153
62 98 163
61 97 153
61 97 153
60 96 153
61 97 159
62 98 167
62 98 165
62 99 173
60 96 153
61 97 157
61 97 166
60 97 153
60 95 154
60 96 153
61 97 162
60 96 155
61 97 160
62 98 165
61 96 160
62 98 167
60 97 161
60 96 159
60 96 160
61 97 163
58 93 155
60 96 166
60 95 150
60 95 158
61 95 161
60 96 166
60 94 150
60 96 166
59 93 154
59 93 159
61 96 163
58 92 151
59 94 161
61 96 167
59 94 154
59 93 158
59 92 152
59 92 156
59 94 152
60 95 160
59 92 150
59 94 159
59 94 152
57 90 150
58 91 146
60 93 155
59 94 161
59 90 139
57 88 142
60 94 154
58 91 141
59 93 152
56 88 137
58 90 142
57 89 141
59 91 142
59 90 141
58 91 137
55 87 124
55 84 112
86 113 118
168 190 0
168 190 0
157 180 0
157 180 0
166 190 0
160 183 0
164 187 0
167 189 0
168 192 0
163 187 0
171 193 0
168 193 0
168 191 0
166 187 0
169 192 0
164 188 0
167 191 0
166 188 0
168 191 0
164 187 0
170 191 0
166 189 0
171 194 0
170 192 0
163 186 0
166 188 0
169 192 0
157 180 0
172 193 0
166 189 0
168 191 0
161 180 16
132 143 22
98 83 46
96 74 25
96 74 27
96 73 22
93 78 34
105 90 45
99 81 26
100 80 30
101 81 29
99 81 38
115 95 45
102 85 35
113 93 40
104 86 36
106 83 33
93 71 21
108 87 29
115 97 37
106 85 33
114 92 34
108 90 42
119 99 46
103 88 34
112 91 41
110 88 31
114 95 30
108 89 37
111 90 39
110 87 37
112 97 41
104 83 33
109 87 27
112 93 40
107 86 33
120 100 40
103 80 26
102 83 33
106 83 20
107 93 37
119 97 39
103 85 36
105 86 39
110 88 35
108 92 48
108 89 41
122 103 41
101 81 37
115 91 39
111 92 38
107 90 34
106 87 35
103 86 38
123 104 52
106 87 37
119 96 44
103 84 38
139 135 46
151 163 32
171 193 0
173 194 0
175 198 0
170 194 0
171 194 0
171 195 0
173 196 0
171 194 0
175 198 0
175 198 0
173 197 0
173 196 0
171 195 0
172 195 0
172 194 0
170 195 0
175 198 0
171 194 0
170 193 0
172 195 0
169 192 0
176 199 0
176 197 0
172 196 0
172 197 0
175 197 0
176 199 0
175 198 0
174 197 0
168 191 0
171 194 0
173 196 0
175 198 0
174 196 0
172 195 0
174 196 0
175 198 0
174 197 0
173 196 0
174 198 0
173 197 0
174 197 0
173 197 0
171 195 0
172 196 0
172 196 0
173 196 0
172 196 0
175 198 0
169 193 0
173 197 0
170 193 0
175 198 0
175 198 0
173 197 0
174 197 0
173 196 0
172 195 0
174 198 0
172 196 0
174 197 0
176 198 0
173 197 0
174 197 0
171 195 0
174 197 0
170 195 0
171 195 0
174 198 0
174 196 0
174 197 0
175 198 0
175 198 0
172 196 0
173 197 0
172 196 0
174 197 0
173 196 0
174 196 0
171 195 0
175 198 0
173 196 0
174 197 0
172 195 0
174 197 0
173 196 0
175 198 0
174 197 0
174 197 0
174 197 0
173 196 0
172 196 0
172 195 0
173 197 0
172 195 0
173 197 0
172 196 0
173 196 0
173 197 0
174 197 0
175 197 0
172 196 0
170 193 0
173 195 0
172 194 0
171 194 0
171 194 0
169 193 0
171 196 0
171 194 0
169 191 0
173 196 0
170 195 0
173 196 0
170 194 0
173 195 0
171 194 0
169 193 0
170 194 0
169 193 0
172 195 0
172 195 0
171 195 0
170 193 0
171 194 0
170 193 0
172 196 0
171 196 0
167 192 0
172 195 0
171 195 0
172 195 0
172 196 0
170 193 0
172 194 0
173 195 0
171 194 0
169 192 0
167 191 0
168 191 0
169 192 0
169 191 0
170 193 0
170 193 0
173 195 0
171 193 0
168 191 0
168 191 0
169 191 0
169 190 0
167 190 0
168 190 0
165 187 0
167 190 0
167 190 0
165 189 0
166 187 0
166 188 0
165 188 0
167 188 0
167 189 0
167 189 0
163 185 0
169 190 0
162 183 0
166 188 0
161 182 0
162 183 0
153 174 32
146 164 45
145 165 0
150 169 0
147 167 0
147 167 0
149 168 0
148 168 0
147 166 0
142 161 0
146 167 0
149 169 0
150 171 0
151 172 0
150 170 0
148 168 0
148 169 0
153 172 0
149 168 0
146 167 0
148 168 0
141 161 0
127 147 0
130 149 0
132 152 0
135 154 0
137 156 0
126 145 0
141 161 0
136 156 0
132 151 0
136 155 0
127 146 0
137 157 0
131 151 0
134 154 0
138 157 0
140 160 0
133 154 0
131 151 0
144 164 0
131 150 0
142 163 0
133 151 0
134 154 0
130 150 0
127 146 0
138 158 0
132 151 0
132 151 0
127 145 0
124 142 0
121 139 0
130 150 0
134 154 45
154 177 0
142 162 0
147 169 0
143 164 0
152 172 0
62 95 137
60 95 139
60 94 140
60 96 142
60 95 145
61 96 140
61 97 153
61 97 163
60 95 147
61 97 159
60 96 147
60 96 153
63 99 159
61 97 153
62 98 155
61 96 151
60 96 147
61 98 163
61 96 144
61 97 155
61 98 165
60 96 157
61 97 157
61 98 161
61 97 159
61 97 160
60 97 163
61 97 163
61 97 162
60 97 163
59 96 155
61 97 161
61 97 159
61 96 151
61 97 160
61 97 157
61 96 151
60 96 162
62 96 159
63 98 168
60 96 167
60 94 152
61 97 160
62 97 165
59 93 146
60 96 166
60 95 163
59 93 155
60 95 163
60 96 157
59 91 146
61 97 160
59 93 152
59 93 155
56 88 127
60 93 153
61 95 159
59 93 147
58 92 154
61 96 158
59 92 150
58 91 146
59 92 151
59 94 158
60 93 152
59 91 151
59 93 147
60 94 157
57 89 143
57 89 142
59 91 145
58 90 145
57 87 129
57 87 134
58 91 148
58 90 143
57 87 129
57 89 136
58 89 128
57 89 135
64 90 103
159 182 0
159 180 0
168 191 0
165 189 0
170 193 0
164 187 0
163 186 0
167 191 0
162 186 0
164 187 0
162 185 0
163 186 0
171 193 0
173 197 0
167 191 0
167 190 0
166 190 0
161 185 0
166 190 0
163 187 0
169 192 0
173 195 0
169 191 0
168 191 0
170 193 0
167 190 0
168 191 0
166 188 0
170 193 0
167 189 0
135 139 28
107 91 43
92 72 24
107 87 42
95 73 33
103 84 38
110 89 35
107 90 40
100 79 40
102 77 25
103 80 29
93 77 31
102 83 32
105 87 39
110 86 38
105 85 34
110 91 36
95 77 25
110 90 40
111 95 47
105 83 27
102 84 32
104 85 34
107 83 34
103 84 38
103 79 20
109 91 37
106 89 36
113 92 42
118 99 45
111 86 26
97 77 21
111 90 35
97 79 31
118 100 43
98 79 30
109 90 41
103 85 34
118 99 47
100 82 37
107 87 31
108 89 35
112 92 38
99 77 30
118 97 38
111 88 33
117 100 49
109 91 37
117 100 49
105 86 38
107 84 34
110 88 38
108 90 41
113 95 47
114 95 44
115 93 33
109 94 38
107 84 30
109 89 44
119 97 42
108 90 41
114 100 33
140 143 24
161 179 7
171 195 0
173 195 0
171 194 0
174 196 0
170 193 0
173 195 0
169 192 0
170 194 0
172 195 0
172 193 0
172 196 0
173 197 0
173 196 0
173 197 0
172 194 0
173 197 0
173 196 0
174 198 0
172 195 0
171 195 0
173 197 0
172 196 0
176 199 0
173 197 0
175 197 0
171 195 0
172 195 0
170 195 0
173 196 0
172 194 0
173 195 0
170 195 0
174 197 0
173 195 0
175 197 0
172 195 0
172 195 0
171 194 0
173 196 0
174 197 0
170 194 0
174 198 0
174 197 0
172 195 0
174 197 0
175 197 0
172 195 0
174 197 0
171 195 0
174 198 0
175 198 0
171 195 0
171 194 0
173 196 0
170 194 0
174 197 0
172 196 0
171 196 0
172 196 0
175 198 0
174 197 0
174 197 0
173 197 0
176 199 0
175 197 0
174 198 0
174 196 0
174 196 0
175 198 0
172 196 0
174 197 0
173 197 0
174 198 0
174 197 0
172 195 0
174 197 0
172 197 0
172 196 0
172 195 0
172 196 0
172 195 0
174 197 0
173 197 0
171 195 0
172 195 0
174 197 0
173 196 0
173 196 0
175 198 0
176 198 0
173 196 0
176 198 0
172 196 0
173 197 0
171 195 0
174 197 0
174 197 0
170 194 0
171 195 0
169 192 0
172 195 0
173 195 0
172 195 0
175 198 0
172 196 0
172 196 0
173 196 0
171 195 0
168 191 0
176 197 0
171 195 0
173 196 0
174 196 0
168 191 0
170 194 0
172 195 0
171 194 0
171 194 0
170 193 0
171 194 0
172 195 0
170 194 0
172 195 0
172 195 0
168 192 0
170 193 0
174 196 0
171 194 0
171 194 0
168 193 0
172 194 0
171 194 0
173 195 0
170 192 0
166 190 0
170 193 0
171 195 0
171 193 0
169 192 0
170 193 0
165 188 0
166 189 0
169 192 0
169 191 0
170 192 0
167 191 0
167 190 0
166 189 0
167 189 0
169 190 0
167 190 0
167 190 0
169 190 0
167 188 0
168 190 0
168 189 0
169 191 0
168 189 0
168 190 0
166 189 0
167 189 0
167 189 0
166 188 0
164 186 0
162 183 0
165 186 0
164 185 0
157 175 64
145 165 0
146 166 0
143 163 0
145 166 0
150 170 0
148 168 0
148 168 0
146 166 0
149 169 0
147 167 0
147 167 0
144 164 0
149 170 0
148 168 0
146 167 0
149 168 0
145 165 0
151 171 0
137 157 0
133 152 0
139 158 0
134 153 0
139 159 0
134 154 0
137 157 0
135 154 0
133 154 0
137 157 0
138 157 0
136 156 0
133 152 0
132 153 0
118 136 0
138 158 0
135 156 0
141 160 0
133 153 0
131 149 0
138 158 0
128 148 0
135 155 0
125 145 0
130 148 0
143 162 0
126 147 0
136 155 0
132 150 0
132 151 0
133 151 45
137 156 45
151 173 32
155 178 0
148 170 0
155 176 0
154 177 0
140 162 0
153 175 0
57 91 126
59 94 138
60 95 134
61 97 157
60 95 147
60 95 139
60 96 147
61 97 155
60 96 144
61 96 148
59 95 149
61 97 159
61 96 151
62 98 157
60 96 147
59 95 149
61 97 151
61 97 153
62 99 169
61 97 159
61 98 167
61 97 155
61 97 161
61 97 156
60 96 155
62 97 160
62 98 161
60 96 149
61 97 157
61 97 151
59 94 154
60 96 155
61 97 158
60 96 161
62 98 166
62 98 171
61 96 164
60 96 164
60 96 164
60 95 157
62 98 166
60 96 157
58 92 147
62 98 164
59 92 148
61 96 163
61 97 164
60 94 155
55 88 130
60 95 164
58 93 156
60 93 156
60 94 150
59 92 140
60 95 164
57 90 138
60 93 154
59 93 151
56 88 137
60 94 154
59 93 155
58 93 153
57 89 135
58 92 145
60 94 161
59 91 151
57 90 153
58 89 136
58 90 144
59 93 156
58 90 142
56 86 133
57 88 125
56 89 135
56 87 127
57 88 130
58 89 131
56 87 134
56 87 131
57 88 129
55 86 114
160 184 0
162 185 0
167 190 0
159 181 0
166 189 0
165 187 0
166 188 0
162 183 0
161 184 0
166 189 0
163 186 0
164 188 0
160 183 0
160 183 0
168 191 0
164 187 0
166 189 0
166 188 0
169 192 0
170 192 0
170 193 0
172 195 0
161 184 0
158 181 0
170 192 0
167 190 0
163 186 0
170 193 0
157 170 36
96 80 25
104 85 39
119 101 50
100 84 44
94 78 30
95 77 34
101 84 39
107 88 43
90 75 30
117 97 45
106 86 31
78 59 10
101 80 34
106 90 43
109 90 41
100 84 24
107 82 24
103 85 34
102 83 32
102 82 28
100 78 25
94 76 28
95 77 28
123 103 46
96 77 34
90 66 8
100 79 24
107 84 30
110 87 29
111 92 41
110 95 39
108 84 36
107 82 29
110 87 35
112 93 44
106 84 30
101 83 28
121 103 43
102 84 29
112 95 40
103 80 24
113 93 45
120 102 45
116 97 43
110 92 37
116 95 41
91 72 20
105 84 28
103 81 29
102 79 20
101 78 25
113 91 41
112 92 35
120 101 44
119 101 47
117 98 45
99 79 33
100 85 40
105 86 37
115 93 41
126 106 42
115 97 35
109 89 38
110 88 39
105 89 40
133 131 34
157 171 10
172 194 0
175 197 0
175 197 0
173 195 0
172 195 0
174 196 0
166 189 0
175 197 0
171 195 0
170 194 0
173 196 0
174 197 0
171 194 0
171 194 0
172 194 0
173 197 0
171 193 0
175 198 0
172 195 0
173 196 0
174 197 0
172 196 0
170 194 0
173 196 0
171 194 0
175 197 0
174 197 0
171 194 0
172 196 0
171 193 0
173 196 0
172 194 0
173 197 0
170 193 0
171 195 0
173 197 0
173 197 0
174 197 0
174 197 0
172 196 0
170 192 0
173 196 0
173 196 0
170 194 0
173 196 0
174 197 0
174 198 0
173 197 0
173 196 0
176 198 0
171 195 0
174 197 0
171 194 0
175 198 0
171 195 0
172 196 0
172 196 0
174 197 0
173 197 0
174 198 0
173 196 0
170 193 0
174 198 0
171 195 0
175 198 0
174 197 0
173 196 0
172 195 0
174 197 0
171 195 0
171 195 0
172 196 0
174 197 0
175 197 0
171 194 0
172 196 0
175 196 0
174 197 0
175 198 0
171 195 0
171 195 0
174 197 0
173 196 0
172 196 0
173 196 0
172 196 0
175 198 0
175 197 0
171 195 0
173 196 0
172 196 0
173 197 0
172 196 0
175 197 0
173 197 0
170 193 0
174 198 0
173 195 0
171 194 0
174 197 0
173 196 0
172 196 0
175 197 0
171 195 0
172 195 0
168 191 0
172 194 0
173 197 0
170 194 0
173 196 0
173 196 0
168 193 0
170 194 0
174 196 0
171 194 0
174 196 0
173 195 0
173 196 0
176 198 0
171 194 0
172 195 0
170 193 0
171 194 0
170 192 0
172 195 0
168 191 0
170 193 0
169 194 0
173 195 0
170 194 0
170 194 0
172 195 0
169 192 0
169 193 0
170 193 0
169 192 0
169 192 0
170 193 0
169 192 0
170 192 0
167 190 0
172 194 0
170 193 0
170 193 0
169 192 0
168 192 0
167 191 0
168 191 0
166 188 0
170 193 0
166 188 0
161 183 0
168 191 0
168 188 0
165 187 0
169 192 0
164 186 0
166 189 0
160 183 0
165 187 0
167 188 0
165 187 0
166 188 0
161 183 0
167 189 0
165 188 45
152 170 56
144 163 0
150 170 0
147 167 0
147 167 0
145 164 0
149 169 0
148 168 0
148 168 0
148 168 0
147 168 0
145 166 0
151 171 0
150 169 0
149 170 0
148 167 0
146 167 0
154 173 0
146 166 0
127 147 0
142 162 0
137 157 0
137 158 0
137 157 0
131 151 0
139 159 0
133 154 0
135 155 0
137 156 0
124 144 0
136 156 0
132 152 0
134 153 0
135 155 0
133 154 0
138 158 0
130 150 0
129 148 0
142 162 0
137 157 0
132 151 0
128 148 0
138 158 0
133 152 0
132 151 0
132 151 0
139 157 0
144 164 0
146 167 32
153 175 0
149 171 0
150 173 0
151 173 0
149 171 0
145 168 0
137 159 0
151 172 0
62 95 127
60 95 137
59 93 141
59 94 133
60 95 137
61 97 161
61 97 157
60 96 147
60 96 149
61 97 151
61 96 147
61 97 159
61 97 151
61 97 153
60 96 151
61 97 149
62 97 151
62 98 155
61 97 159
60 96 153
63 99 165
61 97 155
62 98 163
62 99 165
61 97 159
60 96 151
60 96 149
61 97 157
61 97 163
61 97 161
61 97 157
61 97 155
60 96 160
61 96 156
59 94 152
61 96 161
60 96 154
62 97 168
60 95 152
60 96 160
59 93 148
61 97 161
60 95 165
61 96 156
61 96 158
58 92 151
59 94 156
60 95 160
59 94 161
59 93 147
60 94 154
59 93 151
58 90 140
60 96 159
58 91 142
59 93 154
59 91 145
57 90 141
59 93 157
56 87 133
58 90 149
59 91 148
58 92 152
58 91 147
56 87 136
57 90 144
59 92 144
60 94 157
55 84 125
57 90 145
58 91 147
55 84 121
57 90 143
57 88 143
54 82 121
55 86 114
58 90 131
55 85 125
55 84 114
58 89 129
58 88 122
159 180 0
153 175 0
166 188 0
168 191 0
162 184 0
162 186 0
163 184 0
167 190 0
162 186 0
165 188 0
163 187 0
163 186 0
169 192 0
168 190 0
167 190 0
168 191 0
158 180 0
165 189 0
160 184 0
167 190 0
170 191 0
168 191 0
168 191 0
167 191 0
168 190 0
164 186 0
162 182 16
120 121 30
89 70 29
106 90 44
92 76 32
96 82 30
112 93 47
101 84 40
89 69 26
97 79 33
91 69 19
105 83 32
117 100 52
96 74 30
102 81 30
95 79 28
112 97 46
103 82 29
102 81 33
99 79 34
115 96 41
100 82 33
115 93 37
99 77 20
101 81 30
95 75 25
106 87 24
107 84 27
102 83 31
105 83 34
103 80 19
96 72 17
102 83 25
112 92 34
103 82 33
113 93 35
99 77 25
105 84 19
124 105 47
107 86 24
112 95 44
122 101 44
100 78 31
110 90 34
111 91 40
126 106 40
107 85 31
109 90 37
114 94 39
105 83 20
116 100 50
114 92 31
109 87 32
102 84 30
123 103 48
104 77 29
114 92 30
108 90 44
101 79 34
110 90 40
104 81 24
109 87 33
94 72 29
116 97 43
103 81 34
111 94 49
111 91 35
108 83 30
104 88 38
121 101 53
123 114 35
151 162 23
167 187 17
175 197 0
175 198 0
172 197 0
171 195 0
173 196 0
174 197 0
169 191 0
171 194 0
175 198 0
173 197 0
169 193 0
172 195 0
172 195 0
173 196 0
175 198 0
170 194 0
169 191 0
172 194 0
170 194 0
173 197 0
171 193 0
172 195 0
172 196 0
173 196 0
176 197 0
173 197 0
174 196 0
172 194 0
172 195 0
172 196 0
174 197 0
173 196 0
171 194 0
172 196 0
172 197 0
173 197 0
170 195 0
174 195 0
173 196 0
174 197 0
173 196 0
174 198 0
174 198 0
172 197 0
172 196 0
172 196 0
176 198 0
173 196 0
171 195 0
175 198 0
175 198 0
173 196 0
174 197 0
171 195 0
174 197 0
172 195 0
176 198 0
173 197 0
174 198 0
174 197 0
171 194 0
172 196 0
176 198 0
172 195 0
172 196 0
172 196 0
174 197 0
174 197 0
173 196 0
173 197 0
172 195 0
173 196 0
173 196 0
171 194 0
172 196 0
173 196 0
172 196 0
174 197 0
170 194 0
174 197 0
173 196 0
172 196 0
173 196 0
172 196 0
172 194 0
169 193 0
173 195 0
172 196 0
172 196 0
173 196 0
171 194 0
170 193 0
174 197 0
173 196 0
168 193 0
173 196 0
170 194 0
173 197 0
172 195 0
172 195 0
173 196 0
173 196 0
175 197 0
172 195 0
170 194 0
172 196 0
171 193 0
169 193 0
173 196 0
174 197 0
172 195 0
170 194 0
174 197 0
171 194 0
171 195 0
170 194 0
171 194 0
173 196 0
170 192 0
171 194 0
173 195 0
169 193 0
170 194 0
172 194 0
171 194 0
170 193 0
170 194 0
170 193 0
170 193 0
170 193 0
170 193 0
170 192 0
171 194 0
172 194 0
170 193 0
170 194 0
166 190 0
167 191 0
170 193 0
167 192 0
167 190 0
169 192 0
169 191 0
169 191 0
172 193 0
166 189 0
168 190 0
164 186 0
167 189 0
166 189 0
163 187 0
168 190 0
166 187 0
163 186 0
167 188 0
168 190 0
163 186 0
165 188 0
162 184 0
164 186 0
168 189 0
166 188 0
165 186 0
161 182 0
158 179 0
146 166 0
149 167 0
147 167 0
145 164 0
145 165 0
146 165 0
143 163 0
146 166 0
148 167 0
148 168 0
151 171 0
148 168 0
147 167 0
149 169 0
151 172 0
151 171 0
148 169 0
129 148 0
139 160 0
134 155 0
140 159 0
141 160 0
144 164 0
137 158 0
134 155 0
133 152 0
132 151 0
130 150 0
136 156 0
136 155 0
125 144 0
138 158 0
138 158 0
135 154 0
135 155 0
130 150 0
141 161 0
132 150 0
121 140 0
121 140 0
125 145 0
124 142 0
149 168 32
147 167 32
156 177 45
154 175 0
148 170 0
149 171 0
148 170 0
157 179 0
150 172 0
145 166 0
157 179 0
152 175 0
158 180 0
58 92 122
57 91 132
59 93 128
60 96 148
61 95 142
59 94 139
58 93 135
60 96 149
59 94 140
61 97 157
60 96 142
61 97 157
61 96 144
60 96 144
61 98 165
62 97 159
62 98 161
59 95 147
61 96 140
61 97 153
61 97 153
60 95 155
61 96 151
61 97 163
61 96 154
60 96 151
62 98 165
60 96 155
62 98 168
61 97 163
62 97 160
60 95 154
62 97 160
61 97 163
61 96 156
61 96 154
60 95 157
59 94 152
61 95 148
61 95 156
61 97 160
61 97 164
59 93 154
59 94 151
61 97 159
61 95 156
60 95 152
60 96 151
59 93 154
57 92 153
59 93 148
59 94 148
59 92 146
59 94 150
58 91 147
60 94 159
60 92 147
58 91 146
59 94 157
59 93 147
58 91 147
60 94 159
57 89 138
59 92 151
59 91 136
58 89 136
57 89 139
56 87 134
58 89 141
57 87 128
54 85 128
57 89 146
58 90 136
57 89 143
55 85 121
56 86 118
57 88 126
59 92 134
57 89 131
57 88 127
62 93 115
161 183 0
160 185 0
157 181 0
166 189 0
162 186 0
166 190 0
164 186 0
165 186 0
165 188 0
163 185 0
162 184 0
167 191 0
156 177 0
167 192 0
156 180 0
167 191 0
170 193 0
166 190 0
164 187 0
167 187 0
171 192 0
169 191 0
171 195 0
170 191 0
165 188 0
157 177 16
97 87 29
98 79 37
105 88 43
98 80 33
95 76 34
101 83 33
98 78 31
94 75 17
87 65 24
106 88 35
86 71 24
115 97 39
99 75 21
101 79 25
99 81 27
104 84 34
104 86 35
97 71 22
96 72 14
105 83 26
106 83 21
107 88 33
97 77 26
101 78 19
100 78 21
106 83 26
110 89 34
115 94 36
93 74 24
98 78 19
109 88 34
107 86 32
94 70 18
114 96 45
110 86 23
105 85 27
104 78 11
108 87 32
118 96 33
110 88 27
99 78 32
107 90 35
103 79 24
113 96 35
100 75 18
109 89 35
114 91 26
119 97 36
106 87 34
114 93 35
112 95 31
118 102 50
113 96 39
109 87 35
113 94 34
105 86 36
112 90 41
109 85 27
98 74 32
113 92 41
102 79 34
106 85 31
107 86 30
102 86 35
116 95 46
120 101 49
117 94 40
107 88 32
103 86 36
116 97 38
123 105 45
106 87 37
110 96 34
149 159 33
172 194 0
172 194 0
170 192 0
174 195 0
172 194 0
169 192 0
170 193 0
168 191 0
174 198 0
173 196 0
174 195 0
174 198 0
175 197 0
172 196 0
174 196 0
171 194 0
171 195 0
171 194 0
174 198 0
173 196 0
169 192 0
175 198 0
171 196 0
171 192 0
173 197 0
170 195 0
172 196 0
172 197 0
173 195 0
172 195 0
171 195 0
173 196 0
173 196 0
171 195 0
174 197 0
174 197 0
174 198 0
173 196 0
175 198 0
172 195 0
173 195 0
172 196 0
171 195 0
173 197 0
173 196 0
173 196 0
175 197 0
171 195 0
176 199 0
174 197 0
174 197 0
173 197 0
171 193 0
176 199 0
174 197 0
175 198 0
175 197 0
170 195 0
174 197 0
174 198 0
172 196 0
171 195 0
174 197 0
175 198 0
174 196 0
172 196 0
175 198 0
173 195 0
172 195 0
173 197 0
170 194 0
171 195 0
173 197 0
173 196 0
174 197 0
172 195 0
171 196 0
169 192 0
172 195 0
173 196 0
175 197 0
170 194 0
174 197 0
172 195 0
173 196 0
174 197 0
173 197 0
172 195 0
173 196 0
174 196 0
171 196 0
174 197 0
174 198 0
172 197 0
174 197 0
172 195 0
172 195 0
174 197 0
175 197 0
173 196 0
168 192 0
172 194 0
173 195 0
173 197 0
172 195 0
167 191 0
167 190 0
174 197 0
173 195 0
171 194 0
172 195 0
172 194 0
171 194 0
172 195 0
170 193 0
172 196 0
173 196 0
170 193 0
171 194 0
173 195 0
172 195 0
168 191 0
170 193 0
171 194 0
171 193 0
169 192 0
171 194 0
166 189 0
168 192 0
169 192 0
171 193 0
168 190 0
170 192 0
164 188 0
168 191 0
171 194 0
167 192 0
168 189 0
170 194 0
169 190 0
170 194 0
166 190 0
171 193 0
167 190 0
167 191 0
169 191 0
167 189 0
168 190 0
170 193 0
166 189 0
164 188 0
167 190 0
166 190 0
167 188 0
170 192 0
168 191 0
165 187 0
170 191 0
164 186 0
162 185 0
168 190 0
165 186 0
166 188 0
165 187 0
165 186 0
150 169 32
148 168 0
149 168 0
147 167 0
144 163 0
148 169 0
148 166 0
145 165 0
144 164 0
147 166 0
151 171 0
151 170 0
144 164 0
152 171 0
148 168 0
147 167 0
140 159 0
134 153 0
136 156 0
136 154 0
135 156 0
140 159 0
128 148 0
140 161 0
134 153 0
132 152 0
122 141 0
133 152 0
135 155 0
131 151 0
136 155 0
138 157 0
142 162 0
141 160 0
134 152 0
133 153 0
137 157 0
133 152 0
132 151 0
133 151 45
133 151 56
148 168 45
142 164 0
143 165 0
150 170 0
151 172 0
145 165 0
148 171 0
155 178 0
150 172 0
145 167 0
142 163 0
152 175 0
148 170 0
74 104 117
59 93 134
59 95 142
58 93 130
61 97 144
60 96 149
61 97 149
60 95 137
60 95 144
60 96 144
62 98 161
60 95 144
60 96 142
62 98 163
60 96 149
60 95 144
61 97 153
61 97 155
61 97 159
61 97 161
61 97 161
61 97 159
62 98 167
61 97 164
61 96 160
61 97 157
62 97 160
61 96 152
61 96 151
62 98 166
61 96 160
61 97 155
60 94 145
61 97 166
61 96 154
61 97 160
61 97 166
60 96 158
61 96 158
61 97 161
61 97 159
59 94 150
61 96 152
59 93 154
61 96 162
61 96 162
61 96 159
59 94 150
60 93 159
60 94 159
59 95 161
59 93 142
58 91 144
60 94 151
59 92 147
59 92 145
58 91 147
58 92 150
58 93 150
57 90 146
58 91 151
58 92 143
55 86 138
59 93 154
58 89 139
59 92 142
60 94 153
56 87 141
58 89 140
58 89 132
57 89 138
57 91 147
55 86 137
57 88 137
54 84 120
53 82 101
53 83 129
55 86 125
55 84 113
56 86 107
59 88 104
160 183 0
163 186 0
164 187 0
169 191 0
172 194 0
159 183 0
163 187 0
164 185 0
160 183 0
169 192 0
155 179 0
166 188 0
162 185 0
163 186 0
171 193 0
161 184 0
170 193 0
163 186 0
169 191 0
166 188 0
169 192 0
170 191 0
170 194 0
170 193 0
129 140 16
98 84 44
92 76 33
95 76 35
86 68 23
80 64 24
92 72 31
115 100 48
85 67 24
83 66 12
87 67 24
104 83 34
93 75 26
95 80 25
95 78 33
87 68 24
100 81 22
110 89 27
104 80 25
96 73 20
106 83 30
113 94 32
102 81 31
91 68 18
100 81 21
99 76 22
100 79 21
99 78 16
108 86 28
105 87 39
111 87 35
119 96 30
120 99 39
98 76 19
110 89 30
108 88 29
103 81 35
109 88 36
110 91 30
109 90 33
99 78 17
107 87 34
85 72 24
110 87 25
102 80 27
104 80 28
109 86 26
98 79 30
103 81 29
102 84 29
101 77 13
114 92 30
110 89 30
107 88 38
99 75 14
115 95 41
105 80 26
97 79 30
113 91 32
111 88 31
108 88 30
110 87 39
116 93 38
122 100 35
104 88 33
115 95 43
105 83 34
124 103 49
101 81 29
99 81 30
105 89 37
114 97 52
103 86 43
103 87 41
117 96 44
111 91 41
128 119 47
146 155 29
175 197 0
171 195 0
173 196 0
171 194 0
171 194 0
171 193 0
173 195 0
173 196 0
171 193 0
171 193 0
173 196 0
171 195 0
173 197 0
174 197 0
175 197 0
172 195 0
174 198 0
175 198 0
167 190 0
171 194 0
173 196 0
174 197 0
174 198 0
173 196 0
172 196 0
174 196 0
174 197 0
175 198 0
174 197 0
173 197 0
173 196 0
175 198 0
173 196 0
174 198 0
172 195 0
173 197 0
171 196 0
175 197 0
171 193 0
175 197 0
173 196 0
173 196 0
173 197 0
174 196 0
172 197 0
174 198 0
175 198 0
171 194 0
170 193 0
172 196 0
175 197 0
174 197 0
172 197 0
170 194 0
174 198 0
175 198 0
173 197 0
174 197 0
175 198 0
172 195 0
173 196 0
173 197 0
175 197 0
175 197 0
172 196 0
175 198 0
176 198 0
174 198 0
173 196 0
174 198 0
172 196 0
172 196 0
173 196 0
173 197 0
173 196 0
173 197 0
173 196 0
170 194 0
173 196 0
172 195 0
172 195 0
171 194 0
170 194 0
175 198 0
172 195 0
170 194 0
173 197 0
173 197 0
170 194 0
175 197 0
171 195 0
171 194 0
172 195 0
173 196 0
170 192 0
173 196 0
172 196 0
173 197 0
172 195 0
174 197 0
172 195 0
170 193 0
171 194 0
172 195 0
172 195 0
171 196 0
170 194 0
172 196 0
172 195 0
173 195 0
170 194 0
171 195 0
173 194 0
170 192 0
173 196 0
170 193 0
169 192 0
171 195 0
169 192 0
173 195 0
172 195 0
172 195 0
171 194 0
170 194 0
172 195 0
172 194 0
170 193 0
168 191 0
171 193 0
171 192 0
169 193 0
171 194 0
167 190 0
173 195 0
164 186 0
166 189 0
168 190 0
165 188 0
170 193 0
167 190 0
169 191 0
166 190 0
168 191 0
169 191 0
165 189 0
169 192 0
166 188 0
170 192 0
166 189 0
169 190 0
165 187 0
165 188 0
167 189 0
167 190 0
167 190 0
170 192 0
161 182 0
165 188 0
168 190 0
166 188 0
168 190 0
163 184 0
166 188 0
167 189 0
151 171 0
151 170 32
149 169 0
145 164 0
145 166 0
148 167 0
150 170 0
149 170 0
145 165 0
150 170 0
149 169 0
148 169 0
147 167 0
146 167 0
145 166 0
141 160 0
142 161 0
141 160 0
136 157 0
144 163 0
134 153 0
142 161 0
139 158 0
140 161 0
126 146 0
134 154 0
135 154 0
137 157 0
140 160 0
135 154 0
129 149 0
140 159 0
139 160 0
124 142 0
140 161 0
135 155 0
133 151 0
142 160 45
153 173 45
148 171 0
150 173 0
139 162 0
149 170 0
151 175 0
159 180 0
138 159 0
153 176 0
155 178 0
157 179 0
151 174 0
154 176 0
149 170 0
143 165 0
81 110 115
58 92 124
57 91 120
60 96 144
58 93 137
60 95 142
60 95 128
60 95 139
60 96 144
61 97 153
61 96 151
61 97 149
59 94 149
61 96 149
61 97 157
62 98 161
61 97 151
61 97 153
60 96 153
62 98 157
61 96 155
60 96 149
61 97 157
61 97 153
60 96 147
61 96 149
61 96 154
61 97 161
60 95 137
60 95 157
61 97 163
61 96 154
61 96 149
61 96 154
60 96 152
60 96 155
61 95 138
60 95 154
60 96 159
59 95 159
60 94 147
60 95 156
59 93 150
59 92 151
60 96 157
60 95 150
58 92 145
58 90 135
60 95 156
60 94 160
58 92 150
60 94 154
60 95 151
59 93 151
58 90 142
58 91 146
59 91 138
59 93 147
59 93 146
59 92 144
60 93 134
57 90 146
57 89 139
56 88 146
56 88 142
58 90 131
57 89 139
57 88 143
59 92 152
56 87 142
55 85 123
57 88 134
55 85 119
57 88 126
56 86 129
56 85 123
59 91 143
57 89 135
56 87 121
58 89 120
105 130 96
160 182 0
161 184 0
159 179 0
154 177 0
161 183 0
166 188 0
161 183 0
160 184 0
163 185 0
159 180 0
162 186 0
164 186 0
166 188 0
158 182 0
163 186 0
168 190 0
166 189 0
168 190 0
165 188 0
162 185 0
160 182 0
167 189 0
167 190 0
133 143 24
105 84 35
98 81 33
96 81 32
111 90 38
88 73 34
108 93 42
83 66 25
85 66 8
87 67 18
107 90 34
98 79 30
93 70 20
98 76 22
105 84 31
95 73 23
100 79 31
104 81 24
100 84 36
105 86 34
94 75 31
93 73 27
106 82 23
107 83 23
104 84 20
108 85 29
99 80 26
108 89 35
102 80 29
105 80 26
100 78 13
100 83 33
92 74 26
107 85 34
121 103 44
111 88 35
108 90 37
106 87 34
114 94 35
103 82 22
107 89 31
99 77 26
102 83 32
107 88 41
120 103 44
98 78 30
101 75 20
100 81 26
114 92 26
101 79 30
102 86 38
103 79 28
112 89 35
113 92 36
114 92 36
108 81 30
111 90 34
108 88 31
110 90 39
121 98 36
104 83 21
113 96 47
108 86 36
114 92 40
106 84 33
104 83 31
119 99 47
108 85 37
97 78 30
103 83 27
105 83 33
106 84 33
107 90 37
100 81 37
111 93 45
113 90 35
104 85 40
109 93 49
112 91 38
118 106 31
157 173 16
173 196 0
173 196 0
172 196 0
173 197 0
172 195 0
170 195 0
168 192 0
172 196 0
171 194 0
169 193 0
173 197 0
173 196 0
173 196 0
174 197 0
170 192 0
172 195 0
172 195 0
170 193 0
172 195 0
177 199 0
169 192 0
172 195 0
172 196 0
171 194 0
172 195 0
173 196 0
172 194 0
170 195 0
173 195 0
175 198 0
175 197 0
175 198 0
172 195 0
172 196 0
171 194 0
174 196 0
174 196 0
174 196 0
173 196 0
172 196 0
171 194 0
174 196 0
174 197 0
174 197 0
172 195 0
174 196 0
172 196 0
170 194 0
173 197 0
173 197 0
173 196 0
172 195 0
174 198 0
174 198 0
173 196 0
174 197 0
174 198 0
173 196 0
174 197 0
173 197 0
172 196 0
175 198 0
174 198 0
175 197 0
174 197 0
175 197 0
171 196 0
174 198 0
175 198 0
173 196 0
177 199 0
173 196 0
174 197 0
174 197 0
174 197 0
173 196 0
175 197 0
171 194 0
173 197 0
168 192 0
171 195 0
170 193 0
175 196 0
171 195 0
175 197 0
172 195 0
174 197 0
175 197 0
170 193 0
174 196 0
171 194 0
175 198 0
172 195 0
172 195 0
172 195 0
173 196 0
174 197 0
172 196 0
173 197 0
171 196 0
172 196 0
171 194 0
172 195 0
171 194 0
173 196 0
169 193 0
171 194 0
171 193 0
171 195 0
171 193 0
169 192 0
166 189 0
171 195 0
169 193 0
172 194 0
173 195 0
170 194 0
171 194 0
169 191 0
172 195 0
170 194 0
170 192 0
171 194 0
168 192 0
169 193 0
170 193 0
172 194 0
167 190 0
170 193 0
170 194 0
169 192 0
169 191 0
168 192 0
167 190 0
165 188 0
167 190 0
170 192 0
171 192 0
168 190 0
167 190 0
168 190 0
167 190 0
169 192 0
170 192 0
169 192 0
167 188 0
166 189 0
164 187 0
168 190 0
168 189 0
168 191 0
169 191 0
169 191 0
162 185 0
167 188 0
166 188 0
165 187 0
168 190 0
166 188 0
164 187 0
164 185 0
163 185 0
158 180 0
158 180 0
151 171 0
146 165 0
144 164 0
144 163 0
150 170 0
145 165 0
148 168 0
148 167 0
144 164 0
144 164 0
149 169 0
144 164 0
148 170 0
140 160 0
134 153 0
140 160 0
138 159 0
132 152 0
140 160 0
134 154 0
135 154 0
137 157 0
144 163 0
134 154 0
129 150 0
130 150 0
129 149 0
134 153 0
133 154 0
128 148 0
127 146 0
137 156 0
129 149 0
141 160 0
148 168 45
150 173 0
148 170 0
148 170 0
157 178 0
151 173 0
151 173 0
155 177 0
156 178 0
156 179 0
136 157 0
149 172 0
159 181 0
150 170 0
153 175 0
148 170 0
144 167 0
105 131 110
59 93 134
61 96 133
60 95 145
60 95 144
59 95 130
61 96 144
60 95 128
60 95 135
61 97 153
62 97 157
62 98 163
60 96 144
59 94 135
61 97 149
61 97 151
61 97 159
61 97 153
61 96 144
62 97 161
60 95 149
60 96 145
61 97 153
61 97 156
60 94 143
60 95 153
61 97 157
61 96 151
60 96 155
62 98 162
61 96 155
61 97 157
61 96 143
61 97 155
60 96 151
60 96 161
62 98 170
59 93 146
58 93 135
61 96 156
59 94 150
60 95 149
61 97 163
59 94 140
59 93 145
60 94 158
60 93 150
59 93 147
59 92 149
58 91 143
60 94 156
59 93 147
59 94 154
60 93 145
58 90 145
58 91 136
58 91 145
58 91 141
58 92 147
58 91 144
59 91 145
57 89 153
59 93 154
55 84 124
56 87 132
56 88 132
56 85 124
57 91 141
59 90 146
56 88 134
59 92 142
57 89 139
57 89 145
57 88 128
57 89 131
55 84 122
54 84 102
58 88 126
55 84 119
57 89 122
99 125 108
162 184 0
155 176 0
160 182 0
155 176 0
161 184 0
156 180 0
157 180 0
158 181 0
165 186 0
162 186 0
160 183 0
168 189 0
163 186 0
167 187 0
166 190 0
166 187 0
158 182 0
153 176 0
166 188 0
165 189 0
166 189 0
159 183 0
121 132 7
91 69 30
96 77 31
95 74 31
103 87 41
109 90 49
94 75 26
93 77 32
96 75 21
98 82 35
93 71 24
93 76 24
97 71 24
94 72 29
92 73 16
98 76 21
108 87 30
97 72 21
99 75 14
108 87 37
105 83 29
99 77 18
110 90 31
89 64 11
117 98 37
100 81 24
110 89 29
110 91 35
100 79 24
97 78 27
87 70 17
108 91 31
102 82 26
107 85 34
103 82 33
106 83 28
113 97 37
107 82 29
111 92 37
101 75 21
109 86 31
104 84 28
108 88 25
108 87 33
99 79 30
115 93 31
104 83 26
108 86 34
111 93 28
106 86 27
90 72 19
107 93 38
102 81 21
111 89 36
110 90 36
108 89 25
109 85 28
98 78 25
107 83 26
102 82 25
97 75 19
107 89 32
101 84 43
118 98 43
97 83 31
107 84 30
107 88 36
117 99 47
115 95 37
104 81 26
111 87 23
117 98 47
113 91 36
96 80 36
111 93 44
102 81 36
103 84 33
102 79 25
113 98 47
109 92 44
117 98 49
93 74 21
136 142 29
172 193 16
173 197 0
173 196 0
172 194 0
170 193 0
170 194 0
170 192 0
170 193 0
173 196 0
171 194 0
170 193 0
172 196 0
173 197 0
172 197 0
175 198 0
177 198 0
173 196 0
174 197 0
173 196 0
173 197 0
170 193 0
171 194 0
172 195 0
170 195 0
171 193 0
173 196 0
173 196 0
174 197 0
173 196 0
172 196 0
172 195 0
172 196 0
173 197 0
174 197 0
173 196 0
172 196 0
174 197 0
176 199 0
176 198 0
175 198 0
171 194 0
175 198 0
172 196 0
174 197 0
176 198 0
173 196 0
176 199 0
170 193 0
172 196 0
172 197 0
173 196 0
174 197 0
173 196 0
172 196 0
172 195 0
175 198 0
174 197 0
175 198 0
175 198 0
174 198 0
172 196 0
174 197 0
174 197 0
172 195 0
173 196 0
173 196 0
176 198 0
176 198 0
173 196 0
173 195 0
175 198 0
172 195 0
173 196 0
170 194 0
172 195 0
173 197 0
175 197 0
172 196 0
171 195 0
171 194 0
173 196 0
171 195 0
174 197 0
171 195 0
173 197 0
172 195 0
173 196 0
174 198 0
168 192 0
176 199 0
174 197 0
175 197 0
171 196 0
175 197 0
172 196 0
174 197 0
173 196 0
171 195 0
169 193 0
172 196 0
172 195 0
173 196 0
172 195 0
171 195 0
171 195 0
171 194 0
173 197 0
173 196 0
174 197 0
171 195 0
167 189 0
171 194 0
172 195 0
170 193 0
170 193 0
171 194 0
172 194 0
169 192 0
170 193 0
166 189 0
172 194 0
169 193 0
169 193 0
169 192 0
172 195 0
170 193 0
169 193 0
172 195 0
167 191 0
171 194 0
168 191 0
169 193 0
169 191 0
172 195 0
169 191 0
167 189 0
170 192 0
170 193 0
166 188 0
166 189 0
167 190 0
168 191 0
167 189 0
167 190 0
166 189 0
169 192 0
170 192 0
166 188 0
166 187 0
168 189 0
165 186 0
166 189 0
165 188 0
168 190 0
168 190 0
163 185 0
165 185 0
160 182 0
163 184 0
154 176 0
166 189 0
165 188 0
163 185 0
161 183 0
156 176 32
144 163 0
145 164 0
146 167 0
144 164 0
148 168 0
150 170 0
148 168 0
149 168 0
146 166 0
150 170 0
148 168 0
137 157 0
140 159 0
133 153 0
133 154 0
131 151 0
130 150 0
140 160 0
134 153 0
133 154 0
140 160 0
131 150 0
139 160 0
137 157 0
139 160 0
134 154 0
136 156 0
141 160 0
127 146 0
143 161 45
143 164 0
147 168 32
154 177 0
153 174 0
140 161 0
152 173 0
144 167 0
153 176 0
153 174 0
157 178 0
144 166 0
155 177 0
154 176 0
148 170 0
148 171 0
152 173 0
153 175 0
155 176 0
156 178 0
99 126 110
59 94 132
58 92 126
59 94 130
60 96 137
59 94 135
58 93 135
59 95 128
60 96 140
61 96 144
60 96 151
60 95 140
60 95 137
61 97 162
60 96 142
60 96 147
60 95 153
60 95 147
60 95 140
60 95 149
59 95 147
61 97 161
61 95 147
59 94 135
60 96 147
60 95 142
61 97 153
60 95 152
59 94 150
60 95 154
59 94 144
58 92 143
60 96 155
59 94 143
59 94 145
61 96 147
60 94 147
60 95 156
60 95 156
60 94 153
59 95 151
59 94 138
60 94 152
59 94 147
57 91 143
60 95 150
58 91 130
60 94 155
60 94 144
60 93 153
59 93 145
59 94 156
57 90 139
57 89 133
60 94 155
59 93 156
60 94 145
57 88 135
55 85 126
57 89 138
57 89 137
58 91 145
56 86 118
57 89 142
55 85 129
57 89 134
59 91 144
58 91 141
56 86 135
56 89 139
54 85 129
56 86 134
56 85 115
56 86 117
57 88 125
56 85 119
57 88 121
55 84 106
54 84 121
60 94 148
120 143 85
167 190 0
167 189 0
164 185 0
158 181 0
159 182 0
161 182 0
160 185 0
169 192 0
166 187 0
162 185 0
164 186 0
164 187 0
161 186 0
163 187 0
165 189 0
159 183 0
164 188 0
163 185 0
166 188 0
167 191 0
167 190 0
139 151 29
88 73 28
84 62 19
89 71 28
86 71 34
106 87 37
87 70 24
105 84 39
87 68 13
90 71 24
95 76 25
91 67 16
81 65 25
85 66 23
93 73 14
100 84 35
99 82 35
94 71 30
107 88 32
106 86 32
98 78 27
107 92 29
97 75 25
109 89 31
105 86 32
119 99 44
101 78 23
102 80 25
107 89 33
83 63 8
95 72 17
104 80 17
103 80 16
102 80 19
97 76 20
100 81 29
106 86 30
93 75 29
90 73 18
114 94 38
102 81 25
90 64 9
102 80 28
110 90 26
107 83 19
97 76 19
105 86 29
107 86 19
105 81 33
97 76 30
112 90 33
99 79 29
103 81 21
103 80 30
113 94 35
85 70 29
111 92 39
110 89 27
101 77 26
118 97 39
111 89 27
95 78 16
100 80 29
113 90 33
116 96 41
115 91 32
114 91 31
106 88 35
106 83 26
110 92 38
111 93 29
110 88 34
98 79 27
94 76 30
108 90 38
96 79 34
103 88 38
122 104 47
116 95 42
106 87 34
107 90 30
117 99 53
118 95 39
98 82 38
119 106 47
154 165 36
174 197 0
170 193 0
171 194 0
170 194 0
171 194 0
169 192 0
173 196 0
168 191 0
175 198 0
171 193 0
172 196 0
171 194 0
171 196 0
173 197 0
174 197 0
172 195 0
172 196 0
172 196 0
175 198 0
175 197 0
174 196 0
174 197 0
172 195 0
172 196 0
171 195 0
173 195 0
173 196 0
173 197 0
174 197 0
174 198 0
172 196 0
175 197 0
174 197 0
170 193 0
173 196 0
173 196 0
172 195 0
170 194 0
174 197 0
172 195 0
175 198 0
174 198 0
173 196 0
172 194 0
174 197 0
169 192 0
170 194 0
174 198 0
174 198 0
171 195 0
175 198 0
177 199 0
176 198 0
172 196 0
174 197 0
172 196 0
174 197 0
174 197 0
173 197 0
171 195 0
175 197 0
175 197 0
172 196 0
174 197 0
173 196 0
172 195 0
173 195 0
173 197 0
173 196 0
170 193 0
175 198 0
173 197 0
174 197 0
170 194 0
173 196 0
171 196 0
173 196 0
174 197 0
173 196 0
171 195 0
173 196 0
177 198 0
172 195 0
173 195 0
175 197 0
172 196 0
174 197 0
171 194 0
173 195 0
170 194 0
173 196 0
174 197 0
169 193 0
173 196 0
172 196 0
170 194 0
173 196 0
173 196 0
170 194 0
169 191 0
175 197 0
173 197 0
172 195 0
173 196 0
174 196 0
171 195 0
172 194 0
171 194 0
174 197 0
169 191 0
170 193 0
170 194 0
171 195 0
170 193 0
170 194 0
169 193 0
171 194 0
169 193 0
169 193 0
172 195 0
170 193 0
171 194 0
169 191 0
168 192 0
168 191 0
169 192 0
169 191 0
170 193 0
169 192 0
168 191 0
171 194 0
169 191 0
170 193 0
168 192 0
167 191 0
167 190 0
168 191 0
168 190 0
166 189 0
169 190 0
165 187 0
164 187 0
166 189 0
167 190 0
167 189 0
168 192 0
167 190 0
165 187 0
166 190 0
166 188 0
170 193 0
167 189 0
163 185 0
165 188 0
165 188 0
167 189 0
166 190 0
166 189 0
166 188 0
163 186 0
166 188 0
160 181 0
164 186 0
160 179 56
142 161 0
148 167 0
149 169 0
144 164 0
148 168 0
150 170 0
148 169 0
148 168 0
141 161 0
146 166 0
143 163 0
139 159 0
140 159 0
133 153 0
144 164 0
135 155 0
144 163 0
130 149 0
135 155 0
137 156 0
132 152 0
141 161 0
134 154 0
133 154 0
134 153 0
135 154 0
141 160 45
145 165 0
143 163 0
148 169 0
150 173 0
158 180 0
140 161 0
143 166 0
147 169 0
144 165 0
146 167 0
152 173 0
148 170 0
150 171 0
158 182 0
144 166 0
149 171 0
151 173 0
152 173 0
154 177 0
144 166 0
159 181 0
110 135 87
57 91 119
59 95 134
60 94 134
60 95 137
60 96 140
59 94 130
61 96 155
59 94 130
60 94 132
62 97 151
61 97 157
60 96 147
60 96 151
60 95 147
61 97 157
61 97 153
60 95 147
60 95 149
60 96 155
61 96 149
62 97 149
60 96 153
60 96 153
60 95 154
59 94 140
60 96 157
61 96 151
61 96 151
61 97 158
60 96 159
60 96 151
59 95 157
60 94 145
59 95 147
60 95 147
62 97 160
60 95 149
60 96 147
61 97 154
58 92 138
60 94 144
60 95 157
59 93 143
61 96 152
59 94 154
60 95 149
60 95 146
60 95 155
60 95 148
57 90 139
58 91 143
60 93 145
60 95 160
58 89 142
59 93 147
57 89 143
58 91 147
59 92 136
56 86 122
57 87 129
57 89 142
58 89 136
57 87 135
58 90 144
56 88 132
54 85 137
57 89 135
56 88 139
57 88 131
58 89 138
57 89 133
57 89 139
54 82 123
56 87 127
58 89 128
55 85 112
57 89 124
56 86 108
57 89 112
116 141 94
153 176 0
157 181 0
157 179 0
158 182 0
159 182 0
165 190 0
165 187 0
155 177 0
158 182 0
163 186 0
162 185 0
166 189 0
169 191 0
162 186 0
157 178 0
161 184 0
161 183 0
168 192 0
168 191 0
165 188 0
156 176 3
91 77 35
88 71 26
89 68 19
86 68 30
97 82 33
93 73 23
91 69 24
88 69 19
100 85 31
101 83 39
104 87 41
88 69 25
110 92 35
101 83 29
85 64 11
93 79 24
105 81 27
95 74 26
101 77 22
112 91 38
109 90 35
112 92 30
107 86 20
90 72 20
95 68 18
103 83 30
110 88 28
106 82 26
97 79 26
98 77 26
96 72 17
107 90 30
102 84 30
105 82 28
112 90 20
108 84 26
110 93 24
106 80 26
109 88 33
112 88 30
104 81 27
95 69 8
102 80 19
95 74 8
110 92 33
103 79 21
108 86 26
112 92 23
104 84 27
116 94 34
102 81 21
104 84 28
111 90 31
103 77 14
101 82 33
92 72 18
108 84 13
113 90 35
101 83 34
106 85 31
103 85 25
104 84 31
97 74 20
106 83 26
102 78 23
105 91 36
113 93 39
120 104 49
119 95 38
118 101 41
109 89 42
113 88 38
93 73 29
104 80 24
105 85 32
105 87 37
112 92 42
93 74 19
124 108 52
110 91 41
118 98 43
122 102 49
115 100 47
101 83 34
108 87 40
122 100 49
136 138 26
168 190 0
173 196 0
171 193 0
172 195 0
173 195 0
172 196 0
174 198 0
172 195 0
174 197 0
174 197 0
175 198 0
172 196 0
175 198 0
172 196 0
173 196 0
174 196 0
170 195 0
176 199 0
171 195 0
170 194 0
174 197 0
174 198 0
175 197 0
175 197 0
171 195 0
175 198 0
171 195 0
173 195 0
174 198 0
174 196 0
173 197 0
174 196 0
173 196 0
173 197 0
175 198 0
173 195 0
174 197 0
170 193 0
173 197 0
174 197 0
175 198 0
175 198 0
172 197 0
174 198 0
171 195 0
175 198 0
174 197 0
172 194 0
173 197 0
174 197 0
172 197 0
173 196 0
173 196 0
174 197 0
173 196 0
172 196 0
173 196 0
171 195 0
173 197 0
170 194 0
174 198 0
172 196 0
174 196 0
173 197 0
177 199 0
174 198 0
172 195 0
174 197 0
174 197 0
175 198 0
171 194 0
174 197 0
175 198 0
172 195 0
173 196 0
174 197 0
173 196 0
174 197 0
172 195 0
176 198 0
172 196 0
173 196 0
173 197 0
173 197 0
173 197 0
175 197 0
172 194 0
173 197 0
173 197 0
171 195 0
174 197 0
172 194 0
169 192 0
173 196 0
173 196 0
174 196 0
171 195 0
169 192 0
172 194 0
171 195 0
173 196 0
168 193 0
171 194 0
170 194 0
169 194 0
174 196 0
172 195 0
169 193 0
172 196 0
170 193 0
170 193 0
171 195 0
171 194 0
173 195 0
164 187 0
169 192 0
169 192 0
167 191 0
171 194 0
169 191 0
169 193 0
171 194 0
173 195 0
169 192 0
171 194 0
169 192 0
167 189 0
167 190 0
164 188 0
173 194 0
167 190 0
166 189 0
169 191 0
167 189 0
166 187 0
167 190 0
164 187 0
166 189 0
164 186 0
168 190 0
170 192 0
166 189 0
171 193 0
166 190 0
169 192 0
169 192 0
167 189 0
169 191 0
169 192 0
167 190 0
166 189 0
167 189 0
163 185 0
161 185 0
168 189 0
162 184 0
164 187 0
161 183 0
165 187 0
167 188 0
161 182 0
165 187 0
159 181 0
163 185 0
156 174 56
150 170 0
150 169 0
147 166 0
148 167 0
145 166 0
144 163 0
148 168 0
144 164 0
147 167 0
139 159 0
135 155 0
141 161 0
129 149 0
141 161 0
142 161 0
136 157 0
134 154 0
140 159 0
130 149 0
129 148 0
127 146 0
133 152 0
131 150 0
147 168 32
144 164 32
148 169 0
146 168 0
153 174 0
145 167 0
157 180 0
150 172 0
145 166 0
157 179 0
156 177 0
150 172 0
153 176 0
151 173 0
157 180 0
148 171 0
153 176 0
148 168 0
157 178 0
150 172 0
145 168 0
150 172 0
156 178 0
122 145 76
59 94 135
59 94 126
59 94 130
60 95 149
59 94 133
59 93 122
61 96 151
61 96 147
60 95 140
60 95 149
61 96 147
59 94 133
59 93 137
61 97 149
61 97 153
60 95 149
60 96 142
60 96 140
60 96 147
61 96 151
59 95 151
60 95 142
60 96 151
59 95 147
60 95 149
60 95 147
60 96 151
60 95 133
59 94 144
61 97 160
60 95 142
60 95 147
60 95 154
61 97 155
60 94 136
60 94 142
61 96 150
59 93 143
58 93 142
59 93 138
59 94 149
57 91 143
59 93 143
59 95 158
59 93 153
61 96 157
59 93 151
60 92 144
57 90 146
58 91 141
60 93 145
57 90 137
60 93 150
59 92 144
58 91 149
57 90 143
59 92 141
58 90 139
59 91 135
58 89 136
59 92 152
56 87 133
55 86 133
57 88 140
57 87 123
55 86 130
57 87 137
58 91 138
55 85 130
56 85 113
58 89 130
52 82 112
57 88 133
54 83 113
56 85 117
58 88 126
55 86 121
55 84 110
57 90 130
139 162 68
156 178 0
159 181 0
161 184 0
157 180 0
157 179 0
153 173 0
165 187 0
161 184 0
158 181 0
167 187 0
160 180 0
163 185 0
162 185 0
165 187 0
157 179 0
158 179 0
162 184 0
156 178 0
157 179 0
166 190 0
121 123 33
86 69 33
71 52 17
88 74 37
74 55 7
98 76 31
91 73 19
94 75 35
94 76 18
91 69 20
80 62 16
85 60 16
111 91 34
103 77 21
109 94 26
105 88 31
77 56 12
89 68 18
94 77 31
106 86 25
103 80 22
95 74 23
94 75 24
101 81 23
101 82 23
97 79 35
109 90 31
113 91 26
102 83 23
110 88 26
104 83 34
94 75 20
112 93 30
96 74 18
103 78 15
101 78 9
97 76 25
104 86 26
88 71 34
100 77 22
106 86 37
96 78 21
102 80 25
104 84 31
95 74 19
116 97 37
101 75 14
124 104 39
108 85 23
103 84 32
110 88 32
114 92 19
95 74 25
103 81 19
108 88 34
89 70 20
94 70 11
122 101 34
110 87 24
113 92 29
92 71 25
109 88 28
104 82 27
110 87 41
100 80 18
103 82 25
93 71 19
113 92 34
108 87 23
112 92 35
105 83 21
106 86 27
107 88 32
126 105 47
104 87 36
104 79 17
106 88 34
110 90 35
119 105 52
109 92 35
122 105 50
111 91 43
93 72 32
111 89 39
111 96 41
85 68 24
103 82 33
106 87 40
101 94 29
165 183 16
171 195 0
172 195 0
171 195 0
170 193 0
170 193 0
174 196 0
172 194 0
172 194 0
174 197 0
173 196 0
172 195 0
171 193 0
170 192 0
174 196 0
170 193 0
174 197 0
173 196 0
176 197 0
174 198 0
174 197 0
174 196 0
174 198 0
172 195 0
174 197 0
172 195 0
170 193 0
173 195 0
172 195 0
175 198 0
174 197 0
173 196 0
171 194 0
174 198 0
172 195 0
172 195 0
170 193 0
175 197 0
174 197 0
173 197 0
173 196 0
172 195 0
171 193 0
176 198 0
174 198 0
171 195 0
173 197 0
172 195 0
173 197 0
172 196 0
173 197 0
171 196 0
176 198 0
176 198 0
168 192 0
174 197 0
174 198 0
173 197 0
175 197 0
173 196 0
174 197 0
168 193 0
173 197 0
173 196 0
173 196 0
170 194 0
174 197 0
170 193 0
176 198 0
173 197 0
174 196 0
172 196 0
172 195 0
171 195 0
173 196 0
173 196 0
171 194 0
174 196 0
172 196 0
170 195 0
173 197 0
169 193 0
173 196 0
170 193 0
173 196 0
171 195 0
171 195 0
172 195 0
175 197 0
173 195 0
172 196 0
172 195 0
175 197 0
171 195 0
171 194 0
172 196 0
171 194 0
172 195 0
170 194 0
170 194 0
172 194 0
168 191 0
170 193 0
174 196 0
173 196 0
170 194 0
172 195 0
172 195 0
170 194 0
168 192 0
172 195 0
171 193 0
170 195 0
169 192 0
169 191 0
172 193 0
171 195 0
170 193 0
167 190 0
172 196 0
168 193 0
169 192 0
168 192 0
171 195 0
171 193 0
164 187 0
166 189 0
168 191 0
165 188 0
170 194 0
169 190 0
169 192 0
166 189 0
165 188 0
169 192 0
169 191 0
166 189 0
167 189 0
169 192 0
167 189 0
166 189 0
170 192 0
165 189 0
165 189 0
164 187 0
164 187 0
167 188 0
167 191 0
164 186 0
170 194 0
166 188 0
166 188 0
168 189 0
166 189 0
167 190 0
165 186 0
165 188 0
167 188 0
166 188 0
165 188 0
167 189 0
164 185 0
164 185 0
167 189 0
160 179 56
147 167 0
147 166 0
148 167 0
146 166 0
144 165 0
151 171 0
144 164 0
146 165 0
143 161 0
142 162 0
138 158 0
138 158 0
132 152 0
136 156 0
137 157 0
140 160 0
133 153 0
131 150 0
139 157 0
145 164 32
140 159 45
146 167 32
151 173 0
154 176 0
156 177 0
146 168 0
154 176 0
153 175 0
148 170 0
145 167 0
153 175 0
146 167 0
160 183 0
138 159 0
151 173 0
153 175 0
153 175 0
139 161 0
155 178 0
152 174 0
149 171 0
153 175 0
158 182 0
140 161 0
152 175 0
144 166 36
58 92 134
58 93 140
58 93 130
58 93 137
59 94 128
59 93 137
58 93 135
60 95 142
58 93 133
59 94 140
59 95 133
60 94 137
61 96 149
61 97 153
60 96 149
58 93 130
58 92 128
62 98 155
60 96 151
61 96 157
61 96 142
60 96 147
60 96 151
62 98 161
60 95 159
61 95 151
61 97 153
60 96 151
60 95 145
60 95 151
58 92 139
59 94 140
58 93 151
60 95 154
61 95 148
60 93 139
57 90 141
59 95 147
60 96 154
57 89 140
61 95 156
60 94 145
59 93 154
60 94 144
58 91 146
58 91 149
61 95 160
59 93 145
59 93 146
59 92 142
60 92 146
58 90 141
58 91 134
58 92 138
58 89 134
56 86 132
58 91 143
59 93 145
58 90 141
57 89 134
57 87 132
57 85 124
56 86 109
55 84 121
58 88 127
56 87 116
56 87 131
55 85 129
55 84 127
57 87 134
56 85 110
56 85 120
55 84 107
54 82 104
56 88 130
56 87 115
55 84 130
53 83 121
54 84 93
147 169 25
160 183 0
153 174 0
159 181 0
160 183 0
160 181 0
166 187 0
159 181 0
163 187 0
160 180 0
158 182 0
158 179 0
165 188 0
165 189 0
167 191 0
158 181 0
163 186 0
156 180 0
168 191 0
168 188 0
145 160 16
82 62 19
97 82 43
81 67 24
90 70 23
87 72 29
89 70 24
85 73 18
92 70 13
102 88 41
90 74 16
105 86 23
76 60 0
89 70 28
92 72 20
89 66 18
96 74 25
101 87 21
93 76 20
93 68 19
96 76 26
110 88 33
103 85 33
100 75 25
102 83 24
96 71 11
102 74 17
99 78 22
97 77 19
93 77 29
104 82 20
109 86 21
109 88 25
110 87 27
103 81 17
112 88 36
93 69 13
100 80 19
105 85 25
103 83 23
113 92 35
106 85 34
104 86 25
102 82 12
114 87 30
99 80 24
100 76 18
99 74 20
93 73 12
103 80 20
92 73 24
99 76 20
107 81 11
90 72 25
104 88 36
102 81 18
115 95 31
108 94 28
105 81 17
100 80 31
108 88 24
109 89 30
101 82 35
117 95 32
113 90 36
107 84 15
110 87 29
94 71 22
107 86 30
95 70 10
106 85 25
108 87 35
102 81 31
112 90 38
99 78 39
109 91 30
118 96 43
116 100 41
114 95 43
99 82 27
99 77 27
93 78 26
109 87 30
114 98 44
115 94 47
98 80 34
122 104 46
101 77 34
105 89 44
96 79 38
100 79 33
152 166 24
173 196 0
173 195 0
171 195 0
171 194 0
172 195 0
171 194 0
171 194 0
173 196 0
172 196 0
169 192 0
174 196 0
173 196 0
170 193 0
176 198 0
173 196 0
172 197 0
173 197 0
175 198 0
175 198 0
172 195 0
171 195 0
174 197 0
176 198 0
172 194 0
175 198 0
173 197 0
174 198 0
175 197 0
177 199 0
174 196 0
172 196 0
175 198 0
171 195 0
174 197 0
170 193 0
174 198 0
174 198 0
174 197 0
175 198 0
175 198 0
176 199 0
175 198 0
172 195 0
172 194 0
171 195 0
174 197 0
173 197 0
172 195 0
176 198 0
173 197 0
174 198 0
171 196 0
173 196 0
171 195 0
174 197 0
174 197 0
172 195 0
171 194 0
172 196 0
169 191 0
172 196 0
175 197 0
171 195 0
172 196 0
173 196 0
172 195 0
174 197 0
173 196 0
173 196 0
175 198 0
172 195 0
170 193 0
173 196 0
174 197 0
172 196 0
173 197 0
174 196 0
172 196 0
173 197 0
172 196 0
171 194 0
172 195 0
170 195 0
171 194 0
174 196 0
173 196 0
170 194 0
169 193 0
170 193 0
172 196 0
173 197 0
172 196 0
170 193 0
170 194 0
169 193 0
172 196 0
170 195 0
171 194 0
172 195 0
172 194 0
172 195 0
171 193 0
169 192 0
171 194 0
171 194 0
172 194 0
173 196 0
172 195 0
171 194 0
169 192 0
169 192 0
171 194 0
168 191 0
169 191 0
170 193 0
169 192 0
168 191 0
167 191 0
168 191 0
168 191 0
170 193 0
170 192 0
169 193 0
169 193 0
171 193 0
170 193 0
165 187 0
169 193 0
169 192 0
168 192 0
168 190 0
166 189 0
169 191 0
165 188 0
167 191 0
170 192 0
168 191 0
172 195 0
166 190 0
171 194 0
168 191 0
168 190 0
166 189 0
170 192 0
165 187 0
167 190 0
168 191 0
166 188 0
166 189 0
165 188 0
167 190 0
167 189 0
166 187 0
163 185 0
162 185 0
164 187 0
163 186 0
163 185 0
165 188 0
168 190 0
165 188 0
170 192 0
160 181 0
166 187 56
148 166 45
148 169 0
145 166 0
144 164 0
146 166 0
146 166 0
148 168 0
135 154 0
140 161 0
143 163 0
141 161 0
132 151 0
139 157 0
138 158 0
135 154 0
135 155 0
142 162 32
131 149 0
155 177 0
152 174 0
148 170 0
153 175 0
161 183 0
158 179 0
154 177 0
146 169 0
150 171 0
154 176 0
142 165 0
152 175 0
156 178 0
159 181 0
136 157 0
138 161 0
150 172 0
152 174 0
160 183 0
146 167 0
144 167 0
157 180 0
145 166 0
147 168 0
152 173 0
150 173 0
155 177 0
84 112 114
60 94 139
58 93 128
60 96 140
60 95 128
60 95 135
61 96 144
58 92 128
61 96 140
60 95 153
60 95 133
60 95 137
61 97 151
59 94 128
59 94 122
61 96 149
60 95 142
61 97 153
61 95 138
60 96 140
59 94 137
59 95 137
60 96 149
59 94 153
61 97 157
60 96 144
60 96 154
60 95 151
57 92 140
61 96 153
60 95 149
60 95 142
59 94 136
59 94 143
58 92 138
60 95 153
59 94 147
59 91 135
61 96 154
60 94 154
60 94 148
58 92 145
59 91 141
60 94 145
58 91 140
56 88 133
55 87 128
57 90 128
59 92 133
59 94 145
56 88 134
58 92 143
58 90 143
55 87 129
57 88 139
55 87 124
58 89 135
55 86 138
59 91 142
53 84 123
55 85 117
58 90 131
54 84 124
58 90 131
57 87 132
57 89 135
54 84 118
54 81 109
54 83 119
51 78 105
52 82 109
54 84 112
57 87 119
56 87 118
56 84 116
57 87 115
56 86 111
51 77 82
83 107 86
157 179 0
163 185 0
161 183 0
154 178 0
151 174 0
157 179 0
151 175 0
161 182 0
166 188 0
167 190 0
157 179 0
160 182 0
167 190 0
167 189 0
164 185 0
155 177 0
167 189 0
161 184 0
163 185 0
168 191 0
115 111 44
80 66 30
75 56 10
93 77 35
87 71 30
73 56 13
94 72 19
95 74 21
101 78 26
75 57 8
90 76 22
95 75 26
92 75 25
93 74 30
82 66 29
96 79 24
113 98 43
105 85 21
88 66 4
105 79 23
90 68 19
101 80 24
98 82 31
106 88 28
89 72 23
101 79 14
108 89 37
90 69 20
97 79 26
103 87 34
96 75 27
109 88 35
94 72 19
97 78 29
103 86 25
104 83 21
88 69 18
103 80 21
102 82 17
114 93 25
95 73 19
105 88 31
107 81 16
113 92 33
115 100 35
109 89 32
97 77 18
88 69 16
107 86 25
99 77 5
108 86 32
103 78 18
109 88 32
98 76 7
110 89 33
103 81 31
104 82 20
114 95 35
107 86 26
100 76 23
107 88 31
107 86 20
108 84 23
112 89 33
109 83 19
96 71 12
102 85 22
100 78 18
95 79 30
101 76 19
104 80 12
116 98 34
121 98 46
112 92 40
107 84 31
103 81 26
107 87 34
105 86 34
111 88 37
107 87 32
106 87 36
90 71 31
103 86 35
112 99 44
120 100 44
103 84 29
114 96 44
101 83 40
103 81 30
104 83 30
103 86 38
102 83 40
148 159 29
172 195 0
171 193 0
171 195 0
174 197 0
173 197 0
174 198 0
175 197 0
170 192 0
175 196 0
174 198 0
174 197 0
172 195 0
169 194 0
171 195 0
172 196 0
171 194 0
171 194 0
172 193 0
175 198 0
175 197 0
172 195 0
174 198 0
174 197 0
175 198 0
173 196 0
175 198 0
172 194 0
176 199 0
174 198 0
172 195 0
173 196 0
172 196 0
175 198 0
175 198 0
174 198 0
175 198 0
175 197 0
172 195 0
174 198 0
173 196 0
170 194 0
174 197 0
174 197 0
172 196 0
170 193 0
175 198 0
172 195 0
174 197 0
173 196 0
172 196 0
174 196 0
173 196 0
171 195 0
170 195 0
173 196 0
172 195 0
171 195 0
175 198 0
172 196 0
172 196 0
170 194 0
172 196 0
176 198 0
174 196 0
175 198 0
171 195 0
169 193 0
173 196 0
173 197 0
173 196 0
172 195 0
174 197 0
173 196 0
171 195 0
170 195 0
170 195 0
173 196 0
170 193 0
172 195 0
174 196 0
173 196 0
174 196 0
171 194 0
171 195 0
171 195 0
172 196 0
176 198 0
171 194 0
171 196 0
173 196 0
172 195 0
173 197 0
170 193 0
174 197 0
172 196 0
171 194 0
169 193 0
172 195 0
173 196 0
172 195 0
171 195 0
168 192 0
169 193 0
172 195 0
168 191 0
173 196 0
173 195 0
171 195 0
170 194 0
167 191 0
168 192 0
168 191 0
174 196 0
167 190 0
171 194 0
168 191 0
168 191 0
167 191 0
172 195 0
167 191 0
171 194 0
166 190 0
165 188 0
170 192 0
168 191 0
171 193 0
170 193 0
167 191 0
168 191 0
168 191 0
169 191 0
169 193 0
169 193 0
164 188 0
166 189 0
167 191 0
165 188 0
170 191 0
167 190 0
166 189 0
170 192 0
169 191 0
163 186 0
167 189 0
169 191 0
165 188 0
165 189 0
168 191 0
164 187 0
164 185 0
165 187 0
163 184 0
158 181 0
164 187 0
166 189 0
163 185 0
163 187 0
166 189 0
168 190 0
166 188 0
164 186 0
167 189 0
164 186 0
165 187 0
156 174 56
149 168 45
145 165 0
149 169 0
145 163 0
145 165 0
142 162 0
147 167 0
135 155 0
139 159 0
138 158 0
126 144 0
134 154 0
130 150 0
134 155 0
153 173 56
148 170 0
150 172 0
157 179 0
150 172 0
152 175 0
149 171 0
152 174 0
150 172 0
159 180 0
146 169 0
150 172 0
154 176 0
154 178 0
152 175 0
140 163 0
144 165 0
143 165 0
164 186 0
153 175 0
147 168 0
156 178 0
153 175 0
148 171 0
152 174 0
155 177 0
160 183 0
140 162 0
144 165 0
102 127 99
60 94 131
61 96 135
58 93 133
60 95 133
60 94 125
57 91 122
58 93 122
60 95 140
60 95 140
60 96 142
62 97 142
58 93 137
59 94 133
62 97 155
59 95 137
60 95 142
60 96 153
60 96 151
61 96 149
60 96 144
59 95 135
61 97 142
61 97 158
61 96 147
60 95 147
61 96 156
60 96 157
61 96 151
59 93 135
61 96 145
60 95 135
59 94 147
60 95 153
59 93 144
60 94 140
60 95 152
60 94 149
59 94 151
59 94 141
59 95 156
59 93 145
61 96 149
58 90 141
57 91 136
58 91 142
60 93 148
58 92 152
58 91 134
58 91 145
59 93 148
58 91 139
59 91 140
56 86 126
57 89 127
58 90 136
55 85 125
58 90 134
57 88 126
58 89 126
57 89 129
56 88 132
56 87 127
55 86 123
54 84 127
55 85 124
56 86 124
56 85 120
57 86 123
57 86 119
56 86 115
58 89 120
54 81 100
55 83 103
54 84 111
52 79 97
55 85 113
57 88 126
109 132 79
155 177 0
154 175 0
165 188 0
148 170 0
160 182 0
158 180 0
161 182 0
162 186 0
157 178 0
158 181 0
163 188 0
163 185 0
167 190 0
162 185 0
157 180 0
168 191 0
159 183 0
167 191 0
165 188 0
134 149 22
77 66 25
82 59 19
78 61 25
91 70 17
83 65 18
87 71 33
87 68 19
92 76 27
80 65 25
85 67 19
89 71 22
94 73 21
82 63 18
104 84 34
84 62 4
88 66 3
93 73 18
94 72 9
87 67 13
100 80 34
86 63 18
94 74 19
91 68 13
106 87 33
97 74 20
100 77 0
97 76 21
106 82 15
99 78 21
103 83 26
107 88 26
108 87 23
76 58 17
100 78 13
99 77 10
97 74 8
100 78 18
110 86 26
96 77 20
94 76 8
112 96 42
105 80 13
106 85 21
108 89 19
100 83 16
108 88 34
105 83 18
108 92 34
91 74 25
107 87 38
106 85 19
102 86 27
99 79 20
105 84 31
98 77 13
103 88 29
104 81 24
101 79 19
101 80 18
98 74 23
105 86 29
106 82 20
105 86 30
106 86 27
100 74 17
90 71 21
111 93 31
106 87 24
101 81 26
104 87 30
101 82 10
108 88 33
103 83 21
107 86 23
92 74 20
103 79 21
93 74 30
99 76 27
104 85 28
100 79 26
104 88 35
100 84 40
114 94 47
100 82 41
100 81 36
113 92 34
97 76 32
99 78 27
105 89 38
110 90 38
96 75 24
95 77 32
99 81 37
136 136 37
170 190 7
172 195 0
171 194 0
173 197 0
174 197 0
171 194 0
172 195 0
174 197 0
173 196 0
173 197 0
170 194 0
173 196 0
173 196 0
174 197 0
174 197 0
173 195 0
174 197 0
171 194 0
172 195 0
171 195 0
175 198 0
172 195 0
174 196 0
172 195 0
173 195 0
172 197 0
170 193 0
174 197 0
174 196 0
173 197 0
173 196 0
174 197 0
172 194 0
172 195 0
174 197 0
173 196 0
173 196 0
176 199 0
172 196 0
174 198 0
173 196 0
174 198 0
172 196 0
171 194 0
173 197 0
173 197 0
174 198 0
170 193 0
173 197 0
175 198 0
174 197 0
175 198 0
173 197 0
169 193 0
171 195 0
175 197 0
172 195 0
173 196 0
174 197 0
172 195 0
174 196 0
174 196 0
173 196 0
169 192 0
170 194 0
174 197 0
175 196 0
175 198 0
173 195 0
175 198 0
174 197 0
170 194 0
169 193 0
175 198 0
174 197 0
175 198 0
174 197 0
173 196 0
175 197 0
171 194 0
171 195 0
173 197 0
172 196 0
172 196 0
170 193 0
171 194 0
173 197 0
170 194 0
173 195 0
172 195 0
171 195 0
170 194 0
172 195 0
171 194 0
173 197 0
172 195 0
171 195 0
171 194 0
167 192 0
174 197 0
172 196 0
170 194 0
171 194 0
171 193 0
172 195 0
171 193 0
171 194 0
170 194 0
169 191 0
168 191 0
171 193 0
168 192 0
171 194 0
169 191 0
171 193 0
166 190 0
168 191 0
172 195 0
163 187 0
165 189 0
170 191 0
170 193 0
166 189 0
171 193 0
171 194 0
169 191 0
165 188 0
169 192 0
170 192 0
163 186 0
164 188 0
167 190 0
170 192 0
169 191 0
164 188 0
169 192 0
163 186 0
163 186 0
166 189 0
158 182 0
167 190 0
172 194 0
166 189 0
172 193 0
164 187 0
162 185 0
164 187 0
164 187 0
164 187 0
159 181 0
164 187 0
169 191 0
168 189 0
166 188 0
164 187 0
166 188 0
163 185 0
161 183 0
167 189 0
164 186 0
164 185 0
163 186 0
160 183 0
158 180 0
164 184 32
151 171 0
147 165 0
142 162 0
147 167 0
143 164 0
141 161 0
135 155 0
134 154 0
139 159 0
138 158 0
136 156 45
141 162 32
154 177 0
151 172 0
154 176 0
142 163 0
159 182 0
154 177 0
159 181 0
149 172 0
149 171 0
160 183 0
155 179 0
150 173 0
152 173 0
152 175 0
149 170 0
157 179 0
151 172 0
150 173 0
158 179 0
156 179 0
146 168 0
157 180 0
149 170 0
151 174 0
149 171 0
151 173 0
146 168 0
155 178 0
148 169 0
139 160 0
117 140 57
59 93 118
60 95 130
57 92 122
60 95 135
59 94 125
60 95 144
60 95 133
61 96 144
60 95 142
58 91 117
61 96 137
60 94 149
60 95 144
58 93 128
60 96 151
59 93 131
60 94 144
60 95 137
59 94 137
61 95 140
62 97 155
59 93 142
60 96 149
60 96 145
60 96 147
58 93 140
59 94 141
62 97 154
57 91 125
61 96 147
60 95 143
58 92 129
60 95 145
60 94 150
59 92 139
60 94 153
61 96 152
60 94 151
60 95 147
59 94 142
60 94 143
60 95 152
59 92 141
59 94 141
58 91 137
58 90 131
58 92 137
59 93 143
59 91 131
57 89 141
60 95 154
57 89 140
58 90 139
56 88 135
59 89 132
58 89 135
57 88 132
56 88 130
57 89 127
57 88 125
55 85 123
59 89 134
55 86 126
55 86 131
58 90 138
52 80 100
57 88 130
53 82 114
56 87 120
56 88 130
54 82 105
55 84 119
54 83 117
55 83 106
55 83 112
54 82 99
57 88 118
137 159 51
161 182 0
150 171 0
161 183 0
153 175 0
159 181 0
161 183 0
158 180 0
158 181 0
157 178 0
158 180 0
151 174 0
161 184 0
163 184 0
161 182 0
164 187 0
161 183 0
160 183 0
157 180 0
163 186 0
125 131 37
78 60 16
85 69 25
83 68 29
76 61 26
78 59 8
89 67 20
75 57 18
88 69 20
85 68 24
80 59 18
87 69 11
82 64 12
95 74 25
91 72 21
103 81 13
72 51 7
100 82 27
104 80 23
95 78 26
96 76 21
90 67 14
94 77 23
109 87 30
96 71 12
110 88 27
104 80 24
99 75 22
83 61 3
93 69 14
102 82 10
105 84 26
99 79 18
88 66 13
102 80 20
111 90 26
91 72 19
101 80 16
107 84 29
102 81 19
109 87 21
96 75 20
117 96 29
95 75 20
104 82 19
88 65 11
97 75 16
109 87 26
99 80 34
106 83 30
97 78 25
105 82 23
112 93 21
90 71 22
111 90 31
100 77 21
97 80 30
112 91 22
106 86 35
109 92 31
108 87 21
90 69 8
99 78 19
98 81 24
100 77 25
89 70 18
96 77 17
105 84 30
109 84 21
106 88 28
101 78 19
101 79 26
85 66 19
105 90 31
86 63 17
100 77 17
108 88 27
109 88 35
100 78 19
107 90 39
108 85 32
109 88 35
94 73 23
114 93 41
102 87 30
106 84 30
110 88 31
111 87 35
102 82 31
95 75 30
93 75 33
107 89 34
108 88 31
110 88 40
86 67 26
125 123 34
167 188 0
174 197 0
172 195 0
173 195 0
171 196 0
173 196 0
166 188 0
176 198 0
174 197 0
172 195 0
173 195 0
172 194 0
172 194 0
173 196 0
172 196 0
170 194 0
174 196 0
173 196 0
172 195 0
173 196 0
171 195 0
174 197 0
173 196 0
173 197 0
174 197 0
174 196 0
171 194 0
173 196 0
173 197 0
172 195 0
174 197 0
173 196 0
173 196 0
174 197 0
171 194 0
175 197 0
173 195 0
174 197 0
171 194 0
174 197 0
174 198 0
174 197 0
175 198 0
173 197 0
175 197 0
172 196 0
174 197 0
173 196 0
173 197 0
173 196 0
173 197 0
173 197 0
170 193 0
171 195 0
174 197 0
174 197 0
174 197 0
173 196 0
171 196 0
171 195 0
171 195 0
168 192 0
173 197 0
171 195 0
174 197 0
175 198 0
174 197 0
171 195 0
173 197 0
174 197 0
174 197 0
172 196 0
171 196 0
171 195 0
171 194 0
172 196 0
173 197 0
172 195 0
173 196 0
171 195 0
171 195 0
171 194 0
170 193 0
172 196 0
170 193 0
174 197 0
169 191 0
171 195 0
170 194 0
171 195 0
172 196 0
171 195 0
172 195 0
170 192 0
172 195 0
174 197 0
171 194 0
174 196 0
169 193 0
170 194 0
171 194 0
171 195 0
173 196 0
171 195 0
173 195 0
166 188 0
167 190 0
168 193 0
168 193 0
171 193 0
166 190 0
171 194 0
169 192 0
171 194 0
170 194 0
165 189 0
169 192 0
170 193 0
170 194 0
167 190 0
169 193 0
172 195 0
172 194 0
168 191 0
170 193 0
169 192 0
168 192 0
172 194 0
167 190 0
169 191 0
165 187 0
166 189 0
170 193 0
169 191 0
169 191 0
169 192 0
171 195 0
165 188 0
163 185 0
165 188 0
169 192 0
166 189 0
166 189 0
169 191 0
168 191 0
164 187 0
168 191 0
168 190 0
158 182 0
159 182 0
166 189 0
160 183 0
165 186 0
165 186 0
159 181 0
168 189 0
163 186 0
164 186 0
171 193 0
168 189 0
166 188 0
167 187 0
164 186 0
168 189 0
163 185 32
154 174 0
147 168 0
149 170 0
138 158 0
138 159 0
138 158 0
137 156 0
133 154 0
145 165 45
153 174 0
160 183 0
148 170 0
151 173 0
154 175 0
149 170 0
153 175 0
158 181 0
148 170 0
158 181 0
159 180 0
149 171 0
152 175 0
149 172 0
150 173 0
158 182 0
151 175 0
159 182 0
150 172 0
154 176 0
156 177 0
152 174 0
158 180 0
155 178 0
141 162 0
151 174 0
143 164 0
150 172 0
150 173 0
145 167 0
146 168 0
153 176 0
147 170 25
61 94 116
61 96 140
60 96 142
59 94 130
60 95 140
60 95 128
59 93 137
60 95 140
58 92 108
61 96 133
60 95 144
58 93 117
61 96 147
60 96 142
59 94 135
59 94 125
60 96 153
59 94 147
60 95 144
60 95 135
59 94 144
61 97 147
61 97 159
59 94 128
61 95 146
60 95 135
60 94 145
60 96 151
61 95 152
60 95 145
59 94 142
60 95 142
58 93 145
61 95 154
61 96 159
59 92 147
60 94 141
59 92 145
60 93 139
61 96 154
61 95 151
60 93 136
58 91 137
60 95 147
59 92 135
57 90 138
60 94 145
57 91 139
60 93 142
58 91 130
56 86 129
60 93 144
58 89 124
59 93 148
57 88 128
57 88 134
55 86 122
57 87 130
57 88 132
55 86 118
53 80 92
59 91 143
58 88 128
57 86 121
57 89 125
52 79 110
53 82 115
56 86 132
53 81 111
55 83 113
55 84 117
55 85 121
55 85 112
55 84 121
55 82 110
52 79 101
61 88 92
150 173 25
150 171 0
151 174 0
158 180 0
164 184 0
159 182 0
164 186 0
165 187 0
151 172 0
159 181 0
158 181 0
159 182 0
161 185 0
161 183 0
157 179 0
163 184 0
156 178 0
155 177 0
167 190 0
158 181 0
82 70 25
79 67 29
77 58 19
71 57 17
86 67 20
77 57 11
79 66 17
90 70 24
87 66 18
88 70 26
92 73 25
88 72 21
92 68 13
78 64 16
95 73 21
82 60 8
97 77 10
98 76 24
101 77 10
98 73 22
100 78 24
90 70 10
83 67 23
98 80 19
100 81 24
100 78 22
101 81 26
98 73 24
94 69 19
88 72 21
107 85 32
97 73 11
104 80 19
108 88 28
99 80 24
97 77 14
112 92 32
105 78 10
104 82 24
103 83 26
106 85 25
107 84 26
101 81 13
99 78 21
106 88 20
99 78 21
98 79 10
101 77 26
108 87 6
94 73 18
111 88 31
99 78 19
94 68 11
104 83 30
104 80 27
104 84 22
102 81 10
99 81 18
105 84 26
103 82 27
108 84 13
101 77 19
109 88 31
97 76 26
110 87 22
120 95 24
116 98 39
79 58 17
109 93 38
107 86 30
104 82 23
98 73 20
114 98 37
102 84 31
94 73 23
101 82 29
109 89 39
99 82 22
110 94 33
116 94 38
111 94 35
107 88 42
99 77 24
103 84 39
93 72 18
102 80 25
107 87 33
111 89 29
110 89 39
101 81 29
106 91 39
110 96 45
96 82 38
104 85 28
98 79 32
95 75 29
121 116 33
169 190 1
174 197 0
173 196 0
170 194 0
172 195 0
173 197 0
172 195 0
174 197 0
172 196 0
172 194 0
171 194 0
175 198 0
172 193 0
175 197 0
175 197 0
177 199 0
172 194 0
172 195 0
171 194 0
175 197 0
170 192 0
172 197 0
175 198 0
172 195 0
173 196 0
175 197 0
171 195 0
173 195 0
171 194 0
172 196 0
173 197 0
175 197 0
175 197 0
172 195 0
172 196 0
173 196 0
175 198 0
172 195 0
173 196 0
173 197 0
173 197 0
173 195 0
173 196 0
175 197 0
173 197 0
176 199 0
169 193 0
175 198 0
173 197 0
169 193 0
175 198 0
173 197 0
175 197 0
173 197 0
172 196 0
175 198 0
170 194 0
173 197 0
169 193 0
171 195 0
172 194 0
168 192 0
171 195 0
172 195 0
173 197 0
174 197 0
171 194 0
169 194 0
171 195 0
170 194 0
172 196 0
174 197 0
172 195 0
170 194 0
171 194 0
170 194 0
172 195 0
173 195 0
171 195 0
175 197 0
171 193 0
172 195 0
173 196 0
173 196 0
166 189 0
174 197 0
171 195 0
170 194 0
169 194 0
172 196 0
168 191 0
172 195 0
169 192 0
171 194 0
173 196 0
169 192 0
172 195 0
172 196 0
171 194 0
174 195 0
168 192 0
170 192 0
168 191 0
169 193 0
168 192 0
170 192 0
167 190 0
172 195 0
171 194 0
170 194 0
171 194 0
167 191 0
170 194 0
169 192 0
170 193 0
169 192 0
167 191 0
170 194 0
170 191 0
167 190 0
170 193 0
164 187 0
168 191 0
167 191 0
170 192 0
169 191 0
169 191 0
166 188 0
167 189 0
167 190 0
168 192 0
167 191 0
169 192 0
168 190 0
165 188 0
169 190 0
167 191 0
167 190 0
167 190 0
167 188 0
168 191 0
160 183 0
167 190 0
165 187 0
166 189 0
165 188 0
172 193 0
161 183 0
161 184 0
163 185 0
161 183 0
163 185 0
166 188 0
166 189 0
166 188 0
163 185 0
167 190 0
165 188 0
164 187 0
163 185 0
164 186 0
159 182 0
165 187 0
163 185 0
160 182 0
160 181 0
150 170 32
140 160 0
147 167 32
147 166 45
156 176 45
148 170 0
152 175 0
148 170 0
154 175 0
156 178 0
152 174 0
153 175 0
158 181 0
157 180 0
156 177 0
154 175 0
153 175 0
150 172 0
152 175 0
150 173 0
160 183 0
148 170 0
152 175 0
143 164 0
152 174 0
155 177 0
157 179 0
144 166 0
153 175 0
153 176 0
147 170 0
159 182 0
142 163 0
147 169 0
151 173 0
155 176 0
146 169 0
144 166 0
146 167 0
150 172 0
103 128 95
58 92 113
59 93 130
58 92 128
59 93 128
59 94 125
57 91 114
59 94 128
60 95 142
61 96 147
61 96 147
62 98 155
60 95 133
60 95 144
59 94 140
60 95 140
59 94 135
60 95 142
60 94 147
57 92 130
58 93 137
60 94 141
59 94 147
61 97 153
60 93 139
61 96 156
59 95 135
58 93 136
60 95 155
59 93 140
60 95 145
61 95 147
60 95 146
60 94 138
60 94 153
59 93 139
60 94 142
60 93 148
59 92 145
58 92 123
58 93 137
59 93 143
59 92 139
59 94 143
58 91 130
57 90 131
57 90 138
60 94 139
58 91 135
59 92 138
58 90 143
58 91 145
59 92 141
59 92 138
58 89 120
57 87 116
53 83 109
54 85 140
57 87 130
57 87 127
55 83 123
57 88 141
57 87 108
54 82 105
56 85 118
55 83 111
52 80 108
57 88 125
56 85 118
54 84 112
54 83 108
55 83 109
53 82 118
54 82 113
56 86 122
57 86 113
103 128 66
159 180 0
153 171 0
159 180 0
156 181 0
149 170 0
153 174 0
161 184 0
164 186 0
161 183 0
163 187 0
161 182 0
165 187 0
150 173 0
152 174 0
148 169 0
161 184 0
164 185 0
160 183 0
165 186 0
137 153 16
72 57 24
90 69 19
84 66 26
80 63 26
85 72 30
77 59 14
90 70 26
93 75 26
87 70 16
82 67 24
82 62 22
101 80 13
97 78 20
89 65 11
93 74 18
90 72 29
99 80 22
88 70 13
98 76 13
93 73 18
105 84 25
90 69 26
92 72 19
96 73 9
99 82 24
103 84 24
102 81 20
95 74 20
96 78 10
113 88 26
102 81 9
97 79 25
109 89 16
101 77 14
111 93 29
86 69 24
107 85 25
104 85 18
104 85 25
94 76 24
96 75 7
105 86 22
108 86 19
102 80 27
110 90 27
95 72 13
101 80 21
103 80 30
106 86 20
96 74 8
111 90 21
97 73 27
107 84 15
114 93 35
96 72 19
101 81 24
104 82 29
97 76 23
100 79 22
107 83 17
114 91 22
91 72 12
86 67 5
100 79 27
100 80 22
109 84 26
112 96 36
102 81 21
100 79 25
99 77 21
94 73 25
92 70 13
106 85 17
104 86 27
107 87 34
104 86 33
109 83 31
94 73 21
108 89 35
101 83 28
108 85 30
109 89 31
102 84 31
99 76 24
99 81 31
96 74 21
110 89 31
103 83 32
97 76 25
102 81 30
107 90 44
107 88 36
93 75 35
100 80 37
110 89 39
99 84 33
86 63 14
129 128 35
168 190 16
173 196 0
173 196 0
172 196 0
170 193 0
171 195 0
171 194 0
171 194 0
170 194 0
171 195 0
170 193 0
173 196 0
173 196 0
171 195 0
174 196 0
172 196 0
173 196 0
173 197 0
174 196 0
173 197 0
170 193 0
173 196 0
172 195 0
173 196 0
171 195 0
172 195 0
173 197 0
175 198 0
174 197 0
174 197 0
173 197 0
174 197 0
174 197 0
173 196 0
172 196 0
175 198 0
175 197 0
174 196 0
173 196 0
173 197 0
175 198 0
173 196 0
173 195 0
172 196 0
174 197 0
171 195 0
173 197 0
173 197 0
175 198 0
171 195 0
171 195 0
172 194 0
175 198 0
171 195 0
173 197 0
174 196 0
173 195 0
174 197 0
170 194 0
171 195 0
168 192 0
173 196 0
171 195 0
171 196 0
175 198 0
174 196 0
174 197 0
172 195 0
173 196 0
173 197 0
172 196 0
174 197 0
173 196 0
171 194 0
172 195 0
172 196 0
172 195 0
171 195 0
169 194 0
172 195 0
171 195 0
171 193 0
171 195 0
173 196 0
171 194 0
174 197 0
170 196 0
169 193 0
173 196 0
171 195 0
171 193 0
170 193 0
167 191 0
171 194 0
171 195 0
171 194 0
170 193 0
173 196 0
167 190 0
167 190 0
171 194 0
169 192 0
173 196 0
172 195 0
170 193 0
174 197 0
170 193 0
170 194 0
171 195 0
166 189 0
172 195 0
168 190 0
170 193 0
173 195 0
168 190 0
173 196 0
169 192 0
174 196 0
169 191 0
169 192 0
172 194 0
167 190 0
168 191 0
166 188 0
166 189 0
165 186 0
167 189 0
164 188 0
162 186 0
170 192 0
170 193 0
168 192 0
170 194 0
167 191 0
162 186 0
165 188 0
163 186 0
166 190 0
168 192 0
161 183 0
163 185 0
165 188 0
162 185 0
168 190 0
168 190 0
169 192 0
170 193 0
164 187 0
168 191 0
168 192 0
162 185 0
165 187 0
162 184 0
167 190 0
162 185 0
159 181 0
166 188 0
164 187 0
163 184 0
159 182 0
165 188 0
163 185 0
163 187 0
166 188 0
157 180 0
162 185 0
153 174 0
157 177 56
155 179 0
159 180 0
155 179 0
162 184 0
152 173 0
150 174 0
150 172 0
152 175 0
155 178 0
147 169 0
152 174 0
154 177 0
154 177 0
155 177 0
159 183 0
151 173 0
152 176 0
153 175 0
161 183 0
153 175 0
150 172 0
146 168 0
148 171 0
144 167 0
145 166 0
152 174 0
152 174 0
157 179 0
150 171 0
154 175 0
148 171 0
142 162 0
155 177 0
145 167 0
144 167 0
140 161 0
154 176 0
138 160 67
57 91 115
57 92 120
58 93 120
58 93 130
60 95 130
61 95 140
60 95 144
60 95 130
60 94 137
59 93 122
60 95 142
60 95 135
60 95 130
62 98 157
58 93 130
58 92 130
58 92 133
60 95 140
60 94 133
60 96 149
59 94 134
59 94 142
61 96 138
61 96 141
57 91 120
58 92 129
60 94 144
60 95 141
60 95 144
59 93 131
60 94 138
60 93 134
59 93 142
58 92 126
58 93 135
59 92 137
61 94 147
60 95 147
59 93 140
60 93 138
58 91 131
60 94 152
58 91 148
57 90 132
60 95 151
59 93 142
58 92 145
57 89 132
57 88 119
55 85 128
59 92 146
57 90 134
54 85 125
57 89 141
56 87 116
58 90 134
57 90 135
56 87 127
55 84 115
54 82 104
57 88 123
57 87 120
56 86 118
54 83 104
51 78 101
56 86 118
54 84 110
53 79 101
53 81 104
54 83 122
55 83 111
54 82 102
52 80 107
54 82 103
53 82 110
130 149 53
143 166 0
156 177 0
149 170 0
138 161 0
163 186 0
159 180 0
162 183 0
153 176 0
161 184 0
151 175 0
165 186 0
155 177 0
160 182 0
167 189 0
156 178 0
161 184 0
155 178 0
162 184 0
157 178 0
127 142 17
75 60 20
81 66 24
75 61 24
99 79 23
85 64 14
85 66 22
82 66 27
90 73 20
83 65 25
71 50 2
85 68 15
88 69 23
104 82 20
93 71 18
89 68 25
76 55 7
96 75 16
94 72 20
94 72 15
90 66 14
100 81 22
86 69 18
98 72 9
90 71 9
103 83 25
95 72 9
101 80 21
92 72 1
105 79 23
98 76 19
97 76 11
100 75 8
108 89 28
102 83 17
104 85 18
93 77 25
107 84 21
101 77 12
97 79 16
103 83 23
107 83 17
91 68 8
104 82 20
113 89 24
105 86 18
102 77 20
104 87 29
104 84 31
112 95 31
109 91 33
98 74 16
105 82 20
102 84 10
107 88 30
112 89 31
94 70 16
115 95 29
112 88 21
108 82 13
116 96 30
106 85 23
99 74 11
105 87 35
110 92 35
108 88 21
104 81 19
109 91 22
102 85 30
111 90 29
102 81 26
104 86 37
103 83 21
98 78 16
107 88 33
90 69 10
105 79 30
107 84 30
96 78 24
106 88 14
102 81 29
108 83 21
94 78 31
92 76 16
106 90 38
106 87 18
97 72 20
111 91 41
98 79 29
102 75 24
98 78 26
110 89 39
112 93 36
106 90 38
103 86 35
94 74 25
117 95 37
103 84 35
104 81 31
127 129 33
170 192 0
172 195 0
172 194 0
171 194 0
174 198 0
174 197 0
172 196 0
175 197 0
170 192 0
171 195 0
168 192 0
173 196 0
172 196 0
174 197 0
174 197 0
176 199 0
175 197 0
176 198 0
174 197 0
174 197 0
172 196 0
172 194 0
174 196 0
171 194 0
175 197 0
173 197 0
172 195 0
173 196 0
175 198 0
172 195 0
174 197 0
173 196 0
173 197 0
174 196 0
174 196 0
174 197 0
175 198 0
174 197 0
175 197 0
173 196 0
172 197 0
173 197 0
172 195 0
175 198 0
173 197 0
175 198 0
175 197 0
173 196 0
174 198 0
176 199 0
174 197 0
170 194 0
176 198 0
172 196 0
174 196 0
172 196 0
176 198 0
172 195 0
172 195 0
173 196 0
173 195 0
173 196 0
169 193 0
174 196 0
173 197 0
175 198 0
173 196 0
168 192 0
171 194 0
171 194 0
173 196 0
172 195 0
173 197 0
170 194 0
170 196 0
170 194 0
172 196 0
171 195 0
172 195 0
174 197 0
170 194 0
174 197 0
172 195 0
172 194 0
172 195 0
173 196 0
174 196 0
172 195 0
172 195 0
168 191 0
170 193 0
173 196 0
168 191 0
175 197 0
170 193 0
169 192 0
172 195 0
170 194 0
171 194 0
172 194 0
172 195 0
171 195 0
168 192 0
168 192 0
170 192 0
170 193 0
167 191 0
168 191 0
170 193 0
171 194 0
170 193 0
167 190 0
167 191 0
169 193 0
164 187 0
169 191 0
169 191 0
173 195 0
169 192 0
171 193 0
166 188 0
169 192 0
170 194 0
171 194 0
168 190 0
164 186 0
165 188 0
167 188 0
171 193 0
166 189 0
169 191 0
166 188 0
171 194 0
165 188 0
168 191 0
166 190 0
169 192 0
168 191 0
167 189 0
166 190 0
170 193 0
170 192 0
164 187 0
169 191 0
166 189 0
162 185 0
163 186 0
163 185 0
163 186 0
161 184 0
163 187 0
166 190 0
166 188 0
165 187 0
167 190 0
159 182 0
161 183 0
165 186 0
161 185 0
157 180 0
163 185 0
165 188 0
163 185 0
158 181 0
162 184 0
163 186 0
159 180 0
152 175 0
160 181 0
152 175 0
154 177 0
162 183 0
157 180 0
164 186 0
155 178 0
159 181 0
155 179 0
150 172 0
155 178 0
152 175 0
154 175 0
147 169 0
161 185 0
151 174 0
149 171 0
154 177 0
154 178 0
148 169 0
155 179 0
157 180 0
147 170 0
156 179 0
146 169 0
153 175 0
152 176 0
153 176 0
138 160 0
150 173 0
143 164 0
156 179 0
141 164 0
146 169 0
143 166 0
153 173 0
145 167 25
68 98 111
57 92 111
58 93 120
60 94 130
59 94 140
58 92 133
61 96 135
59 93 120
61 97 144
58 92 114
61 96 140
60 95 140
60 95 133
61 97 147
59 93 135
60 94 130
60 95 142
60 95 147
59 94 122
62 96 152
62 97 155
60 94 135
59 94 141
58 92 129
59 93 138
60 95 142
60 96 151
60 95 149
60 95 155
58 92 126
59 94 131
60 95 149
60 95 146
58 91 133
59 93 131
59 93 136
59 93 136
58 91 129
59 93 146
58 90 129
60 95 145
60 93 133
58 92 134
60 94 141
56 88 125
59 92 141
59 92 135
59 90 126
55 87 127
56 86 120
55 87 125
58 90 123
56 87 119
57 87 125
55 84 104
55 85 105
54 86 129
56 84 117
56 87 126
52 83 115
57 89 130
58 91 143
56 85 120
55 84 116
53 80 102
55 83 101
54 83 104
55 85 117
52 81 98
57 87 121
56 86 115
55 83 104
53 81 90
54 82 106
62 89 90
153 174 0
150 171 0
153 173 0
160 181 0
149 171 0
161 184 0
150 171 0
156 179 0
157 179 0
153 174 0
138 159 0
167 189 0
155 177 0
153 174 0
147 169 0
157 179 0
153 175 0
152 175 0
146 169 0
160 182 0
112 115 19
79 61 20
63 45 10
80 63 19
67 48 5
89 72 19
65 46 3
75 59 18
80 62 13
100 80 21
96 75 20
81 60 13
83 64 18
98 81 29
91 70 6
109 89 20
96 80 20
86 67 10
91 69 20
99 83 26
79 60 4
93 77 16
97 75 24
96 73 20
100 81 15
93 69 10
103 80 20
101 77 23
97 79 17
98 73 8
92 71 22
105 82 30
76 58 2
105 86 22
98 78 24
109 83 26
116 97 24
98 79 13
97 78 13
105 81 19
109 90 25
106 86 18
113 91 22
97 78 11
99 80 19
100 74 13
118 97 31
98 82 18
108 87 30
110 94 18
110 89 24
103 83 18
101 81 23
107 82 15
94 67 3
87 70 0
99 78 15
93 74 19
115 96 27
107 81 25
103 83 25
108 85 23
97 77 11
104 84 33
112 95 30
98 77 24
93 70 11
96 74 19
100 80 20
95 75 24
102 81 20
104 81 20
108 89 35
99 79 23
94 70 17
98 74 20
110 87 32
111 89 29
109 89 31
105 86 28
109 85 25
98 80 21
101 75 21
112 90 32
106 88 36
100 79 26
100 82 30
98 77 24
104 84 36
94 73 25
88 69 23
110 88 37
92 76 33
102 85 30
93 75 28
99 79 31
96 80 34
109 91 44
99 80 36
99 84 47
133 140 28
173 195 0
175 198 0
173 195 0
173 195 0
172 195 0
171 193 0
175 198 0
170 191 0
172 195 0
169 193 0
170 194 0
174 198 0
172 194 0
173 196 0
173 196 0
173 196 0
171 194 0
174 196 0
175 198 0
174 196 0
173 197 0
172 197 0
173 197 0
171 194 0
173 197 0
173 196 0
172 197 0
172 196 0
173 196 0
174 196 0
167 190 0
171 192 0
168 191 0
170 193 0
173 196 0
174 196 0
174 197 0
172 196 0
171 196 0
172 196 0
175 197 0
176 198 0
172 195 0
172 196 0
174 197 0
173 196 0
172 195 0
175 198 0
173 197 0
171 195 0
174 196 0
172 195 0
173 197 0
172 196 0
174 197 0
172 196 0
174 197 0
174 197 0
174 197 0
173 196 0
172 196 0
173 196 0
170 195 0
173 197 0
170 195 0
171 194 0
172 196 0
172 196 0
174 197 0
170 193 0
175 196 0
175 197 0
172 195 0
171 195 0
170 192 0
170 193 0
170 192 0
172 195 0
174 197 0
171 195 0
172 195 0
177 198 0
170 194 0
170 194 0
170 194 0
165 188 0
169 193 0
172 196 0
169 191 0
170 193 0
173 196 0
169 194 0
172 195 0
171 194 0
171 194 0
174 197 0
168 192 0
169 192 0
171 194 0
172 195 0
170 193 0
171 196 0
171 194 0
169 192 0
171 195 0
171 193 0
168 192 0
170 193 0
170 195 0
170 194 0
169 192 0
170 193 0
167 191 0
168 192 0
171 194 0
172 194 0
167 190 0
166 190 0
169 191 0
166 190 0
172 195 0
168 191 0
170 192 0
172 194 0
161 185 0
170 191 0
169 192 0
168 191 0
164 187 0
162 186 0
168 191 0
169 192 0
164 187 0
167 190 0
168 192 0
164 187 0
170 193 0
168 190 0
162 185 0
170 193 0
165 188 0
169 192 0
165 189 0
164 186 0
167 189 0
167 190 0
170 192 0
165 187 0
167 189 0
167 190 0
166 190 0
158 181 0
167 189 0
167 191 0
163 187 0
169 191 0
166 189 0
165 186 0
160 184 0
162 186 0
160 182 0
171 194 0
157 180 0
170 193 0
162 185 0
155 177 0
158 180 0
155 179 0
157 180 0
157 179 0
155 178 0
148 171 0
158 180 0
159 182 0
153 175 0
164 185 0
159 181 0
168 191 0
149 173 0
154 176 0
162 185 0
162 186 0
162 184 0
154 176 0
160 183 0
165 188 0
150 172 0
150 172 0
151 173 0
152 174 0
155 177 0
147 170 0
145 168 0
143 165 0
141 161 0
154 177 0
146 168 0
152 173 0
146 168 0
150 171 0
148 170 0
151 173 0
144 166 0
141 163 0
114 138 67
56 89 120
58 92 113
60 94 130
58 91 102
60 95 137
59 94 130
58 92 122
58 93 130
60 94 133
61 96 133
59 95 130
59 94 135
60 95 128
60 95 135
60 95 147
59 93 125
59 94 133
58 92 117
58 92 123
59 93 135
59 93 128
58 91 122
59 94 137
60 95 142
60 94 133
60 95 149
59 93 135
61 97 155
58 92 135
58 92 125
60 95 142
59 94 145
58 90 129
58 91 137
58 92 132
58 90 131
59 93 136
59 93 143
60 94 154
60 94 147
58 89 136
58 91 134
57 90 130
56 86 123
59 93 139
59 91 139
56 88 124
58 90 122
58 91 133
59 92 139
56 86 116
60 94 144
55 85 126
55 85 119
56 87 123
56 87 126
58 89 142
56 87 120
54 84 119
56 86 131
55 86 111
54 83 111
54 81 114
55 85 116
54 82 105
53 81 110
54 82 104
54 82 106
52 79 77
52 78 96
57 85 108
51 79 97
52 80 93
131 152 52
164 186 0
134 156 0
155 176 0
148 170 0
140 161 0
158 179 0
148 169 0
155 177 0
160 181 0
164 187 0
157 180 0
159 180 0
155 178 0
157 180 0
155 177 0
158 181 0
169 191 0
163 184 0
166 189 0
162 186 0
100 100 11
95 79 25
81 63 22
77 60 20
76 56 5
85 67 26
82 67 25
88 69 17
88 70 11
78 58 4
81 64 18
85 68 23
103 79 21
86 66 18
84 67 14
91 77 17
90 73 25
89 71 16
94 77 18
100 80 26
95 76 11
88 71 10
103 81 13
97 71 17
99 76 17
89 68 20
95 75 16
95 75 12
106 83 29
102 85 20
99 78 21
91 74 7
108 87 27
102 80 11
89 72 5
102 83 21
98 76 8
108 86 22
103 79 11
113 95 26
111 90 26
110 89 19
98 78 7
106 83 18
103 81 19
104 82 20
110 91 21
114 93 27
100 80 11
103 83 29
99 80 11
103 78 20
102 77 10
103 79 25
116 92 22
96 76 10
111 92 29
112 91 23
103 82 19
112 85 17
104 85 18
101 82 24
111 90 21
97 75 18
99 80 20
99 80 22
102 82 13
106 82 30
104 86 18
97 77 19
101 80 21
100 76 13
110 87 25
104 81 27
107 86 30
103 83 29
106 88 22
101 80 20
92 73 27
100 78 27
90 69 12
99 80 31
93 72 10
97 82 33
95 77 26
96 75 20
103 76 16
100 82 30
106 81 18
96 73 18
104 76 23
90 71 26
98 80 18
99 79 33
90 63 13
102 83 39
79 58 24
88 69 26
107 87 41
101 80 25
89 76 39
153 168 18
173 194 0
172 195 0
172 194 0
170 193 0
170 193 0
168 191 0
170 192 0
166 190 0
173 196 0
169 193 0
169 192 0
175 198 0
174 198 0
173 196 0
170 194 0
171 194 0
171 194 0
174 196 0
172 194 0
174 197 0
171 195 0
173 197 0
172 196 0
176 198 0
175 198 0
173 196 0
174 196 0
176 197 0
174 197 0
172 195 0
169 193 0
173 196 0
173 194 0
173 197 0
174 197 0
174 196 0
174 197 0
173 197 0
168 192 0
175 198 0
174 197 0
172 196 0
174 197 0
174 196 0
172 196 0
175 198 0
172 196 0
172 195 0
170 194 0
174 196 0
173 197 0
172 195 0
171 195 0
172 196 0
170 193 0
175 198 0
174 197 0
171 193 0
173 196 0
169 194 0
175 197 0
174 197 0
173 196 0
174 197 0
172 195 0
169 194 0
172 196 0
173 197 0
172 196 0
171 195 0
169 193 0
172 195 0
170 194 0
175 197 0
174 197 0
171 195 0
170 194 0
174 197 0
171 193 0
171 192 0
174 197 0
173 195 0
171 194 0
172 195 0
172 195 0
170 194 0
170 193 0
171 194 0
169 193 0
172 196 0
170 194 0
170 195 0
170 193 0
173 196 0
170 194 0
167 192 0
171 195 0
173 196 0
169 192 0
169 192 0
170 194 0
167 190 0
171 194 0
168 191 0
171 195 0
169 191 0
168 191 0
168 190 0
167 190 0
168 191 0
169 192 0
169 192 0
171 194 0
167 191 0
170 193 0
168 191 0
167 190 0
172 195 0
169 192 0
166 189 0
169 193 0
166 190 0
168 193 0
167 191 0
168 191 0
165 188 0
161 185 0
170 194 0
167 189 0
168 191 0
163 188 0
165 188 0
166 188 0
168 191 0
167 190 0
164 187 0
169 191 0
166 188 0
168 191 0
165 188 0
164 187 0
165 188 0
164 186 0
162 184 0
164 186 0
161 183 0
166 188 0
164 187 0
161 183 0
168 190 0
164 187 0
169 190 0
159 182 0
163 186 0
168 190 0
164 187 0
160 184 0
163 184 0
164 187 0
168 192 0
164 187 0
160 181 0
155 177 0
160 183 0
155 178 0
159 183 0
150 173 0
150 172 0
160 183 0
152 174 0
162 184 0
161 184 0
145 167 0
155 178 0
158 181 0
157 180 0
157 180 0
158 182 0
153 176 0
158 182 0
151 174 0
149 172 0
153 175 0
153 175 0
159 182 0
151 174 0
160 182 0
150 173 0
157 181 0
155 178 0
153 174 0
151 174 0
152 175 0
150 174 0
155 177 0
152 174 0
152 174 0
155 176 0
156 177 0
138 159 0
144 166 0
143 165 0
135 157 0
141 162 0
61 93 108
58 93 114
59 93 128
57 91 114
59 93 117
59 94 142
57 90 105
60 94 133
60 96 140
59 93 130
58 93 125
60 94 130
61 97 149
59 94 133
60 95 140
61 96 140
60 94 133
60 94 130
60 94 135
60 95 142
57 91 131
60 95 140
58 91 133
60 96 144
59 92 131
59 93 129
58 91 129
58 91 123
59 94 135
62 97 154
58 91 129
58 91 133
59 93 133
59 92 129
59 93 145
57 89 122
58 91 136
58 91 129
56 88 129
58 91 139
58 91 138
58 92 126
58 91 141
57 89 127
59 92 142
57 89 127
58 90 130
57 89 122
57 89 143
54 84 112
58 90 136
57 89 125
54 86 123
56 88 124
58 89 121
55 84 104
56 87 126
57 87 129
54 81 103
57 87 127
55 85 115
53 81 108
56 86 118
54 82 103
54 83 116
54 82 114
54 82 102
53 81 108
54 83 104
52 80 101
52 81 107
54 85 102
69 93 77
150 172 11
141 163 0
142 164 0
139 162 0
152 174 0
154 175 0
160 181 0
151 171 0
146 167 0
148 169 0
164 186 0
155 177 0
160 182 0
156 179 0
159 181 0
164 186 0
161 183 0
163 187 0
168 190 0
157 181 0
158 178 0
101 103 7
81 62 9
77 61 18
87 70 19
69 53 4
97 77 21
77 59 14
70 49 8
88 72 21
97 82 27
100 81 25
77 59 17
91 72 18
92 73 16
85 66 15
83 63 20
87 66 11
95 74 15
94 73 15
100 79 24
89 68 20
91 71 13
99 80 12
93 73 18
98 76 13
98 79 24
93 76 18
80 61 7
105 82 24
102 83 12
90 65 11
100 77 20
93 72 19
98 81 13
108 87 29
102 80 13
98 76 19
104 83 22
103 85 20
106 88 21
99 84 26
99 78 8
111 89 11
99 82 19
91 70 11
99 76 8
97 76 14
102 81 13
109 89 21
99 81 20
111 90 11
101 84 20
114 91 26
102 86 24
107 84 25
102 79 11
100 78 14
96 75 16
107 85 14
99 75 21
105 80 13
102 79 20
106 87 26
100 80 22
101 80 20
111 90 23
93 72 18
99 77 25
108 86 25
110 93 34
88 68 9
99 78 23
101 81 13
103 81 24
104 88 20
103 80 15
107 88 30
88 71 19
82 66 12
96 76 24
102 84 24
96 77 26
99 78 33
93 70 9
99 75 21
95 74 24
94 79 30
101 83 25
97 78 24
98 81 29
105 85 35
99 81 30
91 75 34
91 72 18
95 77 30
90 72 29
103 84 32
85 66 17
89 72 7
94 79 34
101 85 42
98 87 34
166 187 16
171 195 0
172 195 0
173 196 0
172 193 0
171 195 0
173 195 0
171 195 0
171 194 0
173 195 0
174 196 0
173 196 0
170 194 0
173 195 0
174 197 0
174 196 0
173 197 0
172 194 0
175 198 0
170 193 0
174 198 0
173 197 0
172 195 0
174 198 0
175 198 0
174 198 0
173 196 0
172 194 0
173 197 0
173 196 0
174 197 0
168 192 0
174 198 0
172 195 0
175 197 0
175 197 0
174 198 0
174 198 0
173 196 0
171 194 0
173 196 0
173 196 0
173 196 0
175 197 0
168 192 0
171 196 0
175 198 0
175 198 0
175 198 0
172 196 0
174 197 0
175 198 0
172 195 0
173 197 0
174 197 0
173 195 0
173 197 0
173 196 0
174 197 0
173 197 0
171 195 0
170 194 0
172 196 0
173 196 0
173 196 0
171 194 0
171 194 0
171 195 0
176 198 0
170 192 0
171 194 0
170 194 0
174 197 0
172 195 0
169 194 0
173 196 0
168 193 0
171 194 0
171 194 0
172 196 0
166 190 0
173 197 0
171 194 0
174 196 0
172 195 0
173 196 0
172 194 0
173 196 0
168 192 0
173 196 0
171 194 0
173 196 0
175 197 0
174 197 0
174 197 0
169 193 0
173 196 0
168 191 0
168 191 0
172 195 0
168 193 0
171 194 0
169 193 0
169 194 0
169 191 0
172 194 0
172 195 0
170 194 0
170 194 0
168 191 0
172 195 0
172 196 0
167 190 0
167 189 0
170 193 0
170 192 0
171 194 0
173 196 0
169 192 0
169 192 0
166 189 0
171 194 0
166 189 0
168 191 0
170 193 0
168 191 0
170 193 0
170 193 0
164 188 0
169 191 0
166 189 0
169 192 0
164 187 0
172 195 0
167 189 0
168 190 0
166 189 0
165 187 0
168 190 0
165 188 0
164 186 0
165 189 0
159 184 0
166 188 0
165 187 0
166 190 0
167 189 0
171 193 0
165 189 0
163 185 0
168 190 0
165 189 0
165 188 0
162 184 0
165 187 0
165 188 0
161 184 0
169 191 0
168 191 0
163 186 0
161 182 0
160 182 0
156 178 0
160 182 0
160 183 0
165 187 0
162 186 0
157 180 0
155 177 0
158 181 0
161 184 0
153 175 0
163 186 0
153 176 0
156 178 0
146 169 0
155 178 0
160 182 0
156 179 0
153 175 0
160 183 0
152 174 0
148 170 0
151 174 0
155 177 0
156 178 0
153 176 0
154 175 0
151 173 0
156 180 0
152 174 0
151 173 0
139 162 0
141 163 0
139 161 0
144 165 0
150 172 0
148 169 0
157 180 0
141 163 0
147 169 0
140 161 0
141 163 0
142 164 0
114 139 67
59 92 120
53 85 95
59 94 117
57 91 117
59 93 137
58 92 114
57 91 117
58 93 130
58 92 122
60 95 133
59 94 137
58 93 117
58 92 120
57 92 122
59 94 125
59 94 117
57 91 122
58 92 128
60 94 135
58 91 117
59 92 126
60 94 133
58 92 121
60 95 135
62 97 155
58 91 134
58 91 122
59 92 140
60 94 133
58 91 133
59 94 135
58 91 139
59 93 138
58 91 128
60 94 141
59 92 143
58 92 133
59 93 132
58 92 140
59 92 130
57 88 124
59 92 130
54 85 120
54 85 111
55 86 105
58 89 126
58 90 126
53 81 101
59 93 150
56 87 117
57 89 120
57 88 120
55 85 118
54 82 111
54 83 115
53 81 103
56 86 117
58 88 115
55 84 103
55 84 118
53 81 106
52 80 91
53 81 115
53 79 94
53 80 90
53 81 105
51 77 99
56 84 90
51 78 92
52 82 95
51 78 86
127 149 59
141 162 0
155 174 0
148 168 0
147 167 0
155 176 0
142 162 0
156 178 0
152 174 0
154 175 0
147 168 0
149 172 0
144 166 0
153 176 0
152 175 0
163 186 0
159 180 0
160 184 0
161 183 0
148 171 0
155 180 0
157 179 0
73 69 24
88 72 27
71 55 5
63 45 3
79 59 10
101 80 26
58 45 7
78 60 8
94 67 9
82 63 2
88 70 23
91 71 24
95 79 26
95 75 7
91 71 13
89 66 5
92 71 8
89 69 11
94 75 7
87 69 8
91 72 7
98 73 11
92 72 10
97 80 13
95 76 5
100 83 17
102 80 19
112 92 19
100 81 11
95 73 10
99 76 10
103 78 9
93 78 19
91 72 10
102 80 13
101 82 13
102 81 26
94 75 3
107 87 21
96 74 11
108 86 14
106 85 13
108 89 19
105 85 12
108 87 20
116 95 26
99 79 16
100 77 18
102 79 11
102 79 13
89 67 11
109 92 23
112 91 28
109 88 18
102 81 23
109 85 28
103 78 15
94 72 18
85 60 10
102 82 18
111 92 20
103 78 24
110 89 30
106 87 23
94 76 10
103 79 8
98 72 18
102 79 16
107 86 18
98 77 18
96 73 23
105 82 25
110 86 28
108 88 32
103 81 24
100 81 19
104 86 30
101 77 10
91 69 6
100 83 22
97 76 20
95 73 16
93 70 8
109 86 28
83 66 25
91 74 25
89 76 33
98 78 19
81 61 10
82 61 11
98 79 31
98 79 30
95 78 33
106 85 35
100 83 34
108 83 28
96 74 23
92 73 30
79 61 19
94 74 29
103 87 40
94 80 38
116 115 18
170 193 0
171 195 0
166 190 0
172 194 0
172 196 0
170 193 0
172 196 0
170 193 0
169 192 0
174 197 0
170 193 0
175 198 0
171 195 0
173 196 0
170 193 0
173 196 0
173 195 0
174 198 0
172 195 0
171 195 0
175 198 0
171 195 0
172 195 0
174 196 0
174 197 0
171 194 0
173 194 0
175 198 0
174 198 0
173 195 0
170 193 0
172 196 0
176 197 0
173 196 0
175 197 0
172 194 0
173 196 0
175 198 0
172 196 0
175 198 0
171 195 0
173 196 0
173 197 0
174 197 0
172 196 0
173 197 0
172 196 0
172 196 0
172 195 0
171 195 0
174 197 0
175 198 0
172 196 0
174 197 0
172 195 0
170 194 0
170 193 0
172 195 0
175 197 0
171 196 0
172 196 0
171 194 0
173 196 0
174 197 0
171 194 0
172 196 0
173 197 0
172 195 0
173 196 0
170 194 0
170 193 0
174 197 0
173 196 0
174 197 0
168 192 0
173 196 0
174 197 0
173 196 0
173 196 0
172 196 0
171 195 0
170 193 0
168 191 0
170 194 0
171 193 0
170 193 0
174 196 0
174 197 0
171 194 0
172 195 0
170 193 0
174 197 0
167 190 0
171 194 0
171 195 0
171 194 0
167 191 0
171 194 0
168 190 0
173 196 0
169 193 0
171 194 0
173 195 0
172 195 0
172 195 0
170 192 0
170 194 0
173 196 0
170 194 0
170 192 0
167 190 0
169 192 0
170 194 0
170 193 0
171 193 0
169 191 0
169 191 0
164 186 0
173 195 0
168 191 0
169 192 0
171 193 0
167 191 0
170 195 0
169 192 0
164 188 0
171 195 0
171 194 0
168 191 0
169 191 0
168 191 0
165 187 0
171 193 0
164 187 0
169 193 0
167 189 0
173 196 0
162 186 0
164 187 0
166 189 0
170 192 0
164 188 0
165 188 0
163 187 0
162 184 0
164 187 0
165 188 0
167 190 0
164 187 0
169 190 0
164 187 0
164 187 0
167 190 0
169 192 0
163 185 0
163 187 0
165 188 0
166 190 0
158 182 0
159 182 0
162 184 0
164 186 0
165 188 0
163 187 0
158 180 0
168 191 0
154 177 0
161 185 0
160 183 0
163 186 0
154 178 0
157 181 0
147 171 0
151 174 0
151 175 0
151 173 0
158 180 0
157 181 0
149 172 0
155 179 0
151 175 0
156 178 0
153 175 0
154 178 0
155 178 0
143 166 0
143 165 0
154 175 0
144 167 0
146 168 0
151 172 0
148 170 0
152 174 0
143 165 0
153 174 0
145 165 0
147 170 0
138 159 0
143 165 0
158 180 0
154 177 0
135 155 0
141 163 0
123 146 36
68 98 104
56 89 111
55 88 88
60 94 122
58 93 122
59 94 128
60 95 137
58 93 122
59 94 130
60 96 135
59 94 133
60 94 133
60 95 140
58 93 111
59 94 135
60 95 135
59 94 131
58 93 120
59 93 133
61 96 147
58 92 117
58 92 129
56 89 114
60 95 145
59 92 123
60 94 134
60 93 135
60 95 144
59 93 137
61 95 146
57 90 126
58 92 121
61 95 143
57 90 125
60 95 144
59 92 118
57 90 129
58 91 132
57 89 141
57 89 121
56 88 127
57 89 111
59 93 118
57 90 129
57 89 124
58 91 125
58 89 127
56 87 131
55 86 120
56 87 115
55 84 101
54 83 105
54 84 117
56 87 129
56 85 114
52 80 102
55 85 99
56 85 108
54 82 99
52 78 90
52 80 111
55 84 112
53 80 86
53 80 98
54 83 111
53 81 106
56 86 102
51 78 98
52 81 93
52 79 78
70 98 89
140 161 0
149 169 0
153 172 0
144 164 0
155 175 0
148 169 0
145 167 0
137 158 0
150 172 0
143 164 0
145 166 0
151 173 0
150 171 0
155 177 0
153 175 0
146 167 0
154 177 0
155 176 0
155 177 0
162 185 0
158 180 0
158 180 0
80 67 18
67 50 19
72 55 13
63 45 4
81 62 17
87 67 16
84 67 26
78 60 10
83 65 10
83 65 9
81 68 7
94 75 22
77 58 19
82 60 7
74 55 7
102 80 19
105 89 30
99 79 15
110 91 15
101 83 19
102 78 10
101 82 29
98 83 22
100 79 19
92 72 18
94 73 10
97 72 18
103 82 18
97 72 13
91 72 14
108 86 20
95 69 9
98 78 14
103 78 17
92 74 3
97 73 7
111 92 19
99 78 12
105 87 24
97 82 19
88 68 5
108 90 24
103 84 12
102 81 13
93 73 11
100 79 18
101 81 24
102 83 23
96 80 17
103 85 19
107 87 22
97 76 7
107 87 15
106 82 20
96 71 13
111 84 20
105 81 20
99 81 20
100 81 8
99 76 13
105 86 13
110 88 28
119 96 23
94 71 13
111 89 24
101 77 22
104 85 21
96 72 23
107 83 10
102 83 20
106 87 31
108 86 30
89 69 10
115 91 22
105 87 34
104 85 29
99 79 13
100 82 36
107 87 29
96 77 23
97 80 18
106 88 35
94 76 13
103 84 27
97 77 27
100 81 24
98 81 25
88 73 16
94 69 21
101 82 35
101 80 20
108 90 32
94 74 27
106 87 31
98 78 32
93 75 25
102 84 30
96 79 34
102 83 37
99 81 36
100 82 37
84 74 32
104 88 41
160 176 19
171 193 0
172 194 0
173 196 0
173 196 0
172 195 0
173 196 0
173 195 0
173 195 0
174 197 0
171 195 0
171 195 0
168 192 0
176 197 0
173 197 0
171 193 0
173 194 0
173 196 0
173 197 0
171 194 0
174 197 0
171 195 0
174 198 0
174 197 0
174 197 0
174 197 0
172 197 0
171 196 0
174 198 0
174 197 0
172 195 0
171 194 0
173 195 0
171 194 0
174 196 0
172 194 0
174 198 0
172 195 0
172 195 0
174 197 0
173 196 0
174 198 0
168 191 0
172 195 0
174 196 0
174 197 0
170 193 0
173 196 0
171 195 0
174 197 0
172 196 0
171 195 0
170 194 0
174 197 0
172 196 0
171 194 0
173 196 0
175 198 0
171 194 0
171 194 0
171 195 0
173 196 0
173 197 0
171 194 0
171 193 0
173 196 0
171 195 0
174 197 0
173 196 0
173 197 0
171 196 0
171 195 0
174 197 0
173 196 0
172 196 0
171 195 0
173 197 0
175 197 0
171 194 0
172 196 0
174 197 0
170 195 0
171 195 0
170 194 0
173 196 0
172 195 0
166 190 0
170 193 0
167 190 0
174 197 0
171 195 0
167 190 0
171 195 0
171 195 0
173 196 0
172 195 0
173 196 0
166 189 0
169 192 0
173 195 0
170 193 0
168 192 0
168 192 0
170 194 0
170 193 0
171 194 0
171 194 0
169 191 0
170 193 0
171 193 0
169 192 0
170 192 0
173 195 0
169 192 0
167 191 0
170 192 0
169 192 0
172 195 0
162 185 0
168 191 0
167 190 0
168 191 0
169 192 0
168 192 0
167 190 0
170 193 0
166 191 0
167 191 0
163 185 0
162 186 0
163 185 0
168 191 0
163 186 0
163 185 0
167 189 0
165 187 0
165 187 0
168 192 0
166 188 0
170 193 0
165 187 0
166 190 0
166 189 0
165 188 0
163 185 0
165 188 0
168 191 0
168 190 0
165 187 0
168 191 0
167 189 0
164 188 0
168 191 0
164 187 0
168 191 0
170 192 0
164 186 0
165 189 0
164 186 0
166 189 0
165 188 0
161 184 0
166 188 0
153 176 0
164 187 0
158 181 0
153 176 0
156 179 0
161 183 0
164 187 0
162 184 0
161 185 0
161 182 0
158 180 0
157 180 0
163 186 0
156 178 0
154 176 0
151 174 0
141 164 0
157 181 0
155 178 0
152 174 0
158 180 0
151 173 0
159 182 0
159 182 0
154 178 0
153 176 0
141 162 0
149 172 0
154 176 0
143 165 0
152 173 0
149 170 0
149 170 0
140 162 0
149 171 0
147 169 0
135 157 0
152 175 0
146 167 0
143 165 0
148 170 0
121 144 67
55 88 105
59 93 122
59 93 108
58 92 117
58 91 108
58 92 120
60 95 130
57 91 105
58 91 120
58 93 130
59 94 128
57 91 128
59 94 130
59 93 125
58 92 130
59 93 125
59 94 130
58 93 117
59 93 136
59 93 117
59 93 135
59 92 128
60 95 135
61 96 147
59 95 137
60 94 133
59 93 133
59 93 135
58 93 135
59 93 141
60 93 136
57 89 121
58 91 131
58 90 126
58 91 124
58 91 134
59 92 133
58 92 131
56 87 114
59 92 134
55 86 119
56 86 117
59 93 138
58 91 129
58 90 134
57 88 126
54 84 108
57 89 126
57 89 125
56 86 123
51 79 101
55 85 119
57 87 124
53 81 80
54 83 114
57 86 118
56 85 95
53 80 100
54 83 108
55 84 104
53 79 99
55 84 106
52 78 73
51 78 103
54 82 98
50 75 83
52 79 94
54 83 94
54 83 94
107 129 48
145 164 0
142 161 0
142 164 0
149 170 0
141 162 0
152 174 0
151 173 0
144 165 0
159 180 0
157 178 0
150 172 0
159 181 0
161 182 0
143 165 0
148 171 0
155 176 0
160 181 0
152 174 0
154 172 0
156 178 0
153 174 0
148 171 0
68 60 25
93 77 28
69 55 19
74 62 7
82 64 11
70 55 10
77 60 19
84 64 8
80 63 1
105 84 15
85 69 19
99 79 16
88 67 6
90 73 7
96 80 16
90 70 19
93 75 10
101 79 12
98 77 14
97 73 13
94 72 7
91 71 18
84 61 4
93 73 11
94 71 9
90 65 10
89 70 18
106 83 14
94 76 8
110 95 33
84 66 8
97 82 18
90 70 3
94 73 7
95 74 9
96 77 19
105 84 7
105 89 19
101 81 20
98 75 8
96 79 12
109 89 9
94 72 8
99 81 17
90 70 8
103 83 17
103 81 11
101 79 6
95 77 19
110 87 12
91 69 18
100 77 24
122 95 14
98 76 21
101 77 20
109 88 18
99 78 13
96 77 24
89 73 7
101 78 10
112 89 10
94 72 11
106 83 9
113 91 26
94 77 11
101 81 6
99 80 22
92 71 8
111 92 31
103 81 12
100 78 18
117 101 26
111 92 26
79 58 9
107 85 18
98 75 13
96 71 20
96 70 8
102 82 18
90 71 18
101 76 11
120 97 33
97 77 19
99 79 24
98 77 30
96 77 25
90 72 25
111 91 31
73 55 3
98 76 22
105 82 22
97 77 29
107 86 29
96 76 21
94 75 31
91 76 29
96 81 33
102 83 30
90 73 29
95 74 23
95 76 29
103 85 42
98 82 39
113 105 28
171 193 0
171 195 0
173 195 0
168 191 0
172 195 0
174 197 0
173 195 0
173 196 0
172 193 0
173 196 0
172 195 0
173 197 0
170 194 0
175 196 0
172 195 0
170 193 0
172 196 0
172 194 0
171 194 0
171 194 0
172 195 0
172 195 0
173 196 0
173 196 0
173 195 0
173 195 0
172 193 0
168 190 0
172 196 0
173 196 0
169 193 0
174 196 0
174 196 0
174 197 0
169 193 0
173 196 0
173 195 0
172 196 0
172 196 0
172 196 0
173 197 0
173 197 0
173 196 0
175 198 0
173 196 0
172 195 0
171 195 0
173 197 0
171 194 0
172 196 0
175 198 0
174 197 0
175 197 0
176 199 0
175 198 0
170 194 0
174 198 0
174 197 0
172 196 0
172 195 0
173 197 0
170 193 0
175 198 0
171 195 0
175 198 0
174 196 0
173 196 0
173 196 0
171 193 0
169 193 0
173 195 0
170 193 0
173 196 0
172 195 0
172 196 0
171 195 0
171 195 0
173 196 0
173 196 0
171 193 0
173 196 0
171 195 0
172 196 0
170 193 0
172 195 0
172 194 0
170 194 0
173 195 0
167 191 0
172 195 0
172 194 0
173 196 0
171 193 0
167 189 0
170 193 0
169 192 0
173 196 0
166 189 0
170 194 0
170 193 0
174 196 0
171 194 0
167 190 0
171 195 0
167 190 0
169 191 0
172 194 0
169 192 0
166 189 0
173 194 0
170 193 0
169 192 0
169 192 0
171 194 0
171 194 0
169 193 0
173 195 0
169 192 0
169 192 0
170 193 0
169 191 0
168 190 0
167 190 0
170 193 0
169 192 0
169 193 0
169 194 0
169 192 0
170 193 0
171 194 0
168 191 0
173 196 0
167 190 0
168 192 0
167 190 0
163 185 0
164 188 0
159 182 0
168 191 0
165 187 0
167 190 0
162 184 0
169 191 0
166 190 0
167 190 0
167 189 0
167 190 0
167 190 0
163 185 0
166 188 0
165 188 0
162 185 0
163 186 0
161 184 0
160 182 0
163 186 0
162 185 0
163 187 0
165 188 0
167 189 0
163 184 0
155 177 0
160 183 0
157 180 0
163 186 0
157 180 0
163 186 0
161 183 0
156 179 0
144 167 0
152 175 0
159 181 0
156 179 0
156 179 0
159 182 0
154 178 0
146 168 0
155 177 0
158 181 0
148 171 0
162 185 0
154 177 0
148 170 0
155 178 0
152 174 0
157 180 0
157 180 0
151 173 0
147 168 0
156 178 0
158 181 0
157 179 0
139 160 0
149 171 0
159 181 0
149 171 0
147 169 0
148 169 0
147 169 0
145 166 0
149 170 0
134 156 0
137 158 0
140 160 0
88 114 105
57 90 105
60 94 122
56 90 111
59 94 128
60 95 140
59 94 122
58 92 125
59 93 117
59 93 122
60 95 130
58 93 133
59 94 144
57 91 108
59 93 130
58 92 108
57 91 122
59 94 131
59 94 135
58 91 120
60 94 131
57 91 120
60 94 135
58 93 133
59 94 133
58 91 118
61 95 145
57 89 116
59 93 133
57 91 109
57 91 134
58 91 131
57 88 118
58 92 125
58 91 115
56 90 99
56 88 115
57 88 121
59 93 136
57 88 128
58 92 127
56 88 120
56 89 126
56 89 106
55 85 109
57 89 117
55 87 117
55 86 115
54 82 110
56 86 121
57 87 126
55 85 100
51 79 96
57 87 123
53 82 109
55 85 106
56 88 122
52 80 105
56 84 104
53 82 106
54 82 97
54 84 107
53 82 102
54 83 102
52 80 92
55 82 87
50 75 94
46 70 73
84 108 71
139 158 0
147 169 0
147 168 0
154 174 0
148 169 0
148 168 0
146 166 0
144 165 0
154 174 0
154 176 0
152 174 0
140 161 0
153 174 0
156 174 0
160 182 0
150 173 0
162 184 0
161 183 0
152 173 0
159 180 0
165 186 0
157 180 0
145 161 0
100 99 36
79 62 28
75 57 8
80 59 8
77 53 9
71 59 18
71 57 16
82 62 16
82 63 18
79 63 7
93 74 11
105 83 20
87 70 16
96 75 21
84 67 17
103 80 18
85 66 7
81 62 6
80 61 7
94 78 12
92 77 19
104 82 11
84 68 11
95 74 18
94 77 13
98 80 11
103 76 14
104 82 20
95 72 8
103 82 11
100 84 11
103 81 12
101 83 18
100 79 13
107 87 19
96 74 10
109 89 20
96 75 13
98 80 16
106 87 7
97 74 12
99 76 5
103 81 8
98 75 15
107 86 16
96 74 18
91 69 11
99 76 11
101 79 11
99 78 3
112 95 11
96 78 8
102 84 18
96 79 7
101 80 15
106 87 10
101 79 16
106 86 14
101 78 9
105 84 30
98 76 19
107 84 11
106 84 13
96 77 20
102 77 23
106 83 26
96 76 18
97 75 9
90 70 9
108 87 28
90 69 14
106 84 17
102 83 8
103 86 19
99 78 21
103 80 16
101 77 14
104 84 21
103 85 20
96 73 15
96 79 34
98 76 16
109 91 34
110 89 23
94 76 23
95 73 18
101 80 17
95 69 20
103 83 22
98 78 28
93 75 29
95 73 26
93 73 18
93 70 19
95 75 21
96 77 31
94 75 19
104 81 31
86 67 25
87 68 7
84 66 23
86 69 29
111 92 46
77 61 24
144 158 17
169 191 0
172 195 0
172 195 0
172 195 0
174 198 0
171 194 0
174 198 0
172 195 0
172 195 0
173 195 0
169 192 0
172 195 0
173 196 0
169 193 0
169 192 0
172 195 0
172 195 0
174 196 0
173 197 0
173 197 0
173 194 0
173 197 0
172 194 0
171 194 0
171 194 0
173 196 0
173 197 0
175 196 0
175 198 0
172 195 0
172 196 0
172 195 0
174 196 0
173 196 0
173 194 0
175 198 0
171 194 0
173 196 0
174 198 0
173 196 0
172 195 0
173 197 0
172 196 0
174 197 0
171 194 0
173 197 0
173 196 0
173 197 0
171 194 0
170 194 0
173 195 0
174 197 0
176 198 0
174 198 0
172 196 0
174 197 0
173 196 0
172 195 0
173 197 0
172 196 0
174 197 0
172 195 0
175 197 0
172 195 0
172 195 0
173 196 0
170 193 0
172 195 0
172 196 0
171 195 0
175 198 0
168 192 0
176 198 0
172 195 0
173 195 0
171 194 0
167 190 0
171 193 0
171 195 0
175 198 0
172 195 0
172 195 0
172 195 0
173 195 0
174 196 0
171 194 0
173 195 0
173 196 0
168 192 0
169 191 0
173 195 0
171 194 0
170 193 0
170 195 0
172 195 0
171 194 0
171 195 0
168 192 0
168 192 0
172 196 0
168 192 0
170 194 0
167 191 0
167 190 0
169 192 0
166 191 0
169 191 0
166 189 0
170 192 0
170 193 0
168 191 0
165 188 0
171 194 0
169 193 0
169 193 0
169 191 0
172 195 0
173 195 0
172 194 0
169 191 0
165 188 0
169 192 0
169 192 0
170 193 0
170 193 0
163 186 0
168 192 0
166 190 0
169 193 0
172 195 0
168 191 0
172 195 0
166 190 0
163 185 0
166 189 0
171 194 0
164 186 0
170 192 0
169 192 0
170 192 0
163 184 0
166 191 0
159 182 0
163 186 0
168 190 0
170 193 0
169 192 0
165 187 0
154 176 0
165 187 0
155 177 0
163 186 0
165 189 0
164 186 0
166 189 0
160 182 0
165 188 0
172 194 0
162 186 0
163 185 0
160 182 0
165 187 0
165 188 0
164 188 0
161 183 0
160 182 0
158 180 0
160 183 0
153 176 0
153 175 0
163 185 0
150 172 0
149 172 0
158 181 0
161 184 0
153 175 0
156 179 0
151 173 0
149 173 0
161 185 0
148 171 0
141 163 0
160 181 0
160 183 0
160 182 0
165 187 0
143 166 0
148 170 0
150 172 0
148 169 0
154 176 0
150 172 0
150 172 0
129 150 0
156 177 0
135 156 0
135 157 0
133 154 0
147 169 0
138 159 0
147 169 0
129 149 0
148 168 0
129 150 0
61 93 92
57 89 105
57 91 99
57 91 114
57 91 108
56 90 102
59 94 117
56 88 99
57 91 108
59 93 133
60 95 130
58 93 123
58 92 130
59 94 122
58 92 123
58 93 125
58 92 120
58 92 117
60 95 140
58 93 140
58 92 117
60 95 144
58 91 121
59 94 128
59 93 130
59 94 128
60 94 129
56 89 125
58 90 123
57 91 121
57 90 115
56 88 112
58 91 118
57 90 113
59 92 137
58 93 125
55 87 115
57 88 122
58 90 123
58 89 124
58 90 125
57 90 128
57 90 126
58 88 118
59 90 129
55 86 118
56 86 116
56 84 111
56 85 104
53 82 100
54 84 109
54 83 103
54 82 111
57 86 113
56 85 123
56 85 120
52 80 99
55 84 106
54 85 109
57 87 112
54 83 106
53 79 90
51 79 83
52 81 85
54 83 87
53 82 96
57 84 80
132 151 28
140 158 0
135 153 0
142 161 0
145 164 0
146 168 0
147 168 0
143 165 0
153 174 0
138 157 0
147 168 0
161 183 0
143 165 0
144 165 0
151 174 0
151 171 0
156 177 0
150 171 0
155 176 0
150 172 0
154 177 0
157 178 0
153 174 0
146 164 0
91 90 43
75 57 10
88 70 7
61 47 17
68 54 12
79 62 11
94 73 10
88 70 6
93 71 10
88 67 16
91 66 14
84 65 5
96 77 16
80 62 3
90 72 8
85 70 3
93 73 13
104 86 19
97 78 12
107 84 21
103 80 11
91 70 11
91 69 11
91 70 11
105 81 10
93 73 13
97 79 13
94 72 15
88 64 5
102 81 12
87 64 7
94 72 0
104 83 11
105 90 19
104 81 11
105 85 9
98 80 9
107 85 25
104 81 15
105 85 6
108 83 10
105 80 15
96 80 12
115 94 24
104 85 16
105 87 21
109 89 21
103 83 13
91 71 20
96 75 4
103 81 20
101 81 4
101 81 13
100 81 10
98 78 25
110 89 16
101 80 13
106 86 17
101 83 28
102 82 16
109 90 23
97 78 13
105 86 29
100 81 24
101 86 25
101 78 13
103 81 16
90 75 24
102 83 12
98 82 19
103 82 8
100 83 29
100 80 22
96 72 17
102 84 20
100 78 10
108 87 27
102 84 14
99 74 15
92 73 10
90 72 20
97 81 20
104 82 15
89 74 25
91 70 18
99 82 26
99 79 18
77 62 24
88 74 17
96 75 25
85 65 18
78 57 20
92 73 19
104 87 30
96 79 27
97 75 18
104 85 31
101 83 34
80 63 24
100 82 29
99 84 42
77 64 20
73 54 12
77 61 25
98 88 24
171 194 16
169 192 0
170 192 0
173 195 0
171 193 0
174 197 0
170 193 0
174 196 0
173 195 0
174 196 0
175 198 0
172 195 0
169 193 0
175 198 0
171 195 0
169 193 0
172 194 0
172 196 0
172 193 0
172 196 0
174 197 0
172 196 0
173 195 0
172 195 0
171 194 0
174 197 0
177 198 0
173 197 0
175 197 0
175 197 0
170 194 0
175 196 0
172 195 0
169 193 0
172 195 0
173 197 0
174 197 0
173 195 0
173 196 0
173 197 0
174 197 0
175 198 0
172 195 0
172 195 0
171 195 0
173 196 0
172 196 0
173 196 0
173 196 0
173 196 0
174 197 0
172 195 0
174 197 0
172 194 0
173 197 0
172 196 0
174 197 0
173 196 0
174 197 0
174 197 0
171 195 0
173 196 0
171 195 0
172 195 0
172 195 0
173 197 0
172 195 0
169 193 0
173 196 0
173 196 0
173 196 0
170 194 0
172 195 0
171 194 0
170 195 0
171 194 0
175 198 0
173 196 0
174 196 0
168 192 0
171 195 0
173 197 0
174 197 0
172 195 0
173 197 0
170 194 0
170 194 0
171 194 0
174 197 0
172 194 0
172 195 0
172 193 0
170 194 0
169 192 0
175 198 0
173 195 0
171 195 0
168 191 0
169 192 0
171 194 0
172 196 0
167 189 0
168 190 0
168 192 0
169 191 0
168 192 0
172 195 0
170 193 0
166 189 0
169 192 0
171 192 0
171 192 0
172 195 0
171 194 0
168 192 0
168 191 0
170 193 0
171 193 0
167 190 0
169 192 0
164 187 0
171 193 0
167 190 0
164 188 0
168 191 0
167 190 0
172 194 0
166 188 0
167 190 0
166 190 0
169 191 0
164 186 0
168 191 0
164 186 0
165 188 0
166 188 0
167 190 0
167 190 0
168 192 0
163 186 0
168 190 0
165 189 0
168 191 0
167 191 0
169 192 0
171 194 0
170 193 0
168 192 0
164 188 0
167 191 0
161 185 0
162 185 0
159 183 0
168 191 0
166 189 0
169 191 0
161 185 0
161 184 0
164 188 0
165 190 0
160 181 0
159 182 0
165 188 0
164 187 0
163 186 0
159 182 0
160 184 0
150 172 0
159 182 0
157 180 0
160 183 0
158 181 0
155 179 0
162 184 0
164 188 0
153 178 0
156 178 0
160 183 0
156 180 0
151 174 0
154 177 0
160 183 0
146 168 0
148 171 0
140 163 0
143 165 0
157 177 0
153 175 0
139 161 0
151 172 0
155 178 0
138 159 0
158 181 0
149 172 0
148 170 0
152 173 0
145 167 0
140 160 0
131 153 0
136 157 0
139 160 0
131 151 0
138 160 0
135 157 0
109 131 80
55 88 99
56 89 102
53 85 95
58 92 114
59 92 114
59 92 125
59 93 125
58 91 117
57 91 122
57 90 117
60 95 135
58 92 120
59 93 120
60 93 121
58 92 125
59 94 128
58 91 131
60 94 130
57 90 114
61 96 137
57 90 103
60 94 142
56 89 107
58 91 128
59 92 130
59 93 133
58 91 121
57 91 121
57 88 116
59 93 134
60 94 127
56 87 125
54 86 103
58 91 134
58 92 126
55 86 116
57 87 115
56 88 109
57 87 114
56 86 103
57 89 123
58 89 104
57 87 105
55 85 114
56 85 103
55 84 110
58 88 117
54 84 108
56 87 111
55 86 111
55 84 111
58 90 114
52 80 83
53 80 103
55 84 115
55 84 109
54 84 108
54 84 102
53 81 102
54 83 102
51 77 85
52 79 93
50 76 93
55 85 104
52 81 81
118 139 62
136 157 0
138 158 0
126 146 0
139 159 0
140 161 0
149 170 0
155 175 0
149 170 0
149 169 0
145 164 0
149 169 0
157 176 0
160 180 0
153 173 0
157 178 0
155 177 0
156 177 0
151 173 0
160 180 0
157 178 0
155 176 0
162 181 0
159 180 0
149 165 11
97 96 39
74 62 16
75 59 1
79 61 19
88 69 19
80 64 12
96 78 18
74 59 0
95 76 9
81 64 10
98 75 21
89 69 8
93 72 15
85 66 8
86 72 12
90 76 8
95 74 21
93 71 10
96 76 6
84 71 7
105 83 13
101 80 11
98 78 17
110 91 20
90 71 8
95 76 7
92 74 8
102 80 11
96 78 7
93 75 20
103 83 18
89 69 6
87 63 9
96 75 11
93 75 11
98 76 12
93 72 17
97 76 8
102 86 20
94 74 10
113 92 13
101 77 3
105 82 13
109 90 7
106 88 14
101 81 20
100 84 7
110 91 20
94 71 8
106 84 16
105 86 10
104 82 15
96 73 18
96 77 5
99 79 12
104 85 19
88 68 7
103 80 18
91 70 12
106 87 16
97 73 4
105 82 21
100 82 24
97 74 19
104 80 13
109 88 24
103 82 27
103 83 18
98 82 12
111 85 19
108 85 27
92 72 5
101 77 21
99 80 24
92 75 11
103 78 13
103 84 19
89 70 17
98 77 13
94 71 14
93 72 18
101 84 31
103 82 15
94 70 10
90 69 8
107 86 31
92 73 24
99 80 11
95 78 21
85 65 7
96 80 33
94 72 30
91 73 20
91 70 21
94 75 23
92 71 22
89 72 31
88 74 31
108 87 32
95 74 25
97 79 30
92 75 34
83 63 21
88 74 30
97 82 39
143 156 5
171 194 0
168 192 0
175 197 0
173 195 0
172 195 0
169 192 0
176 199 0
172 196 0
172 195 0
172 196 0
173 197 0
172 195 0
172 195 0
171 194 0
175 197 0
174 198 0
174 197 0
175 198 0
176 198 0
172 195 0
174 197 0
171 195 0
173 195 0
174 198 0
173 197 0
175 198 0
174 198 0
172 195 0
173 196 0
174 196 0
172 195 0
171 193 0
170 194 0
174 197 0
171 195 0
173 197 0
173 197 0
172 195 0
174 197 0
171 195 0
171 195 0
174 198 0
174 197 0
171 195 0
172 197 0
171 195 0
174 197 0
176 198 0
173 196 0
171 195 0
171 195 0
172 195 0
173 196 0
173 196 0
174 197 0
169 192 0
172 195 0
172 195 0
169 193 0
175 197 0
172 195 0
172 195 0
172 195 0
174 197 0
173 196 0
174 197 0
171 194 0
173 196 0
170 192 0
171 195 0
171 195 0
172 196 0
172 196 0
171 195 0
171 195 0
173 196 0
170 193 0
169 192 0
170 193 0
172 196 0
171 195 0
172 195 0
173 196 0
174 196 0
175 197 0
173 197 0
171 195 0
171 195 0
173 196 0
170 193 0
170 194 0
172 195 0
169 193 0
173 196 0
171 195 0
168 191 0
171 194 0
170 194 0
171 195 0
171 194 0
173 196 0
168 191 0
166 191 0
166 190 0
171 192 0
173 195 0
167 190 0
170 194 0
166 188 0
171 195 0
167 191 0
170 194 0
169 193 0
166 189 0
168 191 0
174 197 0
170 193 0
169 192 0
170 194 0
170 194 0
170 193 0
170 194 0
171 194 0
169 192 0
172 194 0
165 189 0
169 192 0
168 191 0
164 188 0
165 188 0
172 195 0
171 194 0
171 193 0
172 195 0
161 184 0
171 194 0
170 193 0
164 187 0
165 189 0
159 182 0
169 192 0
165 188 0
167 190 0
166 189 0
165 187 0
168 191 0
162 186 0
163 186 0
165 187 0
169 191 0
165 189 0
167 190 0
162 186 0
164 187 0
165 187 0
165 188 0
153 176 0
164 187 0
161 184 0
160 183 0
166 188 0
163 186 0
159 181 0
163 186 0
157 181 0
157 180 0
152 175 0
153 175 0
157 179 0
164 187 0
157 181 0
157 181 0
156 178 0
152 174 0
156 178 0
159 181 0
166 188 0
164 187 0
146 167 0
155 177 0
155 176 0
153 175 0
154 176 0
154 176 0
152 175 0
153 176 0
153 176 0
139 162 0
143 164 0
140 162 0
148 169 0
151 173 0
151 173 0
153 176 0
142 163 0
142 164 0
145 167 0
145 168 0
128 149 0
146 167 0
147 168 0
141 163 0
137 156 0
136 156 0
69 97 99
53 84 80
57 90 114
57 91 114
55 87 92
60 95 137
56 89 95
59 94 122
60 94 133
59 93 130
58 91 117
59 94 133
59 93 135
57 91 120
59 93 117
60 94 138
59 94 120
58 92 103
59 93 120
58 92 117
56 90 111
60 94 138
58 91 112
57 90 126
58 92 128
58 91 123
59 91 128
59 93 133
57 89 122
58 92 123
57 91 117
60 95 140
57 89 121
59 91 123
56 89 115
53 83 84
58 92 118
58 90 121
57 89 128
56 89 112
57 88 120
56 86 110
57 88 131
58 90 125
57 88 123
53 82 113
54 82 99
56 86 114
56 85 119
55 84 108
57 88 126
54 81 97
55 82 97
52 78 88
54 83 109
57 87 120
54 83 91
51 79 77
52 77 81
53 79 98
54 84 109
51 76 71
54 83 99
50 77 82
87 109 71
127 146 0
140 160 0
132 154 0
140 162 0
135 151 0
148 169 0
138 159 0
147 168 0
150 169 0
149 169 0
131 152 0
151 169 0
151 172 0
151 172 0
152 173 0
147 167 0
155 177 0
149 172 0
156 174 0
155 177 0
148 172 0
156 178 0
163 184 0
158 180 0
118 128 5
84 86 32
88 83 26
72 53 10
70 53 11
75 57 18
83 66 15
73 56 7
79 63 13
86 67 10
93 78 26
79 60 7
82 61 5
89 66 9
88 72 8
85 63 7
82 67 10
98 79 13
98 77 22
93 73 15
86 69 4
93 82 8
98 78 8
93 78 19
99 77 7
100 79 12
102 79 16
100 77 11
96 81 11
104 79 8
96 75 18
95 72 8
100 80 8
100 84 13
107 89 15
93 68 4
102 79 17
99 81 6
116 97 21
120 100 17
96 76 13
98 76 18
107 86 23
90 71 3
105 82 9
103 84 17
112 91 21
113 93 16
108 83 8
102 83 13
106 85 16
99 76 13
107 88 11
105 87 12
95 73 5
104 78 11
97 79 5
98 80 12
109 89 19
95 77 7
104 78 13
106 83 13
102 82 8
101 81 19
105 82 10
96 79 14
91 70 10
98 77 19
99 78 21
102 81 19
93 74 23
104 84 20
92 73 11
104 90 27
100 83 20
94 76 15
90 77 24
104 81 20
100 77 19
100 82 30
105 81 25
102 83 16
100 80 18
104 85 25
105 86 30
92 77 29
87 65 13
104 82 32
96 79 32
100 76 12
97 78 25
100 80 28
89 68 22
92 71 24
90 73 23
84 66 14
89 71 19
98 76 20
108 91 34
92 73 19
95 78 35
101 80 34
82 68 28
97 78 34
93 75 29
91 75 34
116 122 24
170 192 0
170 194 0
173 197 0
172 195 0
172 194 0
174 198 0
173 195 0
174 197 0
171 194 0
174 196 0
176 198 0
173 196 0
172 196 0
174 196 0
174 196 0
171 194 0
175 197 0
170 194 0
175 198 0
171 192 0
170 193 0
172 195 0
168 192 0
171 195 0
172 195 0
172 194 0
175 198 0
172 197 0
172 194 0
170 193 0
171 195 0
171 194 0
174 197 0
172 193 0
172 195 0
172 196 0
172 194 0
170 194 0
173 197 0
175 197 0
168 192 0
175 198 0
174 196 0
171 194 0
171 196 0
171 195 0
174 197 0
172 196 0
171 195 0
172 196 0
173 196 0
171 195 0
169 193 0
170 193 0
169 193 0
171 195 0
174 197 0
171 195 0
174 197 0
173 197 0
173 196 0
173 196 0
175 197 0
172 196 0
171 194 0
172 196 0
173 195 0
173 196 0
174 197 0
172 195 0
172 196 0
170 194 0
170 194 0
168 191 0
172 195 0
172 195 0
173 196 0
172 194 0
172 195 0
173 196 0
172 195 0
174 197 0
165 189 0
174 196 0
171 195 0
170 194 0
171 194 0
173 195 0
170 192 0
170 194 0
170 193 0
172 196 0
172 196 0
172 194 0
170 194 0
171 195 0
172 196 0
170 194 0
172 194 0
172 195 0
168 191 0
173 196 0
172 194 0
171 194 0
169 192 0
164 187 0
172 195 0
169 192 0
169 192 0
163 187 0
169 192 0
166 189 0
168 191 0
167 191 0
167 190 0
164 187 0
172 195 0
169 192 0
167 190 0
167 190 0
171 194 0
168 190 0
167 191 0
168 190 0
170 194 0
171 194 0
168 191 0
166 190 0
169 192 0
163 185 0
171 193 0
166 188 0
163 186 0
167 191 0
164 186 0
166 189 0
164 188 0
168 190 0
169 192 0
168 191 0
172 195 0
166 190 0
168 191 0
166 188 0
164 188 0
167 190 0
164 187 0
168 192 0
166 189 0
166 188 0
172 196 0
165 188 0
165 189 0
164 187 0
164 186 0
160 183 0
158 182 0
163 186 0
164 188 0
154 177 0
162 184 0
163 185 0
158 180 0
166 188 0
162 184 0
167 189 0
151 174 0
156 178 0
154 176 0
158 180 0
157 181 0
155 177 0
159 180 0
159 181 0
153 176 0
153 174 0
150 173 0
152 174 0
161 183 0
144 166 0
158 180 0
150 173 0
152 175 0
152 174 0
147 169 0
140 162 0
151 173 0
137 158 0
147 169 0
142 164 0
147 168 0
133 155 0
144 165 0
146 166 0
133 155 0
147 168 0
158 181 0
134 155 0
130 150 0
143 165 0
143 165 0
136 157 0
128 149 0
138 160 0
131 151 0
53 85 88
57 91 108
57 91 117
59 92 111
55 87 108
60 95 147
56 88 111
57 90 117
58 92 122
58 92 122
58 92 123
56 89 99
57 90 114
59 94 120
57 91 117
57 91 120
57 91 135
58 91 128
58 92 120
58 92 118
59 93 128
60 94 133
58 92 114
59 94 135
57 91 121
59 91 125
56 88 109
58 90 125
58 91 133
59 93 131
59 93 134
58 91 121
57 89 134
56 88 120
54 83 108
57 89 132
58 90 124
57 88 122
58 91 120
57 87 118
57 88 117
55 86 106
54 84 109
55 86 107
54 84 108
57 87 108
52 81 94
56 86 108
56 87 96
55 85 109
58 90 114
55 85 113
55 85 102
54 84 104
52 79 80
54 82 94
52 80 93
53 81 100
54 82 112
52 80 100
53 80 98
48 75 76
69 90 73
126 144 28
146 166 0
134 151 0
137 156 0
128 148 0
134 153 0
147 167 0
136 158 0
136 156 0
154 175 0
141 161 0
156 179 0
149 171 0
145 165 0
145 164 0
153 174 0
169 192 0
151 172 0
160 182 0
146 167 0
147 169 0
151 173 0
157 176 0
160 181 0
156 177 0
117 126 34
100 98 38
89 87 43
87 71 17
63 52 6
82 65 18
68 54 7
88 70 12
96 72 17
84 68 23
93 76 19
87 70 18
97 76 12
94 70 15
93 72 7
86 70 7
90 74 11
90 70 10
96 73 11
82 65 7
81 67 1
87 69 8
97 78 9
103 86 11
92 75 10
92 71 7
103 86 14
91 76 3
93 74 18
100 83 19
99 83 3
96 78 8
106 86 11
109 90 18
100 81 16
100 76 9
110 96 21
109 87 15
101 83 14
104 84 13
104 80 11
101 78 12
111 93 20
109 91 21
110 91 13
100 78 4
102 83 14
104 82 12
101 79 7
100 74 18
100 79 11
88 72 1
95 72 10
106 83 11
100 76 18
105 86 23
93 75 10
112 90 20
107 86 12
106 82 7
102 84 13
110 91 12
92 78 8
105 83 13
115 97 13
105 85 20
101 79 13
101 85 10
101 80 21
109 87 22
111 86 24
108 90 27
95 75 13
107 86 15
97 77 19
102 80 20
95 77 26
102 84 19
95 69 11
102 80 12
94 78 20
105 84 13
85 67 19
96 73 18
101 84 21
99 76 12
103 84 16
84 66 10
108 84 27
95 76 24
86 67 24
90 72 14
97 82 21
94 72 24
97 77 22
78 61 9
91 68 19
86 71 19
93 71 21
92 73 22
77 64 24
85 63 19
94 77 30
91 70 22
85 71 36
89 73 31
87 68 25
171 192 22
172 194 0
173 193 0
171 194 0
174 197 0
169 193 0
171 192 0
173 196 0
172 195 0
171 195 0
173 195 0
172 195 0
171 193 0
173 197 0
175 197 0
172 196 0
170 195 0
175 197 0
175 197 0
173 194 0
175 196 0
176 197 0
173 195 0
173 196 0
171 195 0
171 195 0
173 195 0
174 197 0
170 193 0
174 198 0
172 195 0
171 193 0
171 194 0
176 198 0
174 197 0
171 195 0
174 195 0
173 197 0
174 197 0
173 197 0
172 196 0
173 197 0
173 197 0
173 197 0
175 198 0
172 195 0
171 195 0
169 194 0
173 196 0
172 196 0
172 196 0
171 195 0
173 197 0
172 195 0
172 195 0
175 198 0
173 196 0
174 197 0
173 197 0
172 195 0
174 197 0
173 196 0
175 198 0
171 194 0
170 192 0
170 195 0
172 196 0
173 197 0
173 196 0
172 196 0
173 196 0
173 197 0
172 196 0
172 195 0
174 197 0
169 192 0
171 193 0
172 196 0
167 190 0
170 192 0
172 196 0
173 197 0
171 195 0
164 187 0
171 193 0
171 194 0
171 193 0
170 194 0
170 193 0
172 196 0
171 194 0
173 195 0
168 191 0
171 195 0
168 192 0
170 193 0
169 193 0
170 193 0
170 193 0
170 193 0
174 196 0
172 195 0
172 195 0
171 194 0
171 194 0
170 194 0
170 194 0
166 189 0
171 195 0
173 196 0
167 190 0
172 195 0
168 191 0
171 192 0
168 191 0
167 191 0
170 194 0
167 189 0
169 192 0
170 193 0
171 194 0
171 193 0
167 189 0
172 194 0
166 188 0
173 195 0
166 190 0
171 194 0
169 191 0
171 194 0
165 188 0
171 193 0
168 192 0
164 188 0
167 191 0
163 186 0
168 191 0
159 181 0
172 194 0
170 194 0
166 188 0
167 190 0
169 191 0
160 184 0
166 190 0
170 192 0
167 191 0
162 185 0
168 191 0
156 179 0
168 191 0
164 187 0
166 189 0
163 186 0
165 188 0
165 188 0
165 187 0
169 193 0
173 195 0
157 179 0
155 180 0
167 191 0
162 184 0
171 194 0
159 183 0
162 184 0
168 191 0
168 190 0
158 181 0
156 180 0
157 180 0
157 180 0
164 187 0
160 182 0
158 180 0
156 179 0
150 174 0
159 181 0
158 183 0
157 179 0
156 179 0
143 166 0
153 175 0
158 181 0
148 169 0
154 176 0
155 176 0
145 166 0
156 179 0
140 162 0
138 160 0
149 170 0
143 164 0
141 163 0
142 164 0
152 175 0
149 170 0
141 162 0
140 161 0
144 166 0
129 152 0
121 140 0
130 152 0
150 170 0
119 138 0
125 146 25
67 96 84
56 89 111
56 89 92
55 88 99
58 91 128
55 87 92
58 92 114
57 91 114
57 91 105
56 91 108
58 92 117
58 93 117
57 92 120
60 94 131
61 95 133
57 90 111
58 91 125
58 93 122
59 93 140
57 91 120
58 91 116
58 92 126
57 90 117
59 93 130
57 89 116
58 90 118
56 87 108
59 93 134
58 92 129
56 88 111
59 93 144
57 90 103
57 88 115
59 91 128
56 88 103
58 91 123
56 89 112
55 86 112
58 91 121
57 90 113
56 87 118
53 84 113
55 85 115
56 86 111
54 83 97
53 81 97
53 82 97
56 87 115
55 84 111
54 82 94
54 82 88
54 82 103
52 80 97
52 78 83
55 85 106
53 81 91
52 78 82
50 78 96
51 77 56
52 81 78
54 77 63
121 141 36
129 148 0
129 147 0
139 159 0
122 139 0
148 169 0
158 178 0
140 159 0
132 152 0
141 161 0
136 155 0
147 167 0
159 179 0
155 176 0
147 169 0
151 171 0
152 173 0
146 167 0
153 175 0
148 167 0
153 175 0
160 180 0
159 180 0
147 170 0
150 170 0
153 173 0
110 118 26
107 106 43
96 96 43
103 89 28
80 63 8
78 61 19
85 69 10
88 67 13
85 71 16
93 73 5
77 61 3
90 67 10
75 59 8
94 72 8
87 69 18
90 72 10
95 77 12
102 84 9
98 79 17
81 61 4
89 69 13
87 67 8
88 69 13
100 80 7
96 75 10
95 77 8
99 80 8
89 72 8
88 70 8
97 80 12
102 81 7
97 80 7
104 82 8
93 72 10
107 90 21
105 84 13
104 83 4
98 78 3
109 89 19
107 84 9
111 88 14
105 84 20
101 83 8
93 75 10
97 76 10
99 74 11
103 82 12
115 92 14
100 81 9
98 75 11
102 80 13
105 85 4
100 76 6
95 77 12
102 81 10
104 84 15
103 83 8
95 74 11
103 83 13
99 76 13
110 92 20
100 81 8
103 84 21
105 82 12
104 83 8
107 84 11
102 81 13
97 78 19
103 81 14
92 70 6
108 83 8
103 86 21
96 75 10
117 95 26
116 95 10
102 81 11
97 77 22
104 82 7
99 80 21
98 77 4
101 77 24
90 71 26
102 82 21
90 71 11
97 77 19
99 78 22
97 76 25
91 69 13
92 73 20
87 67 8
96 77 19
85 69 23
99 79 27
100 79 29
83 64 19
91 71 21
88 69 23
89 71 24
93 77 28
98 78 31
84 64 19
85 67 24
90 70 22
96 77 35
93 75 38
93 75 32
92 77 38
143 159 17
172 193 0
173 196 0
174 196 0
171 194 0
173 196 0
176 198 0
170 192 0
172 195 0
169 191 0
174 197 0
174 196 0
174 198 0
174 196 0
172 197 0
170 190 0
170 194 0
173 196 0
168 193 0
173 195 0
172 196 0
173 196 0
170 194 0
172 197 0
173 196 0
173 196 0
171 195 0
172 194 0
172 194 0
175 196 0
172 194 0
172 195 0
172 196 0
172 195 0
169 194 0
172 196 0
174 196 0
175 198 0
172 197 0
174 196 0
174 197 0
173 197 0
173 196 0
172 195 0
174 198 0
173 197 0
172 196 0
174 198 0
172 196 0
171 195 0
171 193 0
172 195 0
173 196 0
170 194 0
173 197 0
170 192 0
176 198 0
174 197 0
172 196 0
172 196 0
173 196 0
173 196 0
172 195 0
173 196 0
170 194 0
173 196 0
173 196 0
172 195 0
170 193 0
173 196 0
174 197 0
174 198 0
175 198 0
169 192 0
172 195 0
169 193 0
172 195 0
175 198 0
172 196 0
170 194 0
168 193 0
167 191 0
173 195 0
170 194 0
171 194 0
171 195 0
170 195 0
172 195 0
166 190 0
172 195 0
171 194 0
174 197 0
172 195 0
171 194 0
170 193 0
169 193 0
169 192 0
169 193 0
168 191 0
172 194 0
167 192 0
169 193 0
166 190 0
172 195 0
170 194 0
171 195 0
169 193 0
170 193 0
174 197 0
168 191 0
167 191 0
166 189 0
169 193 0
172 195 0
170 193 0
172 195 0
169 192 0
171 193 0
168 191 0
167 189 0
173 196 0
168 192 0
171 195 0
168 192 0
167 189 0
166 189 0
170 193 0
163 187 0
160 184 0
168 191 0
168 191 0
170 193 0
166 189 0
162 185 0
168 191 0
172 195 0
173 195 0
167 189 0
167 189 0
171 193 0
163 184 0
166 189 0
161 184 0
167 191 0
161 184 0
164 187 0
165 188 0
166 189 0
160 184 0
165 187 0
166 188 0
163 186 0
165 188 0
169 191 0
163 187 0
159 183 0
167 191 0
160 182 0
159 182 0
159 181 0
162 184 0
162 186 0
165 188 0
156 178 0
158 179 0
161 184 0
165 188 0
154 177 0
155 179 0
167 190 0
158 181 0
160 184 0
163 185 0
165 189 0
162 185 0
152 175 0
158 180 0
154 176 0
152 174 0
153 175 0
149 170 0
162 185 0
152 174 0
144 165 0
151 174 0
149 172 0
163 185 0
141 163 0
157 177 0
153 175 0
136 158 0
138 160 0
160 183 0
160 183 0
145 167 0
154 176 0
131 153 0
138 158 0
138 158 0
141 163 0
134 156 0
130 150 0
136 156 0
137 157 0
132 152 0
144 164 0
120 140 36
63 95 108
57 90 95
56 89 102
56 89 99
56 90 102
56 89 84
57 91 99
57 91 105
59 93 122
59 93 117
59 94 120
58 91 108
59 94 122
58 92 122
58 91 114
58 91 128
59 93 135
58 92 125
61 95 142
56 89 103
55 86 91
55 88 117
57 90 117
59 92 118
58 92 117
59 91 122
58 91 112
57 90 119
57 90 110
55 87 119
58 90 119
59 92 127
58 90 130
55 86 110
56 88 121
57 88 117
55 86 101
54 85 93
57 90 116
55 85 99
53 84 107
55 85 101
55 85 97
55 85 95
55 85 96
53 82 103
53 80 94
54 83 105
54 82 82
53 80 91
51 79 85
55 83 100
49 75 74
51 79 87
55 84 99
47 73 84
49 74 75
52 79 84
50 77 78
129 146 30
128 146 0
125 144 0
127 146 0
141 158 0
129 146 0
143 163 0
139 158 0
128 147 0
144 164 0
148 170 0
153 174 0
144 165 0
149 171 0
136 155 0
141 160 0
149 172 0
146 168 0
151 172 0
151 168 0
145 166 0
148 169 0
157 179 0
157 179 0
156 177 0
148 170 0
148 169 0
110 111 42
100 100 38
108 106 36
95 89 33
85 65 6
73 55 8
76 58 7
91 76 10
84 68 19
90 73 7
93 75 12
85 71 19
80 63 16
85 69 13
83 67 8
78 61 8
92 73 2
98 73 10
87 67 10
83 66 1
83 62 13
83 67 4
99 81 9
101 83 8
88 71 3
94 74 19
106 84 8
98 78 14
93 78 4
100 83 11
113 94 11
94 73 22
94 77 11
102 78 8
96 76 12
99 78 4
109 90 17
95 71 13
98 77 15
92 74 0
100 78 10
102 85 10
95 77 8
99 84 19
100 82 9
95 76 17
113 91 16
108 89 23
111 92 17
94 72 11
95 76 7
107 94 20
100 77 4
101 79 8
110 87 11
103 81 9
101 87 11
100 80 8
98 78 8
100 75 18
99 79 10
115 98 14
105 82 13
96 72 9
106 87 24
95 74 13
99 76 11
98 76 10
98 79 16
105 85 15
100 80 23
97 75 9
113 88 21
106 87 11
101 81 20
85 69 3
106 89 24
100 78 23
99 85 19
89 67 10
95 74 11
106 84 28
101 78 15
92 72 18
104 85 19
96 76 21
98 76 20
91 71 14
78 55 2
92 71 18
96 76 16
95 78 28
79 63 11
86 64 3
104 84 22
83 67 24
83 65 18
90 70 19
86 67 19
94 76 30
81 62 14
92 79 33
83 65 19
92 77 32
92 78 33
79 65 28
88 73 38
143 156 17
173 195 0
175 197 0
173 196 0
172 195 0
172 194 0
172 194 0
174 197 0
172 195 0
171 193 0
172 196 0
170 194 0
170 193 0
174 198 0
173 195 0
170 192 0
174 196 0
171 194 0
173 196 0
172 194 0
171 195 0
169 192 0
171 194 0
169 192 0
173 196 0
170 191 0
174 195 0
173 195 0
173 196 0
173 197 0
172 195 0
171 194 0
176 199 0
174 196 0
169 191 0
170 195 0
172 196 0
173 196 0
173 195 0
174 197 0
174 197 0
173 196 0
174 197 0
173 196 0
173 196 0
170 193 0
174 197 0
173 196 0
170 194 0
173 197 0
171 195 0
173 196 0
172 196 0
174 195 0
171 195 0
169 193 0
172 195 0
174 197 0
175 198 0
172 196 0
173 195 0
174 197 0
174 197 0
175 198 0
172 196 0
172 195 0
168 193 0
171 195 0
172 195 0
170 195 0
169 193 0
174 196 0
172 196 0
172 196 0
170 193 0
173 195 0
171 195 0
173 196 0
171 194 0
173 196 0
170 193 0
167 191 0
168 192 0
172 194 0
167 190 0
171 194 0
172 195 0
172 195 0
170 193 0
171 194 0
171 195 0
169 192 0
174 197 0
165 189 0
170 193 0
169 193 0
173 195 0
170 193 0
165 188 0
172 194 0
171 194 0
168 192 0
173 195 0
169 192 0
171 195 0
168 192 0
168 191 0
172 195 0
170 193 0
169 192 0
168 191 0
166 189 0
169 191 0
169 193 0
163 186 0
163 186 0
169 193 0
170 193 0
167 190 0
173 195 0
168 191 0
165 189 0
170 193 0
173 195 0
169 192 0
174 195 0
169 192 0
168 191 0
169 190 0
169 192 0
170 193 0
170 193 0
162 186 0
167 190 0
163 187 0
164 188 0
169 193 0
168 192 0
171 194 0
168 191 0
157 181 0
170 193 0
159 183 0
169 192 0
166 189 0
159 181 0
166 189 0
165 188 0
163 186 0
165 188 0
166 189 0
167 190 0
164 185 0
170 192 0
160 184 0
171 193 0
163 186 0
158 182 0
166 188 0
157 180 0
152 176 0
157 180 0
162 185 0
161 185 0
168 192 0
167 192 0
157 179 0
155 178 0
154 176 0
162 184 0
161 184 0
161 183 0
154 177 0
153 176 0
156 178 0
153 176 0
152 174 0
162 186 0
163 186 0
148 170 0
151 174 0
152 175 0
146 167 0
151 173 0
154 177 0
158 180 0
160 182 0
138 161 0
146 169 0
148 171 0
153 175 0
151 174 0
144 168 0
158 181 0
152 174 0
143 163 0
143 164 0
139 162 0
143 166 0
135 155 0
136 156 0
130 151 0
140 161 0
136 156 0
129 148 0
138 159 0
116 136 0
111 132 44
62 92 95
58 92 108
57 90 114
55 88 95
58 91 120
59 93 120
55 88 99
58 91 109
55 88 105
58 92 120
57 91 108
59 93 128
55 88 117
56 89 103
57 90 105
59 93 120
58 91 120
58 91 112
59 93 128
58 91 122
57 91 120
56 89 99
58 91 115
57 89 116
56 87 102
59 92 117
55 86 112
57 89 125
58 92 135
55 87 125
58 91 121
57 89 111
58 91 122
55 85 104
54 83 103
56 87 99
53 82 99
52 81 78
57 88 116
55 85 98
52 82 102
53 83 91
56 87 110
53 82 87
52 82 97
52 80 87
52 79 98
51 78 78
53 81 90
56 85 109
52 81 106
53 82 98
52 81 85
56 87 119
49 75 76
52 80 68
55 81 63
109 128 40
130 149 0
125 142 0
133 151 0
126 144 0
126 144 0
143 162 0
152 173 0
141 162 0
133 152 0
142 163 0
163 185 0
157 178 0
151 171 0
154 176 0
152 173 0
139 159 0
156 175 0
152 172 0
153 175 0
159 180 0
160 181 0
154 175 0
154 175 0
156 176 0
158 180 0
152 175 0
154 175 0
100 103 36
106 105 36
119 117 33
125 121 38
87 74 19
88 71 13
71 57 8
93 78 10
81 64 8
90 73 10
89 67 4
94 74 3
77 59 0
68 49 0
98 76 9
86 67 8
89 69 8
90 69 3
92 74 18
94 73 3
87 67 3
102 83 8
99 79 18
92 76 10
95 73 8
99 76 13
107 89 11
96 78 3
102 79 8
105 88 14
95 80 3
96 75 9
101 79 20
109 87 13
94 78 4
102 79 8
91 71 10
104 83 11
111 95 13
108 90 13
108 85 11
97 80 2
102 83 8
105 86 8
106 85 7
104 84 8
102 84 7
111 94 5
108 87 9
108 92 17
105 83 3
101 83 12
108 86 13
104 83 11
99 77 8
105 84 15
104 83 4
103 83 10
94 78 8
105 86 11
110 89 10
104 85 8
104 78 16
106 82 14
100 80 14
100 84 7
109 88 18
106 84 10
105 81 20
98 85 10
111 88 16
102 85 8
94 77 14
88 66 10
108 84 14
96 75 20
99 80 25
94 74 13
103 84 21
97 74 19
86 68 3
98 75 19
92 69 13
101 85 16
91 66 6
98 77 8
104 80 26
100 81 23
106 88 19
80 60 16
92 77 25
90 66 19
88 69 20
85 68 17
93 72 12
93 70 20
74 55 16
99 78 21
82 65 28
76 55 11
90 70 11
91 66 8
85 65 15
74 57 16
81 63 19
80 59 20
95 81 37
127 134 29
174 197 0
170 193 0
171 195 0
171 192 0
173 196 0
169 191 0
173 195 0
174 194 0
170 191 0
173 196 0
173 196 0
171 194 0
174 196 0
172 196 0
173 197 0
174 196 0
171 193 0
172 193 0
171 195 0
172 193 0
173 196 0
173 196 0
173 196 0
172 193 0
172 195 0
173 194 0
175 198 0
173 195 0
172 194 0
172 195 0
174 196 0
174 198 0
172 194 0
175 198 0
170 194 0
174 196 0
173 197 0
172 196 0
170 193 0
174 197 0
175 198 0
174 197 0
172 195 0
167 192 0
173 197 0
173 196 0
173 197 0
174 197 0
172 195 0
168 192 0
174 196 0
172 194 0
173 197 0
173 196 0
172 196 0
168 192 0
175 198 0
171 195 0
175 198 0
174 197 0
169 192 0
173 197 0
171 194 0
171 194 0
175 197 0
174 197 0
170 194 0
170 194 0
173 196 0
174 197 0
173 196 0
172 196 0
172 194 0
172 195 0
173 196 0
173 195 0
172 195 0
170 194 0
169 193 0
173 196 0
173 196 0
171 194 0
172 196 0
168 192 0
172 195 0
168 191 0
172 194 0
174 197 0
171 195 0
169 192 0
168 192 0
174 197 0
174 197 0
167 191 0
166 190 0
174 197 0
170 194 0
172 195 0
169 193 0
170 194 0
168 192 0
169 193 0
171 194 0
169 192 0
170 195 0
168 191 0
170 194 0
168 192 0
168 191 0
163 186 0
171 195 0
169 192 0
170 193 0
164 188 0
169 193 0
170 192 0
166 190 0
170 194 0
169 192 0
169 192 0
170 193 0
169 193 0
170 194 0
168 191 0
170 194 0
167 191 0
166 189 0
166 190 0
168 190 0
172 195 0
169 192 0
170 193 0
167 192 0
171 195 0
170 194 0
163 186 0
170 192 0
169 191 0
169 191 0
168 191 0
163 187 0
168 191 0
164 187 0
169 192 0
168 190 0
165 188 0
166 188 0
167 189 0
169 192 0
164 189 0
163 187 0
170 193 0
166 189 0
162 184 0
168 192 0
160 182 0
164 187 0
163 185 0
169 193 0
162 185 0
165 187 0
160 183 0
164 188 0
160 182 0
153 175 0
162 185 0
155 179 0
155 179 0
158 181 0
159 182 0
156 178 0
163 185 0
153 176 0
159 182 0
167 190 0
159 182 0
155 179 0
156 179 0
160 182 0
151 175 0
157 180 0
148 171 0
157 178 0
149 171 0
157 179 0
153 174 0
153 174 0
148 171 0
146 169 0
144 166 0
140 163 0
139 162 0
150 171 0
152 174 0
145 167 0
125 147 0
138 160 0
136 157 0
145 166 0
138 159 0
140 161 0
128 147 0
134 154 0
113 133 0
123 144 0
119 138 0
118 138 0
80 100 57
62 92 80
53 85 88
57 90 102
57 90 111
57 91 105
56 89 105
57 90 105
57 91 99
57 89 102
57 91 117
58 92 112
56 89 108
59 93 137
57 88 99
56 89 99
58 92 117
57 91 120
57 90 109
56 89 114
56 88 113
56 88 129
58 92 117
56 88 99
57 88 104
56 87 95
59 91 134
59 91 122
54 86 99
56 88 115
56 88 108
54 84 113
57 88 106
55 86 101
55 88 110
58 90 113
53 82 96
56 86 109
54 83 96
55 84 113
56 86 101
55 83 93
52 80 105
53 83 95
52 81 108
55 84 100
52 81 91
51 78 82
49 75 63
51 79 89
56 85 100
52 79 90
54 82 85
49 76 60
47 73 65
51 78 66
113 132 44
119 135 0
139 157 0
129 149 0
142 161 0
139 160 0
132 152 0
131 149 0
139 156 0
131 151 0
137 157 0
132 151 0
136 156 0
145 167 0
141 162 0
152 174 0
141 161 0
134 156 0
143 164 0
140 160 0
147 167 0
153 173 0
156 176 0
155 174 0
154 175 0
140 161 0
161 184 0
151 172 0
156 177 0
84 85 44
101 101 37
90 89 40
101 99 39
110 106 37
77 61 10
76 55 4
86 71 3
71 53 1
100 81 21
92 71 13
84 63 7
91 75 7
82 63 3
105 80 15
90 68 10
87 69 10
97 77 17
95 73 1
91 73 3
96 78 7
93 77 4
88 67 10
105 88 15
99 76 11
102 81 8
106 84 21
99 79 18
100 79 13
95 76 7
86 66 10
97 74 9
96 72 8
105 84 9
97 78 3
92 73 7
96 75 3
94 78 10
109 89 9
111 91 15
105 83 10
97 81 12
108 87 13
95 76 2
95 75 10
101 85 18
102 82 8
104 81 4
104 85 10
110 87 9
100 76 8
108 87 7
105 85 12
91 70 5
99 78 21
94 75 3
107 89 19
105 86 20
108 84 8
97 80 12
106 81 14
100 81 12
101 82 18
111 92 12
94 73 11
107 85 8
96 79 8
90 76 4
106 89 9
115 97 11
99 81 15
95 75 11
102 81 11
93 72 13
103 89 24
97 75 8
84 61 11
96 73 9
99 77 13
101 82 25
93 69 14
84 69 8
92 73 5
105 86 20
106 87 18
89 67 9
89 71 19
84 69 16
95 73 26
93 70 21
96 76 13
95 75 15
80 57 11
76 57 19
94 69 8
92 70 19
94 74 18
90 71 20
76 56 7
96 73 16
71 51 13
87 66 19
84 63 20
90 76 28
96 79 34
81 59 8
81 66 24
104 108 20
169 192 0
174 195 0
169 192 0
172 194 0
174 197 0
173 194 0
172 194 0
172 195 0
172 194 0
172 197 0
172 195 0
171 195 0
170 194 0
173 196 0
174 198 0
172 196 0
174 198 0
171 195 0
170 194 0
173 197 0
170 194 0
171 194 0
172 195 0
173 196 0
173 196 0
175 198 0
174 196 0
174 196 0
174 196 0
173 196 0
171 195 0
175 198 0
171 195 0
174 197 0
171 196 0
174 198 0
170 193 0
173 197 0
174 197 0
173 196 0
172 196 0
170 194 0
171 194 0
172 196 0
170 193 0
175 197 0
174 197 0
173 196 0
170 194 0
172 195 0
173 196 0
175 197 0
172 195 0
175 197 0
172 195 0
171 195 0
171 195 0
172 195 0
173 197 0
172 195 0
174 197 0
175 197 0
172 193 0
171 195 0
169 191 0
170 193 0
173 194 0
171 195 0
173 196 0
174 197 0
172 195 0
173 197 0
168 192 0
169 193 0
172 196 0
173 196 0
173 197 0
172 195 0
173 196 0
168 192 0
172 195 0
174 196 0
170 193 0
170 193 0
173 196 0
171 195 0
170 193 0
170 193 0
173 196 0
173 196 0
171 194 0
167 190 0
170 194 0
173 196 0
173 196 0
172 195 0
170 193 0
168 191 0
171 195 0
171 194 0
171 194 0
162 186 0
170 194 0
168 192 0
164 187 0
169 193 0
171 194 0
167 191 0
172 194 0
171 194 0
167 190 0
169 193 0
169 191 0
169 192 0
167 191 0
170 193 0
169 192 0
170 193 0
169 191 0
163 187 0
165 188 0
170 193 0
168 190 0
166 189 0
173 196 0
170 194 0
169 192 0
171 193 0
167 190 0
168 191 0
170 194 0
171 195 0
166 190 0
167 190 0
165 188 0
167 190 0
170 193 0
167 190 0
164 187 0
168 191 0
169 193 0
167 191 0
169 192 0
160 183 0
169 191 0
167 190 0
168 189 0
166 190 0
168 191 0
164 188 0
164 186 0
162 184 0
164 187 0
170 192 0
165 188 0
162 185 0
164 187 0
166 189 0
170 191 0
166 189 0
163 186 0
160 182 0
155 177 0
163 185 0
156 179 0
160 184 0
159 181 0
164 188 0
157 180 0
158 181 0
165 187 0
149 172 0
154 177 0
157 180 0
151 175 0
156 179 0
152 174 0
159 182 0
157 179 0
149 171 0
151 173 0
152 176 0
155 178 0
150 174 0
139 160 0
155 177 0
135 156 0
141 164 0
137 158 0
145 168 0
151 172 0
149 170 0
143 163 0
141 161 0
127 147 0
145 166 0
143 164 0
144 164 0
133 155 0
125 145 0
134 155 0
133 153 0
127 147 0
135 155 0
125 143 0
124 144 0
137 156 0
137 157 0
120 141 36
78 104 88
55 88 102
53 84 95
59 92 122
53 85 92
56 88 99
56 89 109
57 90 114
55 87 105
57 90 105
56 89 99
55 86 95
58 92 112
58 90 113
55 87 111
55 88 117
58 91 126
57 89 96
58 91 114
52 83 96
57 89 116
54 86 106
57 88 113
55 86 97
53 84 110
52 83 100
56 86 100
55 84 101
56 87 107
56 87 116
58 89 109
55 85 107
53 83 110
57 87 109
53 80 87
55 86 123
53 82 97
54 83 93
52 81 94
54 84 95
54 82 99
52 82 76
55 84 98
52 79 79
56 86 106
54 82 107
50 77 77
52 80 92
51 78 75
53 81 94
50 78 93
49 75 81
70 93 69
123 137 11
108 127 0
118 135 0
123 142 0
123 141 0
133 153 0
122 143 0
123 141 0
124 142 0
135 156 0
141 158 0
134 153 0
135 154 0
145 165 0
139 158 0
138 159 0
145 165 0
145 165 0
140 157 0
151 173 0
146 164 0
148 168 0
141 159 0
149 169 0
155 177 0
157 180 0
154 174 0
145 166 0
150 171 0
150 168 16
103 102 37
110 109 40
110 110 33
112 111 42
115 114 50
111 103 27
89 76 5
86 68 10
83 69 11
82 64 7
78 58 7
84 68 8
87 68 8
94 74 11
82 62 8
92 71 10
92 71 9
86 62 9
90 73 4
103 80 5
90 69 7
108 93 8
102 85 10
90 74 7
90 71 11
105 88 12
103 84 10
105 85 14
104 82 17
95 79 14
98 77 5
86 70 11
99 83 11
99 77 13
112 91 13
108 89 10
97 76 8
91 75 17
96 79 10
107 88 13
105 87 13
107 85 9
107 90 8
96 78 8
96 80 20
107 91 12
106 85 10
112 92 17
104 88 8
99 81 9
105 87 11
98 76 9
97 75 3
94 69 8
97 78 14
104 85 7
106 86 8
97 79 8
106 87 8
108 89 7
92 71 3
104 84 13
99 80 11
96 79 19
114 90 20
107 87 16
112 91 21
116 95 22
102 84 5
104 82 19
111 90 20
104 88 10
100 84 23
99 78 8
93 73 14
88 72 8
101 77 13
96 72 13
104 82 10
113 89 27
92 72 10
80 61 7
95 75 18
98 80 12
85 67 16
95 74 15
93 75 13
91 70 19
99 76 17
82 61 18
92 78 16
83 63 7
100 82 29
85 66 1
84 64 10
87 65 8
99 75 17
91 70 20
84 62 5
87 65 21
81 63 8
83 59 12
90 71 21
91 74 33
62 49 5
100 82 34
93 76 32
104 98 18
167 189 0
169 193 0
171 193 0
170 194 0
170 193 0
174 197 0
173 196 0
174 196 0
169 193 0
172 194 0
172 195 0
173 196 0
170 194 0
170 193 0
173 196 0
174 196 0
168 192 0
169 192 0
174 196 0
171 195 0
170 192 0
172 195 0
175 198 0
170 194 0
171 194 0
175 197 0
171 195 0
174 197 0
171 195 0
174 196 0
175 196 0
170 192 0
172 196 0
172 196 0
173 195 0
171 196 0
171 195 0
172 196 0
175 197 0
173 197 0
172 196 0
172 195 0
171 194 0
175 198 0
174 197 0
170 196 0
171 194 0
173 196 0
168 192 0
173 196 0
172 195 0
173 196 0
171 195 0
175 197 0
172 195 0
174 197 0
173 196 0
173 196 0
173 197 0
171 194 0
172 195 0
171 196 0
174 197 0
169 192 0
171 194 0
171 194 0
174 196 0
173 195 0
172 195 0
173 196 0
172 196 0
172 196 0
172 195 0
173 196 0
171 194 0
170 193 0
172 196 0
173 197 0
173 196 0
170 195 0
173 196 0
170 193 0
170 194 0
172 196 0
172 195 0
169 193 0
172 196 0
171 194 0
168 191 0
168 192 0
169 192 0
172 195 0
173 196 0
171 194 0
168 192 0
171 195 0
168 192 0
173 196 0
170 193 0
170 193 0
168 192 0
169 192 0
172 195 0
170 192 0
169 192 0
172 194 0
175 197 0
168 192 0
171 194 0
172 195 0
173 196 0
168 191 0
173 195 0
167 190 0
169 194 0
169 193 0
171 193 0
169 193 0
169 192 0
170 192 0
170 193 0
170 193 0
172 195 0
167 190 0
169 193 0
169 193 0
161 184 0
172 195 0
172 195 0
168 192 0
167 191 0
170 193 0
169 192 0
169 192 0
165 188 0
167 191 0
166 190 0
168 192 0
166 189 0
171 193 0
166 190 0
165 186 0
171 195 0
167 190 0
167 191 0
168 190 0
169 193 0
168 191 0
163 187 0
161 184 0
165 187 0
169 193 0
167 190 0
163 187 0
160 182 0
161 183 0
169 191 0
158 182 0
151 174 0
166 190 0
157 181 0
164 187 0
161 183 0
161 186 0
163 186 0
160 183 0
160 183 0
156 179 0
162 185 0
159 181 0
159 182 0
160 182 0
152 175 0
158 182 0
154 177 0
160 182 0
152 174 0
156 178 0
155 179 0
157 179 0
159 181 0
150 172 0
151 174 0
158 182 0
147 170 0
145 166 0
144 167 0
151 174 0
158 181 0
147 169 0
149 171 0
142 164 0
129 150 0
148 168 0
141 162 0
151 171 0
132 154 0
140 161 0
145 166 0
132 153 0
138 161 0
133 155 0
124 145 0
132 151 0
125 145 0
125 145 0
112 133 0
121 140 0
128 146 0
112 132 0
73 98 80
55 87 88
54 87 76
52 83 99
57 90 99
57 90 105
56 90 115
56 89 120
57 90 111
55 87 92
57 89 106
58 91 106
56 88 114
56 89 93
53 85 88
56 89 108
55 87 103
58 92 120
55 87 100
55 87 106
57 89 113
57 90 118
55 87 104
56 87 112
55 87 93
57 88 113
57 87 101
54 83 95
56 87 101
55 85 108
55 86 105
52 80 95
53 81 76
52 81 90
55 85 94
52 80 82
56 86 98
52 81 101
53 82 95
54 84 99
51 78 85
55 87 97
49 75 58
51 79 85
51 80 84
49 76 81
49 74 81
50 77 82
54 83 86
48 73 76
72 93 56
113 131 0
113 129 0
118 137 0
127 145 0
126 146 0
131 151 0
129 149 0
137 156 0
130 150 0
143 164 0
143 161 0
138 159 0
157 175 0
145 166 0
142 164 0
144 163 0
149 170 0
147 168 0
151 171 0
146 168 0
151 172 0
142 164 0
155 175 0
158 177 0
144 164 0
146 169 0
144 163 0
153 172 0
153 176 0
152 170 0
145 163 16
87 91 36
97 96 39
94 93 42
113 112 44
116 114 39
122 121 34
100 82 24
96 77 10
80 62 16
87 66 7
90 68 8
80 62 10
80 63 8
91 72 13
98 78 10
86 66 13
100 83 8
99 81 9
98 78 8
97 79 3
100 80 6
88 69 3
91 74 4
104 89 11
104 85 21
98 79 3
111 89 8
96 69 12
107 88 13
100 79 8
92 70 8
96 76 3
105 86 8
106 85 12
103 85 9
106 86 11
95 72 12
105 88 3
101 81 7
90 69 5
105 88 10
102 81 12
97 78 1
103 82 11
95 73 2
101 83 12
105 80 9
100 77 8
109 89 9
94 73 2
103 84 11
100 80 11
101 79 9
104 83 8
100 81 5
102 82 11
96 75 12
107 89 10
105 83 9
91 73 2
101 80 8
99 79 5
108 87 10
109 88 9
104 84 10
105 85 11
102 79 13
104 84 19
101 81 10
100 78 11
106 88 10
93 73 11
92 75 7
101 78 8
97 79 13
86 66 8
87 69 10
100 85 11
97 74 9
98 77 9
103 80 20
88 66 8
99 77 12
82 64 10
89 73 18
89 68 9
93 71 7
83 61 8
82 61 5
99 83 8
95 76 13
86 64 8
92 74 26
89 67 9
73 57 8
88 66 8
78 58 10
83 62 11
90 69 26
78 64 22
79 65 23
93 77 23
92 81 33
81 68 18
70 61 19
79 62 25
66 51 19
106 103 30
172 195 0
173 196 0
171 195 0
173 195 0
170 192 0
169 192 0
169 192 0
171 194 0
172 196 0
167 189 0
173 197 0
172 194 0
172 195 0
173 197 0
175 198 0
174 198 0
175 198 0
172 194 0
170 193 0
174 195 0
172 195 0
170 193 0
172 194 0
174 196 0
173 196 0
172 193 0
170 193 0
174 196 0
173 194 0
173 196 0
173 195 0
170 192 0
173 196 0
171 193 0
173 194 0
171 194 0
175 198 0
173 197 0
174 197 0
175 197 0
174 197 0
174 196 0
175 198 0
171 196 0
170 194 0
173 197 0
173 195 0
172 197 0
172 195 0
171 195 0
171 194 0
175 197 0
172 195 0
174 197 0
171 195 0
173 196 0
173 196 0
171 195 0
175 198 0
172 196 0
172 196 0
175 198 0
173 196 0
172 196 0
175 198 0
176 198 0
171 194 0
167 192 0
171 195 0
171 195 0
172 195 0
171 194 0
171 194 0
169 193 0
171 195 0
171 194 0
172 195 0
172 195 0
172 195 0
171 196 0
171 194 0
171 193 0
173 194 0
171 196 0
172 194 0
175 198 0
173 195 0
173 196 0
172 195 0
172 194 0
172 195 0
171 193 0
170 195 0
168 192 0
169 192 0
171 195 0
167 190 0
171 195 0
166 189 0
168 191 0
170 194 0
168 191 0
169 193 0
171 194 0
170 194 0
171 195 0
175 197 0
174 196 0
169 192 0
164 189 0
168 191 0
170 194 0
170 193 0
169 192 0
169 193 0
166 189 0
174 197 0
164 187 0
170 193 0
170 193 0
161 183 0
168 190 0
168 192 0
168 191 0
164 187 0
172 195 0
169 193 0
172 195 0
173 195 0
165 188 0
166 190 0
165 189 0
172 194 0
165 189 0
168 192 0
167 191 0
170 194 0
169 191 0
167 191 0
169 191 0
165 190 0
168 191 0
168 190 0
164 188 0
172 195 0
166 187 0
169 192 0
166 190 0
161 182 0
164 188 0
166 189 0
166 190 0
165 188 0
166 189 0
160 183 0
160 184 0
163 186 0
161 186 0
158 181 0
166 189 0
167 191 0
159 183 0
158 179 0
159 182 0
155 177 0
157 180 0
163 186 0
165 189 0
159 181 0
162 184 0
161 184 0
152 176 0
158 180 0
165 188 0
147 170 0
151 173 0
156 179 0
158 181 0
164 187 0
159 183 0
149 171 0
146 169 0
149 173 0
155 179 0
148 170 0
153 175 0
155 177 0
139 161 0
143 164 0
150 172 0
132 154 0
150 171 0
147 170 0
147 169 0
142 164 0
143 164 0
126 147 0
146 167 0
140 162 0
125 146 0
129 148 0
138 160 0
138 157 0
134 154 0
127 147 0
129 150 0
112 128 0
133 153 0
115 135 0
109 128 0
111 128 0
92 114 76
52 82 88
56 89 105
53 85 99
53 84 95
57 91 105
58 91 117
58 90 112
55 86 99
57 90 117
56 89 111
56 89 109
57 90 97
57 90 111
56 89 92
60 94 126
57 90 123
56 87 99
56 88 104
56 89 105
60 93 125
55 86 107
52 83 104
57 89 123
56 89 103
55 86 95
55 87 100
56 88 109
52 81 90
53 82 84
55 86 97
54 83 87
53 83 93
53 83 93
53 81 94
55 87 102
54 83 108
52 81 98
52 82 89
54 84 95
52 80 81
55 83 84
54 82 84
51 79 71
50 77 66
51 76 76
51 79 64
52 81 87
79 99 53
108 123 0
123 142 0
135 151 0
123 140 0
124 142 0
132 149 0
128 143 0
130 148 0
121 141 0
135 153 0
143 162 0
133 154 0
126 144 0
148 168 0
151 173 0
138 158 0
135 155 0
142 164 0
142 161 0
144 165 0
141 161 0
143 164 0
160 181 0
145 166 0
138 157 0
145 166 0
148 169 0
146 165 0
152 171 0
158 180 0
156 179 0
126 141 0
94 93 30
98 98 32
107 104 33
124 121 41
124 121 44
128 123 43
116 112 30
86 69 19
89 72 3
77 58 3
80 63 11
79 59 3
81 63 9
98 79 10
80 58 7
83 69 8
86 64 13
91 72 8
92 65 8
92 75 8
97 76 9
101 83 10
102 87 10
100 86 11
93 78 7
93 72 8
98 80 8
98 74 18
95 78 9
96 77 8
99 78 11
101 84 7
92 77 10
112 91 11
101 79 8
102 82 8
98 79 9
106 87 11
103 88 8
109 93 12
102 79 9
110 90 8
108 88 14
92 68 3
108 85 20
100 81 7
107 87 11
108 90 13
96 81 10
104 83 8
103 86 8
111 93 10
106 85 3
100 85 11
95 78 10
96 78 17
103 85 8
106 85 17
106 82 9
102 81 10
102 85 1
93 77 0
108 91 11
99 81 18
93 73 18
101 84 5
90 70 3
91 75 18
104 84 10
100 84 20
103 84 17
104 83 18
103 81 13
114 91 16
108 88 23
94 79 18
96 72 7
109 89 17
96 78 19
79 62 7
97 81 12
90 71 22
86 66 16
87 67 13
102 78 13
85 68 8
86 63 9
78 61 5
85 70 24
83 65 10
88 68 22
93 78 27
86 64 12
81 63 23
81 63 16
101 79 25
100 76 21
88 70 11
84 61 13
90 71 13
80 65 25
88 66 13
77 57 7
91 74 26
107 88 37
70 55 24
94 79 34
118 124 10
173 196 0
169 191 0
167 189 0
174 197 0
169 192 0
173 196 0
170 191 0
170 193 0
175 195 0
169 191 0
174 197 0
175 197 0
168 192 0
174 195 0
174 197 0
170 192 0
171 193 0
171 193 0
172 197 0
169 192 0
173 196 0
174 196 0
173 195 0
171 196 0
172 195 0
172 196 0
175 195 0
171 193 0
169 192 0
174 196 0
174 197 0
172 195 0
175 197 0
172 197 0
172 196 0
172 196 0
171 194 0
172 196 0
174 197 0
174 197 0
173 197 0
173 197 0
173 197 0
170 193 0
171 196 0
173 197 0
170 194 0
170 194 0
173 196 0
171 195 0
173 196 0
172 195 0
171 194 0
172 195 0
173 196 0
170 194 0
172 195 0
173 197 0
174 197 0
172 195 0
166 189 0
173 196 0
171 195 0
173 196 0
174 197 0
172 196 0
167 192 0
173 195 0
172 196 0
170 193 0
174 197 0
172 195 0
172 196 0
170 194 0
173 196 0
170 194 0
174 197 0
172 195 0
172 196 0
170 193 0
170 194 0
170 194 0
170 194 0
173 195 0
170 194 0
172 195 0
172 196 0
171 195 0
172 194 0
171 195 0
170 195 0
173 196 0
172 195 0
170 194 0
170 194 0
173 196 0
173 195 0
169 192 0
172 194 0
172 194 0
170 194 0
164 188 0
165 188 0
171 193 0
174 195 0
172 195 0
168 192 0
169 192 0
171 195 0
169 193 0
172 193 0
168 191 0
167 191 0
172 194 0
172 194 0
171 194 0
167 190 0
169 192 0
166 189 0
166 189 0
170 194 0
172 194 0
167 191 0
173 196 0
170 193 0
171 194 0
167 191 0
170 193 0
168 190 0
164 188 0
168 192 0
165 188 0
164 189 0
165 188 0
163 187 0
164 186 0
166 189 0
167 190 0
169 193 0
163 186 0
166 190 0
167 190 0
172 195 0
171 194 0
166 189 0
164 188 0
167 190 0
159 182 0
165 189 0
168 191 0
170 193 0
163 186 0
164 186 0
168 191 0
163 186 0
163 186 0
163 186 0
163 186 0
161 184 0
167 189 0
164 187 0
168 191 0
160 183 0
163 186 0
169 193 0
156 179 0
153 176 0
163 186 0
157 179 0
154 176 0
147 171 0
156 179 0
163 186 0
149 172 0
143 165 0
162 186 0
160 182 0
145 169 0
151 174 0
151 174 0
148 171 0
144 166 0
159 180 0
154 176 0
154 175 0
156 178 0
153 176 0
135 157 0
149 171 0
138 159 0
141 162 0
142 165 0
147 169 0
147 169 0
131 153 0
147 170 0
136 157 0
139 159 0
121 143 0
143 162 0
134 155 0
134 156 0
128 148 0
136 157 0
131 149 0
125 144 0
136 155 0
128 146 0
119 138 0
110 130 0
117 136 0
108 127 0
104 123 57
67 95 84
53 85 80
56 89 108
55 88 102
56 88 92
57 89 103
57 91 103
54 85 84
54 86 88
55 87 106
56 89 111
56 89 105
53 85 106
54 86 96
56 87 110
53 84 96
58 90 106
55 87 89
53 84 105
55 86 98
57 89 106
57 89 117
58 91 122
53 82 93
57 90 115
55 86 96
54 85 104
56 86 102
52 83 93
54 83 91
53 82 87
51 80 65
52 80 95
52 82 94
54 85 87
52 79 89
54 84 105
50 76 67
53 82 88
51 78 76
52 80 68
51 78 78
52 80 77
52 80 75
67 89 63
80 101 73
120 138 0
107 123 0
118 136 0
126 142 0
131 148 0
135 152 0
123 140 0
125 143 0
135 153 0
135 153 0
140 160 0
129 147 0
134 152 0
131 149 0
154 173 0
140 160 0
149 168 0
141 159 0
139 159 0
152 173 0
143 161 0
146 165 0
145 164 0
144 164 0
150 170 0
143 163 0
157 180 0
148 169 0
153 172 0
145 165 0
161 179 0
161 182 0
132 149 25
96 94 32
92 92 17
110 108 43
112 110 44
103 102 20
121 119 36
130 126 51
108 104 32
77 61 1
91 72 6
85 64 3
93 77 3
88 69 10
90 70 4
83 64 1
92 79 0
86 70 11
83 63 7
98 79 10
89 69 8
91 73 1
100 80 13
101 85 11
107 89 13
92 72 7
104 85 8
96 79 5
93 74 12
104 84 9
109 92 10
101 81 6
102 88 17
95 81 10
104 84 11
101 82 11
99 78 11
100 82 8
107 83 11
105 80 8
106 84 7
111 90 5
98 78 10
107 83 13
108 87 12
103 80 9
104 85 7
97 83 19
104 81 8
115 95 18
101 79 5
100 78 3
97 79 8
109 83 12
99 77 12
108 85 12
112 92 22
104 83 15
107 84 14
101 79 5
111 90 14
96 76 5
94 76 7
99 75 13
107 89 13
108 89 13
92 72 7
101 79 11
91 70 10
91 70 12
90 68 8
96 80 11
91 74 17
113 92 19
97 78 12
95 76 18
87 66 7
79 61 8
98 81 21
106 84 13
96 73 8
105 87 19
111 88 14
96 75 14
98 82 27
96 78 15
83 66 3
103 83 25
105 87 13
94 74 24
91 73 11
84 63 20
98 80 20
102 76 15
80 65 19
83 65 19
86 69 10
93 74 20
85 69 19
91 69 10
90 70 9
77 63 21
87 69 21
70 49 10
79 59 5
91 72 28
79 62 24
86 69 34
99 103 17
173 197 0
174 197 0
173 194 0
168 192 0
173 196 0
170 191 0
172 195 0
170 193 0
173 196 0
173 195 0
173 195 0
171 195 0
168 187 0
173 194 0
172 195 0
170 194 0
173 195 0
171 192 0
173 197 0
175 198 0
171 193 0
170 194 0
173 196 0
172 195 0
170 193 0
174 197 0
170 194 0
170 193 0
172 197 0
174 197 0
173 196 0
172 196 0
174 196 0
171 193 0
172 195 0
168 191 0
175 198 0
171 194 0
175 198 0
174 197 0
173 196 0
169 191 0
175 198 0
173 196 0
172 195 0
173 196 0
169 192 0
172 195 0
172 196 0
175 197 0
171 195 0
172 196 0
171 195 0
173 196 0
175 198 0
172 196 0
173 196 0
175 198 0
175 198 0
174 197 0
170 193 0
172 196 0
170 194 0
174 198 0
174 196 0
172 195 0
173 196 0
171 193 0
171 195 0
173 196 0
174 197 0
171 194 0
173 196 0
175 197 0
171 194 0
173 195 0
172 195 0
170 192 0
170 195 0
172 195 0
173 196 0
171 195 0
173 196 0
166 190 0
171 195 0
170 194 0
174 196 0
173 196 0
169 193 0
169 193 0
172 195 0
169 194 0
171 195 0
170 194 0
167 189 0
170 194 0
168 191 0
173 195 0
171 194 0
171 195 0
173 196 0
169 192 0
168 190 0
167 191 0
173 196 0
167 191 0
166 190 0
169 192 0
171 195 0
167 190 0
174 197 0
171 195 0
171 193 0
170 193 0
173 195 0
167 190 0
171 194 0
169 191 0
173 196 0
168 191 0
167 191 0
169 193 0
168 192 0
165 188 0
171 193 0
172 195 0
170 194 0
166 189 0
167 190 0
166 190 0
169 192 0
168 191 0
167 189 0
167 190 0
163 187 0
166 189 0
168 191 0
165 189 0
167 190 0
166 190 0
168 192 0
171 194 0
171 193 0
165 188 0
165 189 0
166 189 0
164 187 0
168 192 0
163 187 0
165 188 0
161 183 0
165 188 0
163 186 0
161 183 0
164 187 0
164 189 0
163 187 0
167 192 0
166 188 0
163 187 0
172 195 0
160 183 0
167 189 0
163 188 0
159 182 0
160 181 0
163 186 0
158 182 0
158 181 0
163 184 0
164 186 0
152 175 0
153 176 0
146 168 0
151 175 0
154 178 0
154 178 0
145 167 0
159 182 0
156 179 0
158 181 0
152 174 0
153 178 0
150 173 0
164 187 0
158 182 0
154 177 0
159 181 0
151 173 0
157 177 0
149 169 0
154 175 0
139 160 0
134 154 0
141 162 0
145 166 0
146 168 0
154 175 0
131 151 0
135 155 0
129 149 0
139 161 0
128 148 0
131 152 0
124 144 0
137 157 0
126 145 0
104 123 0
113 130 0
109 125 0
129 147 0
106 125 0
114 133 0
113 128 0
77 102 62
57 86 82
50 80 80
51 82 80
53 84 72
55 87 99
54 86 95
56 88 102
56 88 90
57 90 114
54 87 95
56 88 95
51 81 72
54 86 112
54 86 86
55 87 95
55 87 86
54 85 94
55 87 97
54 87 88
55 87 109
54 84 90
54 85 93
53 82 98
57 87 112
54 86 101
52 81 72
54 85 97
53 82 91
52 81 76
51 80 80
57 87 111
55 85 94
52 82 98
54 84 105
53 81 76
51 80 79
53 82 89
50 77 71
53 82 74
52 80 89
51 78 69
82 100 37
110 127 0
124 139 0
106 125 0
103 118 0
109 124 0
119 136 0
112 131 0
130 147 0
105 123 0
137 156 0
135 151 0
147 166 0
125 144 0
129 148 0
136 156 0
134 155 0
145 164 0
134 154 0
153 175 0
132 151 0
137 157 0
138 159 0
149 168 0
155 175 0
147 166 0
151 173 0
152 170 0
148 166 0
154 173 0
155 176 0
153 178 0
156 176 0
147 168 0
154 177 0
111 123 16
94 92 32
97 93 30
113 112 46
99 98 39
111 109 29
121 119 40
107 107 32
127 125 34
113 108 32
84 65 8
94 76 18
90 72 10
87 62 5
94 73 10
88 65 2
84 70 3
97 75 4
96 79 7
90 75 7
105 87 19
96 79 4
103 85 11
92 68 3
89 71 6
87 69 11
100 80 13
85 66 8
96 76 11
106 86 8
99 82 10
98 76 7
103 84 7
103 84 11
97 83 10
103 84 7
98 80 10
104 87 9
105 87 8
105 88 11
109 91 12
104 85 8
108 86 20
107 86 7
104 87 8
107 86 8
101 83 11
105 84 13
106 89 3
109 90 10
105 86 8
105 86 13
110 92 8
85 66 4
96 78 2
104 84 10
106 87 3
103 84 10
114 94 8
100 82 7
100 74 10
95 75 16
92 77 7
102 82 14
99 78 13
99 83 11
92 72 9
96 76 8
99 81 5
106 83 12
97 80 11
102 80 8
94 74 8
102 83 15
101 80 20
100 81 25
100 76 4
92 74 11
86 64 7
99 73 11
86 67 14
90 72 9
103 84 15
94 77 7
87 68 7
97 76 6
90 67 8
95 74 17
92 69 12
81 59 18
86 72 13
88 71 22
84 67 16
97 75 14
100 85 5
98 80 21
74 56 7
84 63 19
94 72 13
84 66 24
83 64 13
82 65 18
75 58 12
74 60 19
91 75 28
73 56 14
87 67 25
71 54 24
123 137 0
169 193 0
173 194 0
173 195 0
174 196 0
171 195 0
172 196 0
172 193 0
172 194 0
170 192 0
172 195 0
167 191 0
173 195 0
171 193 0
171 196 0
172 195 0
168 191 0
171 195 0
171 193 0
171 193 0
173 195 0
171 194 0
175 197 0
174 198 0
171 193 0
170 194 0
175 197 0
176 197 0
173 196 0
175 198 0
173 194 0
171 194 0
173 196 0
170 193 0
174 198 0
174 197 0
173 197 0
174 197 0
175 197 0
174 197 0
173 196 0
174 197 0
175 197 0
172 196 0
173 197 0
174 198 0
172 195 0
175 197 0
174 196 0
174 198 0
171 195 0
174 197 0
172 196 0
173 196 0
172 195 0
171 196 0
173 197 0
174 197 0
170 194 0
175 198 0
171 196 0
174 197 0
172 196 0
172 197 0
173 196 0
174 197 0
169 193 0
172 195 0
173 196 0
173 197 0
172 195 0
174 197 0
169 193 0
175 197 0
172 196 0
170 193 0
174 196 0
173 196 0
170 194 0
172 195 0
171 194 0
168 192 0
171 194 0
173 196 0
171 195 0
169 193 0
173 196 0
172 195 0
168 192 0
171 193 0
172 195 0
172 195 0
168 193 0
171 195 0
174 197 0
166 188 0
166 190 0
172 195 0
173 196 0
173 197 0
171 194 0
173 195 0
167 190 0
173 196 0
166 190 0
163 186 0
165 188 0
171 195 0
168 193 0
176 198 0
169 192 0
166 189 0
171 195 0
171 194 0
172 195 0
170 193 0
173 196 0
169 193 0
172 195 0
170 193 0
169 193 0
168 192 0
173 196 0
168 191 0
171 194 0
166 189 0
165 188 0
166 190 0
172 195 0
168 191 0
164 187 0
165 189 0
168 192 0
170 191 0
167 190 0
165 187 0
166 189 0
168 191 0
167 191 0
170 192 0
164 189 0
163 187 0
165 188 0
166 189 0
170 194 0
169 193 0
168 190 0
168 191 0
165 188 0
165 188 0
165 187 0
165 188 0
167 190 0
163 185 0
166 189 0
159 183 0
163 186 0
163 188 0
163 185 0
163 187 0
164 188 0
159 183 0
157 181 0
164 185 0
167 190 0
162 185 0
159 180 0
166 190 0
161 184 0
166 189 0
158 181 0
154 177 0
150 174 0
154 176 0
155 177 0
158 181 0
158 181 0
156 179 0
149 172 0
154 178 0
157 180 0
158 181 0
156 178 0
152 175 0
149 170 0
160 182 0
144 167 0
149 170 0
147 170 0
152 175 0
149 172 0
138 159 0
140 162 0
146 167 0
144 167 0
140 160 0
146 169 0
144 166 0
135 156 0
143 164 0
142 164 0
139 160 0
135 155 0
122 142 0
132 152 0
134 155 0
122 143 0
125 143 0
133 152 0
121 140 0
123 142 0
130 149 0
132 152 0
106 124 0
120 136 0
103 120 0
95 114 25
72 96 67
53 84 80
55 87 99
54 86 84
56 88 96
54 86 99
52 83 93
55 87 99
54 85 80
52 84 80
56 88 105
53 83 99
59 92 118
54 86 108
54 84 86
55 86 103
54 84 100
56 87 103
54 85 73
53 84 82
55 85 84
56 87 83
55 87 103
52 82 81
54 85 94
52 81 95
54 84 90
53 84 93
53 83 86
48 76 66
51 78 83
47 73 75
53 83 90
50 78 84
52 81 82
50 79 76
50 78 76
50 78 80
63 83 42
98 113 0
88 102 0
97 111 0
122 134 0
120 137 0
110 125 0
120 134 0
118 133 0
129 145 0
98 113 0
132 151 0
119 137 0
128 147 0
113 130 0
130 149 0
136 154 0
137 155 0
139 158 0
138 158 0
156 178 0
144 162 0
141 159 0
138 158 0
152 172 0
134 151 0
140 158 0
155 176 0
149 167 0
148 167 0
150 172 0
151 170 0
159 181 0
156 175 0
149 168 0
150 172 0
150 172 0
122 128 25
110 108 30
98 98 48
111 109 34
114 111 41
112 111 48
122 117 11
123 119 28
124 122 35
133 130 44
110 105 25
96 77 0
96 78 11
93 75 5
91 74 7
93 73 5
103 84 16
97 79 12
85 68 7
100 78 5
100 83 5
100 81 5
89 69 8
95 78 8
105 85 10
88 68 7
89 65 9
109 87 11
100 82 11
97 77 19
99 79 14
103 83 8
105 84 13
105 86 18
107 90 22
106 86 3
103 84 7
98 82 8
110 96 5
110 94 7
97 75 13
102 85 7
104 82 9
102 80 11
104 88 9
104 83 13
105 85 12
108 87 8
101 84 12
104 84 9
102 81 8
109 89 7
104 80 8
102 86 11
102 79 8
111 93 14
98 83 11
93 73 1
93 72 7
97 79 8
102 82 10
106 85 15
104 85 8
105 87 19
106 86 11
113 94 16
101 80 11
95 76 3
100 80 11
98 79 13
100 81 17
113 95 8
99 77 18
91 71 16
101 80 8
87 67 8
96 73 13
101 78 11
91 71 8
101 85 9
99 81 12
91 72 10
96 75 17
90 65 11
95 75 14
103 82 4
101 85 18
99 82 12
98 82 11
91 69 16
85 66 20
99 81 20
92 73 12
87 74 19
80 57 8
85 67 10
81 64 8
98 78 26
80 57 11
86 70 18
77 56 8
82 65 19
72 55 7
83 64 8
63 50 12
77 59 12
66 49 22
72 57 20
145 158 16
173 195 0
170 191 0
169 190 0
173 197 0
171 192 0
168 190 0
175 197 0
169 192 0
167 190 0
175 198 0
173 195 0
173 196 0
174 197 0
174 197 0
172 193 0
175 198 0
176 198 0
171 193 0
171 193 0
169 191 0
170 194 0
172 195 0
171 195 0
171 194 0
171 194 0
171 194 0
171 194 0
174 196 0
174 196 0
173 196 0
171 194 0
172 195 0
174 197 0
173 194 0
170 194 0
173 197 0
175 198 0
173 197 0
174 197 0
174 197 0
173 195 0
172 196 0
174 198 0
173 197 0
174 197 0
171 194 0
175 197 0
173 195 0
172 196 0
171 194 0
171 195 0
172 195 0
171 194 0
172 195 0
174 197 0
172 195 0
170 194 0
172 195 0
173 197 0
173 197 0
174 197 0
172 195 0
174 196 0
171 195 0
172 196 0
173 197 0
172 195 0
169 195 0
173 196 0
172 196 0
172 195 0
175 198 0
170 194 0
173 197 0
171 195 0
173 196 0
170 194 0
172 195 0
172 196 0
173 197 0
173 196 0
167 192 0
174 196 0
172 197 0
171 195 0
169 192 0
172 194 0
171 194 0
172 196 0
171 195 0
170 195 0
171 194 0
168 191 0
173 196 0
169 191 0
166 189 0
172 196 0
168 192 0
172 195 0
172 195 0
170 194 0
165 189 0
169 192 0
173 196 0
167 190 0
170 194 0
168 190 0
169 193 0
169 191 0
167 192 0
172 196 0
169 191 0
168 191 0
170 193 0
173 196 0
167 190 0
166 189 0
170 193 0
170 193 0
166 188 0
172 195 0
167 190 0
169 192 0
168 191 0
173 195 0
168 191 0
169 193 0
172 195 0
171 195 0
165 189 0
171 195 0
169 192 0
171 194 0
169 192 0
164 188 0
170 194 0
167 190 0
174 197 0
166 190 0
167 190 0
166 191 0
164 188 0
164 187 0
170 193 0
161 185 0
160 184 0
163 187 0
170 193 0
171 194 0
162 184 0
164 185 0
165 188 0
167 191 0
164 187 0
170 193 0
171 195 0
160 183 0
158 183 0
165 190 0
164 187 0
164 186 0
162 185 0
162 185 0
162 186 0
154 177 0
162 186 0
166 189 0
164 187 0
159 180 0
164 188 0
154 177 0
159 181 0
154 177 0
154 176 0
149 170 0
160 183 0
155 178 0
159 181 0
144 167 0
147 169 0
152 177 0
144 167 0
142 163 0
154 176 0
146 169 0
153 176 0
147 168 0
149 170 0
160 181 0
150 173 0
156 178 0
146 168 0
144 167 0
137 158 0
136 158 0
142 164 0
132 154 0
135 155 0
137 158 0
134 154 0
139 160 0
135 156 0
136 157 0
122 140 0
115 135 0
120 139 0
123 144 0
135 154 0
118 137 0
112 131 0
115 134 0
118 136 0
102 120 0
110 128 0
109 127 0
106 124 0
90 104 0
77 94 0
79 100 58
52 83 92
57 90 102
53 84 95
56 88 99
55 87 88
55 88 100
54 85 88
57 89 117
52 83 86
53 84 88
51 81 68
53 83 84
55 86 88
53 84 85
56 88 107
51 79 87
54 84 90
54 85 93
50 79 90
51 80 83
53 83 93
51 81 73
53 83 85
51 81 68
52 82 69
50 78 63
51 80 70
52 81 76
49 77 64
52 81 75
49 77 55
50 78 80
50 77 71
57 77 58
94 110 0
116 130 0
101 115 0
97 111 0
124 140 0
116 132 0
123 141 0
120 135 0
126 144 0
114 133 0
131 150 0
129 147 0
117 135 0
131 148 0
127 146 0
112 130 0
131 150 0
129 146 0
123 142 0
123 141 0
133 152 0
137 156 0
147 165 0
146 164 0
140 161 0
147 166 0
137 157 0
140 160 0
139 159 0
150 168 0
135 154 0
141 159 0
140 158 0
158 179 0
150 170 0
149 168 0
159 181 0
158 180 0
116 122 26
83 85 28
100 98 30
106 106 32
106 104 39
131 128 38
128 127 39
119 117 37
132 130 35
128 125 33
140 137 44
113 103 32
88 70 12
97 83 10
95 76 6
84 69 8
89 75 3
85 66 7
107 87 12
97 77 3
96 81 7
98 83 8
87 70 7
80 64 4
98 82 10
95 74 8
96 80 8
78 57 3
102 88 10
100 82 10
109 87 4
104 87 9
97 83 18
92 78 9
111 97 7
104 83 6
108 88 13
101 81 10
100 76 11
109 85 12
91 78 3
103 85 8
106 93 13
101 82 3
92 73 5
108 95 9
100 87 10
94 69 5
100 84 8
103 83 8
97 75 6
103 82 10
111 95 14
97 74 2
99 84 5
113 97 10
96 77 4
101 83 8
108 91 10
92 77 8
101 78 13
101 82 8
110 88 14
93 73 2
96 78 18
106 83 13
106 83 7
102 82 17
96 74 8
96 76 3
101 84 3
101 77 13
102 85 11
93 76 7
99 80 4
99 76 13
91 70 7
101 83 19
101 84 12
99 81 10
114 87 21
99 82 9
93 75 18
104 85 20
103 81 23
94 78 8
98 81 8
98 77 3
95 77 24
99 80 21
88 68 11
99 77 11
89 67 18
96 74 13
86 67 7
98 78 21
89 73 18
93 73 13
93 71 10
84 65 9
80 63 8
87 68 25
83 64 19
83 65 14
85 69 24
92 75 29
70 53 8
60 44 10
159 178 0
173 195 0
170 192 0
173 194 0
172 194 0
173 196 0
172 197 0
173 194 0
169 192 0
173 194 0
172 196 0
175 198 0
174 194 0
175 197 0
174 197 0
174 196 0
171 194 0
173 196 0
172 195 0
174 196 0
172 194 0
171 194 0
174 198 0
172 195 0
173 194 0
173 196 0
168 189 0
173 196 0
174 198 0
171 195 0
172 195 0
170 194 0
172 194 0
168 192 0
171 193 0
175 198 0
172 195 0
168 192 0
175 198 0
172 195 0
172 196 0
173 195 0
172 196 0
173 197 0
174 197 0
174 197 0
173 196 0
173 196 0
168 192 0
173 194 0
173 197 0
172 194 0
173 195 0
169 193 0
174 197 0
175 197 0
170 194 0
170 193 0
175 197 0
165 189 0
172 195 0
169 193 0
174 196 0
173 196 0
171 194 0
172 196 0
175 198 0
174 197 0
171 194 0
171 194 0
171 194 0
172 195 0
170 194 0
173 196 0
171 196 0
173 196 0
167 189 0
173 195 0
174 196 0
174 197 0
167 191 0
174 197 0
173 196 0
171 194 0
168 191 0
174 197 0
172 195 0
172 195 0
174 197 0
174 197 0
172 196 0
171 194 0
171 195 0
172 196 0
174 196 0
169 193 0
171 194 0
171 196 0
171 195 0
174 196 0
172 195 0
173 197 0
174 196 0
174 197 0
172 196 0
172 195 0
169 193 0
172 195 0
171 196 0
171 194 0
168 193 0
171 194 0
170 193 0
167 190 0
169 193 0
167 190 0
169 192 0
172 195 0
171 196 0
159 181 0
167 190 0
171 194 0
170 194 0
171 193 0
165 189 0
166 189 0
173 195 0
165 189 0
163 186 0
168 192 0
169 191 0
166 190 0
171 194 0
171 194 0
166 190 0
172 194 0
169 193 0
169 192 0
165 187 0
167 191 0
168 190 0
167 190 0
167 191 0
171 194 0
166 189 0
161 184 0
168 191 0
167 191 0
162 185 0
168 192 0
160 184 0
165 189 0
161 182 0
158 182 0
165 187 0
167 189 0
159 182 0
165 188 0
165 188 0
160 182 0
163 186 0
164 186 0
163 185 0
164 188 0
157 179 0
159 181 0
164 186 0
158 182 0
159 182 0
162 186 0
158 181 0
162 187 0
157 179 0
153 177 0
159 182 0
161 186 0
152 176 0
151 173 0
146 169 0
151 175 0
151 174 0
154 176 0
161 185 0
156 178 0
150 172 0
144 168 0
148 170 0
150 174 0
160 183 0
144 166 0
146 167 0
153 175 0
145 166 0
142 166 0
150 174 0
154 176 0
147 170 0
138 158 0
126 146 0
151 174 0
134 155 0
130 150 0
134 155 0
150 171 0
129 150 0
127 148 0
127 148 0
109 129 0
112 130 0
112 132 0
114 132 0
131 149 0
105 122 0
113 132 0
101 119 0
91 107 0
110 125 0
109 123 0
107 124 0
93 111 0
86 103 36
63 88 51
48 76 51
50 80 72
53 84 85
52 82 84
53 84 80
51 80 78
53 84 82
55 86 103
55 87 77
50 79 72
53 85 95
54 86 93
51 80 84
53 84 86
55 86 94
52 82 77
53 82 85
55 85 84
53 82 86
52 82 89
53 84 83
54 85 74
49 77 69
50 78 49
52 81 66
49 76 75
50 79 69
46 73 42
57 79 39
70 87 44
78 91 25
100 112 0
99 113 0
124 138 0
99 115 0
108 123 0
96 111 0
122 137 0
118 133 0
130 149 0
119 136 0
118 133 0
130 146 0
112 130 0
139 155 0
139 156 0
113 131 0
147 167 0
148 166 0
127 145 0
139 158 0
148 168 0
150 170 0
138 158 0
144 164 0
142 160 0
143 164 0
138 157 0
139 160 0
142 160 0
149 167 0
145 165 0
147 167 0
157 179 0
144 164 0
145 164 0
152 172 0
154 172 0
154 176 0
151 171 0
101 105 37
86 86 33
101 101 29
107 108 22
113 111 36
118 117 32
134 130 35
114 111 33
119 116 47
123 121 37
133 131 34
126 124 16
115 105 26
95 76 10
94 79 7
94 74 9
89 72 5
93 74 16
93 81 7
100 83 5
97 79 7
98 80 8
99 80 3
97 79 7
90 72 10
108 87 8
100 79 3
94 81 9
102 82 5
97 78 2
102 84 5
104 89 3
95 75 4
102 82 8
89 68 3
107 90 3
108 89 8
108 90 3
104 82 10
110 87 12
109 87 11
101 85 8
106 86 2
109 94 6
111 93 11
100 78 11
98 79 7
101 81 10
101 83 3
104 84 10
112 90 11
100 78 2
94 75 8
101 86 8
101 82 8
111 94 12
111 92 8
100 78 9
94 73 16
113 91 3
111 94 11
103 82 11
106 89 19
107 85 9
105 84 11
100 83 5
102 83 4
109 89 5
104 85 10
104 79 5
115 95 14
93 76 7
108 88 4
90 73 7
102 81 7
95 73 6
102 80 9
99 82 17
104 83 18
98 76 8
92 73 5
85 65 11
92 72 13
106 82 20
95 74 20
86 62 10
100 80 7
72 54 7
97 78 18
93 76 10
87 63 3
89 65 8
86 67 8
97 79 12
80 64 18
85 65 17
79 58 0
74 58 7
84 64 19
87 67 21
80 59 9
95 75 25
82 61 18
87 68 17
65 53 18
72 58 21
77 60 11
107 111 24
169 191 0
170 192 0
171 193 0
174 197 0
171 192 0
174 197 0
171 195 0
170 193 0
167 187 0
173 196 0
168 190 0
172 196 0
173 196 0
169 192 0
173 195 0
170 192 0
172 195 0
172 195 0
173 196 0
175 197 0
172 194 0
170 191 0
170 192 0
171 194 0
173 196 0
173 195 0
171 194 0
173 196 0
168 191 0
174 197 0
174 196 0
170 192 0
173 196 0
173 196 0
167 190 0
166 189 0
173 197 0
172 196 0
174 197 0
172 196 0
174 198 0
170 195 0
175 198 0
174 197 0
170 193 0
174 197 0
169 193 0
172 196 0
171 195 0
170 194 0
173 196 0
173 197 0
174 197 0
171 195 0
173 197 0
173 196 0
171 194 0
172 196 0
173 196 0
172 196 0
169 194 0
172 196 0
171 194 0
171 195 0
172 196 0
173 196 0
171 194 0
169 191 0
172 196 0
172 195 0
172 195 0
169 192 0
169 193 0
170 193 0
171 194 0
172 195 0
169 193 0
173 196 0
173 196 0
173 196 0
172 196 0
169 193 0
173 196 0
173 196 0
172 195 0
172 195 0
172 196 0
171 195 0
166 190 0
171 195 0
173 196 0
171 195 0
170 195 0
168 191 0
173 196 0
172 194 0
170 195 0
170 193 0
170 194 0
172 195 0
173 196 0
171 195 0
171 195 0
169 193 0
169 191 0
172 195 0
172 196 0
171 194 0
172 195 0
169 192 0
172 195 0
167 191 0
174 196 0
173 196 0
172 195 0
173 196 0
172 192 0
167 191 0
171 194 0
170 194 0
170 192 0
171 194 0
165 188 0
171 194 0
171 194 0
166 189 0
175 198 0
168 192 0
167 189 0
168 191 0
162 184 0
164 189 0
169 192 0
168 192 0
171 195 0
166 188 0
171 193 0
171 193 0
168 192 0
166 187 0
164 187 0
170 193 0
171 193 0
164 186 0
163 184 0
163 186 0
169 192 0
168 192 0
167 190 0
170 193 0
166 189 0
161 185 0
168 190 0
163 187 0
165 186 0
160 183 0
158 180 0
162 185 0
169 192 0
168 190 0
161 184 0
163 187 0
163 187 0
166 189 0
162 184 0
165 189 0
167 190 0
156 179 0
159 182 0
159 181 0
163 185 0
164 188 0
158 178 0
155 177 0
167 190 0
154 177 0
153 176 0
159 182 0
155 178 0
143 164 0
155 177 0
148 171 0
138 158 0
157 176 0
160 182 0
143 166 0
154 177 0
144 165 0
147 169 0
152 174 0
155 178 0
152 174 0
148 169 0
140 162 0
150 171 0
138 159 0
147 167 0
135 155 0
126 148 0
139 161 0
128 148 0
129 150 0
125 145 0
137 158 0
133 153 0
142 163 0
141 161 0
126 146 0
126 146 0
124 144 0
111 130 0
112 132 0
108 127 0
111 129 0
90 107 0
102 119 0
112 130 0
102 118 0
108 124 0
117 134 0
96 114 0
82 99 0
60 76 0
69 88 44
66 87 58
43 71 25
50 80 67
53 83 81
55 86 86
52 82 64
55 85 96
52 82 73
49 78 69
56 88 108
52 83 90
51 80 73
50 78 74
49 78 89
49 76 69
50 79 92
48 76 72
52 82 70
51 80 52
54 84 80
52 82 78
51 79 70
48 76 68
51 77 72
66 85 40
73 88 37
101 113 0
90 104 0
89 102 0
107 122 0
99 112 0
108 124 0
104 120 0
109 126 0
110 124 0
109 122 0
119 131 0
103 121 0
136 153 0
108 126 0
104 121 0
122 139 0
111 129 0
139 157 0
130 149 0
140 158 0
132 149 0
130 149 0
144 163 0
128 144 0
134 154 0
148 167 0
141 161 0
148 169 0
149 171 0
148 166 0
150 169 0
137 155 0
153 172 0
141 158 0
149 168 0
149 169 0
153 173 0
154 174 0
158 180 0
156 177 0
148 168 0
154 174 0
93 97 24
104 102 36
97 97 40
115 113 37
111 108 25
110 110 28
116 116 28
127 125 41
118 116 30
135 132 42
138 137 25
139 135 30
141 137 37
113 105 7
92 77 7
92 78 10
103 88 13
87 67 8
95 76 7
103 86 0
105 88 13
97 75 5
102 82 4
100 85 5
90 71 1
96 81 3
105 86 10
110 87 7
90 73 9
103 90 7
100 84 9
104 83 10
96 78 10
97 79 1
104 85 8
107 88 5
105 91 11
112 96 12
98 80 10
98 77 3
110 93 12
99 86 7
111 95 7
104 90 8
97 82 3
114 97 0
103 82 10
109 93 10
106 89 13
114 92 6
108 90 3
104 84 6
93 69 3
101 83 1
106 85 18
105 84 14
108 88 10
109 90 13
103 86 10
106 86 13
105 89 12
100 80 10
90 75 3
108 83 15
105 82 4
96 79 16
96 75 13
99 84 25
114 91 13
94 76 3
97 80 9
102 86 7
108 86 11
100 77 9
97 77 12
86 65 3
107 88 8
92 75 2
105 82 19
89 71 8
104 83 14
92 70 7
93 77 11
103 85 9
92 78 19
84 68 4
82 62 12
97 76 11
90 67 5
94 70 13
85 70 10
90 77 11
97 78 10
80 66 13
91 71 21
87 66 19
80 60 8
67 50 1
88 69 19
68 55 16
69 51 10
91 74 19
87 66 21
83 64 10
84 67 18
72 53 10
72 54 16
145 155 16
173 196 0
165 185 0
170 194 0
172 194 0
172 194 0
169 192 0
163 186 0
169 190 0
173 194 0
169 193 0
173 196 0
168 191 0
170 192 0
172 194 0
175 197 0
174 195 0
169 191 0
171 194 0
173 196 0
173 196 0
169 191 0
173 196 0
171 194 0
171 195 0
168 189 0
175 197 0
174 196 0
173 197 0
173 197 0
173 195 0
172 194 0
172 194 0
172 196 0
171 194 0
175 198 0
171 192 0
171 194 0
173 196 0
174 197 0
173 197 0
171 196 0
176 199 0
174 197 0
172 196 0
173 197 0
171 194 0
173 196 0
173 196 0
174 197 0
171 195 0
170 194 0
173 197 0
175 198 0
171 194 0
169 193 0
171 196 0
171 194 0
171 195 0
174 197 0
170 194 0
169 193 0
168 192 0
172 195 0
175 197 0
171 195 0
169 192 0
172 195 0
170 194 0
173 197 0
169 192 0
171 194 0
168 191 0
173 197 0
173 197 0
168 192 0
171 196 0
173 197 0
170 192 0
173 197 0
173 196 0
174 197 0
171 195 0
173 195 0
172 195 0
171 195 0
172 196 0
167 190 0
173 196 0
173 196 0
173 196 0
171 192 0
174 196 0
172 196 0
166 190 0
172 193 0
170 193 0
169 192 0
169 192 0
171 195 0
174 197 0
170 193 0
169 191 0
174 195 0
167 190 0
169 192 0
172 196 0
168 192 0
171 194 0
171 194 0
173 196 0
167 191 0
173 195 0
172 195 0
170 192 0
171 195 0
171 193 0
167 188 0
170 194 0
168 191 0
171 194 0
165 189 0
168 190 0
169 192 0
171 193 0
170 192 0
169 194 0
162 185 0
164 187 0
172 194 0
170 192 0
168 191 0
169 192 0
171 193 0
168 191 0
164 187 0
166 189 0
168 192 0
167 190 0
169 192 0
166 190 0
161 184 0
171 195 0
168 192 0
168 191 0
167 190 0
170 194 0
167 190 0
169 192 0
163 186 0
162 185 0
167 190 0
164 189 0
165 188 0
165 189 0
168 191 0
157 182 0
161 183 0
157 181 0
163 186 0
163 185 0
164 187 0
157 180 0
161 183 0
163 185 0
157 180 0
166 189 0
159 182 0
166 189 0
160 182 0
162 185 0
161 182 0
155 178 0
154 175 0
163 185 0
154 176 0
160 183 0
155 177 0
159 182 0
151 174 0
158 181 0
151 173 0
146 168 0
149 171 0
141 164 0
155 177 0
149 170 0
151 173 0
146 169 0
149 169 0
152 175 0
148 170 0
141 164 0
150 173 0
153 176 0
136 158 0
135 155 0
135 156 0
136 157 0
144 166 0
143 165 0
149 170 0
136 156 0
129 150 0
145 165 0
133 151 0
130 149 0
135 154 0
131 150 0
132 151 0
130 150 0
118 137 0
130 150 0
122 139 0
120 138 0
97 115 0
116 136 0
113 129 0
108 127 0
121 139 0
101 117 0
89 103 0
105 122 0
98 114 0
99 113 0
80 95 0
98 111 0
53 70 0
76 93 25
75 97 62
66 91 72
52 82 72
48 77 58
48 75 63
50 80 63
48 78 72
51 81 72
51 79 89
52 81 81
51 81 68
47 76 63
47 73 56
50 79 79
47 75 53
46 72 67
63 82 52
72 90 44
84 96 0
87 97 0
104 118 0
101 113 0
101 115 0
95 107 0
99 112 0
94 107 0
106 121 0
102 117 0
107 124 0
91 108 0
115 129 0
125 142 0
115 131 0
116 131 0
113 127 0
139 157 0
135 154 0
125 142 0
107 124 0
129 147 0
137 155 0
134 151 0
134 153 0
137 154 0
135 155 0
135 153 0
141 160 0
143 163 0
148 168 0
144 163 0
151 171 0
140 157 0
159 181 0
152 169 0
140 158 0
152 170 0
147 165 0
148 168 0
151 172 0
157 176 0
147 168 0
156 175 0
157 176 0
147 165 0
86 90 32
95 95 20
100 99 32
98 98 34
114 112 42
118 117 25
123 120 25
119 119 28
136 134 44
137 132 36
129 127 46
125 123 22
140 138 30
138 135 16
128 123 28
107 87 18
95 75 11
103 83 1
101 80 6
104 85 10
93 78 3
95 77 0
107 89 7
97 78 10
113 94 1
100 81 8
100 81 12
104 89 13
96 79 8
111 94 13
97 74 8
106 92 4
102 80 7
98 72 3
99 76 8
114 93 5
98 78 5
113 97 12
106 89 4
111 92 1
95 75 12
108 86 6
112 95 16
106 89 5
102 86 7
109 83 7
109 89 9
104 86 3
100 81 13
101 84 10
101 79 11
97 78 8
99 79 8
90 73 12
98 79 7
114 94 12
104 85 13
96 77 4
101 86 10
107 86 7
110 89 13
107 86 13
95 82 17
101 80 13
110 91 8
106 88 11
108 88 11
102 81 10
99 76 8
107 90 8
91 75 3
99 80 12
100 83 12
96 78 4
101 81 8
95 78 11
94 74 8
104 86 10
96 80 20
80 61 7
93 72 7
94 74 11
77 58 5
102 80 16
91 68 9
94 77 7
88 69 4
91 74 11
97 74 8
103 83 15
76 58 7
94 75 3
87 65 19
81 63 10
82 63 8
85 66 19
77 57 18
88 71 20
85 72 23
75 59 14
83 69 10
69 51 14
72 58 8
70 58 22
89 73 15
77 59 17
75 61 20
158 176 0
169 190 0
169 190 0
175 196 0
170 193 0
169 191 0
170 194 0
174 197 0
174 196 0
174 196 0
173 197 0
168 191 0
171 192 0
173 196 0
172 194 0
172 195 0
171 194 0
173 195 0
170 192 0
174 195 0
175 196 0
174 195 0
170 194 0
173 196 0
171 194 0
172 195 0
171 196 0
170 194 0
172 195 0
169 192 0
174 196 0
173 196 0
171 194 0
173 196 0
174 197 0
172 197 0
172 195 0
169 192 0
172 196 0
173 197 0
172 196 0
171 195 0
174 197 0
174 196 0
174 197 0
172 196 0
173 197 0
175 198 0
176 199 0
171 194 0
172 196 0
174 196 0
172 195 0
171 194 0
175 198 0
172 195 0
174 197 0
174 197 0
172 195 0
170 194 0
173 196 0
174 197 0
170 193 0
173 197 0
174 197 0
174 197 0
171 195 0
173 196 0
172 196 0
174 197 0
171 194 0
174 196 0
171 194 0
174 197 0
170 193 0
172 196 0
173 197 0
171 196 0
171 194 0
172 194 0
172 195 0
167 191 0
167 190 0
171 195 0
169 194 0
170 193 0
172 195 0
171 195 0
169 193 0
172 195 0
172 195 0
171 194 0
170 192 0
171 194 0
168 192 0
174 197 0
164 187 0
173 196 0
173 195 0
166 189 0
169 192 0
171 195 0
169 193 0
171 194 0
171 194 0
173 195 0
169 193 0
173 197 0
172 195 0
173 196 0
172 194 0
171 194 0
169 193 0
170 194 0
168 193 0
169 191 0
172 195 0
173 196 0
173 195 0
166 190 0
164 187 0
167 190 0
166 189 0
171 194 0
172 195 0
169 192 0
169 192 0
165 189 0
168 191 0
171 194 0
171 194 0
167 189 0
167 191 0
169 192 0
167 190 0
168 190 0
165 189 0
169 192 0
169 192 0
170 192 0
173 196 0
168 192 0
164 187 0
167 190 0
170 192 0
171 194 0
165 189 0
160 184 0
173 196 0
168 190 0
165 188 0
170 193 0
158 180 0
168 191 0
165 188 0
161 183 0
166 188 0
165 187 0
155 177 0
163 187 0
165 187 0
168 192 0
170 192 0
156 180 0
161 182 0
169 193 0
160 182 0
163 186 0
160 181 0
157 181 0
164 188 0
162 184 0
152 175 0
166 190 0
155 177 0
162 185 0
160 182 0
162 185 0
156 178 0
157 181 0
156 177 0
154 177 0
156 178 0
156 177 0
159 182 0
160 182 0
153 176 0
151 173 0
142 164 0
142 165 0
137 159 0
145 165 0
137 161 0
148 169 0
143 165 0
144 166 0
147 168 0
146 168 0
137 157 0
140 162 0
147 169 0
146 167 0
143 163 0
129 152 0
135 157 0
136 156 0
125 147 0
137 158 0
137 154 0
127 147 0
141 161 0
134 152 0
120 141 0
126 145 0
121 141 0
123 144 0
137 157 0
115 133 0
94 110 0
116 134 0
112 129 0
94 108 0
109 124 0
90 107 0
76 91 0
89 106 0
66 82 0
85 99 0
102 115 0
74 89 0
100 113 0
84 99 0
89 103 25
87 101 0
68 86 44
86 103 25
81 97 28
83 100 36
80 95 16
89 104 62
75 87 0
89 98 25
63 76 36
78 90 0
87 97 0
88 99 0
91 105 0
98 108 0
76 89 0
92 107 0
90 104 0
86 101 0
93 105 0
109 124 0
105 116 0
113 129 0
113 129 0
112 129 0
106 122 0
100 114 0
114 129 0
119 134 0
131 147 0
108 126 0
126 144 0
107 125 0
116 133 0
137 155 0
126 144 0
141 159 0
124 141 0
139 157 0
128 143 0
135 150 0
133 152 0
145 164 0
140 159 0
145 161 0
147 168 0
142 161 0
149 166 0
147 165 0
150 170 0
156 175 0
153 170 0
141 160 0
143 162 0
150 168 0
142 162 0
159 181 0
150 170 0
155 174 0
137 155 0
88 88 25
105 104 36
112 107 31
111 112 25
99 96 35
116 115 34
111 110 25
133 130 36
139 134 52
125 124 39
135 131 30
135 132 32
128 125 25
135 133 32
141 137 28
136 131 28
108 98 8
91 73 0
92 73 2
100 77 4
100 81 10
101 81 3
96 78 7
102 85 8
103 84 4
93 73 11
95 79 4
108 92 7
115 99 8
105 90 8
101 82 13
97 73 2
109 85 8
108 88 7
103 87 10
106 91 7
93 75 6
104 85 3
101 82 8
104 85 6
104 81 9
108 89 16
97 81 10
109 92 5
110 94 4
97 83 1
102 84 10
117 96 8
107 89 1
101 83 8
102 84 10
103 80 8
107 88 10
109 87 12
102 77 8
112 94 20
107 87 1
98 81 10
111 95 8
103 87 7
106 90 3
104 85 11
107 90 11
99 81 7
108 92 11
88 71 6
101 83 8
101 79 8
108 90 3
103 85 7
106 85 13
100 86 17
94 76 8
105 87 8
97 80 1
92 72 17
103 84 6
104 83 21
88 73 4
96 74 13
109 86 10
106 85 14
96 74 10
87 70 14
89 65 8
100 81 10
93 77 14
102 88 10
92 71 7
81 60 8
94 75 19
81 66 10
91 71 7
88 68 19
85 62 11
81 64 11
90 69 13
81 58 3
77 59 12
77 59 8
78 65 19
82 64 4
83 68 12
94 74 14
67 52 3
61 47 8
127 128 3
174 198 0
173 195 0
169 192 0
172 195 0
170 192 0
171 193 0
174 196 0
167 187 0
170 192 0
172 196 0
171 193 0
172 193 0
172 192 0
173 194 0
172 194 0
174 194 0
173 196 0
172 195 0
171 194 0
173 195 0
169 190 0
171 194 0
171 194 0
173 195 0
173 197 0
172 196 0
171 194 0
173 196 0
172 196 0
170 191 0
172 195 0
170 193 0
171 191 0
167 189 0
173 197 0
169 192 0
174 197 0
171 194 0
171 196 0
174 197 0
173 196 0
172 195 0
174 197 0
173 196 0
170 193 0
171 195 0
175 198 0
173 197 0
172 196 0
171 196 0
174 197 0
167 191 0
171 195 0
171 194 0
170 193 0
172 196 0
171 195 0
176 198 0
171 194 0
173 196 0
171 194 0
171 194 0
171 195 0
173 197 0
172 195 0
174 198 0
171 194 0
170 193 0
169 194 0
175 198 0
172 195 0
171 194 0
169 193 0
174 197 0
173 196 0
175 198 0
171 194 0
167 192 0
171 195 0
171 194 0
170 192 0
172 196 0
169 193 0
173 196 0
174 197 0
169 192 0
172 196 0
173 196 0
171 193 0
171 195 0
175 197 0
174 196 0
170 194 0
171 194 0
168 191 0
173 196 0
171 195 0
168 193 0
171 194 0
171 194 0
169 192 0
170 195 0
171 194 0
173 195 0
169 193 0
168 192 0
170 194 0
171 195 0
170 194 0
172 196 0
163 187 0
168 191 0
174 197 0
173 195 0
170 193 0
172 196 0
173 196 0
173 196 0
171 193 0
173 197 0
169 192 0
167 190 0
172 194 0
170 192 0
169 192 0
172 195 0
170 193 0
166 190 0
168 192 0
167 191 0
166 189 0
166 190 0
169 193 0
166 189 0
168 190 0
166 190 0
171 192 0
166 189 0
166 189 0
169 192 0
172 195 0
167 190 0
172 195 0
165 188 0
161 185 0
169 192 0
167 189 0
164 188 0
163 186 0
168 191 0
168 191 0
165 188 0
162 186 0
163 187 0
170 193 0
168 190 0
163 187 0
162 184 0
163 186 0
165 187 0
162 184 0
165 189 0
158 180 0
162 186 0
160 183 0
156 180 0
162 185 0
161 185 0
162 186 0
172 194 0
165 188 0
155 178 0
161 184 0
153 175 0
154 176 0
161 185 0
161 184 0
160 182 0
154 177 0
153 176 0
158 181 0
154 177 0
156 179 0
155 178 0
149 172 0
151 172 0
146 169 0
155 176 0
162 184 0
152 174 0
144 168 0
152 175 0
154 177 0
140 163 0
142 164 0
155 177 0
149 169 0
138 159 0
146 166 0
147 168 0
117 138 0
132 151 0
145 166 0
130 150 0
142 164 0
140 160 0
130 150 0
135 156 0
130 150 0
121 137 0
140 162 0
133 152 0
135 155 0
98 116 0
119 137 0
120 136 0
114 132 0
103 123 0
113 130 0
96 113 0
115 131 0
105 123 0
101 118 0
94 109 0
92 109 0
79 95 0
92 108 0
83 99 0
101 114 0
100 114 0
110 122 0
109 126 0
66 81 0
47 64 0
68 79 0
88 102 0
84 97 0
68 81 0
82 94 0
73 85 0
77 88 0
75 88 0
92 103 0
85 98 0
103 118 0
79 90 0
95 108 0
90 104 0
104 116 0
90 104 0
96 111 0
119 132 0
97 112 0
92 108 0
109 122 0
112 127 0
129 145 0
126 140 0
110 125 0
121 136 0
116 132 0
109 127 0
125 143 0
123 140 0
128 146 0
121 138 0
137 155 0
145 164 0
127 144 0
126 144 0
138 158 0
144 162 0
138 155 0
133 147 0
141 159 0
132 150 0
152 170 0
156 174 0
135 151 0
161 181 0
138 158 0
147 166 0
140 158 0
149 170 0
153 173 0
155 177 0
157 173 0
143 161 0
153 172 0
162 182 0
162 185 0
156 179 0
140 157 0
87 86 28
85 83 30
110 108 37
91 91 28
122 118 45
113 112 36
111 108 26
112 111 25
131 129 39
137 133 42
129 125 36
131 129 25
144 139 28
140 137 28
139 136 44
144 140 36
140 138 32
118 107 16
101 81 4
88 72 5
99 82 8
97 79 3
98 80 0
96 80 8
100 84 5
103 91 7
106 90 11
98 86 7
108 89 11
96 80 6
99 78 4
96 78 2
100 81 3
105 84 11
106 87 8
99 81 10
101 84 8
97 81 13
111 91 10
106 87 7
94 75 8
99 78 4
92 73 2
110 90 10
102 81 10
100 83 1
106 87 10
114 99 7
102 80 9
103 86 9
100 81 8
102 84 3
110 94 9
109 93 10
103 88 12
103 84 10
107 89 9
107 89 18
105 92 10
107 88 10
89 71 9
101 84 8
98 83 8
117 102 6
105 80 13
106 87 14
101 85 8
104 81 15
110 92 8
107 89 14
88 72 18
106 89 10
96 79 11
103 83 10
107 88 13
104 86 7
104 82 12
105 83 10
100 82 8
96 75 8
100 82 10
103 87 9
101 81 10
100 76 13
92 74 7
102 75 12
92 71 16
97 80 12
106 83 19
99 81 10
90 73 7
86 65 17
90 67 10
88 64 15
91 70 10
83 64 10
90 68 13
68 52 3
89 76 18
87 69 18
85 66 14
65 52 7
88 71 20
58 42 3
64 49 9
84 72 1
147 157 0
171 191 0
171 195 0
169 191 0
174 195 0
172 191 0
174 195 0
173 195 0
171 193 0
171 194 0
172 195 0
171 193 0
173 195 0
174 197 0
173 196 0
173 195 0
166 189 0
174 195 0
171 191 0
171 192 0
168 191 0
173 195 0
171 194 0
174 195 0
170 191 0
172 195 0
173 195 0
172 196 0
171 196 0
174 198 0
172 196 0
172 194 0
171 196 0
174 196 0
172 193 0
171 194 0
172 195 0
175 196 0
173 196 0
175 198 0
174 198 0
172 196 0
173 195 0
174 197 0
173 196 0
170 193 0
172 196 0
173 196 0
173 197 0
172 195 0
173 195 0
171 195 0
172 196 0
175 198 0
172 196 0
172 196 0
171 195 0
172 195 0
174 197 0
174 196 0
171 194 0
172 196 0
171 193 0
174 197 0
173 196 0
171 195 0
171 194 0
168 192 0
171 195 0
172 195 0
174 197 0
173 196 0
172 195 0
171 195 0
172 194 0
174 197 0
173 195 0
172 196 0
174 197 0
173 197 0
171 194 0
171 195 0
172 196 0
169 193 0
174 198 0
168 192 0
172 195 0
172 195 0
171 195 0
173 196 0
171 195 0
171 194 0
173 195 0
171 195 0
168 191 0
169 192 0
172 195 0
171 193 0
171 194 0
173 196 0
169 193 0
173 196 0
168 192 0
170 192 0
171 194 0
172 195 0
171 194 0
172 194 0
172 195 0
167 188 0
171 194 0
171 195 0
171 195 0
168 192 0
171 195 0
169 193 0
166 189 0
171 194 0
168 191 0
170 194 0
172 195 0
171 194 0
166 190 0
173 196 0
169 193 0
162 186 0
168 191 0
168 191 0
170 194 0
166 190 0
164 187 0
170 193 0
165 189 0
170 193 0
167 189 0
170 194 0
162 185 0
165 189 0
168 192 0
172 194 0
165 188 0
167 191 0
169 192 0
169 193 0
168 191 0
162 186 0
162 185 0
167 189 0
164 188 0
172 195 0
168 192 0
166 188 0
173 196 0
166 188 0
166 189 0
169 192 0
163 186 0
165 188 0
165 187 0
164 188 0
160 183 0
163 185 0
158 181 0
164 188 0
161 183 0
154 176 0
160 183 0
160 184 0
157 181 0
160 183 0
162 185 0
157 179 0
157 180 0
160 181 0
152 174 0
161 184 0
158 181 0
161 184 0
159 182 0
163 185 0
163 186 0
152 174 0
160 183 0
162 184 0
157 180 0
153 175 0
144 166 0
150 172 0
151 173 0
143 166 0
163 185 0
134 157 0
157 179 0
153 175 0
150 172 0
153 175 0
134 156 0
149 170 0
141 162 0
140 162 0
133 155 0
138 159 0
136 157 0
149 171 0
136 156 0
139 161 0
135 155 0
134 155 0
132 152 0
137 155 0
134 154 0
135 155 0
142 161 0
129 147 0
133 152 0
118 138 0
120 139 0
132 149 0
108 125 0
109 126 0
125 141 0
97 113 0
111 127 0
112 130 0
116 133 0
108 122 0
115 132 0
102 118 0
109 125 0
97 112 0
81 97 0
91 105 0
85 98 0
108 124 0
76 88 0
74 86 0
114 127 0
77 91 0
106 117 0
93 105 0
110 124 0
73 87 0
98 110 0
86 98 0
102 114 0
100 112 0
87 100 0
79 89 0
97 111 0
114 126 0
84 100 0
105 120 0
97 113 0
118 130 0
125 139 0
117 132 0
125 142 0
127 141 0
121 137 0
118 134 0
127 144 0
123 139 0
128 146 0
129 146 0
138 153 0
122 139 0
131 149 0
121 139 0
142 161 0
123 142 0
132 152 0
115 131 0
140 158 0
143 163 0
135 150 0
128 149 0
140 159 0
143 163 0
144 163 0
140 159 0
151 170 0
151 168 0
142 161 0
135 155 0
158 177 0
144 163 0
148 166 0
146 165 0
143 163 0
147 169 0
150 169 0
142 164 0
151 172 0
140 156 11
90 88 34
87 87 29
98 97 37
101 100 36
120 119 41
122 120 37
127 125 41
114 114 34
135 131 36
131 129 30
140 137 36
127 126 22
133 129 32
150 146 34
133 130 28
144 140 30
148 143 36
148 143 22
130 124 36
105 91 0
105 88 8
99 83 8
90 74 11
94 77 8
94 81 7
97 81 0
101 82 5
103 83 0
92 75 4
94 79 8
98 82 1
105 88 3
107 87 5
94 76 3
108 88 11
104 83 11
107 90 11
111 97 10
105 84 13
114 98 4
114 98 13
96 80 3
93 74 7
95 73 8
105 87 8
101 81 1
116 96 10
107 88 7
101 84 8
105 85 1
107 91 3
101 83 10
100 83 8
102 82 11
111 93 10
101 86 4
96 80 1
105 86 3
103 86 7
113 95 6
103 80 11
104 90 7
108 92 4
111 93 10
102 78 8
105 85 11
103 81 6
105 81 9
109 92 13
95 78 0
96 80 7
110 92 13
95 76 8
104 84 7
99 81 17
99 78 7
98 76 8
99 80 10
101 83 14
96 78 11
100 82 8
106 83 9
91 71 11
98 75 7
90 71 10
104 86 12
97 82 13
90 73 10
87 68 13
86 65 2
92 73 16
88 67 11
92 74 11
94 79 3
84 64 3
96 76 16
78 56 7
86 68 11
79 63 14
76 62 8
81 62 12
70 55 8
86 72 18
65 46 10
74 57 3
129 126 36
159 177 0
171 193 0
174 197 0
172 194 0
171 192 0
173 195 0
172 196 0
170 192 0
171 195 0
169 192 0
172 194 0
175 196 0
173 195 0
176 199 0
168 191 0
174 196 0
172 192 0
173 194 0
170 192 0
173 196 0
172 195 0
170 193 0
168 191 0
167 189 0
170 193 0
173 195 0
172 196 0
174 198 0
174 196 0
173 194 0
169 193 0
171 195 0
175 197 0
175 198 0
172 194 0
173 194 0
168 190 0
170 192 0
172 194 0
172 195 0
176 199 0
173 197 0
173 197 0
171 194 0
170 194 0
174 197 0
173 196 0
174 197 0
173 196 0
174 196 0
171 194 0
173 196 0
174 198 0
171 194 0
172 195 0
173 195 0
173 196 0
173 197 0
171 195 0
171 195 0
175 198 0
173 196 0
172 195 0
172 196 0
172 195 0
172 196 0
171 195 0
173 196 0
172 196 0
173 195 0
170 194 0
175 197 0
172 194 0
174 197 0
171 195 0
172 194 0
175 198 0
172 196 0
171 193 0
174 197 0
173 197 0
168 192 0
174 197 0
169 193 0
172 195 0
168 192 0
168 192 0
171 195 0
167 190 0
170 194 0
173 195 0
168 192 0
172 196 0
168 192 0
169 193 0
172 195 0
172 196 0
169 193 0
170 194 0
172 196 0
173 195 0
172 196 0
173 196 0
173 196 0
167 191 0
170 193 0
170 194 0
170 193 0
169 192 0
168 192 0
168 190 0
172 196 0
170 194 0
172 195 0
176 198 0
168 190 0
173 196 0
168 192 0
167 191 0
172 195 0
170 193 0
170 194 0
168 192 0
166 189 0
170 193 0
171 194 0
168 193 0
175 197 0
169 193 0
169 193 0
168 191 0
164 187 0
168 191 0
164 187 0
163 187 0
170 194 0
170 194 0
165 188 0
169 192 0
172 196 0
170 194 0
162 185 0
170 192 0
166 191 0
168 192 0
161 183 0
169 193 0
164 186 0
165 187 0
166 190 0
161 184 0
159 183 0
167 189 0
163 187 0
167 189 0
165 189 0
162 186 0
164 186 0
163 186 0
161 184 0
159 182 0
166 188 0
162 182 0
168 192 0
167 189 0
169 192 0
154 176 0
163 186 0
155 178 0
162 185 0
167 190 0
159 182 0
158 182 0
166 189 0
151 174 0
163 185 0
155 178 0
161 183 0
150 173 0
160 181 0
160 182 0
153 174 0
160 184 0
163 186 0
156 179 0
151 172 0
162 185 0
152 173 0
155 178 0
153 174 0
152 175 0
156 179 0
147 169 0
139 161 0
153 176 0
140 163 0
149 172 0
142 162 0
130 151 0
142 163 0
144 165 0
138 157 0
141 164 0
132 153 0
139 160 0
131 152 0
137 158 0
130 151 0
141 162 0
138 158 0
144 165 0
137 157 0
120 139 0
115 134 0
135 155 0
123 141 0
123 138 0
109 126 0
128 147 0
125 143 0
120 137 0
121 138 0
104 123 0
109 126 0
123 142 0
90 108 0
112 127 0
98 112 0
108 125 0
103 121 0
94 109 0
110 123 0
103 120 0
100 115 0
106 121 0
94 108 0
98 114 0
102 115 0
101 113 0
83 93 0
96 107 0
91 105 0
108 122 0
87 99 0
113 127 0
84 96 0
106 118 0
108 122 0
105 118 0
104 119 0
121 138 0
119 134 0
101 118 0
108 120 0
108 124 0
121 137 0
115 132 0
106 122 0
115 129 0
122 135 0
107 123 0
109 122 0
116 135 0
140 158 0
129 146 0
121 138 0
128 146 0
133 151 0
137 155 0
133 152 0
133 150 0
133 151 0
128 145 0
143 160 0
140 156 0
126 143 0
134 150 0
140 157 0
140 158 0
148 165 0
145 161 0
144 162 0
139 156 0
133 151 0
134 151 0
151 169 0
153 172 0
148 166 0
156 173 0
148 165 0
154 172 0
151 171 0
159 180 0
122 135 16
81 81 17
106 104 26
114 111 39
109 107 46
105 104 28
124 121 38
128 126 29
129 125 28
128 124 19
137 133 30
130 128 22
131 126 36
128 126 28
140 136 34
146 140 22
147 143 36
147 144 28
143 138 34
152 147 36
145 140 36
116 108 16
95 79 7
94 78 7
95 77 5
104 91 3
111 96 10
104 87 7
103 85 12
103 82 7
99 79 4
110 97 0
92 75 7
104 87 10
110 92 11
108 94 17
104 87 8
101 80 4
100 85 8
107 89 3
109 90 11
105 83 4
102 83 8
100 84 0
105 90 10
107 88 13
99 80 1
111 95 3
103 84 1
106 90 12
105 86 2
112 93 16
105 82 8
111 95 7
106 86 0
111 91 9
105 85 0
105 87 0
101 84 10
102 85 1
102 80 3
105 88 8
95 78 7
100 82 0
94 75 7
113 92 10
111 92 8
95 76 10
105 89 7
93 76 10
103 84 10
96 76 10
110 88 12
102 87 8
106 85 8
95 82 7
101 81 16
102 79 12
99 80 1
91 71 7
75 56 7
97 74 11
96 75 8
85 66 8
102 84 9
90 70 7
96 77 13
82 62 4
88 71 10
83 65 8
95 76 19
94 74 15
89 72 10
91 71 13
81 65 5
87 69 8
72 56 1
85 64 8
85 67 11
77 61 9
87 70 12
83 61 5
66 49 7
75 53 18
85 66 12
115 112 16
131 128 32
170 191 0
171 192 0
170 192 0
171 192 0
174 195 0
174 195 0
170 192 0
172 195 0
173 194 0
171 193 0
169 190 0
170 193 0
172 194 0
170 192 0
168 190 0
171 194 0
172 194 0
171 193 0
172 194 0
171 192 0
169 190 0
168 192 0
171 194 0
168 191 0
171 193 0
171 194 0
173 196 0
170 192 0
173 195 0
173 195 0
174 196 0
172 195 0
173 194 0
173 195 0
168 191 0
174 195 0
173 195 0
175 197 0
172 195 0
172 196 0
173 196 0
173 197 0
173 196 0
174 197 0
172 196 0
172 195 0
173 196 0
172 195 0
174 197 0
172 195 0
170 193 0
175 198 0
174 197 0
176 198 0
173 196 0
171 195 0
171 194 0
174 196 0
170 193 0
173 197 0
170 193 0
172 197 0
170 194 0
172 196 0
172 196 0
174 197 0
172 196 0
170 194 0
174 196 0
171 195 0
172 196 0
172 196 0
170 193 0
172 195 0
171 196 0
175 197 0
170 194 0
173 196 0
172 196 0
168 193 0
170 194 0
169 193 0
171 195 0
174 196 0
171 195 0
169 193 0
170 194 0
174 197 0
171 195 0
173 196 0
171 194 0
172 196 0
174 197 0
172 195 0
173 197 0
168 191 0
168 192 0
171 194 0
168 191 0
170 194 0
167 191 0
174 197 0
168 192 0
175 198 0
172 194 0
170 195 0
169 193 0
175 197 0
170 193 0
174 197 0
172 194 0
170 192 0
171 194 0
169 192 0
172 196 0
170 194 0
171 195 0
172 195 0
170 192 0
171 193 0
168 192 0
171 194 0
169 193 0
170 193 0
173 197 0
170 193 0
171 194 0
168 190 0
169 193 0
169 193 0
169 191 0
172 195 0
173 195 0
171 194 0
172 194 0
167 189 0
164 187 0
163 186 0
165 188 0
165 187 0
163 185 0
165 188 0
168 191 0
165 189 0
174 196 0
163 187 0
163 187 0
167 190 0
169 193 0
168 191 0
164 187 0
168 191 0
165 189 0
169 192 0
168 192 0
166 188 0
169 192 0
156 179 0
167 189 0
167 190 0
164 188 0
163 186 0
159 182 0
156 179 0
166 188 0
163 186 0
168 191 0
161 183 0
157 181 0
165 186 0
163 187 0
163 186 0
157 180 0
164 189 0
155 177 0
153 176 0
161 185 0
158 182 0
155 178 0
158 180 0
153 175 0
160 184 0
155 178 0
157 180 0
155 178 0
158 180 0
145 167 0
142 165 0
157 180 0
151 174 0
154 176 0
151 172 0
147 169 0
152 175 0
154 175 0
137 158 0
152 173 0
142 163 0
139 161 0
150 173 0
142 164 0
140 162 0
133 154 0
147 166 0
134 156 0
140 161 0
133 153 0
133 154 0
131 152 0
124 145 0
119 139 0
136 154 0
141 163 0
122 140 0
112 133 0
119 140 0
125 143 0
113 131 0
127 145 0
123 142 0
113 131 0
132 149 0
105 121 0
111 129 0
103 121 0
100 117 0
120 139 0
84 100 0
117 133 0
108 121 0
95 109 0
110 126 0
101 115 0
105 121 0
106 121 0
91 106 0
106 121 0
100 115 0
101 114 0
122 136 0
105 119 0
107 121 0
98 110 0
103 116 0
103 117 0
110 123 0
93 107 0
116 132 0
108 123 0
111 126 0
100 115 0
104 119 0
124 139 0
101 116 0
123 137 0
123 139 0
137 152 0
89 106 0
113 128 0
110 126 0
112 127 0
125 142 0
113 129 0
127 145 0
116 135 0
119 136 0
136 153 0
144 162 0
138 158 0
133 151 0
139 156 0
136 155 0
135 153 0
127 146 0
145 161 0
154 172 0
152 172 0
142 162 0
138 155 0
133 150 0
132 149 0
152 171 0
146 164 0
146 162 0
148 167 0
155 176 0
143 162 0
147 167 0
148 165 0
146 164 0
151 169 0
157 176 0
149 167 0
128 138 11
101 102 38
90 90 25
99 98 32
111 109 41
117 116 25
115 113 37
123 120 25
131 128 39
139 136 41
144 140 36
134 131 22
143 138 48
141 137 37
129 127 29
147 143 30
146 143 22
141 138 19
147 142 36
144 140 32
157 153 42
144 138 22
144 137 3
113 99 7
94 76 10
97 80 11
105 85 10
97 78 7
102 85 0
101 79 7
100 83 8
101 83 1
105 90 10
106 86 7
105 85 5
119 100 13
99 80 4
110 93 7
100 78 8
105 83 3
105 88 8
109 92 12
99 83 8
101 82 10
105 87 9
105 86 7
109 94 8
106 89 9
105 87 8
106 91 8
109 94 7
104 84 10
102 86 3
107 88 10
102 82 8
101 84 4
103 78 13
101 84 3
101 81 7
107 89 3
100 87 1
100 83 4
105 88 7
94 78 12
95 74 11
108 86 18
88 69 0
105 85 9
103 87 7
105 85 11
90 70 8
103 84 5
92 74 7
95 75 4
105 83 8
106 89 15
99 79 11
97 80 1
100 79 8
94 74 2
95 74 10
88 71 5
105 85 7
103 86 12
110 91 14
96 78 10
89 73 10
85 67 10
94 73 11
86 73 8
98 78 11
85 66 8
93 74 16
83 66 10
95 80 19
85 63 12
78 59 14
62 46 7
91 70 18
72 53 10
80 63 10
80 61 6
71 55 8
59 42 7
109 104 28
131 126 42
141 146 22
168 192 0
172 195 0
170 193 0
173 195 0
174 195 0
172 193 0
170 193 0
173 196 0
174 197 0
173 197 0
171 193 0
169 191 0
172 192 0
172 193 0
167 188 0
170 193 0
169 191 0
172 194 0
174 197 0
173 196 0
173 195 0
175 195 0
175 196 0
174 195 0
170 193 0
172 193 0
174 197 0
174 197 0
172 193 0
169 192 0
172 194 0
170 193 0
172 194 0
171 193 0
171 194 0
171 194 0
172 196 0
172 194 0
173 196 0
175 198 0
174 197 0
173 197 0
173 196 0
173 197 0
171 195 0
174 198 0
171 195 0
174 197 0
172 196 0
171 194 0
175 198 0
173 197 0
172 196 0
172 196 0
172 196 0
173 196 0
173 197 0
175 198 0
174 197 0
168 193 0
172 195 0
174 197 0
173 196 0
171 195 0
173 196 0
173 196 0
170 194 0
172 196 0
170 194 0
172 195 0
174 197 0
173 196 0
173 197 0
172 196 0
169 192 0
173 195 0
170 194 0
171 194 0
173 196 0
174 197 0
169 194 0
174 197 0
172 195 0
170 193 0
168 192 0
172 195 0
172 196 0
173 197 0
170 194 0
173 196 0
173 197 0
173 196 0
175 198 0
172 195 0
172 196 0
171 195 0
172 195 0
171 194 0
169 193 0
172 195 0
170 194 0
169 192 0
170 193 0
172 195 0
165 189 0
172 194 0
169 192 0
169 192 0
168 192 0
167 191 0
170 194 0
174 196 0
169 192 0
172 194 0
172 195 0
170 193 0
173 197 0
164 187 0
165 189 0
169 193 0
171 194 0
166 190 0
171 192 0
173 196 0
168 192 0
167 191 0
171 194 0
173 196 0
170 193 0
169 192 0
165 189 0
171 194 0
171 193 0
170 193 0
166 189 0
169 192 0
169 191 0
166 188 0
164 188 0
166 189 0
170 193 0
169 192 0
164 187 0
166 189 0
163 185 0
173 195 0
168 189 0
166 189 0
172 196 0
168 192 0
166 189 0
165 189 0
165 189 0
164 188 0
164 188 0
166 187 0
160 183 0
162 185 0
165 188 0
168 191 0
160 183 0
163 186 0
163 187 0
161 184 0
165 188 0
164 187 0
159 182 0
161 185 0
162 185 0
164 187 0
158 180 0
162 186 0
158 182 0
164 186 0
161 184 0
158 182 0
164 187 0
167 190 0
163 187 0
155 177 0
147 169 0
158 180 0
150 172 0
150 173 0
151 174 0
151 173 0
161 184 0
154 176 0
146 168 0
153 173 0
148 170 0
142 163 0
155 178 0
147 169 0
138 161 0
157 179 0
149 170 0
149 171 0
156 178 0
152 175 0
153 174 0
141 161 0
141 160 0
136 157 0
146 168 0
134 155 0
136 156 0
129 150 0
131 152 0
143 164 0
139 159 0
130 150 0
127 147 0
123 144 0
127 144 0
133 153 0
132 152 0
134 153 0
119 138 0
122 139 0
127 145 0
130 149 0
106 124 0
120 137 0
112 128 0
111 130 0
122 139 0
111 126 0
119 139 0
115 130 0
106 123 0
89 106 0
113 127 0
102 119 0
102 118 0
119 134 0
100 114 0
103 114 0
113 127 0
107 122 0
99 114 0
115 131 0
98 116 0
98 114 0
104 117 0
125 142 0
105 121 0
126 142 0
110 123 0
115 130 0
107 124 0
104 119 0
123 139 0
112 129 0
122 133 0
100 116 0
114 130 0
117 135 0
124 141 0
118 134 0
123 139 0
133 150 0
131 148 0
127 145 0
138 159 0
130 145 0
138 154 0
132 150 0
132 149 0
134 152 0
139 156 0
133 150 0
148 169 0
130 149 0
138 158 0
152 172 0
138 156 0
152 172 0
143 162 0
143 162 0
156 174 0
143 160 0
141 161 0
143 162 0
146 162 0
150 167 0
146 164 0
155 174 0
151 170 0
141 161 0
138 158 0
139 159 0
157 177 0
120 129 13
97 96 30
108 106 38
97 98 30
105 103 39
129 126 32
121 118 34
128 124 32
105 106 26
129 125 32
132 128 32
130 127 25
143 138 39
141 139 30
142 139 30
143 139 30
143 139 32
146 143 34
140 137 11
138 135 19
148 144 28
141 138 30
147 143 28
143 137 32
124 115 16
106 93 0
101 84 8
96 82 7
106 90 4
96 80 10
109 88 8
103 89 7
99 81 0
115 96 1
109 92 0
103 88 4
108 93 8
101 85 0
87 72 1
105 86 10
103 86 1
109 87 11
98 81 3
109 94 9
105 85 8
103 85 7
95 78 8
106 89 9
101 85 5
94 79 10
119 102 11
100 78 7
107 91 5
105 90 5
95 77 7
109 91 11
104 85 5
107 90 11
101 84 3
108 88 7
103 83 11
106 90 11
103 83 3
106 89 3
107 89 3
106 86 11
102 88 7
97 80 3
104 82 14
97 76 7
92 75 10
92 75 4
100 84 12
82 63 3
99 80 10
101 85 14
108 87 7
106 85 14
98 75 8
101 81 11
97 77 8
100 81 7
100 81 13
94 74 7
88 68 5
97 74 12
85 65 5
87 65 8
93 77 7
95 74 16
93 69 6
90 73 11
95 78 6
75 60 12
80 62 8
88 66 4
76 56 1
79 62 2
79 64 8
81 61 8
73 54 20
78 61 3
79 59 9
108 102 22
118 114 16
109 106 16
152 170 0
173 194 0
171 191 0
171 194 0
173 192 0
172 193 0
171 193 0
172 194 0
169 191 0
174 196 0
172 195 0
169 192 0
170 190 0
174 196 0
172 194 0
169 191 0
170 193 0
174 197 0
171 192 0
173 196 0
169 192 0
171 193 0
174 196 0
169 193 0
174 197 0
173 197 0
175 197 0
171 195 0
173 197 0
173 197 0
172 194 0
170 193 0
169 191 0
174 196 0
172 194 0
172 192 0
173 196 0
174 195 0
172 194 0
169 191 0
170 193 0
173 197 0
172 196 0
174 197 0
172 196 0
174 197 0
173 196 0
172 195 0
173 197 0
174 197 0
171 195 0
170 195 0
171 194 0
171 195 0
173 196 0
170 194 0
172 195 0
172 195 0
174 197 0
173 196 0
171 194 0
175 197 0
168 192 0
172 196 0
174 197 0
172 196 0
172 195 0
174 196 0
170 194 0
172 196 0
169 193 0
174 197 0
172 195 0
172 196 0
172 195 0
172 196 0
173 196 0
172 196 0
170 193 0
172 196 0
170 193 0
176 198 0
174 197 0
172 196 0
173 195 0
169 192 0
168 191 0
171 195 0
170 194 0
168 193 0
174 197 0
170 194 0
168 192 0
172 196 0
169 191 0
173 196 0
170 194 0
170 194 0
172 196 0
170 193 0
171 193 0
174 197 0
172 196 0
172 195 0
170 193 0
170 194 0
169 193 0
168 193 0
170 193 0
171 193 0
169 193 0
171 194 0
169 192 0
169 193 0
171 195 0
171 195 0
172 195 0
166 190 0
174 196 0
173 197 0
174 197 0
168 192 0
171 193 0
169 193 0
166 189 0
169 192 0
172 195 0
170 192 0
170 194 0
164 187 0
169 192 0
170 193 0
171 195 0
173 196 0
165 188 0
166 189 0
169 192 0
170 192 0
168 191 0
169 192 0
166 190 0
169 193 0
170 192 0
168 191 0
165 188 0
169 193 0
171 194 0
170 194 0
170 193 0
167 190 0
167 190 0
164 187 0
169 191 0
160 184 0
167 190 0
168 190 0
166 188 0
165 187 0
161 185 0
163 186 0
167 191 0
164 188 0
166 189 0
164 189 0
161 183 0
168 191 0
166 189 0
162 185 0
161 183 0
161 186 0
164 188 0
156 179 0
155 177 0
148 171 0
158 181 0
161 185 0
166 188 0
147 169 0
155 179 0
149 171 0
159 182 0
153 176 0
157 179 0
161 183 0
160 182 0
155 177 0
152 174 0
164 186 0
155 176 0
144 167 0
151 173 0
159 181 0
149 171 0
141 163 0
148 171 0
147 167 0
153 175 0
138 161 0
147 169 0
148 171 0
151 170 0
138 159 0
140 161 0
148 171 0
138 159 0
136 158 0
139 161 0
141 162 0
130 150 0
149 170 0
144 164 0
134 154 0
134 154 0
138 157 0
128 148 0
133 154 0
132 152 0
129 147 0
131 148 0
117 136 0
132 152 0
121 139 0
107 126 0
122 136 0
131 149 0
129 146 0
100 118 0
133 151 0
102 120 0
116 133 0
115 132 0
93 110 0
111 128 0
104 122 0
104 121 0
104 119 0
116 134 0
110 126 0
100 115 0
108 125 0
109 127 0
85 99 0
135 152 0
115 130 0
103 117 0
125 142 0
120 135 0
122 138 0
119 132 0
122 136 0
96 111 0
124 139 0
112 128 0
113 130 0
126 144 0
126 143 0
124 142 0
132 148 0
116 133 0
128 144 0
133 152 0
123 137 0
119 136 0
118 135 0
127 145 0
143 161 0
130 147 0
117 133 0
141 158 0
136 155 0
139 157 0
132 150 0
156 176 0
144 161 0
134 156 0
156 173 0
149 167 0
142 161 0
141 159 0
152 172 0
147 167 0
150 169 0
144 163 0
138 157 0
153 173 0
159 176 0
137 157 0
140 159 0
147 167 0
158 178 0
150 169 0
149 168 0
147 167 0
142 158 0
102 110 20
89 89 33
105 105 25
101 101 29
94 94 31
121 120 32
132 128 32
126 123 47
124 123 25
131 126 37
140 135 32
132 129 39
121 118 22
141 136 32
148 145 38
141 138 28
147 141 39
148 144 36
148 143 22
152 148 42
140 137 16
151 148 22
142 138 16
158 152 39
142 138 28
147 140 28
126 117 16
109 95 0
105 88 7
106 90 3
98 81 7
95 79 10
105 89 4
111 95 3
108 94 3
103 83 8
102 86 8
107 90 7
114 94 11
105 91 10
107 91 7
106 90 8
105 89 1
108 86 4
111 90 8
107 86 11
100 80 13
111 96 3
105 86 7
117 97 10
109 92 0
108 91 16
102 79 8
105 86 14
108 91 10
103 84 4
110 93 8
99 89 4
108 91 10
105 87 7
106 85 8
104 90 5
112 93 10
100 81 3
99 83 3
100 80 11
108 86 13
108 94 11
90 75 7
102 85 8
106 91 3
104 85 10
97 83 8
98 79 11
96 73 10
105 85 5
93 74 5
106 90 8
86 67 4
102 87 4
86 68 1
85 62 3
97 82 10
81 64 10
94 77 3
82 60 5
96 76 8
91 72 7
93 71 3
95 75 7
91 71 9
98 81 3
94 74 15
94 80 8
86 68 9
96 79 4
80 60 6
81 63 8
81 65 8
72 54 8
70 50 8
73 57 2
101 95 16
132 129 22
132 128 28
118 115 32
165 183 0
171 193 0
170 191 0
170 192 0
166 187 0
173 194 0
173 196 0
173 194 0
170 194 0
170 193 0
171 193 0
172 194 0
171 192 0
170 191 0
172 193 0
169 191 0
169 191 0
173 196 0
170 192 0
172 194 0
175 198 0
171 193 0
173 195 0
174 196 0
172 196 0
173 196 0
173 196 0
169 193 0
173 195 0
171 194 0
172 194 0
171 195 0
171 195 0
172 195 0
170 192 0
170 192 0
172 195 0
172 194 0
173 195 0
171 194 0
175 197 0
172 196 0
172 196 0
175 198 0
173 196 0
174 197 0
172 195 0
173 196 0
173 196 0
174 197 0
172 196 0
170 194 0
172 196 0
174 197 0
173 197 0
172 196 0
172 196 0
174 197 0
174 197 0
171 195 0
173 197 0
173 195 0
173 197 0
171 195 0
174 197 0
173 195 0
172 195 0
170 194 0
172 195 0
175 197 0
171 196 0
169 192 0
174 196 0
172 195 0
173 196 0
172 195 0
173 196 0
172 195 0
173 197 0
172 197 0
171 195 0
174 196 0
171 195 0
173 195 0
173 195 0
173 197 0
171 194 0
170 194 0
174 197 0
172 195 0
173 197 0
167 189 0
170 194 0
174 196 0
170 194 0
172 196 0
169 192 0
173 195 0
174 197 0
170 193 0
170 193 0
172 196 0
171 196 0
172 195 0
174 197 0
169 193 0
169 194 0
173 196 0
170 194 0
169 193 0
168 191 0
170 193 0
168 191 0
171 194 0
169 192 0
169 193 0
175 198 0
166 189 0
170 194 0
172 196 0
163 188 0
167 191 0
170 195 0
171 194 0
168 191 0
171 194 0
165 188 0
174 196 0
170 193 0
172 195 0
169 192 0
166 189 0
170 193 0
172 195 0
165 188 0
168 192 0
166 189 0
164 188 0
165 189 0
167 192 0
162 185 0
165 189 0
170 192 0
167 190 0
169 192 0
172 195 0
169 193 0
171 194 0
170 191 0
169 191 0
166 189 0
168 190 0
167 191 0
159 182 0
163 187 0
164 187 0
165 188 0
161 184 0
164 188 0
160 184 0
166 190 0
161 183 0
161 185 0
165 189 0
164 188 0
169 193 0
163 185 0
162 185 0
162 185 0
154 175 0
167 190 0
166 189 0
158 179 0
165 189 0
168 190 0
163 184 0
155 179 0
149 172 0
163 186 0
158 180 0
154 177 0
155 177 0
158 181 0
164 187 0
168 192 0
154 178 0
159 182 0
162 185 0
150 173 0
155 179 0
154 175 0
154 176 0
151 174 0
154 176 0
158 181 0
139 161 0
146 168 0
149 172 0
160 181 0
153 176 0
151 171 0
161 181 0
146 166 0
145 167 0
142 164 0
138 159 0
143 163 0
145 165 0
143 166 0
149 169 0
129 151 0
136 156 0
141 160 0
130 151 0
142 162 0
141 160 0
144 166 0
129 150 0
127 148 0
119 136 0
118 136 0
142 162 0
136 156 0
123 143 0
119 137 0
131 151 0
123 144 0
137 155 0
122 140 0
127 146 0
114 130 0
138 156 0
117 135 0
117 132 0
107 124 0
108 123 0
114 130 0
99 113 0
107 126 0
122 140 0
127 142 0
126 144 0
126 142 0
113 129 0
119 133 0
113 126 0
103 118 0
120 138 0
121 137 0
111 127 0
118 135 0
117 134 0
117 131 0
123 139 0
134 151 0
137 154 0
117 133 0
119 137 0
126 145 0
135 154 0
126 141 0
134 151 0
138 154 0
127 147 0
137 154 0
135 148 0
131 150 0
142 160 0
133 152 0
137 159 0
143 162 0
142 160 0
137 155 0
142 160 0
141 159 0
153 169 0
140 157 0
155 176 0
140 156 0
143 162 0
146 164 0
147 166 0
144 164 0
137 156 0
149 168 0
144 163 0
148 168 0
143 162 0
154 175 0
162 179 0
151 170 0
152 172 0
145 162 0
161 182 0
106 114 20
90 88 30
109 105 36
102 104 30
98 98 36
109 107 32
115 114 25
130 127 39
128 127 27
130 128 32
134 132 28
128 124 29
141 138 44
131 129 19
143 139 34
144 140 30
138 135 25
148 144 39
151 146 32
143 139 22
135 132 22
145 141 28
149 144 42
144 140 22
149 145 32
148 144 32
154 149 45
146 140 36
123 112 17
111 92 4
98 81 3
99 81 7
95 76 4
113 97 10
105 86 5
107 92 3
93 74 3
95 78 7
110 96 4
97 77 0
101 85 8
114 96 3
99 81 1
104 88 9
93 76 5
118 101 0
109 94 10
109 90 8
99 82 8
110 93 9
107 91 7
106 90 3
100 82 3
98 81 2
107 90 7
105 90 3
117 99 18
111 94 0
99 82 7
106 87 8
102 82 7
104 88 9
101 84 7
104 89 5
106 88 6
111 94 13
95 76 10
115 93 14
101 84 10
101 84 7
94 75 10
99 80 8
102 82 5
100 84 10
101 80 3
101 79 9
95 76 6
109 88 18
100 80 10
102 83 7
97 75 5
92 75 8
91 73 4
102 90 14
96 78 7
94 80 7
88 70 7
93 76 11
95 75 8
88 69 5
86 67 11
85 67 7
79 66 2
83 64 5
89 68 11
80 61 7
82 68 10
89 73 16
73 54 18
81 66 14
101 85 18
122 117 28
138 132 32
126 123 28
124 120 28
132 135 16
166 186 0
174 196 0
173 194 0
170 192 0
168 191 0
171 192 0
169 188 0
175 197 0
170 193 0
172 194 0
173 194 0
173 196 0
174 195 0
173 196 0
172 195 0
170 192 0
171 194 0
172 194 0
171 192 0
172 195 0
168 191 0
172 192 0
171 195 0
169 191 0
169 192 0
175 197 0
174 197 0
172 194 0
174 194 0
173 193 0
171 193 0
175 198 0
172 193 0
171 193 0
175 197 0
170 192 0
172 195 0
171 193 0
174 196 0
171 195 0
173 196 0
173 196 0
171 194 0
173 195 0
173 195 0
173 196 0
170 193 0
174 198 0
174 197 0
174 196 0
173 196 0
172 195 0
172 196 0
171 195 0
170 193 0
173 196 0
172 195 0
168 191 0
174 197 0
173 197 0
174 197 0
174 197 0
172 195 0
174 197 0
170 193 0
172 195 0
173 196 0
173 196 0
170 193 0
172 195 0
174 197 0
171 195 0
170 193 0
171 194 0
174 197 0
170 193 0
168 192 0
174 198 0
171 195 0
172 196 0
171 194 0
172 194 0
175 197 0
171 194 0
172 195 0
170 193 0
169 193 0
174 196 0
168 192 0
169 193 0
169 193 0
171 194 0
175 198 0
170 193 0
172 195 0
172 194 0
167 191 0
175 198 0
173 197 0
168 191 0
172 196 0
173 196 0
171 195 0
170 194 0
169 193 0
172 195 0
171 195 0
168 190 0
171 194 0
171 193 0
171 194 0
172 195 0
172 195 0
166 190 0
169 191 0
167 190 0
171 195 0
175 198 0
171 194 0
165 189 0
169 192 0
172 196 0
171 195 0
166 190 0
165 189 0
173 197 0
166 189 0
172 196 0
166 189 0
169 192 0
170 193 0
171 194 0
163 186 0
167 191 0
171 194 0
169 193 0
171 194 0
168 191 0
166 190 0
169 192 0
167 190 0
169 194 0
166 190 0
167 192 0
169 191 0
162 185 0
168 191 0
166 190 0
163 185 0
169 191 0
167 190 0
171 194 0
168 191 0
172 195 0
170 192 0
164 188 0
172 195 0
164 187 0
161 183 0
158 181 0
161 184 0
162 184 0
158 181 0
168 191 0
164 187 0
161 184 0
162 184 0
172 196 0
160 183 0
165 188 0
165 188 0
161 183 0
160 184 0
158 181 0
166 190 0
160 183 0
158 180 0
161 184 0
165 188 0
157 179 0
168 191 0
167 190 0
156 179 0
151 173 0
154 175 0
162 185 0
153 177 0
163 186 0
158 180 0
158 179 0
149 169 0
150 172 0
147 169 0
161 183 0
152 173 0
153 175 0
152 175 0
158 180 0
145 167 0
154 177 0
155 176 0
142 162 0
147 169 0
144 165 0
139 160 0
150 170 0
144 164 0
131 153 0
148 171 0
138 159 0
142 161 0
147 169 0
140 160 0
136 156 0
138 159 0
133 154 0
147 168 0
127 145 0
118 139 0
119 138 0
125 144 0
124 144 0
126 147 0
110 127 0
128 145 0
125 143 0
109 129 0
124 142 0
117 135 0
124 142 0
106 123 0
128 146 0
127 143 0
108 126 0
98 114 0
113 128 0
116 134 0
113 129 0
130 148 0
117 134 0
112 128 0
132 150 0
107 121 0
120 138 0
129 147 0
121 138 0
104 119 0
95 110 0
116 132 0
127 144 0
128 146 0
129 147 0
129 146 0
109 125 0
116 134 0
122 140 0
127 144 0
122 142 0
138 157 0
130 144 0
118 135 0
118 136 0
132 149 0
150 169 0
135 154 0
131 148 0
128 145 0
131 147 0
145 163 0
137 156 0
130 148 0
140 160 0
139 157 0
139 157 0
144 164 0
147 166 0
154 172 0
145 164 0
153 174 0
150 169 0
148 167 0
135 152 0
146 162 0
141 160 0
144 161 0
157 174 0
153 173 0
136 157 0
147 165 0
146 164 0
160 177 0
148 168 0
157 176 0
155 175 0
95 94 28
90 90 28
93 94 28
119 118 30
115 112 26
121 119 36
127 124 34
129 126 39
140 135 37
129 126 19
135 131 41
132 130 36
139 135 22
136 132 25
138 135 29
143 137 42
138 135 16
148 144 36
144 141 33
148 144 28
139 136 28
140 136 16
153 149 36
152 147 32
148 143 32
151 147 36
154 149 42
150 146 32
150 145 36
140 136 22
123 109 23
104 85 7
105 82 2
112 95 4
97 83 10
108 87 9
105 88 11
99 83 4
102 87 7
103 84 2
111 94 3
107 87 10
99 77 10
110 95 4
101 85 2
114 96 8
101 86 7
105 85 11
101 86 8
104 81 9
109 87 9
110 91 7
96 81 10
108 91 3
109 87 8
105 91 7
109 93 13
114 98 1
95 77 7
109 90 0
108 91 3
110 89 11
106 85 8
96 77 3
96 81 3
102 82 3
109 90 7
102 87 2
98 75 6
113 98 11
101 80 16
96 77 7
105 87 4
105 91 3
108 88 5
100 82 8
98 75 8
94 75 8
100 83 8
102 83 11
108 90 16
97 83 1
91 77 7
92 78 0
101 79 9
89 69 7
91 72 7
90 71 8
102 80 5
90 67 8
86 65 3
96 75 19
85 65 1
88 72 8
89 69 10
86 67 4
88 68 8
75 54 8
61 44 0
115 105 40
141 137 32
145 141 22
128 123 28
134 129 28
131 127 36
144 155 28
168 191 0
171 192 0
170 193 0
170 191 0
170 193 0
163 186 0
171 192 0
171 194 0
173 194 0
172 194 0
170 193 0
172 194 0
172 193 0
169 192 0
172 195 0
172 194 0
172 197 0
172 193 0
173 196 0
173 194 0
172 196 0
171 192 0
172 194 0
174 195 0
172 195 0
171 192 0
174 196 0
168 190 0
172 194 0
170 193 0
174 197 0
173 195 0
173 196 0
168 190 0
172 194 0
172 195 0
173 196 0
172 194 0
172 197 0
174 196 0
169 192 0
172 195 0
171 196 0
173 196 0
172 196 0
175 198 0
173 197 0
171 196 0
174 197 0
174 197 0
175 198 0
169 192 0
173 196 0
173 195 0
168 192 0
172 196 0
175 197 0
174 197 0
173 195 0
167 190 0
172 196 0
173 197 0
174 197 0
171 195 0
174 196 0
169 194 0
175 198 0
173 197 0
170 194 0
173 196 0
172 194 0
174 197 0
172 196 0
168 192 0
171 195 0
172 196 0
172 196 0
174 197 0
173 196 0
171 194 0
172 195 0
173 196 0
172 196 0
172 196 0
173 196 0
173 197 0
172 195 0
172 195 0
170 193 0
174 196 0
169 192 0
171 195 0
172 196 0
169 192 0
170 193 0
166 192 0
171 194 0
171 195 0
176 199 0
174 197 0
175 198 0
175 198 0
170 194 0
171 195 0
173 196 0
170 193 0
174 196 0
171 193 0
174 196 0
171 194 0
168 192 0
170 192 0
174 197 0
169 193 0
171 195 0
171 194 0
173 196 0
173 197 0
164 186 0
171 193 0
170 194 0
172 195 0
173 195 0
168 191 0
171 196 0
167 188 0
167 190 0
167 190 0
168 192 0
170 193 0
173 197 0
166 189 0
171 195 0
173 197 0
167 190 0
170 193 0
166 189 0
163 186 0
173 196 0
164 188 0
169 191 0
165 188 0
166 190 0
172 196 0
162 186 0
167 190 0
170 193 0
163 185 0
161 183 0
173 196 0
167 191 0
168 192 0
163 186 0
167 190 0
164 188 0
163 187 0
162 184 0
169 191 0
165 189 0
165 189 0
165 188 0
169 192 0
157 179 0
163 186 0
161 183 0
159 182 0
166 189 0
166 187 0
167 190 0
158 181 0
157 181 0
161 185 0
159 182 0
167 189 0
165 189 0
158 180 0
160 182 0
154 178 0
160 182 0
156 180 0
159 181 0
140 163 0
165 188 0
161 184 0
159 182 0
142 164 0
157 181 0
151 175 0
153 175 0
163 185 0
147 170 0
156 179 0
150 172 0
154 175 0
146 168 0
147 169 0
140 161 0
153 172 0
160 182 0
144 165 0
144 164 0
148 170 0
165 186 0
153 175 0
145 164 0
147 167 0
140 160 0
146 168 0
148 170 0
141 163 0
140 161 0
138 159 0
139 159 0
130 150 0
144 166 0
141 161 0
141 160 0
137 156 0
143 163 0
121 142 0
151 170 0
131 152 0
118 138 0
123 142 0
108 129 0
119 137 0
133 152 0
129 145 0
120 140 0
99 116 0
126 143 0
119 136 0
121 139 0
115 132 0
119 135 0
102 116 0
122 138 0
113 129 0
119 133 0
122 140 0
125 143 0
126 143 0
124 142 0
114 133 0
117 133 0
130 146 0
102 120 0
117 133 0
126 143 0
116 132 0
124 141 0
125 141 0
123 140 0
106 120 0
124 140 0
134 151 0
121 140 0
124 142 0
130 148 0
129 143 0
128 144 0
139 156 0
132 149 0
142 160 0
131 149 0
140 159 0
123 139 0
138 159 0
143 162 0
143 162 0
126 143 0
134 152 0
138 156 0
140 159 0
135 153 0
141 162 0
140 158 0
147 162 0
146 166 0
141 160 0
149 171 0
143 160 0
150 168 0
147 166 0
153 173 0
149 168 0
148 165 0
156 175 0
152 172 0
146 167 0
155 172 0
147 166 0
144 163 0
147 167 0
91 90 26
96 94 16
100 99 34
109 106 16
110 107 37
109 108 26
135 131 48
127 125 36
122 118 22
132 129 34
139 135 37
145 138 39
146 141 34
141 137 39
138 134 42
148 145 28
132 129 22
141 137 22
141 137 22
147 144 22
146 143 28
146 143 28
155 150 36
135 132 22
145 141 36
149 146 28
151 147 22
154 150 32
153 149 39
151 147 32
157 152 36
147 142 39
133 121 16
97 84 16
101 83 8
101 84 0
100 82 10
103 86 3
104 83 10
106 91 12
103 86 10
114 95 11
104 89 7
107 89 5
109 88 8
94 75 5
108 90 7
115 95 10
106 90 4
112 94 8
111 97 7
114 92 8
102 89 1
85 68 4
113 94 0
108 91 10
101 84 12
102 85 7
105 89 5
99 84 7
109 95 3
107 88 11
110 89 10
112 95 8
112 93 8
101 83 8
103 85 11
109 89 9
96 78 13
98 77 11
105 86 13
96 79 7
104 89 1
94 76 8
110 92 9
99 79 0
82 66 3
108 87 11
99 82 8
96 79 7
91 71 0
109 87 13
82 64 8
90 74 1
92 72 2
93 77 4
98 82 7
93 78 4
84 64 8
88 69 11
80 62 8
90 69 3
86 70 14
89 70 3
68 50 10
83 64 2
77 63 10
86 73 0
138 132 28
131 128 16
129 126 32
141 137 39
143 137 39
118 115 22
116 112 22
167 186 16
172 195 0
169 192 0
170 190 0
168 192 0
170 193 0
172 194 0
169 191 0
176 197 0
171 193 0
171 194 0
170 193 0
170 193 0
170 192 0
170 193 0
171 192 0
174 194 0
166 187 0
171 194 0
173 193 0
171 194 0
172 195 0
171 195 0
175 197 0
170 191 0
174 196 0
170 193 0
173 195 0
173 195 0
174 196 0
171 194 0
173 194 0
174 196 0
173 196 0
172 193 0
173 197 0
172 194 0
176 198 0
169 193 0
173 195 0
169 191 0
172 196 0
174 197 0
174 198 0
173 195 0
172 196 0
171 195 0
170 195 0
176 198 0
175 197 0
171 195 0
173 196 0
172 197 0
171 196 0
173 197 0
174 196 0
173 197 0
172 196 0
174 198 0
174 198 0
175 198 0
170 193 0
173 196 0
174 198 0
168 191 0
173 195 0
173 195 0
172 196 0
171 194 0
171 195 0
170 193 0
176 198 0
171 194 0
170 194 0
174 197 0
171 193 0
172 194 0
173 195 0
173 197 0
172 194 0
173 196 0
174 196 0
171 194 0
173 196 0
173 197 0
173 196 0
167 190 0
168 189 0
173 197 0
172 195 0
172 195 0
174 196 0
172 195 0
172 196 0
170 194 0
168 192 0
172 195 0
170 193 0
171 194 0
171 195 0
168 192 0
165 190 0
172 195 0
172 195 0
168 191 0
170 192 0
172 195 0
172 196 0
168 191 0
169 192 0
167 191 0
170 193 0
174 197 0
169 192 0
169 191 0
173 196 0
169 192 0
173 196 0
174 197 0
172 195 0
170 194 0
171 194 0
171 193 0
167 190 0
167 192 0
174 197 0
169 193 0
170 194 0
170 195 0
172 195 0
169 192 0
168 190 0
168 190 0
165 188 0
171 194 0
171 195 0
173 195 0
170 193 0
168 191 0
171 195 0
166 190 0
166 189 0
171 193 0
169 193 0
164 188 0
165 189 0
170 192 0
170 192 0
171 193 0
165 188 0
168 190 0
168 191 0
167 191 0
166 190 0
168 190 0
164 187 0
167 191 0
168 190 0
166 190 0
164 186 0
162 185 0
166 190 0
162 185 0
163 186 0
162 186 0
164 186 0
160 182 0
164 188 0
166 190 0
165 188 0
165 188 0
159 180 0
157 180 0
157 181 0
166 190 0
167 190 0
160 183 0
162 186 0
163 186 0
158 181 0
166 189 0
163 185 0
164 186 0
160 182 0
163 187 0
164 186 0
154 177 0
158 180 0
147 171 0
163 188 0
155 178 0
157 179 0
157 179 0
156 179 0
150 172 0
155 178 0
154 176 0
155 177 0
151 172 0
147 169 0
150 171 0
143 165 0
146 168 0
147 168 0
158 180 0
159 179 0
133 154 0
144 166 0
140 161 0
141 162 0
147 169 0
137 158 0
141 160 0
138 160 0
130 151 0
152 172 0
144 164 0
145 165 0
127 148 0
142 160 0
139 157 0
146 167 0
130 151 0
136 156 0
142 163 0
128 149 0
133 153 0
124 141 0
139 158 0
133 153 0
112 131 0
134 153 0
122 141 0
116 134 0
119 138 0
125 141 0
129 146 0
116 132 0
126 145 0
112 130 0
124 142 0
132 149 0
119 135 0
136 153 0
121 140 0
123 139 0
122 139 0
131 150 0
132 149 0
118 138 0
139 157 0
128 146 0
127 146 0
130 148 0
117 134 0
130 148 0
144 163 0
116 132 0
130 149 0
131 149 0
133 150 0
138 154 0
138 158 0
132 150 0
139 155 0
136 154 0
133 151 0
136 155 0
138 157 0
152 170 0
127 144 0
139 156 0
141 157 0
145 164 0
139 156 0
148 167 0
150 168 0
147 166 0
138 155 0
146 164 0
144 162 0
154 173 0
155 173 0
149 170 0
156 177 0
142 160 0
140 159 0
155 175 0
149 165 0
146 166 0
163 181 0
152 171 0
160 179 0
157 175 0
140 157 16
95 93 22
96 98 34
112 111 42
106 105 36
108 107 32
110 109 25
117 116 28
132 130 36
125 122 22
130 128 32
134 132 41
134 130 25
137 133 28
149 145 39
141 138 30
135 131 34
136 133 30
141 139 36
138 134 22
143 138 16
142 138 28
142 138 22
149 146 22
148 144 36
143 140 22
150 147 28
145 143 0
145 141 36
144 140 22
153 149 28
149 146 22
151 145 32
159 156 42
157 153 32
143 136 32
125 110 16
103 86 16
102 91 3
103 82 7
104 88 7
104 88 3
109 91 8
102 90 1
101 82 9
107 87 10
90 74 0
112 95 7
116 100 11
109 91 7
102 80 5
94 79 3
97 78 3
106 91 0
104 87 9
108 88 10
104 86 8
109 90 8
103 84 8
107 89 7
100 83 1
93 69 7
101 83 10
112 94 12
103 82 3
100 81 8
103 87 8
101 82 4
107 95 7
114 94 8
104 89 8
101 85 10
96 78 10
113 96 8
102 86 8
92 71 4
106 89 2
103 85 8
96 78 3
99 84 3
100 85 3
91 70 8
95 75 11
89 66 5
94 75 7
90 74 9
98 76 7
90 65 10
89 73 8
81 59 4
75 57 7
91 74 10
77 52 9
100 85 11
103 81 10
93 77 7
89 75 19
116 112 22
144 140 39
127 124 32
134 131 22
132 128 28
125 123 28
137 134 28
127 123 39
120 122 16
170 191 0
165 184 0
174 195 0
168 188 0
174 196 0
171 190 0
170 191 0
173 194 0
173 197 0
171 194 0
171 195 0
166 190 0
175 197 0
172 196 0
175 196 0
174 197 0
171 193 0
169 190 0
171 192 0
173 195 0
170 191 0
171 192 0
171 193 0
172 195 0
172 195 0
172 195 0
173 196 0
171 193 0
173 193 0
174 196 0
170 193 0
170 193 0
175 198 0
172 193 0
167 189 0
171 193 0
175 198 0
173 196 0
168 191 0
171 194 0
174 195 0
174 197 0
171 195 0
169 193 0
173 197 0
175 198 0
175 198 0
172 196 0
172 196 0
173 196 0
173 197 0
172 195 0
172 197 0
173 196 0
172 195 0
175 198 0
173 197 0
171 195 0
174 197 0
174 198 0
171 194 0
173 196 0
175 197 0
172 196 0
173 196 0
171 193 0
173 197 0
174 197 0
172 195 0
173 196 0
172 196 0
171 195 0
172 196 0
171 195 0
174 198 0
171 195 0
175 197 0
174 197 0
174 196 0
174 196 0
170 193 0
173 197 0
169 193 0
170 194 0
170 195 0
173 196 0
171 194 0
172 195 0
170 194 0
170 194 0
170 193 0
168 193 0
172 196 0
173 197 0
173 196 0
171 194 0
173 197 0
172 195 0
170 194 0
170 194 0
171 195 0
173 196 0
170 194 0
172 196 0
169 191 0
169 193 0
171 193 0
167 190 0
169 193 0
172 196 0
169 194 0
171 195 0
169 192 0
171 194 0
173 196 0
174 197 0
171 196 0
172 196 0
171 195 0
172 195 0
163 186 0
171 194 0
173 196 0
173 196 0
169 192 0
162 184 0
170 192 0
173 197 0
171 194 0
165 188 0
172 195 0
169 192 0
171 193 0
168 190 0
169 192 0
168 191 0
164 187 0
170 194 0
167 190 0
165 188 0
172 194 0
169 192 0
167 190 0
165 189 0
168 189 0
165 187 0
164 186 0
168 190 0
168 191 0
170 192 0
172 194 0
170 192 0
162 185 0
156 180 0
168 191 0
170 193 0
166 189 0
168 191 0
165 188 0
167 190 0
164 188 0
163 187 0
156 178 0
169 194 0
162 184 0
166 189 0
165 187 0
166 187 0
162 185 0
165 189 0
161 183 0
157 179 0
166 188 0
150 172 0
163 187 0
158 181 0
161 185 0
162 184 0
163 187 0
162 184 0
161 183 0
165 187 0
160 183 0
161 184 0
155 177 0
161 183 0
154 177 0
157 180 0
164 186 0
160 180 0
155 178 0
157 180 0
159 183 0
163 184 0
149 170 0
156 178 0
148 170 0
156 178 0
156 178 0
153 176 0
160 182 0
153 175 0
152 174 0
150 172 0
154 175 0
149 171 0
147 170 0
141 160 0
157 178 0
135 157 0
141 162 0
139 159 0
142 163 0
149 171 0
142 162 0
147 169 0
133 155 0
151 171 0
133 154 0
152 174 0
141 160 0
115 133 0
135 156 0
131 151 0
133 153 0
142 159 0
130 149 0
120 139 0
119 136 0
112 130 0
115 136 0
135 154 0
123 139 0
137 156 0
120 139 0
128 147 0
120 139 0
134 152 0
119 138 0
120 138 0
125 143 0
131 148 0
124 140 0
140 158 0
113 128 0
120 139 0
127 146 0
130 149 0
120 135 0
134 154 0
118 135 0
141 157 0
139 156 0
118 137 0
130 146 0
130 148 0
127 141 0
129 146 0
140 160 0
136 154 0
133 153 0
141 161 0
134 152 0
120 136 0
145 162 0
145 165 0
141 160 0
130 149 0
146 165 0
143 161 0
142 161 0
134 152 0
136 153 0
149 165 0
157 176 0
144 162 0
138 156 0
141 159 0
146 163 0
138 157 0
152 171 0
149 170 0
154 173 0
151 171 0
155 175 0
145 165 0
162 183 0
138 157 0
163 184 0
152 173 0
146 162 0
158 177 0
151 170 0
149 169 0
140 158 5
98 96 32
102 99 28
106 104 23
106 105 34
105 103 23
111 109 28
127 125 30
120 117 32
119 118 32
132 128 34
126 123 37
134 133 25
130 127 34
143 141 36
136 132 27
141 138 37
139 135 22
154 149 47
140 136 28
141 136 28
150 144 45
154 150 39
150 146 36
150 146 28
153 148 36
150 148 32
154 149 28
153 149 32
149 146 32
145 142 28
146 142 22
150 146 32
156 152 39
149 144 32
160 155 42
150 145 42
144 138 28
127 120 16
105 92 8
110 90 7
99 83 0
103 84 11
116 100 7
113 98 3
100 83 0
106 90 3
109 89 4
113 94 14
104 87 4
99 80 3
101 87 3
97 78 8
103 84 7
108 88 0
105 88 3
106 90 3
101 82 7
104 81 9
104 86 3
111 90 10
105 88 9
96 77 7
107 93 12
114 96 12
104 90 7
106 89 11
90 72 3
107 85 0
96 77 0
104 86 10
104 85 10
93 78 1
112 97 9
103 84 5
98 78 0
104 84 8
104 87 10
96 77 8
95 80 16
98 78 7
96 74 10
96 81 7
82 65 10
83 63 1
104 87 3
101 77 13
89 74 18
94 72 10
84 69 7
80 61 7
93 74 9
84 68 1
95 79 7
105 94 8
121 116 28
145 141 28
141 136 36
143 139 36
142 136 28
132 126 32
134 130 16
127 124 32
130 126 39
118 115 28
143 154 16
173 194 0
172 191 0
170 192 0
169 189 0
164 183 0
172 194 0
167 189 0
169 193 0
172 195 0
167 186 0
170 193 0
172 195 0
169 190 0
172 194 0
173 194 0
171 192 0
171 193 0
170 191 0
168 190 0
175 196 0
168 189 0
169 191 0
171 193 0
173 194 0
167 189 0
172 195 0
167 190 0
168 192 0
172 194 0
168 188 0
173 196 0
168 191 0
171 194 0
173 194 0
173 196 0
171 192 0
171 194 0
170 195 0
172 193 0
174 197 0
171 192 0
168 191 0
172 196 0
174 197 0
172 196 0
171 195 0
174 197 0
173 195 0
169 193 0
174 197 0
171 195 0
172 196 0
174 197 0
175 198 0
171 195 0
171 194 0
174 198 0
174 198 0
167 190 0
172 196 0
174 197 0
174 197 0
171 195 0
170 194 0
174 197 0
170 193 0
172 195 0
173 196 0
169 193 0
172 195 0
174 197 0
174 197 0
173 196 0
172 196 0
169 192 0
171 194 0
173 196 0
173 196 0
172 195 0
174 196 0
163 187 0
174 196 0
171 194 0
174 196 0
170 194 0
171 194 0
172 195 0
173 196 0
171 194 0
171 195 0
171 194 0
171 194 0
170 193 0
168 192 0
171 194 0
174 197 0
173 194 0
172 196 0
170 194 0
173 197 0
169 193 0
173 195 0
171 195 0
168 191 0
174 196 0
169 193 0
173 195 0
173 197 0
172 195 0
170 193 0
173 196 0
175 197 0
168 191 0
171 195 0
173 196 0
167 189 0
171 195 0
174 197 0
171 195 0
172 196 0
173 196 0
168 192 0
173 197 0
171 194 0
170 193 0
169 193 0
172 195 0
170 193 0
172 195 0
172 194 0
168 192 0
170 193 0
170 195 0
170 193 0
168 192 0
166 189 0
173 196 0
169 192 0
168 191 0
171 194 0
163 187 0
171 194 0
169 192 0
168 192 0
169 191 0
169 193 0
160 181 0
171 194 0
165 188 0
168 190 0
171 194 0
170 193 0
168 191 0
157 179 0
163 186 0
169 192 0
162 184 0
164 187 0
170 194 0
169 193 0
166 190 0
166 189 0
153 177 0
166 188 0
169 191 0
163 187 0
169 192 0
169 191 0
160 183 0
157 180 0
155 177 0
164 186 0
169 192 0
162 185 0
156 178 0
158 179 0
160 185 0
161 185 0
156 179 0
159 183 0
155 177 0
165 186 0
156 179 0
162 184 0
155 178 0
151 174 0
158 181 0
162 185 0
159 183 0
160 183 0
155 178 0
152 175 0
162 184 0
155 178 0
145 168 0
151 172 0
146 167 0
151 173 0
155 178 0
150 172 0
155 176 0
162 183 0
144 166 0
146 168 0
157 177 0
149 171 0
138 158 0
149 171 0
142 165 0
139 162 0
144 164 0
142 163 0
140 162 0
146 167 0
131 151 0
146 168 0
132 152 0
146 167 0
128 147 0
133 153 0
145 166 0
145 166 0
142 163 0
128 150 0
126 144 0
131 150 0
137 156 0
122 139 0
138 158 0
112 127 0
113 133 0
143 162 0
136 155 0
125 142 0
131 149 0
122 139 0
127 144 0
136 155 0
145 164 0
131 150 0
138 157 0
144 164 0
138 156 0
130 147 0
120 140 0
127 144 0
121 138 0
117 133 0
139 157 0
128 148 0
121 138 0
138 156 0
132 152 0
135 154 0
130 148 0
128 147 0
114 132 0
124 141 0
134 151 0
137 156 0
138 155 0
144 160 0
126 141 0
137 156 0
132 149 0
137 156 0
146 164 0
144 165 0
150 170 0
145 164 0
153 170 0
146 165 0
137 156 0
147 166 0
151 171 0
123 140 0
146 163 0
144 162 0
140 158 0
138 156 0
155 175 0
156 177 0
147 166 0
139 156 0
155 174 0
147 167 0
146 167 0
155 172 0
154 172 0
155 172 0
154 173 0
153 173 0
154 173 0
149 167 0
132 149 11
91 89 21
112 110 30
93 94 23
94 96 28
111 110 16
128 124 41
109 111 32
125 123 25
133 130 32
138 135 40
144 140 41
138 135 37
135 133 25
134 130 22
139 136 30
139 135 28
140 136 39
148 144 39
155 150 28
139 137 16
148 143 28
140 137 32
142 137 28
157 151 39
150 145 36
153 147 32
156 152 36
152 148 22
152 149 39
153 150 39
158 154 39
149 145 32
152 147 28
155 150 36
149 147 32
152 147 42
154 148 39
160 154 39
156 151 32
147 142 36
136 127 22
109 93 16
111 94 17
108 90 0
108 89 0
103 86 8
93 77 0
98 83 10
108 90 7
101 88 8
99 77 5
100 78 4
100 83 0
107 88 12
102 89 7
114 95 4
109 91 4
100 84 7
105 91 1
97 78 3
110 93 3
109 97 0
102 90 7
106 84 13
95 78 2
104 83 11
103 84 4
104 88 7
106 93 7
99 82 0
101 86 10
100 86 12
105 84 5
94 77 1
96 77 10
106 85 9
112 96 9
83 65 0
102 83 7
98 78 4
90 72 11
103 80 9
101 83 7
99 83 8
100 77 8
98 77 12
91 72 17
104 88 4
79 62 8
86 70 8
90 74 0
96 86 16
138 134 23
140 136 28
138 133 42
133 130 28
146 142 36
136 133 36
144 138 36
119 115 28
133 130 28
136 132 36
131 127 28
124 119 28
154 170 0
172 196 0
172 194 0
167 188 0
172 193 0
172 194 0
173 195 0
171 193 0
173 193 0
170 193 0
170 193 0
170 193 0
170 193 0
171 193 0
169 191 0
171 192 0
170 193 0
169 192 0
170 191 0
170 192 0
173 195 0
174 197 0
172 194 0
171 195 0
171 192 0
172 194 0
169 192 0
171 195 0
174 196 0
173 195 0
172 194 0
174 196 0
173 195 0
171 192 0
171 194 0
173 195 0
174 198 0
173 194 0
169 193 0
171 193 0
172 194 0
168 190 0
173 196 0
171 195 0
174 198 0
171 195 0
176 198 0
173 196 0
173 197 0
173 197 0
173 196 0
170 194 0
172 195 0
173 197 0
174 197 0
175 198 0
171 196 0
173 197 0
172 195 0
172 196 0
173 197 0
172 195 0
173 196 0
170 194 0
172 196 0
172 196 0
173 195 0
170 194 0
172 195 0
175 198 0
171 194 0
171 194 0
174 196 0
173 196 0
173 196 0
172 196 0
173 196 0
167 192 0
171 193 0
168 193 0
172 196 0
168 191 0
169 194 0
174 197 0
174 196 0
171 194 0
171 196 0
174 197 0
174 197 0
174 197 0
171 195 0
173 197 0
170 194 0
169 193 0
174 196 0
170 193 0
174 196 0
168 191 0
170 195 0
168 192 0
169 192 0
170 192 0
170 192 0
168 191 0
171 195 0
172 196 0
175 197 0
174 197 0
170 193 0
173 196 0
172 195 0
170 192 0
167 191 0
171 193 0
164 188 0
173 197 0
170 194 0
170 193 0
173 196 0
171 193 0
169 192 0
170 192 0
172 196 0
167 190 0
170 193 0
172 195 0
171 195 0
167 191 0
169 192 0
167 191 0
169 193 0
170 192 0
170 194 0
167 191 0
168 193 0
171 195 0
166 191 0
165 188 0
161 185 0
172 195 0
166 190 0
168 192 0
167 191 0
170 191 0
161 184 0
169 191 0
172 196 0
161 185 0
167 190 0
168 191 0
169 192 0
165 190 0
162 186 0
161 185 0
173 195 0
163 186 0
169 192 0
156 179 0
167 191 0
169 191 0
161 184 0
167 189 0
168 191 0
164 187 0
169 191 0
164 188 0
165 187 0
167 190 0
166 190 0
159 183 0
163 184 0
160 183 0
165 188 0
168 191 0
168 189 0
160 184 0
164 186 0
158 180 0
163 186 0
166 190 0
162 184 0
157 181 0
162 185 0
168 191 0
162 185 0
154 177 0
156 177 0
156 180 0
161 185 0
165 188 0
160 181 0
154 176 0
161 183 0
152 175 0
164 189 0
154 177 0
153 176 0
145 166 0
153 174 0
138 161 0
149 172 0
149 171 0
158 181 0
146 168 0
151 173 0
149 170 0
158 180 0
147 169 0
157 178 0
144 167 0
147 167 0
150 170 0
149 171 0
152 175 0
143 164 0
133 153 0
137 158 0
134 155 0
142 164 0
139 160 0
132 152 0
145 166 0
136 155 0
147 168 0
133 154 0
135 153 0
140 161 0
130 152 0
124 145 0
141 162 0
132 152 0
111 131 0
142 160 0
132 151 0
142 163 0
140 158 0
145 165 0
125 143 0
125 145 0
121 139 0
125 145 0
128 147 0
125 145 0
138 158 0
131 149 0
127 146 0
143 161 0
136 155 0
139 157 0
123 137 0
136 155 0
128 143 0
133 151 0
125 144 0
139 157 0
135 152 0
136 154 0
124 143 0
140 159 0
140 160 0
133 149 0
133 154 0
130 145 0
149 168 0
140 156 0
148 165 0
128 147 0
149 168 0
135 154 0
144 160 0
138 156 0
152 170 0
142 162 0
149 169 0
154 174 0
155 174 0
142 163 0
147 166 0
141 161 0
158 179 0
152 169 0
153 172 0
148 165 0
152 169 0
153 172 0
143 162 0
152 170 0
162 181 0
146 164 0
162 181 0
148 165 0
146 164 0
145 159 0
152 172 0
157 178 0
140 152 12
118 116 30
105 103 16
99 98 31
125 122 19
118 116 34
123 121 25
118 117 28
117 117 19
140 136 28
130 128 36
125 123 25
137 133 0
135 133 16
131 126 0
138 135 32
149 144 45
147 143 36
146 141 32
151 147 16
151 147 44
141 137 36
147 143 32
149 145 28
148 145 22
145 141 28
147 143 36
146 144 28
154 150 28
138 133 45
144 141 16
154 150 28
147 144 36
154 150 28
151 147 36
151 147 32
155 150 36
154 150 32
150 147 22
150 145 22
153 149 32
148 144 28
156 152 39
147 143 16
142 134 7
123 114 7
114 102 1
109 91 9
108 95 3
103 87 3
106 89 7
111 96 4
107 88 3
95 84 4
99 78 1
113 95 3
115 94 4
99 81 9
108 93 3
108 87 3
102 85 4
84 67 1
104 89 3
106 87 10
99 78 9
101 85 10
105 85 3
112 91 8
106 88 4
93 78 0
114 98 5
97 79 1
102 85 4
103 84 8
99 78 9
97 83 7
104 86 7
110 92 12
97 83 7
91 75 3
87 70 2
101 80 8
94 77 5
90 70 8
94 80 0
96 79 5
93 70 2
86 72 10
75 61 1
96 85 17
127 121 22
136 132 22
147 141 36
143 140 22
136 133 32
151 146 39
140 135 36
138 135 32
149 144 39
129 125 28
132 128 32
136 132 36
117 112 16
127 122 36
125 124 0
162 181 0
169 189 0
172 195 0
174 196 0
171 192 0
172 192 0
166 188 0
169 192 0
169 190 0
170 192 0
173 195 0
174 195 0
168 188 0
170 190 0
170 192 0
171 193 0
172 192 0
172 191 0
171 195 0
174 195 0
172 193 0
174 196 0
174 197 0
173 192 0
173 194 0
170 191 0
171 193 0
168 188 0
171 194 0
173 194 0
166 190 0
171 194 0
171 193 0
170 193 0
169 193 0
170 193 0
173 195 0
174 197 0
172 195 0
169 191 0
171 194 0
174 196 0
172 195 0
173 197 0
174 197 0
173 196 0
175 198 0
173 196 0
175 198 0
172 196 0
173 196 0
174 198 0
173 197 0
173 197 0
171 194 0
174 195 0
171 195 0
171 194 0
175 198 0
170 193 0
173 196 0
174 196 0
174 197 0
174 196 0
174 196 0
173 196 0
172 196 0
173 196 0
170 194 0
170 193 0
175 198 0
173 196 0
174 197 0
172 196 0
169 192 0
172 196 0
171 195 0
172 195 0
172 195 0
174 197 0
173 195 0
172 196 0
172 195 0
171 194 0
172 195 0
172 195 0
169 193 0
174 197 0
171 194 0
170 194 0
174 197 0
174 197 0
169 193 0
172 195 0
169 192 0
173 195 0
172 197 0
172 196 0
171 195 0
169 194 0
173 197 0
173 195 0
167 192 0
174 197 0
168 191 0
170 193 0
170 193 0
169 192 0
171 194 0
169 192 0
170 193 0
172 194 0
169 192 0
171 195 0
174 197 0
172 194 0
166 191 0
169 190 0
172 195 0
161 184 0
163 186 0
174 197 0
171 194 0
168 192 0
172 195 0
170 194 0
170 194 0
169 192 0
171 195 0
170 195 0
166 188 0
168 191 0
173 196 0
169 193 0
167 190 0
167 190 0
165 189 0
163 186 0
167 191 0
170 194 0
170 194 0
165 188 0
165 190 0
168 191 0
170 193 0
164 188 0
167 189 0
167 191 0
165 188 0
171 193 0
166 189 0
167 189 0
166 190 0
167 190 0
167 190 0
168 192 0
165 190 0
167 191 0
170 193 0
172 195 0
170 193 0
163 185 0
167 189 0
162 184 0
164 187 0
165 190 0
167 190 0
163 187 0
164 186 0
160 184 0
169 192 0
164 187 0
164 187 0
162 185 0
157 179 0
164 187 0
157 178 0
159 182 0
162 185 0
161 185 0
164 186 0
162 185 0
162 186 0
164 187 0
168 191 0
151 173 0
153 176 0
158 182 0
163 185 0
155 178 0
156 179 0
162 187 0
147 168 0
159 180 0
159 180 0
157 179 0
151 174 0
155 175 0
153 175 0
158 179 0
161 183 0
157 177 0
161 183 0
134 155 0
143 165 0
152 174 0
138 158 0
152 173 0
145 167 0
147 169 0
143 163 0
145 166 0
156 177 0
147 167 0
148 167 0
145 166 0
141 163 0
133 154 0
140 162 0
139 160 0
144 164 0
132 151 0
132 151 0
133 153 0
126 145 0
138 158 0
127 147 0
140 160 0
140 158 0
127 146 0
137 158 0
140 161 0
145 164 0
138 156 0
140 160 0
129 147 0
129 146 0
128 146 0
135 156 0
154 174 0
132 151 0
143 161 0
134 155 0
128 145 0
138 153 0
139 155 0
137 156 0
123 140 0
136 155 0
131 150 0
135 152 0
134 152 0
132 148 0
142 160 0
139 156 0
127 147 0
128 144 0
141 158 0
150 168 0
145 162 0
150 170 0
137 152 0
147 164 0
139 158 0
143 160 0
145 163 0
146 167 0
149 169 0
148 166 0
152 170 0
149 167 0
148 169 0
141 159 0
158 177 0
137 154 0
153 171 0
153 172 0
140 159 0
147 167 0
142 161 0
150 168 0
147 167 0
149 167 0
153 174 0
154 172 0
146 163 0
148 167 0
149 167 0
151 169 0
147 165 0
161 180 0
153 171 0
146 161 0
141 161 0
151 171 0
132 143 0
115 111 32
97 95 23
104 102 0
101 100 28
114 111 28
111 111 19
126 124 34
129 127 33
132 128 24
133 130 22
136 133 23
139 137 37
130 127 30
128 125 30
139 135 22
136 133 16
149 144 36
145 142 22
144 141 34
144 141 37
154 149 42
152 148 32
150 146 32
144 139 32
148 145 22
152 149 36
143 140 32
146 142 32
155 152 28
150 146 22
153 150 36
156 150 36
147 143 36
155 151 28
158 153 22
150 146 28
155 150 45
157 152 36
153 150 28
155 150 36
155 150 28
148 143 28
154 150 28
154 150 32
151 147 32
154 151 32
148 143 22
141 135 32
118 109 23
122 110 10
96 80 0
102 91 4
93 76 7
110 97 7
101 83 3
96 85 3
109 89 3
105 94 3
108 90 7
104 88 0
109 91 8
106 85 8
109 89 8
105 89 0
101 79 3
101 89 0
107 88 10
101 84 7
95 80 7
112 98 7
103 82 5
108 91 8
113 96 8
101 82 3
103 89 0
102 84 4
106 83 9
100 87 8
94 77 8
92 78 4
99 84 0
100 78 5
105 84 10
98 78 10
98 81 11
124 112 19
123 115 28
142 139 22
136 133 32
143 138 22
146 142 28
147 143 22
138 134 28
147 144 22
141 137 28
142 138 36
142 140 32
141 137 28
132 129 22
137 132 36
130 127 36
141 135 28
124 119 22
135 141 16
171 193 0
169 189 0
173 194 0
171 194 0
168 188 0
171 192 0
170 191 0
169 191 0
167 188 0
173 195 0
170 195 0
168 190 0
170 191 0
171 192 0
172 193 0
173 195 0
171 193 0
172 193 0
170 192 0
171 191 0
165 189 0
173 194 0
172 194 0
166 187 0
174 197 0
173 194 0
175 197 0
172 193 0
171 193 0
170 192 0
173 197 0
170 193 0
174 197 0
174 198 0
169 192 0
174 197 0
171 194 0
170 191 0
174 195 0
169 191 0
171 195 0
174 196 0
174 197 0
175 198 0
173 196 0
174 196 0
175 198 0
172 196 0
170 194 0
173 195 0
171 195 0
173 196 0
174 197 0
176 198 0
176 198 0
174 197 0
175 198 0
175 198 0
175 198 0
175 197 0
170 194 0
173 196 0
173 196 0
174 197 0
172 195 0
174 197 0
171 194 0
173 195 0
175 198 0
173 197 0
173 195 0
172 196 0
171 194 0
171 195 0
171 195 0
173 196 0
172 195 0
173 196 0
175 198 0
175 197 0
174 197 0
169 193 0
171 194 0
171 195 0
168 192 0
172 194 0
174 197 0
171 194 0
173 196 0
173 196 0
167 191 0
173 196 0
169 192 0
168 193 0
171 194 0
174 197 0
169 192 0
173 196 0
172 194 0
171 192 0
173 196 0
170 194 0
169 193 0
171 194 0
172 196 0
172 195 0
173 196 0
170 193 0
171 195 0
173 197 0
172 196 0
166 190 0
172 195 0
167 191 0
173 197 0
168 192 0
172 196 0
171 196 0
173 197 0
173 196 0
167 190 0
170 194 0
172 195 0
170 194 0
171 193 0
174 197 0
172 194 0
171 195 0
175 197 0
172 195 0
167 191 0
169 193 0
169 193 0
167 189 0
173 195 0
175 196 0
166 188 0
165 189 0
171 194 0
168 191 0
168 192 0
168 192 0
167 191 0
173 196 0
167 190 0
163 187 0
167 189 0
170 194 0
168 191 0
163 188 0
165 188 0
164 188 0
169 193 0
167 190 0
167 191 0
170 193 0
164 187 0
166 190 0
170 193 0
165 188 0
161 186 0
169 192 0
162 186 0
165 188 0
167 190 0
163 187 0
163 186 0
162 185 0
162 184 0
167 190 0
162 184 0
163 186 0
167 189 0
159 180 0
161 182 0
160 182 0
159 183 0
159 182 0
167 191 0
169 193 0
162 186 0
158 181 0
165 186 0
155 178 0
163 186 0
158 182 0
154 178 0
157 179 0
169 193 0
156 179 0
166 189 0
150 173 0
160 182 0
165 190 0
165 185 0
148 170 0
151 172 0
158 181 0
146 168 0
154 176 0
151 171 0
157 180 0
146 168 0
153 172 0
145 168 0
152 175 0
148 170 0
144 166 0
145 168 0
150 170 0
153 175 0
142 164 0
145 165 0
147 169 0
139 160 0
145 166 0
152 174 0
134 155 0
142 163 0
145 167 0
137 157 0
138 160 0
148 168 0
140 159 0
126 147 0
130 150 0
131 150 0
142 161 0
150 169 0
129 149 0
140 159 0
145 164 0
144 164 0
131 151 0
137 154 0
128 148 0
134 153 0
131 149 0
138 153 0
121 140 0
140 159 0
127 144 0
122 140 0
129 146 0
129 145 0
147 166 0
142 163 0
121 139 0
135 153 0
137 156 0
135 154 0
137 154 0
140 159 0
132 150 0
137 156 0
123 141 0
147 164 0
123 141 0
141 158 0
140 159 0
148 164 0
141 158 0
127 143 0
144 162 0
147 166 0
136 155 0
143 161 0
134 154 0
150 167 0
133 149 0
134 150 0
147 165 0
149 166 0
142 160 0
144 164 0
154 175 0
131 150 0
152 169 0
143 160 0
140 161 0
148 164 0
143 161 0
154 172 0
157 175 0
155 172 0
151 169 0
156 174 0
146 161 0
157 175 0
148 167 0
149 168 0
148 165 0
145 164 0
145 165 0
157 175 0
107 114 21
122 118 24
95 94 22
91 92 22
114 113 30
109 108 28
126 124 30
131 126 44
107 106 25
129 127 25
130 127 39
131 127 34
142 138 28
135 131 37
144 141 30
140 137 25
140 135 28
143 138 32
145 140 22
139 136 16
148 145 39
147 143 22
145 142 32
144 139 28
146 142 22
146 143 16
148 145 22
152 147 32
149 144 36
151 147 28
148 142 32
154 150 36
149 144 28
152 149 28
146 143 16
154 150 22
154 150 45
150 144 32
152 150 16
154 149 39
155 151 39
151 148 28
158 152 42
150 145 32
154 150 16
155 152 32
152 148 28
155 152 16
156 151 39
151 147 22
148 145 22
154 151 32
154 149 42
136 129 18
129 120 16
116 104 23
113 96 16
101 85 7
102 83 1
94 77 3
110 97 2
92 75 8
101 81 0
94 82 3
102 85 10
108 91 3
101 80 1
107 87 10
108 89 3
99 77 7
101 81 11
106 89 10
101 83 7
101 86 4
105 82 5
100 78 3
99 84 3
96 82 7
101 84 12
100 81 3
108 96 3
117 107 24
124 112 28
141 136 22
144 140 39
144 140 39
155 150 39
147 143 28
147 143 39
149 143 36
138 134 32
150 145 28
135 133 22
145 140 28
155 149 36
147 143 28
138 133 28
143 139 39
134 128 45
146 142 39
126 123 22
134 130 39
131 128 16
122 119 28
147 158 32
169 191 0
167 188 0
164 184 0
169 189 0
166 189 0
167 190 0
168 189 0
167 189 0
171 193 0
169 191 0
169 188 0
174 197 0
171 193 0
173 195 0
170 193 0
170 193 0
169 192 0
166 187 0
172 195 0
173 194 0
171 192 0
172 195 0
172 195 0
167 190 0
170 193 0
175 196 0
169 191 0
173 194 0
174 196 0
170 192 0
171 194 0
171 192 0
172 193 0
171 192 0
167 188 0
172 195 0
173 195 0
170 194 0
173 195 0
169 192 0
169 190 0
172 195 0
174 197 0
176 198 0
170 194 0
175 198 0
172 196 0
173 197 0
175 198 0
174 197 0
175 198 0
169 192 0
174 197 0
173 196 0
172 195 0
174 196 0
170 194 0
170 195 0
169 192 0
174 197 0
174 196 0
174 197 0
173 196 0
173 197 0
172 195 0
172 195 0
170 195 0
171 195 0
170 194 0
175 198 0
174 197 0
174 197 0
171 195 0
175 197 0
171 195 0
173 196 0
172 196 0
173 197 0
171 195 0
170 193 0
172 196 0
170 195 0
171 194 0
170 193 0
173 195 0
169 192 0
175 198 0
171 195 0
169 192 0
169 192 0
172 195 0
172 195 0
172 194 0
173 197 0
173 196 0
172 195 0
174 198 0
174 197 0
170 194 0
175 198 0
173 196 0
174 197 0
172 195 0
173 196 0
176 198 0
176 198 0
167 191 0
172 195 0
171 194 0
169 192 0
171 195 0
168 191 0
168 192 0
173 196 0
170 195 0
166 189 0
168 192 0
167 189 0
170 193 0
168 192 0
166 189 0
172 196 0
167 190 0
171 195 0
169 192 0
170 195 0
167 191 0
169 193 0
169 191 0
166 191 0
169 193 0
172 196 0
167 190 0
167 191 0
171 194 0
172 195 0
162 186 0
167 190 0
167 189 0
171 194 0
160 184 0
167 191 0
167 190 0
171 194 0
164 188 0
169 192 0
168 192 0
169 192 0
168 192 0
168 193 0
163 187 0
169 193 0
167 192 0
166 189 0
166 190 0
164 187 0
174 195 0
165 188 0
164 187 0
157 180 0
164 187 0
168 191 0
162 186 0
171 194 0
159 182 0
164 187 0
164 188 0
159 183 0
161 184 0
166 188 0
164 187 0
170 192 0
158 180 0
171 193 0
159 182 0
159 182 0
164 187 0
164 186 0
166 189 0
168 192 0
166 185 0
152 176 0
158 180 0
162 185 0
156 180 0
165 189 0
165 188 0
156 178 0
153 175 0
162 184 0
153 176 0
167 188 0
158 182 0
158 181 0
161 183 0
159 180 0
155 178 0
149 169 0
151 172 0
148 170 0
155 178 0
151 174 0
155 176 0
146 168 0
148 171 0
154 175 0
159 181 0
161 183 0
150 172 0
154 176 0
143 164 0
148 169 0
149 169 0
140 161 0
147 168 0
149 170 0
144 165 0
148 170 0
148 168 0
147 169 0
140 162 0
150 172 0
145 164 0
152 173 0
142 163 0
146 168 0
141 160 0
152 175 0
135 157 0
143 162 0
132 150 0
130 149 0
134 153 0
125 143 0
150 168 0
139 160 0
132 151 0
122 142 0
141 160 0
125 143 0
141 160 0
135 154 0
143 163 0
140 162 0
144 161 0
134 150 0
141 159 0
139 157 0
147 168 0
141 161 0
138 156 0
116 134 0
139 157 0
153 172 0
147 165 0
129 147 0
136 155 0
139 157 0
143 161 0
134 151 0
149 167 0
145 164 0
146 167 0
146 166 0
141 161 0
135 151 0
146 162 0
140 158 0
145 166 0
141 160 0
155 175 0
140 158 0
155 175 0
147 164 0
142 159 0
155 174 0
149 168 0
147 165 0
143 160 0
153 171 0
148 167 0
153 170 0
140 159 0
154 172 0
162 177 0
143 160 0
144 161 0
162 179 0
161 181 0
155 172 0
150 167 0
153 171 0
154 173 0
160 180 0
147 164 0
113 118 19
87 84 19
87 88 20
104 103 36
120 119 26
127 125 34
129 125 37
111 109 20
121 117 23
146 140 47
137 134 47
135 133 36
145 142 36
137 133 34
144 141 36
143 139 22
136 133 16
142 138 22
148 145 39
149 146 39
143 138 16
150 145 39
149 146 28
147 144 28
150 144 39
150 146 22
147 143 32
150 147 22
146 142 22
151 147 36
150 146 28
152 150 28
148 144 22
154 148 28
155 151 36
157 152 36
151 149 22
154 148 28
153 150 22
158 153 39
154 151 32
152 150 0
146 143 28
157 150 32
152 148 32
152 147 36
150 148 22
154 148 28
154 150 22
154 150 22
152 148 32
154 151 32
161 155 51
157 153 28
149 146 28
152 148 36
157 153 36
146 143 28
148 143 28
143 137 7
154 147 42
133 129 16
142 133 28
127 119 16
131 123 22
136 125 28
125 114 29
120 109 18
122 114 16
112 100 0
123 111 28
110 99 3
139 130 28
132 119 34
128 115 17
140 134 28
138 129 32
141 135 36
145 140 28
150 147 28
149 144 28
148 144 22
151 146 22
150 146 42
154 149 22
143 140 22
145 140 32
148 143 48
138 132 28
142 140 16
141 138 16
132 128 32
144 141 32
130 127 28
134 132 22
142 137 42
137 132 32
131 130 22
129 125 22
141 136 32
133 130 22
137 133 32
127 123 28
133 129 36
164 182 0
167 188 0
172 191 0
169 189 0
170 191 0
171 192 0
165 186 0
168 188 0
174 196 0
171 193 0
167 189 0
171 190 0
167 189 0
167 187 0
168 190 0
166 188 0
170 191 0
171 193 0
172 195 0
173 194 0
174 196 0
171 193 0
171 192 0
170 191 0
171 196 0
165 187 0
171 194 0
174 195 0
165 187 0
173 195 0
171 194 0
174 197 0
174 196 0
172 195 0
172 195 0
174 194 0
173 195 0
170 193 0
171 194 0
170 193 0
173 196 0
172 194 0
171 194 0
170 195 0
169 193 0
173 196 0
175 197 0
172 196 0
171 195 0
171 196 0
173 197 0
173 197 0
173 196 0
173 197 0
171 195 0
173 195 0
171 195 0
173 197 0
175 198 0
172 196 0
173 197 0
172 195 0
173 197 0
175 197 0
174 197 0
171 195 0
173 197 0
174 196 0
171 195 0
172 195 0
171 195 0
173 196 0
174 196 0
176 198 0
173 197 0
173 196 0
176 198 0
173 197 0
169 193 0
175 197 0
173 197 0
173 197 0
171 195 0
170 194 0
175 198 0
171 193 0
173 196 0
174 198 0
170 194 0
172 196 0
171 195 0
174 196 0
172 195 0
173 195 0
172 196 0
171 196 0
170 194 0
172 196 0
174 196 0
173 196 0
170 193 0
171 193 0
167 191 0
170 194 0
171 195 0
172 195 0
173 196 0
171 194 0
172 196 0
173 196 0
171 195 0
173 196 0
169 194 0
170 194 0
169 192 0
171 194 0
173 195 0
172 195 0
169 193 0
171 195 0
171 195 0
167 191 0
173 196 0
170 192 0
171 194 0
169 191 0
172 196 0
169 193 0
169 192 0
171 195 0
164 188 0
170 194 0
173 196 0
167 190 0
165 190 0
168 192 0
167 190 0
169 192 0
170 193 0
168 191 0
161 183 0
171 195 0
171 193 0
171 194 0
162 185 0
171 194 0
168 191 0
168 190 0
169 193 0
170 193 0
166 190 0
163 185 0
167 190 0
165 188 0
162 186 0
166 188 0
173 196 0
167 191 0
164 188 0
166 190 0
170 193 0
164 189 0
163 186 0
161 184 0
160 184 0
159 181 0
161 184 0
165 189 0
163 187 0
163 185 0
158 180 0
168 193 0
170 193 0
160 183 0
158 183 0
166 189 0
160 182 0
163 185 0
160 183 0
164 187 0
167 190 0
153 176 0
165 186 0
166 189 0
153 176 0
170 192 0
164 187 0
160 183 0
163 183 0
155 178 0
159 181 0
165 188 0
150 172 0
161 183 0
152 174 0
166 188 0
156 178 0
149 173 0
152 175 0
153 175 0
155 177 0
156 178 0
157 179 0
152 175 0
144 163 0
158 178 0
153 176 0
156 175 0
158 179 0
159 182 0
163 185 0
147 169 0
153 173 0
161 182 0
143 164 0
139 159 0
148 171 0
154 177 0
155 176 0
142 163 0
143 162 0
155 175 0
145 166 0
154 174 0
145 167 0
133 151 0
148 166 0
134 154 0
155 175 0
135 156 0
151 171 0
143 164 0
150 171 0
144 164 0
138 159 0
122 141 0
136 157 0
142 162 0
136 154 0
130 149 0
140 161 0
140 160 0
140 162 0
134 151 0
131 151 0
144 165 0
147 164 0
126 143 0
142 163 0
147 167 0
146 165 0
148 165 0
134 155 0
131 152 0
147 167 0
146 165 0
126 144 0
138 155 0
148 166 0
141 161 0
144 163 0
131 151 0
134 154 0
136 156 0
136 156 0
141 161 0
141 160 0
147 164 0
152 171 0
157 175 0
148 167 0
135 153 0
149 167 0
155 173 0
152 170 0
142 161 0
155 172 0
152 169 0
143 159 0
148 165 0
152 172 0
142 162 0
159 179 0
142 161 0
157 176 0
148 167 0
144 161 0
149 167 0
144 163 0
153 167 0
159 178 0
151 168 0
141 158 0
156 173 0
147 165 0
153 171 0
102 103 28
107 105 32
105 105 32
114 111 28
117 113 11
115 112 38
127 124 28
118 116 30
116 114 42
124 123 28
139 136 16
138 136 39
143 139 37
147 142 48
144 140 42
143 141 34
136 133 34
138 135 32
142 138 38
146 143 28
146 142 32
152 147 32
144 140 28
150 147 32
149 145 28
155 150 36
143 142 22
147 144 32
148 144 28
149 145 16
151 148 16
145 142 28
147 143 16
146 142 22
150 146 22
147 142 22
149 146 22
151 146 32
152 148 22
143 142 16
153 149 28
144 142 16
151 146 32
147 144 16
148 144 32
157 152 32
152 148 22
152 148 22
154 150 22
156 151 42
152 147 16
152 147 22
149 145 28
157 152 39
148 145 32
159 154 42
151 148 22
154 148 32
157 153 36
155 151 42
156 151 28
153 148 39
156 153 22
154 150 28
151 146 22
154 150 28
156 152 32
151 145 28
154 151 16
162 156 42
160 154 51
152 148 39
154 150 28
153 148 28
156 151 28
153 148 32
146 143 22
149 144 45
148 143 28
150 145 22
158 154 32
156 152 45
146 142 28
145 141 28
150 146 28
152 146 39
140 137 22
147 142 32
148 142 32
147 142 28
142 140 22
143 141 0
140 135 39
138 135 32
147 142 32
125 122 22
145 142 36
139 135 32
145 141 39
135 132 28
109 107 16
137 131 32
122 119 22
136 137 28
164 182 0
170 190 0
168 188 0
167 187 0
174 196 0
170 190 0
171 192 0
170 191 0
170 190 0
168 188 0
170 193 0
170 193 0
169 188 0
171 194 0
171 192 0
169 189 0
167 189 0
170 190 0
167 191 0
175 196 0
168 191 0
171 194 0
173 194 0
169 190 0
171 192 0
169 192 0
168 191 0
167 192 0
171 194 0
171 192 0
171 193 0
170 193 0
173 196 0
168 190 0
170 193 0
169 191 0
173 196 0
171 195 0
175 197 0
171 193 0
171 194 0
176 198 0
172 194 0
174 197 0
171 195 0
174 196 0
175 198 0
170 195 0
171 194 0
175 197 0
172 195 0
172 195 0
171 194 0
175 198 0
173 195 0
173 197 0
174 197 0
173 197 0
173 196 0
172 197 0
171 194 0
174 197 0
174 197 0
174 196 0
172 195 0
169 194 0
176 198 0
171 195 0
172 194 0
174 197 0
171 195 0
174 196 0
174 197 0
171 196 0
174 196 0
172 196 0
172 196 0
174 196 0
174 197 0
174 197 0
170 192 0
170 194 0
174 196 0
171 194 0
173 197 0
175 197 0
172 195 0
170 194 0
172 195 0
174 197 0
170 194 0
173 197 0
173 195 0
166 189 0
170 194 0
174 196 0
175 198 0
172 195 0
169 193 0
171 194 0
170 194 0
170 193 0
172 194 0
172 195 0
171 195 0
169 192 0
173 197 0
171 195 0
175 198 0
168 191 0
173 196 0
172 194 0
172 195 0
170 193 0
167 193 0
171 195 0
168 193 0
172 195 0
171 194 0
168 191 0
174 196 0
170 194 0
170 194 0
171 193 0
167 191 0
169 193 0
168 192 0
172 195 0
172 195 0
168 191 0
169 192 0
169 191 0
172 195 0
172 194 0
174 197 0
174 196 0
166 189 0
170 195 0
166 189 0
166 190 0
162 186 0
170 192 0
169 192 0
167 191 0
170 193 0
170 193 0
170 195 0
165 189 0
165 189 0
173 195 0
161 182 0
168 190 0
170 194 0
168 190 0
164 186 0
165 186 0
167 191 0
174 196 0
169 193 0
165 189 0
168 192 0
165 188 0
163 186 0
167 188 0
168 191 0
169 191 0
169 192 0
165 188 0
166 190 0
166 189 0
161 183 0
165 188 0
155 179 0
166 190 0
162 184 0
151 174 0
165 189 0
165 188 0
162 184 0
160 181 0
164 186 0
159 182 0
164 186 0
164 187 0
161 184 0
159 181 0
164 186 0
164 186 0
159 182 0
158 182 0
168 190 0
150 172 0
161 182 0
163 184 0
155 177 0
142 165 0
165 189 0
155 176 0
158 182 0
151 174 0
157 180 0
149 169 0
152 174 0
156 177 0
149 170 0
142 162 0
156 178 0
155 176 0
154 178 0
148 169 0
154 177 0
141 160 0
149 170 0
154 176 0
137 159 0
142 161 0
148 170 0
156 177 0
140 161 0
156 177 0
156 177 0
145 167 0
141 160 0
154 174 0
147 167 0
146 166 0
150 169 0
142 162 0
137 157 0
136 158 0
135 155 0
143 164 0
155 176 0
157 178 0
145 164 0
138 158 0
141 162 0
147 166 0
156 175 0
150 170 0
135 156 0
157 176 0
141 160 0
140 159 0
145 165 0
130 149 0
143 163 0
139 159 0
132 149 0
145 164 0
143 163 0
145 167 0
140 157 0
138 157 0
142 161 0
145 164 0
150 166 0
131 151 0
148 168 0
142 162 0
146 163 0
151 171 0
141 160 0
149 170 0
143 161 0
148 167 0
152 170 0
136 155 0
136 154 0
143 161 0
145 164 0
144 163 0
143 161 0
159 176 0
148 163 0
146 165 0
152 171 0
153 170 0
154 174 0
147 168 0
144 163 0
152 169 0
152 170 0
160 179 0
146 164 0
149 165 0
154 170 0
150 168 0
152 170 0
161 181 0
145 162 0
150 168 0
149 168 0
152 167 0
152 168 0
154 171 0
104 105 16
96 94 30
106 104 24
116 114 36
113 109 34
120 119 24
124 121 34
126 122 25
138 135 30
123 120 22
133 130 16
134 132 25
140 136 22
134 132 28
133 129 28
130 127 34
135 132 32
150 144 42
147 143 36
143 140 29
140 136 28
149 145 42
155 150 36
146 143 16
145 141 32
150 147 32
149 144 28
153 148 39
146 143 22
156 150 36
160 156 36
158 153 39
157 152 36
151 148 39
152 148 28
156 152 22
153 150 28
156 152 39
155 149 32
152 148 39
154 150 39
151 147 32
151 147 16
149 144 28
153 151 32
158 153 28
151 147 22
159 155 32
156 152 39
146 144 0
152 148 32
155 150 32
156 152 36
153 149 36
150 147 28
153 149 22
160 154 53
157 151 36
155 151 36
146 142 32
156 151 45
150 146 32
152 149 28
155 150 28
150 146 22
160 155 42
154 147 32
157 152 39
152 147 32
154 150 32
152 146 45
153 148 32
153 149 28
147 143 39
148 143 39
151 147 36
157 152 32
154 150 28
154 150 39
152 147 28
144 140 36
158 154 36
154 149 32
151 146 42
144 140 32
143 139 28
147 143 36
149 143 39
141 138 28
150 145 36
143 139 28
143 137 39
138 133 28
138 134 32
136 133 28
144 140 36
138 134 36
118 114 22
142 138 28
126 123 16
135 130 32
134 130 32
118 115 22
141 149 22
171 190 0
168 187 0
166 189 0
169 189 0
167 186 0
168 190 0
168 189 0
171 192 0
171 191 0
174 196 0
167 189 0
170 193 0
165 188 0
173 195 0
168 188 0
168 189 0
170 192 0
172 191 0
174 195 0
173 196 0
165 187 0
171 194 0
175 197 0
176 197 0
170 191 0
173 195 0
173 194 0
170 192 0
171 192 0
171 192 0
169 192 0
172 193 0
172 194 0
174 197 0
171 193 0
166 188 0
172 194 0
168 192 0
171 192 0
172 195 0
169 194 0
172 194 0
174 196 0
174 197 0
173 196 0
173 196 0
175 198 0
172 194 0
174 197 0
172 195 0
175 197 0
170 194 0
173 197 0
172 196 0
173 197 0
173 196 0
175 198 0
174 197 0
171 195 0
172 196 0
174 197 0
168 192 0
172 196 0
172 196 0
172 196 0
173 196 0
173 195 0
174 197 0
170 193 0
172 195 0
172 195 0
174 197 0
172 196 0
171 195 0
174 197 0
174 196 0
172 195 0
172 195 0
174 198 0
172 195 0
170 194 0
174 198 0
174 197 0
171 195 0
169 192 0
172 195 0
170 193 0
174 198 0
170 194 0
170 194 0
170 194 0
170 193 0
173 197 0
174 198 0
172 195 0
171 194 0
172 196 0
174 197 0
173 196 0
167 191 0
173 197 0
170 195 0
171 194 0
171 194 0
166 190 0
173 197 0
173 196 0
174 198 0
171 195 0
167 192 0
173 196 0
168 192 0
167 191 0
169 192 0
170 194 0
172 195 0
165 189 0
172 195 0
168 192 0
173 196 0
172 194 0
168 192 0
167 191 0
170 193 0
170 193 0
169 193 0
171 195 0
169 193 0
171 194 0
169 192 0
170 192 0
173 197 0
170 194 0
173 197 0
170 193 0
168 189 0
168 191 0
170 194 0
171 193 0
168 192 0
170 194 0
168 190 0
170 194 0
163 186 0
168 191 0
165 189 0
169 192 0
166 189 0
167 190 0
162 185 0
171 195 0
161 185 0
160 182 0
169 191 0
168 191 0
169 193 0
171 193 0
162 185 0
160 184 0
169 192 0
168 192 0
172 195 0
167 190 0
162 185 0
164 187 0
169 192 0
157 181 0
165 188 0
156 179 0
164 189 0
160 184 0
158 181 0
161 182 0
171 192 0
163 186 0
166 189 0
165 189 0
165 187 0
165 188 0
153 175 0
156 178 0
164 187 0
159 181 0
163 186 0
163 186 0
167 190 0
160 181 0
156 178 0
158 179 0
159 181 0
166 190 0
159 182 0
158 180 0
156 179 0
156 178 0
163 187 0
154 175 0
153 177 0
158 180 0
143 165 0
160 182 0
158 180 0
156 178 0
147 169 0
152 173 0
160 182 0
157 179 0
146 167 0
147 169 0
152 174 0
153 174 0
139 162 0
147 170 0
142 165 0
150 171 0
149 171 0
152 175 0
134 154 0
147 169 0
148 170 0
148 170 0
145 166 0
146 166 0
159 181 0
151 170 0
147 167 0
145 166 0
141 161 0
145 164 0
134 153 0
144 165 0
139 159 0
143 165 0
145 167 0
147 168 0
148 169 0
140 159 0
146 167 0
145 166 0
130 150 0
147 166 0
140 160 0
149 170 0
144 165 0
137 155 0
153 172 0
153 174 0
135 152 0
139 159 0
140 161 0
137 155 0
137 153 0
145 166 0
144 165 0
148 168 0
145 165 0
153 173 0
144 163 0
133 151 0
137 157 0
149 169 0
140 156 0
141 158 0
149 170 0
145 164 0
151 170 0
150 168 0
155 173 0
153 171 0
147 165 0
143 161 0
153 171 0
147 163 0
149 167 0
140 156 0
161 180 0
142 163 0
150 170 0
154 173 0
148 169 0
153 172 0
144 163 0
142 161 0
147 167 0
153 167 0
146 165 0
149 168 0
158 179 0
156 175 0
153 171 0
150 168 0
155 173 0
153 171 0
154 170 0
155 171 0
158 173 0
93 91 25
93 92 5
122 118 32
106 105 30
118 117 26
108 106 19
116 114 25
124 122 28
129 125 20
134 131 37
139 135 26
136 134 28
142 137 42
143 139 44
137 133 34
144 141 25
147 143 36
144 141 22
143 140 22
142 138 32
151 147 28
146 141 39
146 143 16
146 141 22
141 137 32
144 140 28
150 146 28
151 146 36
150 145 32
151 147 32
151 149 22
155 150 42
148 145 22
151 146 32
149 145 28
150 146 0
144 141 28
155 151 22
154 149 36
154 151 28
155 149 16
152 148 28
152 148 22
150 145 28
151 147 28
151 147 16
147 142 16
152 150 22
154 151 22
146 143 0
154 150 36
153 150 28
152 146 28
155 150 32
154 148 32
154 151 16
153 147 32
157 153 22
156 151 39
155 150 16
152 147 32
154 148 39
156 151 28
146 143 22
145 141 28
152 148 36
158 153 42
155 152 28
153 149 32
155 151 22
152 148 36
152 147 16
152 148 22
152 149 39
156 151 45
153 149 32
154 150 32
147 142 32
148 143 28
150 145 36
144 140 32
157 152 48
149 144 36
143 139 28
149 143 22
143 138 36
150 147 36
141 137 32
144 140 28
146 141 42
135 131 28
146 142 42
141 138 22
140 136 32
135 131 32
144 141 22
137 133 16
141 137 22
132 128 42
134 130 32
133 131 22
119 117 28
104 102 22
160 179 0
169 191 0
167 187 0
171 191 0
171 192 0
167 188 0
168 188 0
170 189 0
170 190 0
169 186 0
168 188 0
168 189 0
173 192 0
168 190 0
171 191 0
170 192 0
170 193 0
172 193 0
168 188 0
166 186 0
170 191 0
166 185 0
171 195 0
170 191 0
170 193 0
169 191 0
168 188 0
172 196 0
169 190 0
171 194 0
172 194 0
172 195 0
167 189 0
175 197 0
173 196 0
166 188 0
171 194 0
174 195 0
171 192 0
167 190 0
170 192 0
175 196 0
173 194 0
173 195 0
174 197 0
172 196 0
175 198 0
175 198 0
173 196 0
171 194 0
173 197 0
171 194 0
175 198 0
172 195 0
177 199 0
174 197 0
173 196 0
175 198 0
171 194 0
174 197 0
172 196 0
175 198 0
171 195 0
168 192 0
173 197 0
169 193 0
170 193 0
173 196 0
174 196 0
171 195 0
172 195 0
171 193 0
176 198 0
174 197 0
171 195 0
171 195 0
172 195 0
174 197 0
174 197 0
171 195 0
171 194 0
169 192 0
174 197 0
173 197 0
175 197 0
171 195 0
168 192 0
168 191 0
171 195 0
170 194 0
173 197 0
172 194 0
173 196 0
171 195 0
176 199 0
169 192 0
172 195 0
171 194 0
174 196 0
172 196 0
169 192 0
172 195 0
174 196 0
172 194 0
172 197 0
170 193 0
172 194 0
172 195 0
170 193 0
167 189 0
172 195 0
171 195 0
167 190 0
174 197 0
173 196 0
166 189 0
170 193 0
169 191 0
172 195 0
174 197 0
172 195 0
173 196 0
168 191 0
169 191 0
170 193 0
167 190 0
170 195 0
164 187 0
172 196 0
168 191 0
168 192 0
169 193 0
172 195 0
170 195 0
165 189 0
167 190 0
167 191 0
168 191 0
166 190 0
168 191 0
173 195 0
170 193 0
171 194 0
165 189 0
169 192 0
168 191 0
164 189 0
168 191 0
170 194 0
169 192 0
168 192 0
168 191 0
168 191 0
167 191 0
166 189 0
169 193 0
169 192 0
168 192 0
165 188 0
169 192 0
170 193 0
164 187 0
166 190 0
169 193 0
169 192 0
168 192 0
170 193 0
165 185 0
162 185 0
169 192 0
172 195 0
159 182 0
164 187 0
162 185 0
168 191 0
158 180 0
165 188 0
165 189 0
159 181 0
160 184 0
152 175 0
161 183 0
158 182 0
164 187 0
159 179 0
164 189 0
158 180 0
161 184 0
161 184 0
162 183 0
153 177 0
162 184 0
159 182 0
164 186 0
158 181 0
161 185 0
160 184 0
158 181 0
153 175 0
149 172 0
148 169 0
159 181 0
157 179 0
151 172 0
160 181 0
149 172 0
157 178 0
155 177 0
160 183 0
151 173 0
149 170 0
154 175 0
143 164 0
149 170 0
159 181 0
152 173 0
158 180 0
156 178 0
147 167 0
156 177 0
149 172 0
150 172 0
143 166 0
136 158 0
148 168 0
154 177 0
146 169 0
156 177 0
146 168 0
153 173 0
144 164 0
160 183 0
149 168 0
146 166 0
141 161 0
142 161 0
150 171 0
145 166 0
138 158 0
145 165 0
155 176 0
147 167 0
143 162 0
138 159 0
144 163 0
144 163 0
146 166 0
151 169 0
149 170 0
151 168 0
144 166 0
152 169 0
138 159 0
134 152 0
139 159 0
144 161 0
151 173 0
142 161 0
143 163 0
146 165 0
152 172 0
138 158 0
148 165 0
148 166 0
149 169 0
148 169 0
149 167 0
145 165 0
151 167 0
145 163 0
143 162 0
150 168 0
151 171 0
156 176 0
153 169 0
154 173 0
141 160 0
149 167 0
158 177 0
148 166 0
157 173 0
148 167 0
153 172 0
148 163 0
156 175 0
151 172 0
143 160 0
145 163 0
143 159 0
147 164 0
148 163 0
153 173 0
160 178 0
143 162 0
154 170 0
157 176 0
142 159 0
102 101 26
113 111 21
77 77 12
110 108 16
117 113 19
114 111 28
137 134 22
123 120 20
133 128 28
133 130 25
130 128 19
125 120 22
140 137 34
146 140 45
144 141 28
142 137 42
152 147 42
148 144 45
142 138 22
143 139 22
137 133 32
150 146 28
145 142 0
146 142 39
148 144 28
151 146 22
154 149 36
150 144 36
147 144 16
149 146 16
157 151 28
144 140 22
149 145 22
150 144 22
151 147 0
149 145 16
155 151 16
150 147 28
149 146 22
147 144 16
155 151 28
150 148 16
154 151 28
149 147 22
150 147 22
154 149 36
150 147 22
153 149 22
148 143 42
157 153 28
153 150 28
153 150 28
158 153 32
150 147 22
150 147 22
156 150 36
155 151 28
156 152 36
153 149 32
148 144 28
149 146 16
149 145 16
148 144 22
149 145 32
152 147 39
146 141 16
157 151 53
149 146 32
164 158 48
153 149 16
153 149 28
145 142 39
155 150 32
144 139 28
150 145 36
157 152 36
151 148 32
151 147 28
142 139 22
151 147 28
149 144 32
151 146 32
144 140 22
151 147 16
150 145 32
152 148 28
137 132 28
147 143 28
143 138 22
148 144 36
148 145 39
148 143 36
143 139 32
146 143 28
145 141 39
143 140 32
135 131 32
135 130 28
123 120 28
121 118 36
127 122 32
102 100 28
117 114 28
168 186 0
167 183 0
162 183 0
169 189 0
171 192 0
167 189 0
170 190 0
171 193 0
172 193 0
169 190 0
168 190 0
166 189 0
173 193 0
172 193 0
171 195 0
170 192 0
170 192 0
173 194 0
168 191 0
172 193 0
167 189 0
172 192 0
171 191 0
169 193 0
170 190 0
169 192 0
170 194 0
170 193 0
172 195 0
170 190 0
171 192 0
172 193 0
174 196 0
173 195 0
170 192 0
173 196 0
173 194 0
173 194 0
174 198 0
172 192 0
175 197 0
168 192 0
170 191 0
173 196 0
175 198 0
171 195 0
175 198 0
173 197 0
168 193 0
173 195 0
174 197 0
171 195 0
171 196 0
173 197 0
175 197 0
170 193 0
173 196 0
172 196 0
171 194 0
173 197 0
171 193 0
169 194 0
171 195 0
170 194 0
174 198 0
173 196 0
174 197 0
173 196 0
171 194 0
173 195 0
170 194 0
174 197 0
172 195 0
173 196 0
171 195 0
173 196 0
175 197 0
173 196 0
173 196 0
172 196 0
171 195 0
172 195 0
170 194 0
170 193 0
171 195 0
169 192 0
173 196 0
173 196 0
174 197 0
174 197 0
170 192 0
172 195 0
171 195 0
172 195 0
174 197 0
167 191 0
170 194 0
170 194 0
174 197 0
171 193 0
172 195 0
175 197 0
173 197 0
172 196 0
171 195 0
165 190 0
167 189 0
169 192 0
173 196 0
171 194 0
169 193 0
174 197 0
169 192 0
172 195 0
170 193 0
170 194 0
169 193 0
167 191 0
168 191 0
172 195 0
170 193 0
166 189 0
171 194 0
173 195 0
170 193 0
171 192 0
167 190 0
173 196 0
167 191 0
172 195 0
167 192 0
169 193 0
168 192 0
169 191 0
172 194 0
167 191 0
168 191 0
169 193 0
170 194 0
170 193 0
169 193 0
170 191 0
165 188 0
168 191 0
168 190 0
167 191 0
168 192 0
164 186 0
169 193 0
164 187 0
167 191 0
162 185 0
169 192 0
169 192 0
159 182 0
165 188 0
167 190 0
171 194 0
167 191 0
170 193 0
164 189 0
169 192 0
168 191 0
163 188 0
156 179 0
170 193 0
166 189 0
166 191 0
161 184 0
161 184 0
162 185 0
164 186 0
159 182 0
166 187 0
165 187 0
157 182 0
164 188 0
165 188 0
154 175 0
158 180 0
159 182 0
158 180 0
167 188 0
166 189 0
164 185 0
169 191 0
163 186 0
157 179 0
156 180 0
149 171 0
156 178 0
161 183 0
166 188 0
167 189 0
170 193 0
157 177 0
152 172 0
153 175 0
149 171 0
160 183 0
156 177 0
158 180 0
147 167 0
156 179 0
155 179 0
146 168 0
154 177 0
154 175 0
152 173 0
158 178 0
157 181 0
161 184 0
146 169 0
159 178 0
156 178 0
157 179 0
148 168 0
164 184 0
151 171 0
144 165 0
150 172 0
146 166 0
153 175 0
152 175 0
158 178 0
154 175 0
149 171 0
148 168 0
142 163 0
147 168 0
153 174 0
147 169 0
141 162 0
142 162 0
138 159 0
141 160 0
155 175 0
154 174 0
149 169 0
145 167 0
138 158 0
146 167 0
148 171 0
153 173 0
144 162 0
141 161 0
147 169 0
132 152 0
145 163 0
156 176 0
132 152 0
134 153 0
145 165 0
147 166 0
142 162 0
154 174 0
146 164 0
139 156 0
136 156 0
142 165 0
152 173 0
152 172 0
150 169 0
119 139 0
136 156 0
132 147 0
156 176 0
146 163 0
148 166 0
139 157 0
140 160 0
143 158 0
150 169 0
151 169 0
161 178 0
149 168 0
158 175 0
157 177 0
149 168 0
157 178 0
146 165 0
159 177 0
152 172 0
137 157 0
152 172 0
161 181 0
158 175 0
154 173 0
151 168 0
160 178 0
158 176 0
149 163 0
151 170 0
154 168 0
151 167 0
150 169 0
154 170 0
99 96 23
94 93 16
119 116 23
117 116 20
100 98 31
121 120 25
121 117 28
138 133 36
129 125 0
127 122 28
145 139 42
139 136 28
146 142 28
151 146 39
141 137 22
141 137 28
150 145 22
144 141 28
142 140 22
151 146 37
148 144 22
143 139 36
141 138 28
141 137 32
147 145 28
141 136 22
157 151 45
153 148 32
146 143 16
146 141 39
153 149 39
150 146 42
156 153 32
154 149 22
154 150 39
155 151 28
153 148 36
150 147 16
150 148 22
150 145 32
153 148 32
154 149 28
147 141 28
148 143 32
153 149 45
150 145 36
153 149 28
156 152 32
152 149 32
157 153 36
147 143 32
150 145 36
152 148 32
153 150 32
154 149 28
154 150 36
157 153 36
145 142 16
157 154 22
147 144 28
154 150 22
157 152 16
152 149 32
160 154 39
155 150 32
153 149 22
153 147 39
149 144 36
157 152 42
156 151 36
154 149 36
142 141 22
148 145 28
151 148 28
149 145 28
144 141 22
151 145 48
151 147 32
142 139 0
143 138 36
136 132 32
149 145 32
150 143 48
141 137 28
145 141 16
141 135 28
150 146 39
144 140 28
141 136 28
136 133 28
144 139 36
135 132 28
141 137 32
141 136 42
141 138 22
137 132 36
123 121 22
129 126 28
133 129 36
132 127 36
120 116 28
119 115 32
134 139 16
169 193 0
170 189 0
166 188 0
171 192 0
173 193 0
170 188 0
171 192 0
168 188 0
172 193 0
169 192 0
168 191 0
169 189 0
167 185 0
172 192 0
172 193 0
168 186 0
168 189 0
168 189 0
173 196 0
169 191 0
172 193 0
168 190 0
168 192 0
169 192 0
167 190 0
171 193 0
174 196 0
170 192 0
171 191 0
170 194 0
171 193 0
171 193 0
170 192 0
171 191 0
163 184 0
174 195 0
173 196 0
169 192 0
171 194 0
172 194 0
170 192 0
174 196 0
173 195 0
171 196 0
174 198 0
174 197 0
174 197 0
173 197 0
174 197 0
165 188 0
172 196 0
171 195 0
172 195 0
174 197 0
175 196 0
170 195 0
172 195 0
173 197 0
175 198 0
172 196 0
170 193 0
170 194 0
174 197 0
170 194 0
173 197 0
175 198 0
170 194 0
171 195 0
171 194 0
173 196 0
175 197 0
172 196 0
171 194 0
172 195 0
173 196 0
170 193 0
171 195 0
171 195 0
172 196 0
174 196 0
172 195 0
170 195 0
169 193 0
172 195 0
172 195 0
171 196 0
171 194 0
168 193 0
173 196 0
174 197 0
171 194 0
173 197 0
173 195 0
173 195 0
170 194 0
173 196 0
173 196 0
172 195 0
172 195 0
173 195 0
174 197 0
174 196 0
172 195 0
165 187 0
172 194 0
170 194 0
168 193 0
168 191 0
171 195 0
172 196 0
169 193 0
166 189 0
173 195 0
173 197 0
171 194 0
174 197 0
168 192 0
171 194 0
168 192 0
172 195 0
168 192 0
171 194 0
171 194 0
171 195 0
169 193 0
172 195 0
176 198 0
169 192 0
172 195 0
170 194 0
171 195 0
167 190 0
171 194 0
168 190 0
171 195 0
174 197 0
169 193 0
171 194 0
164 187 0
167 190 0
169 192 0
170 194 0
174 196 0
172 195 0
168 192 0
171 193 0
163 186 0
171 196 0
165 189 0
169 192 0
167 189 0
165 188 0
163 186 0
166 190 0
167 190 0
174 196 0
168 191 0
164 188 0
168 191 0
167 189 0
158 180 0
164 187 0
170 195 0
171 195 0
163 186 0
165 187 0
171 195 0
166 188 0
171 192 0
167 190 0
170 193 0
164 186 0
169 191 0
167 191 0
162 185 0
166 188 0
163 186 0
165 187 0
168 191 0
165 189 0
154 176 0
165 188 0
168 191 0
165 188 0
165 188 0
165 188 0
168 190 0
171 195 0
156 178 0
161 182 0
163 186 0
156 179 0
167 191 0
161 184 0
156 178 0
146 169 0
162 186 0
147 171 0
167 190 0
155 178 0
159 180 0
159 179 0
158 181 0
148 170 0
152 175 0
157 177 0
150 171 0
161 183 0
157 180 0
144 166 0
154 175 0
159 181 0
157 179 0
155 177 0
158 180 0
154 177 0
146 166 0
156 177 0
155 176 0
153 173 0
151 172 0
150 173 0
144 165 0
148 168 0
153 173 0
154 174 0
156 179 0
156 176 0
153 174 0
146 166 0
145 165 0
151 171 0
142 164 0
142 161 0
155 176 0
154 175 0
152 172 0
144 163 0
150 168 0
144 163 0
141 160 0
156 176 0
141 161 0
150 171 0
147 167 0
150 169 0
155 175 0
137 156 0
151 171 0
151 171 0
149 168 0
140 160 0
149 168 0
154 174 0
138 157 0
138 158 0
148 168 0
146 165 0
152 172 0
142 161 0
145 163 0
157 175 0
142 156 0
149 167 0
135 154 0
148 168 0
143 163 0
141 161 0
142 163 0
156 178 0
149 168 0
157 175 0
147 168 0
147 165 0
154 175 0
153 169 0
155 176 0
149 165 0
146 163 0
156 173 0
150 167 0
159 178 0
146 165 0
152 171 0
139 158 0
158 178 0
156 175 0
147 168 0
141 158 0
149 165 0
143 160 0
155 172 0
150 167 0
140 159 0
150 168 0
154 174 0
138 150 19
99 99 11
107 102 19
125 121 28
107 105 20
104 102 19
129 124 48
133 131 28
116 114 11
124 122 36
148 143 36
140 137 41
140 136 16
138 136 25
134 131 30
141 137 25
142 137 30
144 138 45
140 135 36
145 140 39
141 138 36
149 144 48
144 141 28
152 147 32
151 146 28
149 144 22
149 145 28
143 139 22
144 138 36
142 140 0
146 141 28
154 150 32
148 145 0
152 146 39
145 143 22
151 147 39
146 142 22
152 148 28
155 151 39
150 146 42
151 147 36
153 149 42
148 146 28
152 148 28
149 145 36
157 150 36
150 146 32
156 151 32
144 140 0
156 150 42
155 152 28
160 154 45
159 153 39
153 149 22
147 142 28
157 152 36
155 151 16
155 151 36
144 141 16
152 148 22
154 150 42
147 142 36
147 144 16
151 146 39
154 151 32
156 150 39
155 151 28
151 146 32
151 147 28
149 144 28
150 145 32
150 147 28
154 150 32
147 144 22
145 141 28
157 153 42
141 137 32
150 143 28
148 142 28
146 142 28
152 148 22
150 145 28
154 149 36
147 142 36
149 145 45
153 147 39
155 149 32
139 137 32
144 140 36
148 144 42
144 138 28
137 133 32
148 141 42
138 134 28
149 143 42
140 136 32
131 128 22
145 139 32
139 136 32
135 130 32
128 123 48
128 125 0
127 125 28
162 174 22
172 192 0
173 195 0
164 184 0
170 191 0
164 185 0
170 192 0
170 189 0
172 195 0
171 191 0
166 188 0
168 190 0
170 194 0
166 187 0
165 184 0
174 197 0
170 192 0
174 197 0
169 190 0
173 194 0
172 193 0
173 193 0
171 193 0
169 190 0
173 195 0
167 189 0
169 192 0
171 193 0
167 189 0
169 194 0
167 189 0
171 192 0
174 196 0
173 195 0
170 193 0
173 197 0
172 192 0
173 196 0
174 197 0
171 193 0
173 196 0
172 195 0
169 192 0
174 197 0
171 193 0
172 196 0
173 197 0
172 196 0
172 196 0
171 195 0
174 197 0
174 198 0
175 198 0
172 195 0
174 197 0
172 196 0
174 198 0
175 198 0
174 197 0
173 196 0
171 195 0
170 194 0
173 196 0
170 194 0
170 194 0
175 197 0
172 196 0
175 198 0
173 197 0
175 198 0
174 197 0
171 195 0
173 197 0
171 195 0
175 198 0
175 198 0
171 194 0
171 194 0
171 195 0
174 197 0
173 196 0
173 196 0
169 193 0
175 198 0
172 195 0
173 197 0
172 195 0
174 197 0
170 194 0
173 196 0
173 196 0
173 196 0
168 192 0
171 195 0
172 195 0
170 195 0
176 199 0
170 193 0
170 193 0
173 196 0
172 195 0
171 195 0
169 194 0
172 195 0
172 195 0
174 197 0
166 190 0
171 196 0
173 196 0
172 196 0
169 192 0
174 196 0
172 194 0
177 199 0
172 195 0
172 195 0
171 195 0
168 190 0
168 192 0
169 194 0
171 194 0
171 196 0
174 197 0
172 194 0
172 195 0
169 193 0
174 197 0
169 193 0
172 195 0
167 189 0
167 190 0
166 190 0
172 196 0
169 192 0
170 194 0
172 196 0
170 193 0
168 191 0
167 190 0
171 193 0
169 193 0
169 192 0
166 190 0
169 192 0
172 195 0
170 192 0
164 188 0
169 192 0
167 191 0
173 197 0
166 189 0
170 193 0
166 191 0
171 194 0
162 186 0
169 192 0
170 194 0
171 194 0
170 193 0
162 186 0
167 190 0
163 186 0
171 194 0
166 190 0
168 191 0
171 195 0
167 191 0
172 196 0
168 193 0
165 188 0
165 189 0
164 188 0
170 194 0
166 189 0
168 190 0
167 190 0
163 187 0
163 186 0
166 189 0
166 188 0
168 190 0
165 187 0
160 182 0
162 186 0
162 187 0
162 185 0
165 187 0
161 183 0
168 190 0
150 172 0
158 181 0
160 183 0
164 188 0
159 180 0
158 181 0
160 183 0
166 186 0
169 192 0
162 186 0
164 187 0
163 186 0
148 170 0
157 180 0
153 175 0
161 183 0
158 178 0
158 182 0
158 179 0
157 181 0
156 179 0
155 176 0
157 176 0
151 173 0
154 177 0
157 179 0
161 183 0
157 181 0
158 178 0
150 172 0
165 188 0
145 164 0
149 170 0
148 168 0
153 173 0
151 173 0
151 171 0
155 176 0
153 175 0
138 159 0
145 166 0
153 173 0
137 157 0
143 165 0
147 166 0
157 179 0
151 171 0
154 174 0
158 180 0
149 169 0
158 178 0
147 168 0
144 163 0
150 170 0
156 178 0
140 158 0
145 165 0
154 173 0
142 163 0
153 174 0
144 166 0
149 168 0
154 175 0
151 173 0
148 167 0
148 169 0
145 165 0
152 174 0
153 173 0
149 168 0
150 170 0
146 166 0
143 162 0
155 175 0
148 168 0
155 174 0
147 167 0
159 180 0
141 160 0
144 164 0
151 171 0
153 171 0
157 176 0
159 178 0
148 165 0
144 160 0
150 168 0
129 146 0
153 170 0
148 167 0
152 169 0
159 178 0
151 168 0
153 170 0
149 168 0
149 166 0
146 162 0
158 175 0
151 168 0
151 167 0
160 177 0
144 161 0
143 157 0
158 176 0
154 171 0
151 168 0
148 166 0
161 180 0
120 130 16
95 93 0
96 95 23
103 101 21
103 104 20
114 112 23
125 122 26
104 102 23
131 127 36
126 123 36
132 128 22
132 129 20
146 142 41
138 134 19
135 132 20
133 131 16
143 139 30
147 144 30
146 142 22
144 140 44
150 146 32
139 137 22
146 143 30
146 142 36
146 143 16
152 146 32
145 141 28
148 145 16
147 144 32
151 147 16
155 150 36
147 143 22
148 143 22
150 147 28
151 146 42
154 149 32
153 149 32
146 143 28
143 140 22
158 153 45
150 146 32
155 149 32
157 152 36
152 149 22
148 144 32
151 148 22
150 146 32
154 150 36
157 151 28
157 153 36
154 150 28
156 151 32
158 153 42
152 148 16
154 149 28
150 145 36
161 156 45
157 153 42
149 145 16
156 152 39
150 146 32
155 151 32
154 149 28
156 150 36
156 151 39
156 151 39
154 150 22
155 152 28
146 143 32
150 146 22
160 154 39
155 149 32
151 146 22
152 149 22
156 150 32
148 144 28
156 150 42
147 143 36
154 150 22
153 149 36
151 147 36
146 142 36
150 147 32
154 150 22
149 144 22
143 140 28
147 141 32
143 138 28
143 136 32
140 136 28
143 138 28
145 140 36
144 141 32
135 131 22
137 133 28
131 127 22
130 126 32
134 131 28
119 115 16
130 127 28
120 116 0
117 114 28
100 97 22
167 186 0
163 182 0
169 190 0
166 185 0
166 187 0
165 186 0
167 187 0
168 188 0
165 187 0
167 187 0
172 193 0
170 191 0
169 190 0
168 190 0
171 194 0
169 189 0
164 186 0
168 192 0
170 194 0
172 193 0
167 185 0
171 191 0
173 195 0
168 191 0
171 191 0
167 188 0
171 192 0
170 192 0
172 195 0
169 190 0
174 195 0
169 191 0
173 194 0
173 195 0
171 195 0
168 190 0
171 193 0
169 191 0
169 191 0
173 194 0
168 190 0
171 193 0
175 196 0
170 192 0
174 197 0
173 197 0
169 193 0
173 196 0
172 197 0
170 194 0
173 196 0
169 192 0
172 196 0
175 196 0
173 197 0
172 197 0
170 192 0
172 196 0
175 198 0
171 196 0
173 197 0
173 196 0
173 196 0
171 194 0
172 195 0
172 196 0
175 197 0
173 196 0
172 196 0
171 193 0
173 196 0
172 196 0
174 196 0
173 196 0
171 194 0
174 196 0
173 197 0
170 194 0
173 196 0
174 198 0
174 197 0
171 194 0
171 193 0
173 196 0
173 197 0
174 197 0
171 194 0
173 196 0
169 192 0
173 196 0
172 196 0
171 195 0
171 195 0
174 197 0
173 196 0
173 197 0
174 197 0
172 195 0
168 192 0
175 198 0
170 193 0
173 196 0
173 197 0
173 196 0
173 195 0
172 196 0
174 196 0
168 191 0
170 195 0
170 195 0
172 196 0
169 193 0
170 193 0
168 193 0
172 195 0
171 194 0
168 192 0
171 194 0
171 194 0
171 194 0
168 192 0
171 194 0
170 194 0
170 193 0
175 198 0
172 195 0
174 197 0
167 192 0
167 189 0
166 190 0
171 195 0
168 191 0
167 191 0
173 197 0
173 196 0
172 194 0
170 193 0
171 194 0
171 195 0
171 194 0
168 191 0
169 193 0
167 190 0
166 189 0
167 190 0
168 190 0
172 196 0
168 190 0
172 196 0
172 195 0
161 186 0
169 192 0
170 192 0
168 191 0
168 191 0
174 196 0
168 191 0
165 187 0
169 193 0
172 195 0
171 195 0
168 191 0
167 190 0
170 192 0
164 187 0
162 185 0
164 185 0
170 193 0
163 186 0
164 188 0
168 191 0
163 188 0
164 187 0
166 191 0
169 193 0
170 193 0
163 186 0
169 191 0
161 185 0
167 189 0
164 186 0
161 184 0
165 188 0
168 191 0
159 181 0
166 190 0
168 191 0
160 184 0
166 189 0
164 187 0
164 187 0
168 192 0
157 178 0
165 186 0
154 177 0
156 179 0
154 177 0
162 185 0
163 184 0
158 182 0
160 183 0
156 178 0
156 177 0
155 177 0
167 187 0
147 167 0
149 170 0
154 179 0
161 183 0
156 175 0
164 186 0
153 175 0
154 175 0
154 176 0
157 178 0
145 166 0
160 183 0
148 166 0
156 177 0
152 174 0
147 166 0
156 178 0
156 178 0
159 181 0
150 172 0
153 175 0
154 176 0
151 174 0
149 171 0
156 177 0
156 177 0
161 183 0
146 168 0
152 173 0
149 170 0
148 170 0
151 175 0
150 171 0
151 169 0
143 162 0
148 167 0
152 172 0
142 160 0
148 167 0
149 168 0
155 176 0
148 169 0
159 182 0
135 155 0
144 164 0
152 172 0
144 163 0
149 169 0
139 161 0
146 168 0
152 170 0
156 176 0
142 162 0
142 164 0
141 160 0
162 182 0
157 174 0
150 169 0
163 183 0
142 162 0
151 173 0
153 171 0
158 179 0
148 169 0
154 174 0
155 176 0
155 173 0
147 166 0
155 177 0
150 170 0
147 164 0
152 173 0
152 171 0
148 166 0
153 171 0
147 166 0
151 169 0
157 176 0
156 175 0
150 165 0
145 164 0
153 170 0
158 175 0
155 174 0
151 167 0
154 172 0
159 180 0
147 164 0
151 168 0
147 164 0
152 167 0
148 167 0
99 105 0
85 86 19
99 98 25
115 113 23
121 119 36
123 117 34
128 124 34
128 125 30
118 116 28
120 115 32
123 120 32
130 128 19
141 137 32
131 128 11
141 139 16
133 128 28
144 139 36
141 137 37
145 141 28
145 140 28
154 148 39
152 147 36
147 144 28
152 148 32
148 144 32
152 146 36
150 148 22
145 140 28
152 146 42
153 149 32
141 138 0
153 150 28
151 148 36
149 146 36
149 146 28
153 150 16
152 146 32
149 145 32
151 147 32
156 151 32
158 152 48
144 140 28
153 149 39
158 153 32
160 155 42
151 146 32
157 153 32
151 147 36
159 154 28
150 146 32
151 146 28
153 150 22
156 153 28
152 148 36
155 152 36
145 141 32
154 151 28
157 152 32
154 150 32
154 149 32
159 154 39
154 151 32
150 147 16
152 148 36
148 144 22
153 150 22
156 150 36
147 143 32
152 148 28
154 147 28
152 146 28
149 145 16
155 150 39
153 148 28
149 145 16
152 149 42
155 150 42
150 145 22
155 151 28
150 145 22
146 143 28
152 148 28
146 140 36
148 144 32
148 143 32
149 145 22
146 144 22
147 142 39
149 146 28
143 139 32
138 134 16
143 138 32
146 141 36
134 130 32
137 132 28
142 137 32
135 132 16
143 139 16
130 127 22
137 133 16
132 128 28
127 123 36
127 129 32
170 190 0
170 189 0
166 186 0
165 187 0
166 188 0
168 188 0
171 190 0
169 188 0
172 194 0
168 191 0
165 185 0
168 189 0
162 181 0
171 195 0
171 191 0
172 194 0
168 187 0
166 188 0
171 192 0
166 186 0
170 191 0
171 192 0
169 191 0
172 193 0
171 194 0
168 191 0
166 186 0
172 193 0
171 194 0
170 191 0
169 191 0
169 192 0
171 192 0
172 194 0
174 195 0
171 193 0
173 195 0
173 195 0
176 198 0
172 194 0
175 195 0
173 195 0
174 196 0
173 195 0
174 194 0
170 194 0
173 197 0
174 197 0
172 195 0
174 198 0
173 196 0
175 198 0
174 196 0
174 197 0
170 194 0
172 196 0
174 197 0
175 198 0
176 199 0
171 194 0
171 195 0
173 196 0
175 198 0
173 197 0
171 195 0
173 196 0
171 194 0
173 197 0
172 195 0
174 196 0
174 198 0
173 196 0
175 197 0
174 197 0
172 195 0
174 198 0
174 197 0
171 194 0
173 197 0
173 196 0
174 196 0
171 194 0
174 196 0
169 192 0
168 192 0
175 197 0
168 191 0
172 196 0
174 197 0
174 197 0
170 192 0
172 195 0
168 192 0
171 194 0
174 196 0
168 191 0
173 197 0
174 197 0
171 194 0
171 193 0
172 194 0
172 195 0
169 194 0
167 189 0
172 195 0
171 195 0
172 194 0
170 194 0
171 194 0
167 192 0
170 193 0
173 197 0
172 194 0
166 190 0
174 198 0
173 195 0
170 194 0
168 192 0
172 195 0
169 193 0
169 192 0
170 194 0
169 193 0
171 195 0
170 192 0
168 190 0
167 190 0
171 195 0
169 193 0
173 196 0
172 195 0
170 194 0
170 193 0
165 189 0
170 194 0
169 193 0
174 196 0
168 192 0
170 193 0
169 191 0
162 186 0
168 191 0
163 187 0
174 197 0
172 196 0
166 190 0
166 191 0
165 188 0
169 192 0
174 196 0
170 193 0
169 192 0
170 192 0
171 194 0
170 192 0
171 195 0
171 194 0
169 192 0
164 187 0
170 193 0
161 183 0
166 189 0
167 191 0
160 184 0
162 185 0
168 191 0
170 192 0
165 189 0
167 191 0
171 195 0
167 190 0
163 185 0
162 185 0
162 183 0
160 182 0
165 189 0
166 188 0
160 183 0
166 189 0
170 193 0
165 188 0
154 177 0
166 191 0
163 186 0
158 181 0
160 182 0
159 181 0
161 183 0
159 182 0
167 190 0
159 181 0
162 185 0
157 180 0
162 183 0
159 183 0
158 182 0
159 182 0
165 186 0
156 179 0
155 177 0
167 191 0
163 187 0
157 179 0
145 167 0
154 176 0
160 181 0
161 183 0
160 181 0
150 173 0
145 165 0
148 170 0
155 175 0
163 186 0
163 185 0
155 177 0
155 176 0
153 174 0
158 179 0
165 187 0
157 177 0
152 174 0
155 176 0
147 167 0
147 169 0
161 183 0
155 176 0
155 177 0
158 180 0
150 170 0
151 173 0
139 160 0
156 176 0
150 173 0
155 176 0
149 169 0
154 176 0
137 157 0
146 168 0
144 162 0
150 172 0
144 164 0
152 173 0
158 178 0
156 177 0
153 171 0
159 181 0
140 160 0
142 158 0
151 170 0
141 164 0
151 172 0
156 177 0
138 157 0
154 171 0
149 169 0
160 179 0
139 160 0
148 167 0
146 164 0
153 172 0
152 169 0
146 164 0
156 176 0
143 162 0
140 160 0
146 167 0
147 163 0
155 172 0
147 165 0
139 155 0
147 167 0
149 168 0
157 176 0
143 162 0
153 172 0
155 172 0
148 165 0
152 172 0
155 174 0
147 164 0
155 174 0
161 180 0
143 160 0
154 170 0
140 158 0
148 165 0
153 170 0
155 170 0
153 172 0
153 172 0
159 177 0
161 179 0
155 173 0
153 171 0
142 160 0
156 175 0
152 169 0
119 129 16
97 95 16
102 100 8
103 99 0
112 109 28
117 113 28
112 109 20
122 120 28
120 118 20
137 132 16
141 137 28
140 137 36
138 134 28
141 138 28
148 144 32
148 145 36
145 140 25
151 146 30
141 137 30
142 137 39
141 138 32
135 132 28
151 146 39
146 142 22
147 143 32
141 136 28
146 142 32
147 143 28
147 143 39
146 143 22
150 147 16
151 148 16
146 144 16
149 145 32
156 151 36
155 152 16
158 152 32
155 149 28
154 150 36
150 144 0
148 144 28
148 144 16
156 152 22
152 148 36
156 150 39
145 141 22
143 140 22
153 148 32
158 153 36
155 149 28
153 148 39
155 151 22
148 144 28
156 150 32
145 141 16
148 146 16
157 153 28
148 144 32
152 149 32
150 146 22
153 149 36
148 145 16
158 154 36
155 150 36
159 153 39
149 146 0
147 144 16
148 145 28
161 155 36
152 148 32
153 149 28
153 149 22
147 142 22
153 148 39
156 149 42
157 152 32
152 148 32
144 142 0
151 146 36
150 147 32
148 144 39
148 145 22
143 140 0
144 141 36
147 144 28
140 137 36
145 141 32
135 132 16
141 137 22
148 144 32
143 139 32
143 140 28
144 139 22
145 141 36
144 139 32
132 129 28
145 140 36
136 132 32
133 130 42
122 119 28
131 127 28
121 117 0
154 168 16
168 185 0
169 189 0
163 183 0
169 189 0
172 191 0
167 186 0
169 191 0
166 184 0
168 189 0
168 186 0
173 194 0
166 186 0
171 192 0
169 190 0
169 189 0
172 194 0
168 189 0
172 193 0
166 186 0
171 192 0
175 195 0
173 194 0
170 192 0
172 194 0
164 184 0
173 193 0
172 195 0
169 190 0
173 195 0
169 191 0
173 195 0
171 192 0
168 188 0
170 192 0
173 197 0
173 193 0
175 197 0
170 194 0
171 193 0
175 198 0
173 194 0
172 194 0
172 195 0
171 192 0
171 193 0
169 192 0
172 195 0
176 199 0
173 195 0
174 197 0
173 197 0
175 198 0
171 195 0
172 197 0
173 196 0
175 198 0
172 196 0
170 194 0
174 197 0
174 198 0
176 198 0
173 196 0
173 197 0
174 197 0
172 196 0
174 196 0
173 196 0
175 197 0
174 195 0
173 196 0
170 193 0
170 193 0
172 196 0
173 197 0
168 191 0
170 193 0
175 198 0
172 195 0
173 197 0
171 195 0
174 197 0
172 197 0
175 197 0
169 193 0
174 197 0
173 197 0
173 196 0
173 195 0
170 193 0
169 192 0
172 196 0
170 193 0
173 197 0
172 196 0
171 194 0
169 192 0
169 192 0
172 195 0
169 193 0
175 198 0
172 194 0
175 198 0
171 194 0
168 191 0
170 194 0
172 196 0
169 192 0
169 193 0
175 197 0
174 196 0
171 194 0
171 195 0
172 196 0
171 194 0
170 193 0
174 197 0
169 193 0
172 195 0
171 194 0
170 193 0
171 195 0
175 197 0
167 189 0
173 196 0
168 191 0
172 195 0
171 193 0
167 191 0
172 194 0
170 192 0
171 194 0
171 194 0
175 198 0
171 194 0
172 194 0
170 192 0
173 196 0
173 195 0
168 191 0
170 194 0
161 183 0
172 197 0
169 192 0
170 193 0
171 194 0
169 191 0
170 192 0
169 192 0
170 194 0
171 194 0
171 194 0
169 192 0
165 188 0
166 189 0
170 193 0
170 194 0
170 193 0
166 190 0
169 193 0
165 189 0
163 186 0
163 186 0
171 194 0
167 190 0
170 194 0
166 190 0
166 189 0
175 198 0
163 185 0
171 194 0
168 190 0
166 189 0
166 188 0
164 187 0
163 185 0
158 182 0
154 179 0
162 185 0
161 185 0
168 191 0
170 194 0
163 186 0
166 187 0
164 188 0
160 184 0
159 181 0
165 188 0
160 183 0
166 189 0
163 185 0
154 176 0
167 190 0
157 180 0
159 183 0
156 181 0
157 180 0
169 192 0
155 178 0
155 177 0
158 181 0
156 180 0
150 172 0
157 181 0
160 182 0
161 184 0
157 177 0
159 182 0
156 179 0
168 190 0
166 186 0
163 185 0
158 179 0
151 173 0
144 167 0
155 178 0
157 180 0
163 182 0
150 173 0
159 181 0
155 177 0
138 160 0
161 182 0
145 167 0
149 170 0
148 170 0
154 174 0
165 187 0
160 181 0
153 175 0
160 181 0
156 177 0
150 171 0
153 176 0
157 176 0
131 151 0
163 184 0
145 167 0
159 180 0
153 175 0
148 169 0
150 170 0
151 172 0
154 174 0
147 165 0
137 159 0
152 174 0
145 166 0
157 178 0
150 171 0
162 181 0
147 168 0
154 176 0
147 168 0
134 155 0
161 181 0
144 165 0
145 163 0
144 164 0
151 171 0
150 172 0
138 156 0
144 161 0
154 173 0
151 170 0
159 180 0
157 178 0
156 177 0
145 166 0
154 174 0
160 180 0
155 175 0
152 172 0
155 171 0
137 157 0
149 168 0
147 165 0
154 170 0
149 169 0
142 158 0
154 171 0
161 180 0
153 173 0
150 167 0
154 175 0
152 170 0
149 167 0
154 173 0
150 166 0
143 159 0
159 177 0
151 166 0
153 170 0
159 175 0
155 170 0
145 161 0
149 164 0
153 171 0
113 122 5
109 108 20
112 109 32
103 102 12
117 114 16
128 126 36
131 130 36
128 124 34
130 125 34
132 130 30
133 130 19
125 123 16
147 142 41
133 129 37
137 135 34
143 140 28
133 129 28
146 142 28
142 140 28
150 145 36
147 143 28
140 134 32
146 141 28
146 142 16
150 145 39
142 137 22
140 136 28
146 141 22
150 146 16
145 142 22
148 144 32
154 151 22
156 152 32
155 151 36
143 138 22
155 149 36
151 145 28
156 150 32
153 148 22
154 148 36
150 146 16
156 150 45
154 149 28
146 142 16
150 146 32
154 149 39
155 150 28
150 146 28
156 153 36
151 148 16
148 145 36
146 143 28
153 148 22
149 146 16
152 149 28
158 152 42
156 152 36
151 147 32
154 149 28
153 149 32
151 147 16
153 148 22
153 148 32
148 144 16
155 150 28
149 145 22
153 149 36
150 144 22
150 144 22
152 147 16
154 151 36
142 140 0
149 145 36
156 151 36
150 145 22
146 142 22
150 146 28
153 149 22
154 150 28
161 155 39
147 144 16
149 146 22
150 143 32
142 138 32
147 141 45
148 144 32
150 146 28
150 147 22
150 146 39
131 127 22
155 150 36
146 141 32
134 130 22
135 130 39
141 137 28
130 125 28
133 129 22
127 122 16
131 127 32
135 132 28
119 116 28
138 134 28
151 168 0
167 187 0
167 186 0
165 185 0
167 186 0
171 193 0
168 189 0
167 187 0
172 192 0
172 193 0
170 192 0
165 185 0
167 188 0
166 186 0
169 190 0
170 192 0
170 192 0
170 192 0
167 187 0
171 193 0
170 192 0
169 190 0
163 185 0
172 195 0
170 192 0
169 192 0
172 195 0
169 188 0
169 191 0
170 193 0
170 193 0
171 195 0
174 195 0
170 193 0
172 195 0
174 195 0
171 194 0
172 193 0
167 188 0
173 194 0
168 190 0
173 195 0
174 196 0
172 195 0
171 195 0
170 191 0
172 196 0
172 195 0
172 196 0
173 197 0
173 197 0
172 194 0
173 196 0
174 197 0
171 195 0
174 197 0
175 198 0
170 194 0
173 196 0
173 197 0
172 196 0
173 195 0
175 198 0
172 196 0
174 197 0
174 196 0
173 197 0
173 197 0
173 196 0
175 198 0
174 197 0
174 197 0
173 196 0
174 197 0
171 195 0
171 194 0
171 194 0
172 196 0
170 194 0
172 196 0
171 195 0
174 197 0
171 195 0
173 197 0
174 198 0
170 194 0
173 196 0
173 197 0
170 194 0
172 196 0
166 190 0
172 195 0
176 198 0
172 195 0
172 195 0
170 193 0
173 196 0
173 196 0
173 196 0
172 196 0
171 194 0
174 196 0
175 198 0
171 193 0
171 194 0
172 197 0
171 195 0
170 193 0
172 197 0
170 194 0
169 192 0
173 196 0
170 194 0
172 196 0
170 194 0
173 195 0
169 194 0
169 194 0
169 193 0
172 196 0
171 194 0
168 192 0
172 196 0
168 191 0
172 195 0
174 197 0
170 194 0
166 188 0
171 192 0
170 192 0
172 195 0
169 192 0
171 195 0
172 195 0
168 192 0
168 192 0
169 193 0
170 192 0
165 188 0
168 191 0
170 193 0
169 191 0
163 186 0
167 189 0
170 193 0
166 190 0
172 195 0
167 191 0
171 193 0
169 194 0
171 194 0
171 194 0
172 195 0
170 193 0
170 195 0
166 188 0
172 195 0
166 189 0
170 192 0
170 193 0
164 188 0
164 188 0
171 194 0
168 191 0
165 188 0
160 184 0
169 194 0
171 194 0
162 186 0
169 190 0
166 189 0
169 192 0
156 178 0
167 191 0
161 185 0
164 186 0
166 189 0
166 187 0
165 187 0
165 189 0
170 193 0
162 185 0
165 188 0
166 189 0
166 190 0
162 185 0
163 186 0
170 193 0
164 188 0
157 180 0
162 185 0
157 180 0
164 188 0
161 183 0
162 184 0
164 187 0
162 184 0
159 183 0
161 183 0
160 181 0
162 184 0
153 177 0
153 177 0
160 181 0
158 180 0
158 181 0
160 183 0
165 188 0
165 188 0
155 178 0
157 180 0
160 181 0
161 183 0
162 184 0
156 178 0
158 181 0
156 178 0
147 169 0
146 167 0
162 184 0
162 184 0
158 179 0
161 183 0
153 175 0
157 180 0
163 186 0
152 174 0
164 186 0
160 181 0
147 168 0
143 165 0
152 170 0
149 171 0
155 178 0
150 171 0
153 175 0
148 169 0
157 178 0
158 179 0
156 177 0
155 176 0
151 170 0
149 170 0
142 162 0
155 177 0
140 160 0
146 167 0
149 171 0
143 163 0
153 174 0
148 168 0
156 178 0
143 165 0
153 173 0
154 173 0
142 159 0
159 179 0
149 170 0
150 170 0
161 180 0
158 179 0
143 161 0
146 165 0
151 170 0
157 175 0
159 176 0
147 164 0
154 175 0
153 174 0
161 176 0
148 165 0
144 167 0
154 173 0
154 175 0
157 178 0
151 168 0
138 157 0
143 163 0
152 173 0
162 180 0
154 171 0
151 168 0
155 173 0
146 165 0
151 170 0
149 167 0
145 158 0
159 178 0
146 164 0
153 168 0
150 169 0
153 170 0
157 174 0
157 172 0
143 161 0
152 174 0
157 176 0
144 161 0
116 118 11
89 90 13
101 98 12
107 106 16
111 109 22
130 128 19
116 113 16
138 135 30
134 130 22
129 123 32
134 129 32
142 139 30
130 126 25
137 132 28
146 140 42
148 145 28
138 135 16
145 140 22
145 140 22
150 146 36
145 141 37
147 143 22
148 143 22
146 142 28
149 144 32
141 137 32
156 151 42
152 148 16
153 148 36
158 152 39
155 151 36
155 151 32
152 147 22
152 147 32
149 144 36
146 142 22
147 143 22
152 149 16
150 147 22
155 150 22
148 144 28
144 140 32
157 152 32
154 150 16
151 148 22
150 145 28
156 151 42
156 151 36
152 148 28
153 149 16
149 144 16
150 147 22
146 143 16
153 148 16
156 152 28
150 146 28
156 151 39
159 153 42
150 146 32
152 147 28
154 149 36
156 151 32
148 145 28
153 148 32
149 144 28
152 148 36
158 155 32
157 152 42
149 146 0
152 147 45
150 147 22
150 146 36
155 150 28
150 145 32
143 139 28
147 144 0
153 148 22
148 143 32
147 143 16
144 141 28
148 145 22
147 142 39
151 146 42
148 144 39
145 141 39
143 138 36
151 145 42
146 141 45
142 137 32
142 138 36
135 132 16
135 131 32
143 138 36
144 138 39
135 132 28
137 134 28
134 130 22
133 130 32
133 128 16
135 129 36
127 123 22
130 132 0
167 185 0
171 189 0
172 195 0
168 188 0
167 186 0
170 190 0
167 188 0
167 187 0
168 189 0
170 193 0
171 193 0
167 186 0
171 190 0
171 192 0
161 180 0
166 187 0
170 191 0
170 193 0
170 192 0
168 189 0
172 194 0
171 193 0
172 193 0
169 191 0
173 194 0
169 191 0
173 193 0
170 192 0
171 194 0
171 192 0
171 192 0
171 193 0
170 193 0
172 192 0
168 188 0
169 190 0
172 194 0
173 195 0
171 193 0
173 196 0
169 190 0
174 197 0
173 195 0
174 196 0
173 195 0
171 194 0
171 195 0
175 198 0
174 197 0
170 193 0
172 196 0
174 197 0
175 197 0
172 195 0
172 196 0
171 195 0
172 196 0
171 196 0
171 194 0
174 198 0
174 197 0
173 197 0
170 195 0
171 195 0
172 195 0
173 197 0
173 197 0
175 198 0
170 193 0
173 196 0
169 192 0
172 196 0
177 199 0
173 196 0
172 196 0
172 195 0
174 197 0
173 196 0
172 195 0
171 195 0
170 194 0
170 192 0
173 197 0
171 194 0
173 196 0
173 194 0
174 197 0
170 194 0
172 196 0
171 195 0
173 196 0
174 197 0
172 194 0
174 197 0
171 194 0
174 197 0
173 196 0
171 194 0
171 196 0
174 197 0
172 195 0
172 195 0
171 194 0
172 194 0
172 196 0
171 195 0
172 196 0
173 195 0
174 197 0
171 194 0
173 196 0
172 195 0
174 197 0
174 197 0
168 192 0
168 191 0
170 192 0
167 190 0
173 196 0
170 193 0
170 194 0
171 193 0
173 197 0
172 195 0
167 190 0
169 193 0
173 197 0
171 195 0
171 194 0
167 190 0
168 192 0
166 190 0
169 193 0
171 194 0
167 190 0
170 193 0
172 196 0
168 191 0
170 193 0
173 196 0
169 192 0
169 193 0
166 190 0
170 194 0
163 185 0
170 193 0
169 192 0
169 192 0
169 192 0
169 193 0
168 191 0
170 192 0
173 196 0
170 193 0
169 191 0
162 185 0
165 188 0
172 195 0
167 191 0
164 187 0
172 194 0
165 188 0
165 187 0
166 190 0
169 191 0
168 190 0
172 195 0
164 189 0
166 190 0
173 197 0
168 192 0
168 190 0
169 192 0
169 192 0
163 185 0
158 182 0
169 193 0
166 189 0
162 184 0
162 184 0
163 184 0
167 190 0
166 189 0
161 182 0
165 188 0
159 181 0
159 181 0
162 184 0
167 189 0
158 179 0
160 182 0
162 185 0
170 193 0
167 190 0
154 178 0
163 187 0
170 193 0
167 190 0
162 185 0
164 187 0
160 181 0
153 178 0
161 183 0
165 187 0
154 176 0
161 184 0
159 183 0
159 180 0
159 181 0
168 190 0
164 185 0
160 183 0
157 179 0
162 183 0
157 179 0
158 179 0
164 186 0
159 181 0
146 170 0
161 182 0
148 169 0
159 181 0
148 171 0
144 165 0
157 179 0
151 172 0
161 182 0
141 163 0
155 177 0
142 162 0
162 183 0
156 177 0
153 175 0
164 185 0
153 173 0
153 173 0
154 177 0
157 179 0
159 179 0
157 179 0
157 178 0
156 177 0
148 168 0
151 170 0
152 169 0
142 163 0
148 169 0
159 180 0
165 188 0
157 179 0
158 177 0
154 175 0
145 167 0
156 178 0
153 175 0
156 175 0
150 170 0
156 175 0
152 170 0
143 163 0
151 172 0
154 173 0
154 173 0
153 174 0
161 181 0
154 172 0
155 175 0
148 167 0
151 173 0
157 175 0
154 173 0
157 176 0
153 172 0
153 173 0
140 156 0
143 160 0
148 167 0
153 173 0
158 177 0
145 163 0
156 177 0
155 173 0
153 172 0
150 167 0
152 172 0
150 169 0
153 168 0
150 168 0
147 167 0
153 168 0
156 176 0
150 166 0
149 164 0
153 169 0
146 163 0
153 171 0
152 168 0
137 156 0
90 91 19
112 109 23
101 100 19
107 106 22
111 107 25
125 122 27
125 120 30
128 126 30
135 133 28
134 131 36
134 130 44
132 128 16
140 136 34
142 139 22
143 139 41
142 138 22
143 140 28
144 140 0
148 143 22
148 143 32
144 141 28
143 137 36
146 143 22
151 147 22
146 139 48
144 139 32
149 144 22
149 144 22
146 141 36
152 149 22
144 139 22
154 148 42
152 148 36
151 145 32
158 153 32
146 142 22
148 145 22
151 147 32
152 148 22
153 146 39
155 150 28
152 147 36
154 150 28
155 151 36
150 146 16
154 150 22
155 151 32
149 145 22
152 149 22
156 151 42
152 148 32
152 148 28
155 149 39
154 150 32
155 150 32
154 150 32
151 147 28
156 152 39
152 149 32
158 155 42
147 142 32
157 151 48
154 150 16
152 148 32
152 147 32
146 143 22
154 149 22
154 149 39
153 148 36
148 145 22
156 152 36
145 140 32
146 140 28
153 148 36
154 150 22
149 143 28
152 147 32
152 149 22
153 148 28
147 142 28
153 148 32
147 142 36
152 148 42
147 145 16
144 141 28
145 141 28
142 138 36
137 134 22
148 142 36
142 139 36
142 137 32
144 140 22
134 129 28
137 134 16
140 136 22
135 132 28
131 127 28
132 129 22
131 126 16
123 120 22
118 114 28
126 133 0
169 188 0
168 189 0
168 188 0
168 189 0
166 187 0
172 192 0
167 187 0
168 190 0
171 193 0
168 189 0
169 187 0
169 191 0
173 193 0
170 191 0
173 193 0
169 192 0
167 189 0
169 191 0
174 195 0
169 189 0
169 190 0
170 191 0
170 194 0
168 189 0
172 194 0
168 188 0
167 189 0
170 191 0
173 193 0
172 190 0
168 188 0
172 193 0
171 194 0
173 195 0
171 194 0
171 193 0
171 192 0
171 192 0
171 194 0
174 196 0
171 192 0
172 193 0
170 192 0
172 195 0
173 194 0
173 195 0
176 199 0
174 197 0
172 196 0
173 196 0
174 198 0
174 195 0
174 198 0
170 195 0
173 197 0
173 197 0
172 195 0
173 197 0
171 194 0
175 198 0
175 198 0
171 194 0
173 197 0
172 196 0
171 194 0
174 197 0
171 194 0
173 196 0
173 197 0
170 192 0
172 196 0
174 197 0
167 191 0
172 195 0
174 197 0
175 197 0
169 194 0
170 193 0
171 195 0
174 196 0
172 197 0
173 196 0
174 197 0
173 197 0
172 197 0
171 194 0
172 195 0
172 195 0
171 195 0
173 196 0
171 194 0
170 194 0
173 197 0
172 195 0
172 196 0
168 191 0
167 192 0
174 198 0
173 197 0
174 197 0
173 196 0
171 195 0
171 195 0
170 194 0
171 196 0
173 196 0
170 194 0
174 198 0
170 193 0
170 194 0
172 196 0
173 196 0
172 195 0
169 193 0
172 195 0
172 196 0
172 196 0
173 196 0
172 195 0
173 196 0
173 197 0
168 192 0
169 191 0
169 191 0
173 197 0
172 195 0
172 195 0
171 193 0
168 191 0
169 193 0
172 195 0
170 193 0
170 193 0
169 193 0
169 192 0
169 192 0
169 192 0
171 195 0
169 193 0
162 185 0
168 192 0
171 195 0
169 191 0
171 194 0
169 192 0
168 191 0
168 189 0
171 195 0
170 193 0
168 190 0
171 194 0
170 194 0
168 190 0
166 188 0
171 194 0
162 185 0
168 191 0
170 193 0
158 182 0
166 190 0
164 188 0
167 189 0
168 192 0
165 188 0
172 195 0
167 189 0
171 194 0
163 185 0
164 187 0
161 184 0
164 187 0
166 188 0
164 185 0
168 191 0
160 183 0
166 188 0
166 188 0
159 181 0
173 195 0
160 183 0
162 182 0
169 192 0
169 192 0
164 187 0
161 185 0
162 184 0
168 191 0
165 188 0
164 187 0
154 176 0
158 181 0
161 185 0
166 188 0
163 186 0
168 190 0
168 190 0
166 189 0
163 185 0
164 188 0
159 181 0
154 178 0
164 187 0
162 185 0
158 180 0
156 179 0
165 186 0
158 181 0
153 174 0
151 174 0
154 175 0
162 184 0
164 184 0
158 180 0
161 183 0
150 174 0
153 175 0
157 178 0
163 187 0
162 185 0
153 173 0
158 180 0
156 179 0
162 183 0
157 177 0
153 174 0
156 176 0
153 175 0
153 174 0
153 173 0
156 178 0
154 176 0
148 167 0
160 180 0
152 173 0
148 169 0
148 168 0
148 169 0
157 177 0
155 176 0
154 176 0
148 169 0
153 175 0
150 173 0
159 177 0
151 172 0
151 173 0
162 181 0
151 170 0
155 176 0
154 174 0
145 164 0
152 173 0
155 177 0
158 179 0
154 172 0
148 168 0
156 176 0
149 171 0
152 172 0
161 181 0
157 177 0
163 184 0
154 176 0
153 171 0
156 176 0
153 175 0
154 175 0
148 166 0
159 180 0
147 168 0
151 169 0
157 178 0
157 177 0
146 165 0
146 165 0
158 178 0
157 177 0
153 171 0
160 181 0
158 181 0
150 168 0
161 180 0
146 164 0
154 173 0
140 154 0
140 157 0
161 180 0
146 163 0
153 172 0
158 177 0
151 170 0
144 162 0
158 177 0
142 159 0
142 156 0
156 169 0
150 166 0
136 151 0
82 81 12
92 94 16
102 101 12
111 109 11
129 127 28
126 122 28
121 118 28
130 128 30
122 121 22
132 128 32
130 128 16
138 135 5
131 129 16
135 132 22
147 143 16
150 147 32
142 137 22
149 145 32
143 140 36
144 139 28
149 144 36
147 143 28
138 135 22
150 145 28
144 140 28
156 152 36
148 143 39
144 140 22
152 146 36
145 140 22
152 147 16
150 145 28
150 146 28
149 146 22
152 149 22
148 144 22
158 152 42
152 148 28
145 142 0
161 155 45
154 149 32
157 153 22
149 145 22
156 151 28
154 149 36
147 142 28
157 152 22
154 149 28
156 152 22
153 148 28
153 149 32
153 147 36
152 149 16
153 147 42
152 148 36
152 148 28
151 147 28
154 150 22
154 149 0
152 148 36
150 145 22
154 149 22
149 144 22
153 149 32
155 150 32
151 146 39
158 154 36
153 147 36
147 144 22
151 148 32
155 150 28
155 150 39
150 147 16
153 148 32
153 149 16
149 145 22
148 142 36
154 150 28
148 144 36
152 147 42
147 142 36
142 139 32
144 141 28
141 138 0
138 133 0
144 141 22
141 136 28
136 132 16
150 145 22
147 142 32
150 144 22
146 142 39
138 135 16
132 128 16
129 126 0
149 143 32
141 136 32
130 125 28
134 127 39
115 111 28
126 121 22
152 167 16
173 192 0
169 190 0
168 186 0
169 191 0
170 190 0
168 189 0
172 195 0
169 191 0
173 194 0
169 190 0
169 189 0
169 187 0
164 181 0
172 194 0
171 193 0
169 191 0
170 191 0
173 195 0
172 193 0
171 191 0
168 189 0
170 192 0
167 189 0
172 195 0
174 193 0
172 195 0
170 190 0
165 189 0
170 193 0
168 190 0
173 195 0
167 189 0
170 193 0
172 192 0
169 192 0
175 197 0
169 190 0
170 192 0
172 195 0
173 196 0
168 188 0
173 193 0
173 194 0
170 192 0
171 194 0
172 193 0
173 197 0
172 196 0
172 196 0
174 198 0
173 197 0
174 197 0
170 195 0
172 196 0
171 195 0
173 197 0
173 196 0
173 196 0
172 195 0
173 196 0
169 193 0
172 195 0
171 194 0
176 199 0
173 197 0
174 197 0
170 193 0
171 195 0
172 196 0
174 197 0
172 196 0
172 196 0
174 198 0
173 196 0
174 197 0
173 197 0
172 195 0
172 195 0
176 198 0
173 196 0
177 199 0
175 198 0
174 197 0
171 194 0
175 198 0
174 197 0
172 195 0
173 197 0
174 197 0
167 191 0
170 194 0
172 196 0
172 195 0
173 195 0
175 198 0
173 197 0
176 198 0
172 196 0
171 194 0
172 195 0
170 193 0
170 194 0
171 193 0
167 189 0
173 196 0
172 194 0
172 196 0
173 196 0
172 195 0
169 192 0
172 196 0
169 191 0
172 196 0
170 193 0
170 193 0
170 193 0
174 197 0
172 195 0
173 196 0
173 196 0
172 196 0
167 190 0
175 198 0
171 195 0
171 194 0
169 191 0
169 192 0
174 197 0
166 190 0
171 194 0
172 195 0
169 191 0
173 196 0
170 193 0
174 196 0
167 190 0
174 197 0
170 194 0
169 192 0
166 190 0
171 194 0
174 196 0
172 195 0
171 193 0
168 191 0
165 189 0
169 192 0
165 188 0
165 189 0
167 191 0
169 193 0
172 196 0
169 192 0
165 188 0
166 188 0
170 193 0
166 189 0
167 190 0
167 190 0
167 190 0
171 192 0
165 188 0
167 191 0
167 191 0
170 194 0
166 186 0
168 191 0
166 188 0
165 188 0
170 193 0
165 188 0
170 192 0
169 191 0
167 190 0
173 194 0
166 189 0
167 192 0
172 194 0
164 186 0
160 183 0
168 192 0
160 182 0
163 186 0
164 187 0
160 182 0
168 191 0
157 180 0
166 188 0
163 187 0
159 183 0
162 184 0
168 191 0
167 190 0
170 193 0
159 182 0
163 186 0
165 189 0
162 185 0
158 180 0
160 181 0
156 177 0
167 188 0
155 178 0
164 186 0
165 186 0
161 182 0
156 178 0
158 180 0
168 191 0
156 178 0
160 183 0
158 178 0
156 178 0
152 173 0
161 182 0
163 185 0
161 182 0
157 177 0
156 177 0
151 173 0
152 174 0
155 177 0
146 167 0
170 191 0
155 175 0
166 187 0
154 175 0
149 171 0
159 181 0
155 177 0
158 180 0
152 171 0
160 181 0
149 170 0
156 178 0
155 176 0
151 172 0
163 185 0
154 176 0
150 170 0
165 188 0
159 179 0
154 176 0
156 178 0
154 175 0
158 179 0
154 175 0
162 183 0
150 173 0
154 176 0
150 170 0
154 173 0
146 163 0
140 157 0
164 187 0
159 178 0
153 173 0
152 172 0
152 170 0
148 166 0
146 163 0
143 161 0
155 174 0
153 173 0
148 165 0
147 167 0
143 164 0
157 173 0
153 171 0
148 167 0
152 172 0
158 176 0
147 168 0
151 163 0
152 172 0
157 176 0
147 164 0
146 164 0
152 172 0
147 164 0
147 165 0
151 170 0
157 173 0
144 158 0
153 172 0
145 162 0
159 180 0
150 167 0
146 164 0
146 162 0
160 179 0
144 161 0
151 172 0
148 168 0
152 170 0
140 156 0
149 163 0
129 142 0
114 111 16
108 104 16
117 113 23
118 117 25
122 121 25
121 119 19
119 116 34
123 121 34
121 118 22
121 119 0
128 123 28
139 134 47
140 138 0
131 129 19
141 138 27
143 140 16
141 137 28
150 145 32
144 140 28
146 141 28
149 144 39
145 140 39
156 150 42
154 149 22
148 144 16
145 141 32
153 149 39
143 139 22
145 143 16
147 143 16
152 147 32
157 152 42
149 145 28
145 140 22
156 152 39
155 149 36
151 146 22
149 145 28
149 144 22
155 150 39
152 147 22
150 146 32
153 150 22
152 149 0
154 149 32
151 149 28
152 146 22
146 142 22
145 141 32
146 143 16
154 148 36
157 153 32
152 149 28
151 146 32
153 147 22
157 152 39
150 147 32
153 149 22
151 148 28
146 141 0
157 153 32
158 153 42
149 145 32
155 150 39
150 145 45
154 150 32
151 148 22
157 152 36
150 146 28
151 146 32
155 150 28
154 148 36
156 150 36
155 150 39
155 151 32
158 151 48
145 143 32
146 140 28
148 143 32
142 138 22
153 149 32
144 138 36
146 142 16
149 144 28
140 135 28
151 146 36
150 145 32
141 136 28
141 136 28
131 127 32
140 136 32
138 132 28
141 137 28
139 134 28
137 131 32
132 130 0
132 130 16
136 132 32
129 124 36
117 114 28
120 119 28
170 191 0
167 187 0
171 189 0
166 185 0
167 187 0
170 191 0
168 187 0
169 190 0
167 187 0
170 194 0
170 192 0
169 191 0
172 194 0
172 193 0
171 193 0
167 187 0
170 193 0
172 193 0
172 191 0
171 195 0
170 191 0
169 189 0
171 193 0
172 195 0
174 194 0
169 191 0
169 190 0
171 194 0
173 193 0
170 191 0
170 193 0
170 193 0
172 193 0
171 192 0
172 193 0
170 192 0
169 191 0
171 193 0
170 192 0
170 193 0
173 195 0
169 189 0
172 195 0
171 195 0
172 194 0
173 194 0
173 196 0
173 197 0
174 197 0
175 198 0
171 194 0
173 197 0
174 197 0
174 197 0
173 195 0
173 197 0
172 195 0
175 197 0
172 197 0
171 195 0
172 195 0
174 197 0
170 195 0
170 194 0
172 194 0
171 195 0
174 197 0
172 196 0
172 196 0
173 195 0
174 197 0
176 199 0
173 196 0
174 197 0
172 196 0
172 196 0
172 195 0
173 196 0
172 196 0
175 197 0
171 195 0
174 198 0
172 196 0
174 197 0
170 193 0
172 196 0
173 196 0
174 197 0
173 196 0
175 198 0
168 191 0
172 196 0
166 190 0
168 191 0
170 195 0
168 193 0
174 198 0
172 194 0
173 197 0
172 194 0
169 194 0
175 198 0
173 196 0
173 197 0
172 196 0
173 195 0
171 194 0
172 195 0
169 192 0
170 192 0
174 197 0
166 189 0
172 195 0
171 195 0
171 193 0
167 191 0
169 192 0
164 188 0
170 192 0
167 190 0
169 193 0
170 194 0
170 194 0
172 195 0
167 191 0
170 193 0
170 194 0
171 195 0
169 193 0
167 191 0
171 194 0
169 192 0
165 187 0
168 192 0
167 190 0
163 187 0
172 195 0
168 192 0
168 191 0
166 188 0
170 194 0
174 196 0
167 190 0
173 196 0
172 195 0
175 198 0
171 193 0
169 192 0
173 195 0
166 189 0
165 189 0
169 192 0
173 196 0
170 193 0
169 192 0
168 191 0
167 189 0
169 192 0
167 190 0
166 187 0
167 191 0
162 186 0
169 193 0
169 193 0
167 190 0
166 189 0
166 188 0
169 193 0
161 183 0
167 190 0
166 190 0
164 188 0
162 184 0
165 189 0
168 191 0
166 189 0
171 193 0
165 187 0
166 191 0
166 189 0
168 191 0
156 178 0
171 195 0
170 192 0
164 186 0
159 183 0
165 188 0
165 188 0
163 186 0
159 182 0
171 194 0
162 185 0
161 183 0
156 180 0
165 187 0
157 180 0
165 188 0
161 182 0
161 183 0
160 181 0
156 180 0
154 175 0
165 188 0
159 182 0
163 185 0
153 175 0
157 179 0
157 178 0
157 178 0
158 182 0
161 183 0
161 184 0
162 186 0
168 190 0
157 179 0
160 182 0
167 190 0
160 182 0
160 182 0
152 174 0
160 183 0
159 182 0
163 183 0
155 175 0
151 172 0
149 169 0
154 176 0
157 180 0
160 182 0
158 178 0
171 194 0
158 179 0
151 171 0
159 180 0
155 176 0
164 185 0
160 182 0
154 173 0
163 184 0
156 178 0
152 174 0
157 177 0
137 157 0
151 171 0
158 179 0
155 176 0
156 178 0
159 180 0
153 174 0
162 182 0
160 180 0
162 182 0
160 180 0
156 177 0
153 173 0
160 179 0
147 166 0
159 179 0
146 165 0
154 174 0
160 180 0
150 170 0
155 175 0
150 172 0
146 164 0
161 181 0
155 175 0
157 177 0
151 172 0
157 176 0
158 175 0
159 177 0
153 171 0
161 181 0
156 175 0
152 172 0
151 170 0
147 167 0
156 173 0
148 169 0
154 171 0
158 178 0
156 175 0
149 167 0
161 180 0
147 164 0
153 174 0
160 177 0
153 170 0
141 156 0
157 177 0
158 175 0
142 157 0
143 158 0
150 169 0
150 168 0
148 164 0
143 157 0
136 151 0
108 102 22
112 107 16
99 99 16
115 113 19
107 104 16
116 113 25
127 123 30
127 125 16
133 128 16
141 137 42
136 133 22
134 130 32
140 137 22
128 124 28
137 133 34
139 135 28
146 141 32
141 138 32
148 144 28
148 144 32
140 137 16
148 142 16
146 142 22
148 144 36
151 146 22
151 146 22
146 142 22
153 148 32
148 144 0
151 147 28
145 143 0
153 149 32
139 134 16
149 146 22
150 146 22
153 148 42
152 149 22
152 148 22
152 148 22
149 146 22
144 140 36
156 151 28
155 150 36
147 142 28
148 143 22
148 146 22
146 142 22
152 148 32
150 147 28
152 148 22
159 154 36
147 144 22
154 149 32
152 148 36
154 149 32
154 148 28
153 150 22
148 143 22
159 155 39
157 152 28
154 150 39
156 151 39
155 150 39
141 138 22
154 150 28
150 145 0
155 150 36
154 150 22
146 140 16
150 145 28
151 146 22
146 142 22
147 143 36
141 138 16
155 151 32
140 136 28
149 145 32
144 139 22
150 146 22
146 142 36
152 146 28
145 141 28
145 140 32
147 142 16
151 145 22
147 143 28
143 138 22
142 137 22
140 136 28
144 139 28
148 143 28
137 134 16
143 139 22
134 130 22
133 130 22
123 121 22
134 130 22
129 125 28
130 126 28
126 122 16
132 137 22
171 188 0
166 185 0
166 184 0
166 185 0
170 190 0
166 185 0
174 196 0
172 193 0
168 187 0
169 189 0
164 184 0
170 189 0
170 189 0
167 187 0
166 187 0
167 186 0
168 190 0
166 188 0
170 191 0
170 188 0
171 194 0
170 192 0
165 185 0
170 193 0
173 195 0
172 195 0
171 189 0
173 195 0
170 193 0
173 193 0
170 190 0
168 187 0
170 192 0
170 190 0
173 194 0
168 190 0
173 195 0
170 191 0
171 192 0
173 195 0
172 195 0
172 194 0
173 192 0
169 190 0
174 194 0
171 194 0
172 194 0
171 195 0
173 196 0
175 197 0
175 197 0
174 197 0
172 196 0
172 195 0
174 197 0
171 194 0
174 197 0
171 195 0
172 196 0
173 196 0
175 197 0
171 194 0
172 195 0
175 198 0
174 198 0
176 199 0
173 195 0
175 198 0
171 195 0
171 194 0
173 196 0
172 194 0
172 196 0
171 196 0
169 193 0
173 197 0
173 196 0
174 196 0
173 197 0
174 197 0
174 197 0
171 193 0
173 197 0
174 197 0
171 195 0
174 196 0
173 195 0
173 197 0
171 195 0
172 195 0
173 196 0
172 195 0
171 194 0
171 195 0
171 195 0
172 195 0
171 195 0
170 193 0
167 190 0
170 192 0
171 195 0
172 196 0
172 196 0
172 197 0
174 197 0
173 197 0
170 193 0
167 192 0
172 195 0
169 192 0
173 197 0
169 193 0
170 195 0
171 193 0
172 196 0
172 196 0
173 195 0
174 197 0
173 196 0
174 198 0
170 194 0
167 190 0
167 190 0
168 191 0
170 193 0
169 192 0
174 198 0
164 188 0
171 195 0
169 192 0
170 193 0
164 188 0
171 194 0
172 194 0
174 196 0
172 195 0
173 195 0
169 193 0
170 193 0
171 193 0
167 191 0
164 187 0
167 191 0
171 194 0
169 192 0
167 191 0
171 195 0
168 191 0
168 192 0
168 191 0
171 195 0
169 194 0
164 187 0
171 194 0
171 194 0
171 195 0
173 197 0
164 188 0
166 188 0
170 194 0
173 196 0
174 197 0
171 194 0
169 192 0
169 192 0
168 192 0
171 195 0
168 191 0
173 194 0
168 190 0
169 193 0
168 191 0
167 191 0
169 191 0
165 189 0
171 195 0
164 187 0
162 185 0
163 186 0
163 188 0
162 185 0
161 185 0
168 191 0
165 189 0
164 186 0
165 187 0
160 184 0
168 191 0
168 191 0
166 190 0
167 190 0
165 188 0
163 183 0
162 185 0
162 185 0
157 179 0
167 190 0
164 185 0
161 185 0
155 178 0
150 171 0
161 183 0
166 188 0
161 183 0
164 186 0
159 180 0
160 181 0
155 177 0
164 187 0
163 184 0
165 187 0
164 185 0
162 182 0
158 180 0
163 185 0
155 177 0
157 179 0
154 177 0
162 184 0
158 182 0
160 183 0
156 179 0
156 178 0
153 176 0
155 176 0
152 174 0
162 184 0
149 170 0
156 177 0
161 184 0
160 182 0
158 180 0
162 185 0
157 179 0
152 174 0
142 163 0
163 184 0
159 180 0
158 181 0
154 176 0
165 185 0
151 170 0
161 183 0
162 183 0
151 174 0
154 176 0
152 171 0
150 171 0
162 184 0
161 180 0
148 169 0
151 171 0
147 167 0
162 183 0
152 172 0
161 181 0
162 182 0
162 184 0
147 168 0
143 163 0
149 168 0
138 157 0
153 172 0
156 175 0
152 169 0
154 172 0
164 183 0
158 178 0
159 180 0
138 154 0
158 175 0
162 183 0
150 170 0
159 179 0
155 173 0
158 175 0
148 167 0
158 177 0
159 180 0
146 165 0
150 168 0
153 175 0
151 169 0
154 172 0
156 174 0
156 171 0
165 184 0
154 175 0
149 164 0
146 164 0
150 169 0
157 178 0
152 171 0
152 172 0
150 167 0
153 168 0
151 164 0
151 170 0
136 149 0
105 100 16
104 102 11
104 103 16
112 111 25
115 111 20
115 112 25
110 108 16
135 131 22
138 134 19
127 125 16
133 130 22
148 143 42
143 139 28
147 141 36
140 137 16
144 140 22
145 142 28
143 138 28
142 138 32
146 142 22
149 145 32
133 129 22
144 141 16
146 141 16
148 143 32
149 144 28
145 140 39
147 143 32
146 140 32
152 148 32
144 140 22
148 145 22
148 145 28
152 147 36
142 139 22
149 145 36
158 153 28
146 140 22
153 149 39
145 141 16
155 152 22
151 147 36
155 151 32
146 142 16
154 150 22
150 145 22
152 147 28
150 147 32
155 151 22
153 149 32
145 142 0
150 145 22
152 147 36
149 146 32
149 145 32
157 153 28
151 146 28
150 146 39
156 151 36
147 142 22
151 146 28
155 150 32
155 151 16
152 147 22
149 145 22
155 150 36
141 136 16
145 139 32
145 140 28
148 145 16
152 148 22
154 150 22
146 142 22
149 146 36
154 149 39
150 147 22
154 148 36
143 140 32
152 145 45
151 147 22
152 147 39
150 147 32
143 138 22
145 140 36
137 133 28
140 135 0
139 135 22
147 142 36
139 135 28
150 144 42
143 139 0
138 135 22
140 137 28
134 131 32
125 121 32
126 123 16
130 126 28
124 122 22
122 118 16
121 116 28
145 159 16
169 187 0
165 185 0
166 184 0
169 189 0
166 179 0
164 181 0
168 188 0
168 189 0
166 186 0
170 190 0
172 194 0
166 185 0
172 192 0
168 188 0
169 191 0
170 192 0
169 190 0
173 193 0
167 186 0
171 191 0
166 188 0
176 197 0
171 192 0
170 191 0
169 192 0
173 191 0
170 191 0
175 194 0
171 190 0
168 190 0
169 192 0
169 189 0
169 191 0
171 193 0
171 193 0
166 187 0
170 191 0
172 194 0
171 192 0
170 191 0
172 193 0
173 196 0
172 193 0
171 192 0
170 193 0
170 191 0
169 192 0
174 197 0
175 198 0
174 198 0
172 197 0
175 198 0
173 196 0
173 197 0
174 196 0
173 196 0
174 197 0
174 197 0
174 197 0
174 196 0
172 196 0
171 194 0
173 196 0
175 196 0
169 194 0
174 198 0
174 197 0
173 195 0
172 196 0
171 194 0
170 194 0
173 197 0
172 195 0
173 196 0
171 195 0
173 197 0
172 195 0
172 195 0
174 197 0
170 193 0
172 196 0
174 197 0
172 196 0
170 194 0
175 198 0
172 196 0
171 195 0
171 195 0
172 195 0
174 197 0
169 193 0
172 195 0
173 196 0
170 192 0
168 192 0
172 196 0
171 194 0
173 197 0
174 196 0
169 193 0
171 194 0
172 195 0
173 195 0
174 197 0
171 195 0
169 193 0
172 195 0
168 193 0
171 196 0
171 194 0
174 197 0
173 197 0
170 193 0
172 195 0
172 195 0
173 196 0
174 198 0
171 194 0
174 197 0
171 195 0
172 195 0
173 195 0
168 190 0
171 193 0
169 193 0
165 188 0
170 193 0
169 194 0
175 198 0
170 194 0
173 194 0
172 194 0
170 193 0
172 196 0
165 189 0
171 195 0
169 192 0
170 192 0
172 195 0
171 196 0
171 194 0
168 192 0
169 192 0
170 193 0
165 189 0
166 189 0
167 191 0
170 193 0
166 191 0
166 189 0
167 190 0
170 193 0
173 196 0
171 193 0
166 187 0
163 187 0
168 192 0
168 193 0
172 195 0
167 190 0
169 192 0
165 189 0
171 195 0
163 187 0
171 194 0
167 191 0
166 189 0
167 189 0
169 193 0
166 190 0
166 189 0
160 183 0
167 189 0
167 190 0
165 188 0
166 190 0
169 191 0
167 188 0
166 189 0
171 192 0
164 187 0
163 186 0
161 184 0
164 186 0
164 187 0
171 194 0
166 191 0
162 186 0
166 188 0
163 186 0
159 181 0
164 187 0
166 189 0
167 190 0
166 190 0
161 183 0
167 188 0
166 188 0
164 187 0
165 187 0
157 180 0
164 187 0
166 189 0
160 183 0
159 182 0
163 185 0
165 187 0
166 189 0
157 179 0
155 176 0
156 180 0
158 180 0
159 182 0
162 184 0
154 177 0
165 187 0
153 176 0
161 183 0
162 184 0
160 184 0
167 190 0
158 181 0
164 186 0
157 179 0
165 188 0
168 191 0
160 182 0
158 179 0
157 179 0
155 178 0
158 180 0
157 180 0
157 179 0
155 177 0
160 184 0
162 184 0
158 176 0
153 175 0
153 174 0
164 183 0
154 173 0
162 184 0
151 172 0
158 179 0
152 173 0
157 178 0
163 185 0
159 180 0
155 177 0
150 170 0
147 166 0
157 177 0
156 177 0
156 176 0
161 182 0
160 180 0
157 180 0
158 178 0
156 178 0
153 175 0
156 174 0
158 179 0
160 176 0
159 179 0
165 185 0
159 178 0
156 176 0
154 174 0
160 180 0
169 189 0
160 181 0
155 174 0
159 180 0
156 174 0
160 180 0
157 178 0
153 173 0
156 177 0
152 173 0
152 169 0
157 176 0
146 163 0
158 177 0
144 162 0
157 174 0
146 163 0
150 164 0
156 172 0
157 176 0
151 168 0
151 170 0
155 173 0
154 172 0
151 167 0
144 160 0
154 168 0
148 164 0
156 170 0
131 135 11
97 94 6
107 107 0
114 111 16
121 115 22
122 120 25
116 114 28
109 108 16
132 129 22
136 132 38
130 126 28
134 131 22
139 134 0
129 126 22
127 123 22
142 138 28
143 140 22
137 134 28
141 138 22
139 135 32
151 147 36
148 143 45
135 132 22
145 142 28
150 146 22
153 147 39
147 144 28
152 149 16
145 141 0
154 148 39
149 144 28
141 137 22
149 144 28
150 147 32
151 147 22
153 148 36
147 144 0
156 151 36
153 148 42
151 146 28
151 147 28
153 149 42
155 150 32
148 144 28
158 154 32
151 145 28
148 143 22
154 151 28
150 148 16
154 149 32
153 148 22
156 152 28
147 144 16
155 151 16
158 152 32
149 145 42
151 147 36
146 142 22
151 146 28
148 145 16
150 145 28
149 146 36
150 146 28
154 149 36
151 148 16
155 150 36
154 149 36
152 149 22
155 151 42
150 147 32
156 151 32
146 142 16
147 145 16
149 144 32
149 144 28
151 146 16
149 146 32
149 147 28
151 146 28
144 140 32
144 140 32
143 138 36
157 152 32
145 141 32
149 146 32
152 146 45
151 146 32
138 134 28
143 139 22
140 136 32
142 138 28
145 142 22
142 136 28
144 139 32
133 128 36
138 134 36
139 134 45
141 136 32
115 111 28
118 115 32
115 110 16
165 185 0
171 190 0
164 183 0
165 185 0
167 187 0
169 189 0
167 189 0
167 189 0
173 196 0
168 187 0
168 187 0
167 186 0
172 192 0
169 190 0
173 193 0
170 190 0
173 194 0
171 193 0
163 183 0
174 194 0
170 191 0
169 191 0
165 186 0
164 184 0
165 187 0
170 189 0
165 186 0
164 186 0
170 192 0
173 196 0
169 190 0
169 191 0
169 190 0
171 194 0
171 191 0
174 194 0
169 189 0
171 193 0
171 193 0
172 195 0
171 194 0
169 191 0
174 196 0
174 195 0
171 194 0
174 196 0
171 194 0
167 189 0
172 195 0
172 196 0
175 198 0
172 196 0
173 197 0
175 198 0
172 195 0
172 195 0
172 196 0
171 194 0
172 196 0
174 195 0
175 198 0
170 195 0
176 198 0
173 196 0
173 197 0
172 196 0
171 194 0
174 195 0
173 196 0
175 198 0
173 197 0
174 197 0
169 192 0
173 196 0
171 194 0
174 197 0
174 197 0
170 193 0
173 197 0
172 196 0
173 196 0
173 196 0
173 196 0
173 196 0
174 198 0
175 198 0
174 198 0
172 196 0
171 195 0
171 195 0
172 196 0
171 195 0
170 193 0
172 195 0
172 195 0
171 194 0
173 197 0
173 197 0
172 196 0
170 194 0
175 198 0
174 198 0
173 195 0
174 197 0
173 197 0
171 194 0
171 195 0
173 196 0
174 195 0
171 195 0
173 196 0
171 194 0
171 194 0
172 195 0
172 196 0
167 190 0
175 198 0
166 190 0
169 193 0
172 195 0
173 196 0
165 189 0
171 195 0
171 193 0
169 192 0
175 198 0
170 194 0
172 196 0
174 196 0
171 194 0
172 194 0
172 196 0
169 192 0
171 194 0
170 193 0
170 194 0
170 192 0
166 191 0
172 195 0
168 191 0
174 196 0
171 194 0
169 192 0
172 195 0
166 190 0
169 193 0
171 194 0
166 189 0
167 190 0
172 196 0
171 195 0
170 193 0
165 188 0
164 188 0
164 188 0
170 192 0
168 191 0
163 186 0
162 185 0
169 193 0
168 192 0
162 186 0
174 196 0
165 188 0
164 187 0
170 193 0
160 181 0
166 189 0
168 191 0
166 190 0
168 191 0
170 194 0
167 192 0
164 188 0
169 193 0
171 194 0
169 192 0
166 189 0
169 192 0
166 189 0
163 186 0
168 192 0
166 189 0
165 188 0
166 187 0
168 191 0
165 189 0
160 182 0
162 183 0
169 190 0
163 188 0
155 178 0
162 186 0
160 185 0
164 186 0
160 184 0
157 180 0
163 184 0
161 185 0
166 188 0
160 181 0
164 187 0
160 183 0
164 187 0
159 182 0
157 179 0
167 189 0
155 178 0
163 185 0
163 185 0
164 186 0
166 188 0
160 180 0
166 187 0
160 182 0
151 171 0
165 189 0
161 186 0
168 191 0
163 184 0
157 179 0
167 190 0
160 181 0
157 179 0
162 185 0
153 177 0
156 180 0
156 176 0
153 174 0
160 181 0
153 175 0
158 180 0
160 182 0
151 172 0
163 186 0
156 177 0
159 181 0
158 179 0
159 182 0
160 181 0
161 183 0
155 176 0
146 166 0
143 165 0
155 177 0
162 183 0
154 175 0
153 174 0
151 172 0
148 170 0
165 185 0
159 180 0
157 177 0
148 168 0
157 177 0
153 174 0
153 170 0
159 178 0
164 185 0
159 181 0
164 185 0
162 180 0
167 187 0
158 179 0
155 172 0
157 177 0
160 180 0
150 169 0
150 169 0
161 181 0
155 175 0
154 174 0
150 166 0
153 173 0
152 170 0
156 176 0
152 170 0
158 177 0
147 164 0
155 174 0
146 163 0
156 173 0
153 170 0
154 174 0
158 177 0
153 170 0
165 184 0
153 170 0
159 177 0
151 168 0
153 169 0
159 177 0
144 159 0
147 164 0
157 174 0
153 171 0
145 158 0
148 164 0
149 164 0
112 123 0
99 96 16
105 101 19
111 108 0
118 113 16
115 113 16
125 123 16
121 117 22
126 122 19
137 134 37
127 124 28
133 130 0
137 132 39
127 124 30
144 138 36
142 139 22
146 143 39
140 138 0
135 131 25
142 138 28
138 135 22
139 133 22
148 145 32
147 142 16
150 145 22
145 141 22
157 151 36
142 137 28
149 145 28
146 141 28
150 145 32
151 147 28
154 148 16
144 140 0
151 148 36
145 140 32
149 142 22
153 148 22
144 139 22
154 151 22
153 148 36
150 144 28
151 146 32
154 151 36
156 151 28
153 147 39
153 148 28
158 153 42
154 149 32
150 145 0
146 141 22
152 150 22
151 149 28
151 147 36
152 148 22
155 150 32
151 147 32
144 141 16
150 146 36
150 145 22
150 146 28
155 149 32
146 141 22
150 146 36
152 147 32
157 153 32
151 148 22
146 142 22
149 144 22
144 139 28
151 147 32
148 144 28
147 141 32
146 141 28
151 145 39
150 144 45
150 147 28
152 148 28
143 139 22
144 140 28
142 139 22
148 144 32
150 146 36
145 140 45
139 134 39
143 138 36
142 137 22
147 143 32
140 136 22
144 139 28
152 148 42
136 134 22
142 137 28
141 137 22
147 142 36
148 143 28
126 121 16
121 117 28
130 126 32
121 117 28
123 125 16
172 191 0
163 181 0
166 184 0
169 186 0
171 191 0
170 190 0
165 184 0
165 183 0
168 188 0
169 191 0
167 188 0
165 185 0
169 187 0
172 194 0
171 193 0
171 190 0
171 192 0
172 193 0
170 190 0
170 191 0
171 189 0
170 191 0
168 189 0
170 191 0
172 191 0
170 189 0
171 191 0
167 186 0
171 193 0
171 193 0
171 191 0
170 192 0
174 195 0
164 185 0
171 193 0
170 192 0
174 196 0
170 192 0
172 193 0
171 193 0
170 192 0
164 184 0
171 192 0
170 192 0
173 196 0
172 195 0
173 194 0
173 194 0
172 195 0
174 198 0
173 196 0
171 195 0
172 196 0
172 194 0
175 198 0
172 196 0
172 195 0
170 194 0
170 195 0
174 197 0
173 196 0
169 193 0
171 196 0
170 193 0
174 197 0
170 192 0
170 195 0
172 195 0
172 197 0
174 197 0
174 198 0
171 196 0
175 198 0
175 198 0
170 193 0
169 193 0
170 194 0
172 195 0
174 197 0
170 193 0
172 196 0
172 196 0
174 198 0
175 197 0
172 196 0
173 197 0
173 196 0
170 194 0
175 197 0
173 196 0
175 197 0
173 196 0
172 196 0
171 195 0
171 195 0
169 192 0
171 196 0
170 194 0
169 192 0
171 194 0
172 194 0
171 195 0
172 195 0
170 194 0
171 195 0
173 196 0
171 194 0
170 194 0
175 198 0
170 194 0
170 194 0
173 196 0
171 194 0
172 193 0
171 194 0
173 196 0
171 195 0
170 193 0
171 195 0
173 196 0
169 192 0
172 196 0
174 197 0
174 196 0
172 196 0
172 196 0
171 196 0
171 195 0
168 192 0
171 195 0
164 188 0
170 193 0
172 194 0
165 189 0
170 194 0
164 187 0
172 193 0
174 197 0
172 194 0
168 192 0
167 190 0
173 196 0
164 187 0
172 194 0
171 194 0
169 193 0
170 192 0
171 196 0
169 193 0
169 192 0
171 194 0
165 189 0
172 195 0
167 191 0
172 195 0
166 188 0
168 191 0
168 191 0
170 193 0
167 191 0
171 192 0
171 195 0
171 195 0
168 190 0
168 191 0
171 193 0
167 190 0
170 193 0
170 190 0
169 192 0
171 194 0
168 192 0
164 187 0
165 190 0
169 192 0
168 192 0
164 186 0
166 189 0
167 189 0
164 187 0
164 187 0
163 186 0
165 188 0
164 184 0
169 193 0
164 186 0
172 195 0
165 187 0
170 193 0
159 181 0
162 184 0
169 192 0
168 191 0
159 180 0
165 187 0
151 173 0
165 187 0
166 189 0
157 180 0
161 184 0
167 190 0
165 188 0
167 190 0
167 189 0
165 187 0
160 183 0
165 188 0
159 182 0
164 186 0
163 187 0
160 183 0
163 185 0
155 177 0
153 175 0
163 185 0
157 180 0
165 188 0
167 190 0
169 191 0
156 178 0
164 187 0
160 182 0
155 175 0
162 187 0
154 178 0
164 185 0
157 180 0
151 171 0
169 190 0
163 184 0
160 182 0
155 177 0
150 169 0
162 182 0
149 169 0
157 180 0
162 186 0
150 173 0
163 184 0
158 180 0
157 179 0
163 183 0
160 182 0
160 180 0
146 166 0
162 183 0
158 181 0
160 183 0
152 171 0
155 179 0
152 173 0
161 184 0
155 175 0
151 170 0
166 188 0
154 174 0
159 180 0
152 174 0
152 170 0
157 175 0
155 172 0
160 179 0
164 184 0
162 183 0
156 174 0
163 184 0
146 167 0
158 180 0
148 166 0
158 176 0
161 181 0
153 169 0
160 180 0
167 188 0
163 179 0
152 168 0
153 171 0
162 182 0
159 178 0
157 175 0
156 174 0
151 167 0
156 175 0
160 179 0
158 176 0
165 182 0
157 177 0
147 166 0
153 170 0
148 163 0
161 180 0
145 162 0
156 171 0
155 174 0
147 160 0
162 175 0
145 158 0
146 163 0
141 154 0
121 125 0
117 113 19
104 102 0
112 109 0
110 109 11
121 119 19
118 115 5
126 124 22
138 132 32
137 133 28
126 120 28
133 129 30
135 130 16
139 136 39
145 140 28
140 137 22
144 139 32
138 135 28
146 141 32
143 140 22
144 140 22
143 139 0
147 143 22
146 142 36
150 145 28
141 138 28
149 144 22
144 139 16
152 147 32
145 140 39
150 144 32
136 133 22
148 144 28
156 152 39
137 132 36
147 143 22
151 147 16
153 149 22
146 141 16
145 140 22
148 143 39
151 145 32
158 153 36
154 149 36
147 142 22
154 150 28
150 145 32
154 148 39
152 149 22
149 145 28
154 148 32
150 146 22
158 153 32
149 143 36
149 146 28
154 150 39
149 147 16
152 147 0
157 151 48
152 147 22
150 145 22
151 147 22
151 145 39
153 149 42
152 148 22
149 143 28
147 143 28
149 144 32
148 144 36
150 144 28
159 154 32
151 147 28
146 142 39
151 147 32
151 148 28
148 144 32
143 138 22
143 139 36
152 147 32
150 144 42
144 138 42
155 150 45
146 142 16
155 150 39
136 131 16
142 138 36
138 135 36
145 141 32
123 118 32
137 132 16
134 131 22
139 135 22
135 130 32
134 129 28
136 132 0
121 119 16
134 130 16
128 123 32
115 111 16
128 123 28
140 151 16
167 184 0
167 185 0
167 184 0
167 188 0
169 186 0
163 181 0
171 190 0
170 191 0
172 194 0
164 185 0
166 184 0
167 186 0
171 192 0
170 190 0
168 188 0
167 188 0
174 195 0
171 191 0
170 191 0
168 187 0
173 195 0
170 192 0
171 192 0
166 188 0
167 188 0
171 193 0
172 195 0
170 192 0
170 191 0
174 192 0
169 189 0
171 195 0
172 192 0
170 190 0
170 193 0
171 192 0
170 192 0
172 191 0
173 195 0
172 193 0
167 186 0
174 197 0
168 190 0
170 192 0
172 192 0
169 192 0
172 194 0
174 195 0
174 196 0
171 194 0
172 196 0
173 196 0
175 198 0
175 198 0
170 193 0
173 197 0
175 197 0
173 197 0
174 197 0
171 195 0
173 197 0
174 197 0
173 196 0
171 195 0
174 196 0
174 198 0
174 197 0
173 196 0
173 197 0
171 195 0
174 197 0
172 196 0
172 196 0
174 197 0
174 197 0
175 198 0
175 198 0
171 194 0
173 197 0
174 196 0
174 198 0
168 193 0
171 194 0
171 195 0
173 195 0
169 193 0
172 195 0
174 197 0
172 194 0
173 197 0
173 197 0
174 196 0
172 195 0
174 198 0
172 195 0
172 194 0
170 193 0
173 196 0
170 194 0
171 194 0
169 193 0
171 195 0
171 195 0
170 192 0
171 194 0
170 195 0
172 197 0
169 194 0
174 198 0
172 196 0
175 198 0
173 196 0
174 198 0
174 197 0
173 195 0
174 197 0
170 194 0
172 194 0
169 192 0
171 193 0
172 195 0
174 197 0
174 197 0
170 192 0
169 193 0
170 193 0
169 191 0
172 195 0
171 196 0
168 192 0
171 194 0
171 193 0
167 190 0
172 194 0
169 192 0
171 194 0
174 197 0
169 192 0
164 188 0
172 196 0
171 193 0
173 197 0
169 192 0
168 191 0
168 191 0
167 190 0
175 198 0
173 196 0
166 189 0
171 193 0
169 193 0
167 191 0
167 191 0
170 194 0
172 195 0
171 194 0
173 196 0
167 190 0
163 185 0
168 191 0
173 196 0
172 196 0
168 190 0
172 194 0
172 196 0
163 185 0
168 192 0
170 193 0
168 192 0
169 194 0
171 194 0
167 189 0
166 189 0
170 193 0
166 189 0
168 192 0
172 195 0
165 187 0
169 193 0
161 183 0
167 190 0
163 187 0
166 190 0
164 187 0
165 187 0
161 183 0
164 188 0
166 189 0
166 188 0
165 188 0
163 185 0
160 184 0
165 188 0
169 191 0
170 192 0
164 187 0
165 187 0
155 177 0
160 182 0
162 186 0
163 186 0
161 182 0
166 189 0
163 186 0
168 189 0
169 191 0
162 183 0
161 181 0
158 179 0
165 187 0
159 182 0
157 179 0
162 185 0
156 179 0
155 177 0
155 177 0
151 171 0
156 178 0
164 186 0
147 170 0
153 175 0
164 186 0
155 176 0
159 182 0
160 181 0
157 179 0
159 180 0
161 185 0
156 177 0
164 184 0
155 175 0
156 178 0
155 176 0
161 183 0
159 180 0
153 175 0
167 189 0
155 174 0
158 179 0
159 181 0
154 177 0
152 171 0
154 174 0
159 180 0
160 181 0
151 171 0
157 179 0
160 177 0
161 183 0
157 177 0
162 184 0
161 180 0
158 181 0
150 171 0
162 181 0
154 175 0
160 178 0
152 171 0
159 181 0
154 174 0
158 179 0
155 175 0
148 168 0
159 178 0
163 185 0
157 175 0
154 171 0
165 186 0
157 174 0
158 177 0
156 175 0
156 173 0
162 183 0
166 184 0
150 170 0
156 176 0
152 170 0
153 172 0
160 179 0
168 187 0
156 174 0
159 177 0
155 174 0
147 167 0
148 170 0
156 173 0
155 174 0
160 179 0
154 171 0
161 179 0
151 166 0
147 159 0
152 169 0
156 172 0
157 173 0
150 166 0
149 165 0
156 172 0
159 176 0
103 105 0
105 103 19
107 103 19
119 115 16
123 121 11
117 116 28
108 105 16
121 118 37
125 121 30
114 112 28
133 128 22
136 131 22
127 124 22
134 129 41
136 131 16
145 140 32
149 144 39
138 135 32
148 144 28
146 141 22
149 144 28
147 144 16
144 138 22
146 141 16
149 144 22
134 130 22
151 145 45
149 145 28
147 143 28
142 136 22
147 145 28
143 139 28
150 146 32
149 145 22
148 145 28
145 141 0
150 146 22
153 148 32
143 139 0
151 146 16
147 144 22
150 147 22
147 144 28
153 149 22
147 145 0
152 148 22
152 149 22
143 139 28
153 147 36
148 144 22
152 148 0
152 148 42
146 144 0
156 152 22
153 148 0
151 146 28
150 146 16
148 144 22
146 143 22
151 147 28
152 147 22
155 149 16
148 144 16
149 145 28
149 145 22
151 146 32
153 149 22
147 141 28
138 134 16
155 150 42
147 143 22
151 146 32
149 146 16
153 147 16
142 138 0
154 149 36
153 148 36
149 144 28
151 147 22
150 144 36
147 142 28
148 143 28
144 139 22
139 136 22
146 142 22
146 143 16
144 140 36
148 145 28
142 139 32
136 132 22
144 138 32
146 143 28
134 130 32
145 139 22
135 128 36
137 133 32
122 118 16
120 115 28
121 116 28
118 114 16
167 185 0
170 189 0
170 188 0
170 190 0
169 189 0
170 189 0
167 185 0
168 186 0
169 189 0
168 185 0
175 193 0
162 182 0
172 190 0
169 191 0
170 190 0
166 184 0
168 188 0
168 188 0
164 184 0
165 182 0
169 189 0
168 185 0
164 183 0
169 192 0
175 196 0
168 190 0
169 191 0
167 187 0
167 189 0
171 194 0
170 191 0
169 191 0
170 191 0
171 192 0
169 189 0
171 193 0
170 189 0
168 189 0
168 190 0
173 195 0
173 191 0
172 194 0
170 192 0
171 192 0
173 193 0
167 189 0
173 194 0
171 193 0
170 194 0
173 197 0
174 197 0
172 196 0
170 194 0
172 196 0
173 197 0
174 197 0
174 197 0
173 196 0
174 197 0
175 197 0
174 197 0
176 198 0
172 195 0
170 193 0
172 196 0
173 197 0
172 196 0
171 194 0
172 197 0
174 197 0
172 196 0
174 196 0
173 197 0
175 197 0
173 197 0
174 196 0
173 197 0
171 195 0
172 195 0
170 193 0
171 195 0
172 196 0
173 196 0
173 197 0
171 195 0
173 195 0
175 197 0
173 197 0
170 194 0
170 194 0
175 198 0
174 197 0
171 195 0
172 195 0
174 197 0
173 196 0
175 198 0
175 198 0
172 196 0
169 193 0
170 194 0
172 196 0
171 195 0
170 193 0
172 195 0
172 196 0
170 194 0
171 195 0
174 197 0
170 194 0
172 194 0
172 195 0
174 198 0
171 195 0
173 196 0
170 193 0
169 193 0
173 196 0
172 196 0
172 196 0
170 194 0
172 195 0
172 195 0
174 196 0
171 194 0
174 197 0
172 195 0
172 196 0
174 197 0
168 191 0
168 191 0
172 196 0
172 195 0
171 195 0
172 194 0
172 195 0
167 191 0
169 193 0
174 197 0
173 194 0
167 190 0
169 191 0
171 194 0
172 195 0
174 196 0
168 190 0
173 196 0
172 194 0
170 195 0
175 197 0
166 189 0
165 190 0
169 192 0
166 188 0
170 193 0
165 189 0
167 190 0
173 196 0
169 192 0
173 196 0
169 193 0
170 193 0
167 189 0
171 195 0
171 194 0
162 184 0
173 195 0
167 189 0
166 190 0
164 187 0
171 194 0
167 190 0
173 195 0
164 188 0
162 185 0
168 190 0
169 191 0
167 190 0
164 186 0
163 186 0
162 185 0
170 193 0
168 191 0
165 187 0
167 189 0
169 192 0
166 188 0
164 186 0
170 191 0
164 187 0
166 189 0
164 188 0
170 193 0
166 188 0
163 185 0
167 190 0
160 183 0
155 179 0
167 190 0
164 186 0
166 189 0
169 192 0
162 185 0
160 184 0
160 183 0
163 187 0
163 185 0
166 189 0
165 188 0
169 192 0
163 184 0
160 183 0
162 185 0
157 178 0
162 186 0
166 188 0
164 187 0
168 192 0
164 186 0
161 185 0
155 177 0
155 177 0
154 176 0
158 181 0
162 183 0
166 188 0
160 182 0
161 183 0
159 181 0
155 175 0
165 187 0
161 184 0
160 183 0
161 182 0
158 178 0
160 183 0
154 174 0
167 189 0
160 181 0
162 183 0
164 184 0
159 182 0
159 183 0
164 186 0
161 183 0
156 177 0
159 182 0
164 186 0
157 176 0
159 181 0
163 184 0
160 181 0
157 178 0
158 177 0
150 172 0
157 177 0
154 174 0
159 180 0
157 178 0
159 180 0
165 186 0
155 175 0
155 176 0
159 179 0
159 180 0
163 184 0
161 181 0
157 175 0
166 185 0
158 181 0
166 184 0
151 170 0
155 176 0
151 171 0
154 175 0
162 181 0
151 170 0
155 177 0
161 183 0
161 179 0
156 173 0
154 174 0
154 174 0
151 168 0
150 166 0
151 170 0
139 156 0
153 168 0
159 177 0
157 172 0
156 172 0
158 176 0
155 171 0
153 171 0
146 164 0
146 163 0
153 170 0
148 163 0
145 160 0
152 164 0
108 109 16
103 99 0
109 106 0
107 103 11
111 108 5
131 127 34
126 123 34
114 113 19
141 137 30
142 138 36
133 131 28
141 138 32
141 136 32
137 134 32
139 134 32
142 138 28
133 130 0
150 145 36
147 144 22
142 139 22
140 133 28
144 139 28
147 141 32
142 138 22
147 143 16
141 139 28
150 147 16
149 144 28
143 138 16
148 145 28
150 146 16
148 145 32
146 142 28
153 150 28
140 136 16
149 143 22
149 143 22
151 146 22
147 144 22
151 147 28
147 143 0
155 150 28
149 143 22
148 144 32
149 144 32
151 147 32
154 149 39
154 149 32
151 148 32
146 141 22
152 147 36
153 147 36
156 151 32
151 146 32
149 145 22
150 146 32
148 141 42
149 144 22
152 146 32
149 144 32
150 147 22
150 145 28
143 139 36
153 149 32
154 149 36
151 147 28
146 143 28
150 147 28
149 145 28
150 146 32
148 142 36
155 149 32
153 149 22
152 146 28
146 142 22
145 139 22
148 143 36
149 146 28
152 148 22
149 143 28
154 149 28
146 141 28
141 138 22
147 141 28
140 137 22
145 140 28
144 140 32
136 131 22
138 134 22
133 126 28
137 133 28
135 131 16
138 133 28
141 139 16
133 129 22
130 124 32
130 126 32
120 116 16
120 117 22
128 127 22
165 183 0
167 184 0
164 184 0
170 191 0
168 186 0
170 189 0
166 184 0
170 191 0
165 183 0
168 187 0
167 188 0
170 191 0
168 187 0
165 183 0
161 179 0
168 187 0
167 186 0
165 184 0
164 185 0
167 188 0
169 190 0
172 194 0
165 185 0
172 192 0
174 191 0
172 190 0
168 188 0
171 195 0
171 191 0
169 191 0
172 191 0
167 188 0
173 194 0
171 190 0
175 195 0
169 191 0
169 190 0
167 188 0
167 189 0
173 195 0
173 193 0
173 195 0
172 193 0
171 191 0
176 197 0
173 196 0
169 190 0
169 189 0
169 189 0
173 196 0
174 196 0
173 197 0
174 197 0
174 196 0
170 195 0
174 198 0
172 196 0
174 197 0
175 197 0
170 194 0
170 194 0
176 198 0
173 197 0
172 197 0
172 197 0
174 197 0
173 196 0
171 195 0
173 197 0
173 197 0
173 196 0
173 196 0
170 193 0
173 196 0
168 192 0
175 197 0
175 198 0
169 191 0
171 194 0
170 193 0
176 198 0
173 196 0
173 196 0
171 195 0
174 197 0
175 198 0
171 195 0
172 195 0
172 195 0
175 198 0
171 194 0
171 193 0
173 195 0
172 195 0
175 198 0
170 193 0
172 194 0
173 196 0
170 194 0
174 197 0
171 195 0
174 197 0
170 193 0
174 197 0
172 196 0
169 191 0
173 196 0
172 196 0
173 195 0
174 197 0
176 198 0
172 197 0
170 193 0
171 194 0
170 193 0
172 196 0
169 191 0
167 190 0
168 192 0
173 195 0
171 194 0
174 196 0
173 195 0
169 193 0
171 194 0
170 194 0
168 190 0
171 196 0
173 196 0
176 198 0
175 198 0
169 193 0
169 193 0
171 194 0
172 195 0
171 192 0
170 192 0
170 194 0
169 194 0
171 194 0
171 195 0
174 197 0
170 194 0
170 195 0
168 192 0
170 193 0
173 195 0
172 195 0
167 191 0
170 195 0
170 193 0
170 193 0
170 195 0
174 197 0
171 193 0
168 191 0
168 192 0
170 193 0
167 190 0
170 194 0
169 192 0
165 188 0
173 195 0
169 192 0
171 193 0
167 192 0
166 188 0
170 192 0
169 193 0
169 193 0
166 188 0
169 193 0
171 192 0
170 192 0
162 186 0
169 194 0
166 190 0
168 191 0
168 192 0
166 189 0
166 189 0
167 190 0
166 189 0
169 192 0
164 187 0
162 186 0
167 191 0
163 186 0
168 189 0
161 184 0
165 188 0
163 186 0
162 184 0
160 182 0
166 188 0
167 189 0
157 179 0
162 184 0
147 168 0
164 186 0
171 194 0
164 184 0
164 188 0
165 188 0
165 188 0
166 189 0
162 184 0
162 185 0
155 176 0
164 187 0
164 188 0
166 190 0
162 184 0
158 182 0
163 185 0
157 180 0
162 184 0
159 182 0
167 191 0
157 181 0
162 183 0
168 192 0
159 182 0
165 188 0
165 188 0
160 183 0
163 186 0
167 190 0
164 185 0
163 185 0
161 183 0
162 184 0
166 188 0
161 183 0
154 175 0
166 187 0
162 184 0
153 173 0
162 183 0
165 188 0
159 181 0
163 184 0
162 184 0
161 182 0
159 180 0
162 184 0
152 172 0
164 183 0
155 178 0
154 172 0
153 174 0
159 180 0
163 184 0
148 169 0
160 180 0
158 177 0
156 179 0
160 181 0
152 172 0
166 184 0
146 163 0
157 177 0
157 177 0
150 169 0
157 177 0
159 178 0
149 168 0
156 177 0
164 181 0
152 171 0
155 172 0
157 178 0
154 173 0
157 178 0
156 175 0
162 180 0
154 171 0
164 181 0
146 163 0
165 188 0
156 174 0
144 160 0
160 177 0
160 179 0
156 175 0
157 176 0
147 163 0
147 164 0
153 168 0
156 175 0
148 164 0
155 170 0
147 165 0
158 174 0
151 168 0
158 177 0
152 169 0
154 169 0
150 164 0
147 159 0
111 106 16
100 96 0
105 101 19
120 116 16
124 120 19
105 102 22
113 111 22
111 108 25
135 131 28
142 136 34
123 119 25
133 130 16
132 126 22
129 126 30
137 134 32
142 136 28
136 134 16
132 129 16
142 137 28
142 137 32
137 132 16
145 140 22
139 135 32
145 141 32
148 144 28
142 136 32
146 142 0
145 142 28
152 146 28
150 143 42
148 144 36
147 142 32
155 149 28
149 144 32
152 147 36
151 147 22
144 142 22
147 143 16
159 154 22
150 146 28
151 147 22
145 142 0
153 149 22
150 147 0
150 145 42
153 148 22
148 145 16
151 148 16
153 148 32
152 147 22
149 147 16
151 146 16
155 151 32
154 149 36
150 146 22
155 149 32
155 150 36
145 141 22
153 148 28
155 150 42
148 145 32
148 144 22
156 151 32
156 151 36
151 148 0
144 141 22
155 151 28
155 149 39
149 147 16
152 147 28
153 149 28
150 147 22
152 147 28
144 140 16
145 141 22
150 145 32
155 149 42
149 144 36
143 139 16
157 152 45
146 141 22
148 144 32
146 142 22
146 142 16
142 138 22
145 142 0
151 147 32
136 131 36
144 139 36
129 126 0
135 130 36
135 131 22
135 132 22
139 134 32
132 128 28
125 121 16
125 120 16
124 119 32
123 118 32
154 164 22
163 182 0
172 191 0
168 187 0
170 191 0
167 184 0
168 188 0
170 189 0
167 185 0
167 186 0
169 189 0
167 187 0
171 192 0
170 190 0
164 181 0
168 187 0
168 188 0
165 185 0
171 190 0
168 189 0
172 194 0
172 193 0
168 187 0
169 187 0
163 182 0
172 194 0
171 191 0
172 192 0
166 189 0
170 191 0
173 195 0
171 190 0
167 188 0
170 193 0
174 197 0
168 190 0
172 193 0
171 194 0
172 192 0
171 193 0
172 193 0
172 193 0
169 190 0
174 196 0
172 194 0
172 194 0
171 193 0
171 193 0
173 196 0
171 194 0
173 196 0
171 195 0
174 197 0
174 198 0
171 195 0
173 196 0
173 197 0
172 196 0
172 196 0
173 197 0
171 195 0
172 196 0
173 196 0
171 195 0
173 196 0
173 196 0
176 198 0
172 195 0
175 198 0
174 197 0
173 196 0
174 198 0
174 198 0
171 194 0
172 196 0
172 196 0
175 198 0
172 197 0
171 195 0
174 197 0
171 196 0
172 195 0
172 196 0
174 197 0
172 196 0
174 196 0
174 197 0
174 196 0
172 195 0
171 194 0
173 197 0
172 196 0
173 196 0
173 196 0
173 196 0
173 195 0
172 195 0
173 196 0
173 196 0
175 197 0
172 195 0
171 196 0
172 194 0
174 197 0
172 196 0
172 196 0
174 197 0
173 197 0
172 197 0
171 194 0
171 195 0
170 194 0
172 195 0
172 195 0
173 196 0
173 196 0
170 194 0
170 194 0
171 195 0
175 198 0
168 191 0
170 191 0
172 195 0
172 196 0
167 191 0
170 195 0
168 192 0
170 193 0
172 195 0
173 195 0
170 193 0
171 194 0
171 195 0
171 194 0
168 190 0
173 196 0
170 193 0
170 193 0
173 196 0
169 192 0
169 194 0
167 191 0
168 191 0
163 185 0
169 192 0
170 194 0
169 192 0
169 192 0
167 190 0
175 196 0
172 193 0
172 196 0
167 190 0
171 196 0
170 194 0
161 185 0
169 192 0
169 192 0
170 193 0
172 196 0
160 183 0
171 194 0
163 187 0
168 191 0
168 191 0
171 194 0
167 190 0
169 193 0
170 194 0
170 193 0
170 194 0
171 193 0
166 188 0
160 183 0
170 193 0
165 188 0
162 186 0
169 192 0
170 194 0
166 187 0
161 184 0
169 192 0
162 186 0
166 190 0
167 191 0
169 191 0
168 192 0
164 189 0
173 195 0
163 186 0
167 190 0
164 188 0
166 188 0
168 191 0
168 191 0
165 188 0
172 196 0
167 189 0
166 187 0
171 192 0
152 175 0
161 183 0
160 182 0
155 179 0
166 190 0
163 185 0
168 189 0
166 187 0
157 177 0
166 189 0
169 191 0
166 188 0
163 184 0
163 186 0
163 185 0
161 182 0
164 187 0
161 184 0
153 176 0
163 186 0
162 183 0
154 176 0
158 182 0
162 186 0
156 178 0
159 181 0
156 178 0
167 189 0
152 175 0
156 179 0
158 180 0
157 177 0
165 188 0
163 186 0
159 182 0
157 180 0
149 168 0
162 184 0
167 187 0
161 182 0
161 181 0
162 182 0
158 180 0
163 186 0
157 177 0
161 182 0
161 182 0
155 176 0
146 165 0
153 174 0
149 169 0
158 180 0
154 177 0
166 188 0
159 177 0
154 172 0
156 175 0
163 185 0
152 172 0
163 184 0
156 174 0
158 177 0
158 178 0
165 182 0
149 170 0
154 173 0
161 178 0
161 180 0
155 171 0
166 185 0
155 174 0
155 175 0
159 179 0
152 169 0
159 177 0
163 180 0
156 176 0
151 170 0
163 183 0
152 173 0
152 170 0
161 179 0
157 176 0
151 168 0
158 180 0
150 167 0
152 169 0
155 175 0
156 171 0
155 176 0
147 161 0
156 172 0
153 167 0
158 173 0
150 170 0
159 177 0
164 182 0
147 162 0
151 167 0
146 158 0
153 168 16
92 88 0
95 92 0
107 104 26
115 110 16
119 116 25
118 114 16
121 120 22
124 120 22
127 124 30
135 129 25
138 134 28
131 128 16
137 132 36
136 131 28
143 137 16
139 135 22
135 131 16
155 150 36
142 136 28
149 145 28
147 144 28
144 139 32
146 141 32
144 140 28
139 134 28
148 145 28
144 139 32
147 143 22
139 136 22
146 141 28
155 149 39
148 143 32
150 145 22
147 142 16
144 140 16
142 138 16
152 148 28
157 152 36
154 149 22
153 148 16
152 147 28
153 147 42
151 146 22
151 146 28
148 143 22
151 146 22
154 149 32
149 145 32
149 143 0
145 141 28
147 143 22
150 146 16
152 148 22
152 148 22
154 148 36
147 142 28
147 144 36
155 151 28
155 151 22
153 149 36
152 147 22
154 149 32
148 145 22
145 141 28
152 147 16
147 142 16
151 146 42
156 150 22
152 147 22
151 146 32
150 146 42
150 147 28
150 146 22
155 151 32
150 145 28
148 144 22
153 148 39
151 145 32
149 145 22
150 145 28
146 141 22
142 139 28
134 131 22
143 137 45
147 142 22
139 135 36
150 144 32
144 138 36
146 141 42
147 142 36
130 126 22
130 125 22
131 126 22
127 124 22
140 133 32
128 125 16
120 117 0
135 129 36
130 126 22
156 169 22
166 183 0
165 183 0
164 184 0
169 187 0
169 189 0
169 187 0
172 193 0
168 188 0
172 189 0
170 191 0
166 188 0
165 184 0
170 188 0
170 189 0
169 188 0
169 190 0
169 188 0
171 192 0
167 187 0
170 190 0
168 186 0
170 191 0
171 192 0
169 187 0
167 186 0
167 187 0
167 187 0
169 190 0
167 187 0
168 188 0
168 191 0
172 193 0
170 190 0
173 193 0
166 186 0
170 193 0
172 192 0
170 192 0
171 193 0
166 188 0
171 192 0
173 195 0
173 195 0
175 194 0
174 196 0
170 192 0
171 193 0
171 194 0
166 187 0
172 196 0
175 198 0
173 197 0
174 197 0
170 194 0
173 196 0
171 194 0
172 195 0
172 196 0
173 197 0
173 196 0
173 196 0
175 198 0
174 196 0
174 196 0
171 195 0
172 196 0
171 194 0
175 198 0
173 197 0
170 193 0
171 195 0
170 195 0
172 194 0
173 197 0
172 196 0
173 196 0
173 196 0
170 194 0
175 197 0
174 197 0
171 195 0
175 197 0
174 197 0
173 197 0
173 196 0
172 196 0
174 197 0
175 198 0
174 198 0
172 195 0
171 195 0
172 195 0
173 195 0
175 197 0
167 190 0
167 190 0
174 197 0
171 195 0
174 197 0
174 197 0
174 197 0
173 197 0
171 195 0
173 196 0
173 196 0
171 194 0
171 195 0
173 196 0
173 196 0
167 191 0
171 194 0
169 193 0
169 193 0
173 197 0
172 196 0
170 193 0
174 196 0
176 199 0
173 197 0
170 192 0
164 187 0
168 191 0
173 197 0
165 188 0
171 195 0
168 191 0
167 190 0
166 190 0
169 192 0
168 191 0
172 194 0
171 195 0
166 190 0
167 190 0
173 194 0
169 192 0
170 193 0
173 196 0
171 194 0
171 194 0
168 192 0
165 189 0
169 192 0
171 194 0
174 197 0
173 196 0
168 191 0
165 187 0
169 191 0
173 196 0
170 194 0
173 197 0
171 194 0
169 192 0
172 196 0
168 192 0
173 196 0
167 190 0
164 188 0
164 189 0
163 187 0
167 191 0
167 191 0
173 197 0
168 191 0
167 191 0
170 193 0
171 195 0
171 192 0
171 194 0
159 183 0
167 190 0
169 191 0
169 193 0
172 194 0
168 191 0
166 191 0
168 191 0
164 186 0
168 192 0
164 186 0
160 184 0
166 190 0
167 191 0
169 192 0
169 192 0
163 187 0
167 188 0
168 190 0
171 194 0
151 172 0
167 190 0
162 186 0
165 189 0
170 191 0
167 189 0
166 189 0
166 188 0
162 183 0
166 189 0
159 182 0
169 192 0
169 191 0
166 189 0
164 185 0
166 188 0
163 186 0
161 184 0
170 194 0
160 182 0
166 188 0
165 187 0
159 183 0
166 190 0
165 189 0
162 183 0
163 186 0
171 192 0
163 186 0
164 186 0
163 185 0
163 185 0
163 185 0
161 183 0
164 186 0
165 188 0
163 186 0
156 175 0
163 186 0
169 190 0
159 181 0
164 186 0
162 185 0
161 183 0
163 186 0
161 184 0
164 186 0
159 179 0
164 187 0
164 185 0
170 191 0
159 181 0
161 182 0
156 176 0
160 182 0
163 184 0
158 179 0
157 177 0
160 181 0
160 180 0
150 170 0
164 185 0
153 172 0
147 166 0
161 182 0
162 181 0
152 174 0
161 182 0
155 175 0
166 187 0
160 180 0
157 177 0
155 174 0
149 168 0
157 175 0
161 182 0
156 176 0
141 161 0
162 181 0
151 169 0
159 178 0
148 169 0
156 171 0
152 172 0
149 170 0
149 168 0
153 169 0
158 174 0
164 184 0
152 171 0
149 168 0
163 183 0
160 181 0
159 179 0
149 166 0
153 173 0
154 174 0
159 176 0
154 169 0
141 159 0
150 166 0
150 166 0
154 172 0
149 167 0
148 164 0
143 157 0
143 159 0
149 165 0
157 170 0
149 160 0
105 100 0
112 108 0
111 106 0
124 122 0
127 122 30
113 110 23
133 128 16
123 119 19
132 128 11
126 123 0
141 136 16
140 135 22
141 135 32
145 141 32
134 131 0
136 131 32
134 131 25
137 132 28
146 140 28
147 142 32
151 146 28
148 143 22
137 131 16
156 150 42
144 141 16
145 140 16
143 140 28
148 143 16
145 142 28
152 147 28
150 145 22
146 142 16
155 149 39
146 143 28
154 149 39
152 148 32
146 142 22
147 142 28
151 148 22
154 150 32
153 148 36
150 146 32
153 148 28
154 152 22
152 147 22
151 147 0
156 151 28
150 147 22
154 149 36
145 140 22
153 148 36
152 148 36
149 146 22
152 149 36
151 147 28
153 147 22
159 154 39
155 149 42
148 143 28
150 146 28
152 147 32
155 151 42
152 147 39
151 146 28
152 147 32
152 149 28
147 144 32
156 151 42
153 146 36
146 141 36
143 140 28
145 143 16
142 138 16
149 146 0
146 142 0
147 142 0
151 146 16
150 144 28
150 144 28
142 138 36
149 144 22
148 145 22
150 144 48
140 137 28
147 141 42
132 128 22
145 141 16
142 136 16
140 135 28
150 146 36
136 131 32
142 137 32
138 131 36
133 126 32
128 124 28
131 127 22
126 121 28
132 124 32
121 117 0
160 175 0
164 183 0
168 184 0
170 190 0
167 187 0
168 185 0
164 181 0
169 190 0
164 180 0
166 184 0
169 183 0
165 186 0
167 185 0
169 187 0
172 193 0
167 187 0
166 188 0
173 192 0
170 190 0
172 192 0
173 194 0
169 189 0
170 188 0
172 192 0
170 192 0
169 190 0
172 193 0
172 191 0
173 195 0
170 189 0
172 195 0
168 188 0
172 192 0
172 192 0
166 186 0
171 192 0
171 193 0
173 195 0
169 191 0
168 187 0
172 193 0
172 193 0
174 196 0
168 189 0
172 192 0
173 196 0
169 190 0
170 192 0
173 194 0
167 186 0
176 197 0
173 197 0
173 196 0
175 198 0
175 197 0
171 195 0
172 197 0
167 191 0
171 195 0
173 197 0
172 196 0
174 196 0
173 196 0
174 198 0
174 198 0
175 198 0
171 195 0
171 195 0
173 196 0
171 195 0
171 196 0
175 198 0
173 196 0
171 194 0
172 195 0
174 197 0
170 193 0
173 197 0
174 197 0
173 197 0
171 194 0
171 194 0
171 195 0
174 198 0
172 194 0
175 197 0
172 196 0
174 197 0
171 194 0
173 196 0
169 193 0
174 197 0
174 197 0
172 195 0
172 196 0
170 194 0
170 191 0
171 195 0
172 195 0
172 196 0
171 195 0
175 198 0
172 195 0
171 195 0
171 195 0
172 196 0
170 195 0
172 194 0
171 194 0
169 193 0
169 193 0
173 197 0
172 195 0
172 196 0
175 198 0
170 193 0
172 196 0
172 195 0
172 196 0
172 195 0
173 196 0
173 197 0
173 195 0
173 195 0
169 192 0
171 195 0
171 194 0
174 197 0
174 197 0
170 194 0
170 194 0
173 197 0
168 193 0
172 195 0
175 198 0
170 193 0
171 194 0
172 196 0
171 193 0
172 195 0
174 197 0
170 193 0
167 191 0
171 195 0
170 194 0
171 194 0
164 188 0
171 194 0
172 194 0
170 192 0
165 187 0
170 193 0
168 192 0
168 192 0
167 190 0
172 195 0
173 195 0
169 192 0
171 193 0
169 192 0
170 193 0
167 189 0
164 186 0
167 190 0
168 190 0
167 191 0
170 194 0
166 190 0
171 195 0
173 196 0
170 194 0
169 192 0
170 193 0
166 189 0
169 192 0
167 192 0
169 193 0
162 185 0
158 180 0
167 190 0
172 194 0
162 185 0
171 195 0
170 191 0
167 191 0
162 185 0
164 187 0
167 189 0
168 189 0
171 194 0
173 196 0
166 188 0
171 194 0
168 189 0
166 188 0
160 182 0
164 187 0
168 190 0
161 182 0
159 181 0
164 187 0
165 187 0
162 183 0
160 183 0
167 188 0
164 186 0
169 191 0
158 181 0
168 190 0
169 191 0
171 194 0
161 184 0
162 183 0
161 183 0
165 188 0
159 181 0
160 178 0
160 182 0
161 184 0
167 189 0
162 183 0
165 187 0
160 183 0
156 180 0
164 186 0
164 187 0
158 179 0
166 189 0
162 184 0
161 183 0
165 187 0
165 186 0
166 188 0
163 183 0
160 182 0
156 176 0
163 185 0
161 183 0
157 177 0
170 189 0
164 185 0
155 175 0
155 177 0
162 183 0
155 177 0
157 178 0
160 179 0
166 187 0
155 176 0
160 181 0
167 190 0
166 186 0
155 176 0
159 178 0
158 179 0
158 180 0
161 182 0
164 185 0
152 171 0
160 180 0
160 180 0
153 171 0
163 181 0
158 177 0
159 180 0
158 176 0
165 184 0
149 169 0
169 188 0
161 180 0
155 173 0
160 181 0
155 175 0
158 177 0
161 179 0
161 180 0
153 169 0
157 176 0
152 170 0
164 186 0
155 174 0
151 166 0
149 170 0
152 167 0
169 189 0
161 176 0
161 180 0
156 173 0
153 172 0
153 170 0
163 179 0
154 170 0
159 179 0
150 166 0
151 168 0
154 172 0
138 149 0
153 170 0
158 173 0
145 158 0
142 152 11
116 112 19
109 107 22
111 108 19
118 112 25
125 120 30
118 115 16
115 112 0
119 116 16
127 124 22
130 123 32
133 128 19
138 134 32
135 130 19
132 127 32
140 136 22
144 139 32
139 135 28
132 129 0
144 138 30
142 137 36
140 135 32
150 146 45
142 138 16
139 134 32
149 144 22
152 148 28
145 141 22
147 143 28
149 144 32
150 145 16
148 143 22
151 146 28
147 144 28
142 139 0
150 147 22
156 152 28
148 144 16
149 144 22
152 148 22
155 150 16
156 151 36
156 152 36
150 145 28
148 144 16
151 148 32
142 138 22
157 152 39
150 147 28
149 145 16
158 153 36
153 148 36
148 141 22
154 149 36
159 152 36
152 147 36
145 142 16
148 144 16
152 148 28
154 148 28
155 149 22
148 144 36
141 135 28
152 147 36
149 145 28
153 147 36
153 148 39
154 150 28
139 135 0
152 147 39
138 135 16
151 145 28
155 148 36
149 144 39
153 148 16
149 145 42
139 136 32
151 147 39
143 138 22
146 141 32
152 145 36
150 145 32
137 134 16
148 145 16
148 145 36
140 135 32
151 144 28
140 135 22
136 131 22
135 132 16
133 129 28
131 126 0
136 131 0
144 139 36
120 117 22
133 127 32
127 122 28
127 125 22
119 113 22
107 107 16
170 186 0
170 190 0
161 178 0
171 188 0
162 181 0
165 182 0
168 186 0
173 193 0
159 177 0
167 186 0
165 181 0
169 188 0
171 193 0
166 186 0
171 194 0
169 187 0
165 183 0
170 190 0
167 187 0
168 187 0
172 192 0
168 190 0
172 193 0
167 186 0
170 190 0
169 190 0
170 189 0
165 184 0
168 186 0
173 194 0
171 194 0
168 189 0
167 187 0
171 190 0
170 192 0
173 194 0
175 196 0
171 193 0
170 192 0
174 197 0
172 195 0
170 189 0
176 198 0
173 195 0
177 199 0
173 195 0
174 194 0
171 192 0
167 189 0
172 195 0
174 197 0
173 196 0
173 196 0
172 196 0
174 197 0
172 195 0
175 198 0
172 196 0
172 195 0
172 195 0
173 196 0
174 197 0
171 195 0
173 196 0
171 195 0
171 194 0
167 191 0
174 196 0
174 197 0
172 195 0
171 195 0
172 195 0
176 198 0
176 198 0
174 198 0
170 193 0
170 193 0
172 195 0
176 198 0
173 196 0
174 198 0
173 196 0
171 194 0
175 197 0
172 196 0
172 195 0
173 196 0
170 194 0
173 196 0
172 196 0
172 196 0
175 197 0
168 192 0
173 195 0
175 198 0
175 197 0
172 196 0
170 194 0
168 192 0
174 197 0
170 195 0
171 193 0
175 198 0
171 194 0
173 196 0
174 198 0
170 193 0
172 196 0
169 192 0
171 194 0
169 193 0
172 197 0
167 190 0
171 194 0
169 193 0
174 198 0
173 196 0
172 196 0
176 199 0
164 188 0
174 197 0
168 191 0
169 193 0
169 193 0
166 188 0
173 195 0
171 194 0
173 196 0
168 191 0
174 197 0
168 192 0
173 197 0
171 194 0
168 192 0
174 197 0
169 192 0
173 196 0
170 194 0
172 196 0
173 196 0
172 195 0
173 197 0
173 195 0
172 196 0
171 194 0
169 192 0
168 192 0
172 193 0
168 192 0
168 190 0
171 195 0
170 192 0
169 192 0
169 192 0
172 194 0
169 192 0
167 190 0
167 191 0
162 185 0
169 191 0
170 193 0
169 192 0
172 192 0
166 189 0
171 194 0
161 184 0
173 195 0
174 197 0
169 191 0
169 192 0
166 188 0
172 195 0
163 186 0
170 192 0
170 192 0
162 186 0
163 186 0
170 194 0
167 191 0
165 189 0
176 198 0
165 187 0
169 193 0
165 188 0
168 192 0
163 187 0
160 184 0
167 191 0
166 190 0
164 187 0
165 187 0
168 190 0
166 189 0
165 189 0
164 185 0
168 191 0
165 188 0
163 188 0
171 193 0
164 186 0
164 187 0
161 184 0
172 195 0
168 191 0
162 184 0
165 188 0
162 184 0
160 183 0
164 187 0
164 184 0
162 183 0
165 187 0
164 187 0
171 194 0
169 190 0
158 180 0
167 191 0
168 191 0
162 184 0
166 189 0
162 183 0
162 184 0
150 171 0
164 187 0
165 186 0
165 185 0
159 181 0
169 192 0
166 188 0
166 186 0
160 183 0
165 186 0
153 176 0
169 193 0
167 190 0
167 189 0
158 179 0
162 182 0
164 186 0
160 183 0
157 177 0
158 180 0
163 185 0
159 180 0
160 184 0
164 185 0
162 184 0
163 184 0
159 180 0
151 173 0
154 174 0
160 181 0
157 180 0
158 178 0
161 183 0
152 170 0
158 179 0
161 182 0
162 185 0
166 186 0
156 178 0
155 175 0
154 173 0
163 180 0
157 179 0
163 183 0
160 180 0
163 181 0
162 183 0
163 182 0
161 181 0
165 185 0
153 172 0
154 172 0
163 183 0
160 178 0
165 185 0
158 177 0
156 175 0
153 171 0
157 177 0
160 177 0
156 175 0
157 174 0
155 174 0
152 166 0
157 173 0
155 171 0
153 171 0
159 177 0
157 173 0
158 176 0
150 166 0
156 176 0
152 166 0
160 175 0
153 169 0
154 168 0
147 159 0
153 165 0
127 137 0
102 100 0
102 99 0
106 102 16
120 117 19
110 108 16
131 127 21
129 126 26
124 121 32
137 132 28
130 127 22
131 128 16
132 130 28
135 132 0
139 134 28
136 133 34
135 130 22
150 145 36
130 125 0
135 131 22
141 138 32
140 136 28
148 143 28
151 146 32
149 144 28
148 144 28
147 143 16
145 141 0
149 146 16
156 151 28
149 142 32
148 144 36
152 148 28
153 149 28
146 140 16
152 145 32
149 143 28
145 142 16
149 145 22
151 144 32
151 147 22
152 148 16
158 152 39
154 151 22
150 145 22
154 148 22
153 148 28
154 149 28
151 146 28
152 147 16
148 143 22
156 150 39
154 148 32
150 146 22
157 151 28
152 147 22
157 151 39
150 145 16
150 145 16
152 148 32
154 148 39
149 145 22
155 149 28
150 147 16
150 145 28
150 146 28
149 145 28
154 150 28
150 147 22
150 145 0
144 139 16
149 143 39
146 142 32
146 142 32
146 141 32
150 144 28
144 138 22
151 144 39
148 144 22
134 130 28
146 142 22
144 139 16
144 140 28
149 144 39
137 134 16
151 146 32
141 137 28
143 137 28
140 136 16
144 140 28
135 132 28
136 132 22
143 138 28
134 130 32
122 119 16
134 129 28
139 133 36
124 120 28
123 118 22
128 136 0
165 183 0
163 181 0
169 191 0
169 187 0
169 186 0
163 180 0
168 185 0
169 188 0
166 187 0
167 185 0
175 197 0
170 190 0
169 190 0
167 187 0
172 191 0
167 189 0
169 186 0
169 189 0
166 184 0
170 190 0
173 192 0
163 183 0
174 194 0
171 193 0
170 191 0
171 192 0
169 191 0
170 192 0
170 192 0
164 184 0
167 189 0
165 186 0
170 191 0
169 189 0
169 190 0
169 191 0
175 195 0
170 190 0
170 193 0
171 190 0
173 194 0
170 191 0
172 194 0
170 191 0
169 192 0
167 189 0
169 191 0
172 194 0
173 194 0
171 193 0
173 196 0
174 196 0
172 195 0
174 197 0
176 198 0
174 197 0
174 197 0
174 197 0
174 197 0
171 195 0
174 197 0
174 197 0
171 196 0
177 199 0
174 197 0
171 194 0
176 199 0
170 194 0
172 195 0
172 196 0
174 196 0
175 198 0
171 195 0
172 195 0
172 195 0
172 196 0
171 196 0
173 197 0
170 194 0
172 196 0
169 193 0
172 196 0
173 196 0
173 197 0
173 196 0
172 195 0
171 193 0
172 196 0
171 194 0
173 196 0
172 196 0
173 195 0
171 195 0
173 197 0
173 196 0
173 196 0
170 194 0
171 195 0
169 194 0
172 196 0
173 196 0
169 192 0
173 196 0
172 196 0
173 197 0
171 195 0
172 196 0
172 196 0
170 192 0
173 195 0
173 197 0
173 197 0
169 193 0
173 196 0
171 195 0
169 192 0
172 196 0
172 195 0
172 196 0
173 197 0
172 195 0
169 193 0
170 193 0
175 198 0
169 192 0
169 193 0
171 195 0
170 194 0
170 194 0
171 194 0
174 198 0
171 194 0
173 196 0
174 196 0
168 192 0
174 196 0
170 193 0
170 193 0
173 197 0
168 192 0
170 194 0
169 193 0
169 191 0
174 197 0
166 190 0
172 195 0
169 192 0
171 193 0
171 194 0
164 188 0
171 194 0
171 193 0
174 197 0
169 191 0
168 189 0
170 192 0
170 193 0
167 191 0
171 193 0
166 190 0
173 196 0
168 191 0
167 191 0
173 194 0
172 195 0
166 189 0
169 192 0
165 188 0
165 188 0
163 186 0
170 192 0
170 192 0
169 191 0
170 193 0
165 187 0
172 196 0
168 191 0
162 185 0
169 192 0
167 189 0
166 190 0
165 187 0
172 194 0
164 187 0
174 196 0
162 184 0
168 191 0
162 184 0
168 190 0
157 180 0
167 189 0
165 189 0
172 195 0
165 189 0
166 189 0
165 187 0
159 181 0
171 194 0
169 191 0
168 191 0
164 188 0
161 184 0
163 184 0
158 182 0
164 187 0
164 188 0
159 181 0
167 190 0
159 183 0
163 184 0
168 191 0
168 191 0
162 184 0
167 190 0
161 184 0
160 181 0
165 186 0
164 186 0
159 182 0
169 190 0
168 190 0
156 177 0
161 184 0
159 181 0
165 187 0
167 191 0
162 184 0
160 182 0
162 183 0
161 182 0
157 179 0
165 187 0
161 183 0
165 187 0
167 188 0
161 182 0
161 184 0
157 177 0
158 180 0
166 188 0
156 177 0
157 177 0
161 184 0
167 190 0
159 182 0
162 183 0
165 186 0
152 174 0
162 182 0
161 182 0
160 183 0
161 182 0
158 179 0
157 178 0
163 183 0
154 173 0
163 183 0
157 177 0
163 184 0
156 175 0
151 172 0
164 186 0
166 187 0
159 180 0
157 177 0
156 176 0
160 181 0
155 176 0
163 184 0
156 174 0
163 183 0
159 177 0
164 183 0
169 187 0
150 170 0
165 186 0
166 188 0
157 179 0
153 170 0
154 169 0
160 179 0
161 179 0
156 175 0
161 178 0
151 170 0
160 178 0
156 175 0
152 168 0
150 166 0
146 162 0
154 169 0
144 160 0
160 177 0
155 173 0
144 160 0
142 158 0
151 166 0
149 165 0
153 162 0
155 171 0
125 131 0
98 93 0
108 104 19
113 109 16
118 114 16
117 112 16
114 110 22
125 122 16
134 130 28
133 130 22
137 133 28
127 124 25
131 126 22
129 123 28
127 123 22
143 139 22
137 133 28
136 131 22
144 138 22
137 134 16
146 142 36
143 141 0
152 146 42
146 142 16
134 130 22
142 136 16
153 149 28
149 145 36
149 143 28
148 145 28
146 142 0
149 145 28
144 141 22
149 144 32
149 144 28
152 147 28
149 144 22
140 137 22
149 146 22
155 150 28
148 146 0
148 143 28
152 145 22
157 152 28
156 152 39
151 147 22
152 148 22
150 145 0
147 144 16
152 148 22
157 151 39
153 148 28
155 150 32
152 148 22
155 150 32
153 148 36
153 146 39
153 148 22
150 146 28
150 145 0
155 152 32
150 146 28
149 144 36
152 147 32
151 147 22
151 147 16
154 149 22
151 147 32
150 145 28
155 151 28
150 145 28
150 145 36
149 146 28
148 142 39
141 137 32
149 146 32
137 133 28
143 137 28
147 141 32
144 140 22
148 143 32
143 140 32
152 148 45
144 140 22
147 140 36
146 141 16
150 146 22
152 146 36
144 141 16
152 146 48
145 139 28
148 143 36
138 133 22
142 136 32
130 126 28
120 115 28
113 110 0
113 109 16
128 125 16
161 177 16
169 188 0
166 185 0
169 188 0
165 183 0
165 182 0
166 185 0
167 184 0
157 175 0
164 181 0
168 188 0
168 187 0
165 183 0
162 181 0
167 187 0
170 187 0
169 191 0
162 180 0
165 184 0
172 192 0
170 191 0
169 189 0
169 190 0
171 191 0
170 192 0
167 186 0
170 192 0
172 191 0
166 186 0
170 194 0
173 194 0
172 193 0
172 191 0
174 193 0
170 191 0
172 193 0
171 193 0
166 186 0
167 188 0
172 193 0
169 189 0
171 191 0
169 189 0
173 192 0
172 192 0
173 195 0
171 190 0
173 193 0
170 194 0
168 190 0
165 187 0
173 197 0
176 198 0
174 196 0
173 197 0
173 196 0
174 197 0
175 198 0
174 196 0
173 197 0
171 194 0
172 196 0
173 196 0
174 197 0
174 197 0
173 197 0
172 197 0
172 196 0
168 192 0
171 195 0
174 198 0
174 198 0
169 192 0
174 198 0
174 197 0
172 196 0
172 196 0
174 198 0
169 193 0
173 197 0
171 195 0
173 196 0
169 192 0
172 196 0
170 193 0
174 196 0
173 196 0
174 196 0
173 196 0
173 195 0
174 198 0
173 196 0
171 195 0
177 199 0
173 196 0
173 197 0
171 195 0
173 196 0
174 197 0
173 196 0
172 196 0
175 197 0
168 193 0
169 192 0
173 196 0
174 196 0
174 197 0
169 192 0
172 195 0
175 197 0
174 197 0
172 196 0
173 197 0
171 194 0
172 196 0
170 196 0
174 197 0
174 196 0
172 195 0
169 194 0
172 195 0
167 192 0
170 194 0
171 194 0
169 193 0
169 193 0
171 194 0
173 196 0
173 195 0
169 192 0
171 194 0
173 197 0
170 193 0
169 193 0
165 186 0
169 194 0
172 196 0
172 197 0
170 193 0
173 196 0
169 193 0
170 193 0
169 193 0
165 189 0
168 192 0
169 193 0
170 194 0
168 191 0
169 192 0
170 193 0
172 196 0
173 195 0
165 188 0
170 192 0
169 191 0
171 195 0
170 193 0
171 194 0
172 192 0
170 194 0
168 191 0
172 194 0
169 192 0
167 191 0
170 192 0
167 190 0
171 195 0
172 195 0
173 195 0
164 187 0
169 192 0
165 189 0
162 184 0
167 189 0
169 193 0
173 196 0
170 193 0
169 193 0
165 188 0
171 193 0
168 190 0
162 185 0
168 191 0
167 191 0
164 186 0
160 183 0
170 193 0
163 187 0
166 189 0
165 188 0
165 187 0
173 194 0
160 181 0
166 190 0
166 188 0
169 192 0
164 186 0
168 189 0
163 186 0
165 188 0
167 191 0
170 194 0
167 190 0
162 184 0
172 193 0
170 193 0
161 185 0
165 187 0
162 184 0
167 189 0
166 187 0
168 190 0
163 185 0
169 191 0
168 190 0
161 186 0
167 189 0
163 186 0
165 187 0
168 188 0
162 184 0
165 187 0
165 188 0
159 181 0
166 190 0
161 184 0
162 185 0
162 185 0
163 186 0
158 181 0
155 179 0
166 188 0
161 184 0
167 189 0
159 181 0
159 182 0
170 192 0
162 183 0
163 184 0
167 188 0
161 182 0
169 193 0
159 183 0
163 186 0
161 181 0
164 184 0
163 185 0
162 182 0
168 190 0
159 182 0
155 176 0
156 177 0
154 176 0
168 187 0
161 182 0
160 180 0
160 182 0
149 171 0
170 191 0
165 186 0
162 182 0
163 186 0
161 181 0
161 180 0
164 185 0
160 180 0
159 179 0
151 171 0
163 184 0
164 185 0
157 177 0
166 187 0
165 188 0
162 182 0
152 172 0
163 184 0
168 187 0
164 185 0
159 181 0
158 176 0
159 178 0
168 187 0
157 174 0
159 179 0
156 176 0
158 178 0
155 173 0
156 173 0
158 175 0
158 175 0
152 169 0
148 165 0
146 162 0
154 173 0
148 164 0
159 174 0
152 166 0
145 161 0
150 165 0
150 166 0
152 167 0
121 126 0
100 96 16
103 98 7
99 97 22
117 112 28
111 108 22
131 127 23
127 121 22
135 130 30
127 123 16
139 135 25
139 134 32
130 125 28
123 119 16
142 137 39
144 140 16
128 124 28
139 134 32
147 141 36
143 137 33
143 137 16
144 139 16
143 137 28
150 143 39
142 138 22
142 138 0
147 142 22
148 144 28
145 140 32
153 146 36
148 144 22
145 140 32
148 143 0
156 152 28
152 147 28
148 145 22
157 151 36
143 138 22
150 145 32
151 148 36
157 151 28
154 148 36
143 139 16
158 153 32
149 146 32
153 148 28
150 146 22
145 142 16
153 148 22
148 143 32
148 144 28
151 145 28
148 145 22
154 150 28
159 154 36
151 145 28
152 146 28
143 136 32
158 153 32
149 144 32
159 154 36
154 150 28
153 147 28
140 135 16
152 148 36
148 142 22
148 143 32
154 149 28
148 144 28
152 149 28
150 146 28
147 141 28
136 133 36
144 141 0
143 139 28
142 138 28
138 134 22
145 141 22
149 142 28
142 139 28
150 146 22
134 130 22
149 144 36
151 145 32
148 144 32
143 138 22
144 140 22
145 141 36
145 142 16
141 136 22
145 140 36
143 137 32
136 132 16
124 120 32
127 123 16
137 131 39
124 120 28
123 118 36
120 118 0
167 184 0
165 181 0
171 190 0
169 189 0
168 187 0
169 190 0
165 181 0
167 185 0
168 187 0
166 184 0
170 189 0
162 181 0
171 191 0
173 193 0
169 189 0
169 190 0
163 183 0
174 196 0
169 189 0
169 191 0
172 192 0
167 185 0
168 189 0
167 189 0
171 194 0
171 192 0
169 189 0
167 186 0
174 196 0
171 192 0
172 194 0
172 192 0
170 190 0
173 194 0
167 188 0
173 194 0
174 194 0
173 194 0
173 195 0
171 194 0
171 190 0
171 193 0
172 193 0
171 195 0
169 192 0
171 195 0
171 193 0
162 183 0
173 194 0
171 191 0
173 193 0
171 195 0
170 194 0
171 194 0
170 194 0
168 193 0
173 197 0
172 196 0
173 196 0
170 193 0
173 196 0
172 194 0
173 197 0
173 196 0
171 193 0
171 193 0
176 199 0
172 196 0
171 195 0
174 198 0
175 198 0
172 195 0
171 194 0
176 198 0
175 198 0
173 196 0
171 194 0
171 195 0
171 196 0
173 196 0
173 196 0
168 192 0
172 195 0
175 198 0
177 199 0
173 197 0
174 196 0
172 196 0
168 191 0
174 197 0
173 196 0
173 197 0
175 198 0
173 197 0
173 196 0
171 195 0
173 197 0
174 197 0
166 189 0
174 197 0
169 193 0
169 193 0
172 196 0
172 195 0
174 197 0
170 195 0
172 196 0
173 197 0
173 196 0
171 195 0
172 195 0
174 196 0
170 193 0
174 197 0
167 189 0
172 196 0
169 193 0
174 196 0
170 194 0
174 197 0
174 198 0
170 193 0
171 194 0
173 196 0
173 196 0
169 193 0
171 194 0
169 192 0
169 193 0
170 193 0
172 195 0
170 193 0
171 194 0
168 192 0
171 196 0
170 194 0
170 194 0
175 198 0
174 197 0
171 194 0
169 192 0
172 196 0
171 195 0
164 187 0
169 193 0
171 193 0
173 196 0
168 193 0
173 196 0
173 196 0
173 196 0
168 191 0
172 195 0
166 188 0
170 192 0
163 186 0
169 191 0
170 192 0
168 189 0
171 195 0
167 190 0
164 188 0
164 187 0
163 187 0
171 195 0
167 190 0
169 191 0
170 192 0
166 188 0
170 194 0
167 189 0
171 193 0
164 186 0
166 189 0
169 193 0
165 189 0
168 191 0
175 197 0
166 190 0
166 190 0
167 189 0
166 190 0
166 189 0
169 192 0
163 186 0
169 193 0
164 187 0
169 189 0
169 193 0
167 190 0
164 187 0
162 186 0
167 190 0
168 190 0
168 190 0
166 187 0
170 193 0
166 189 0
167 190 0
167 191 0
163 186 0
169 191 0
170 193 0
165 190 0
166 188 0
166 188 0
162 186 0
155 179 0
162 183 0
166 188 0
166 189 0
157 181 0
168 191 0
164 186 0
169 191 0
167 191 0
163 185 0
169 192 0
165 188 0
169 191 0
160 183 0
166 188 0
160 183 0
168 191 0
171 193 0
160 182 0
162 185 0
166 189 0
164 186 0
158 180 0
149 170 0
168 190 0
162 184 0
165 186 0
160 183 0
149 170 0
159 179 0
165 187 0
155 177 0
156 178 0
163 186 0
164 186 0
163 185 0
158 177 0
165 186 0
163 184 0
160 180 0
161 184 0
163 185 0
155 176 0
154 173 0
162 181 0
157 177 0
159 182 0
159 181 0
165 186 0
163 184 0
158 178 0
163 184 0
165 185 0
156 176 0
163 186 0
157 180 0
161 183 0
156 172 0
164 182 0
154 172 0
165 187 0
167 188 0
158 178 0
156 176 0
156 177 0
165 187 0
160 177 0
158 178 0
159 179 0
165 185 0
164 183 0
166 186 0
153 172 0
155 174 0
154 174 0
154 170 0
161 178 0
163 183 0
154 172 0
158 175 0
156 174 0
161 180 0
156 174 0
160 177 0
161 181 0
160 177 0
166 181 0
152 168 0
153 170 0
154 167 0
149 164 0
151 165 0
150 164 0
155 171 0
118 120 0
107 103 18
113 109 0
124 118 16
119 116 11
123 119 0
129 125 16
126 124 11
130 127 28
124 119 22
128 121 25
124 119 28
128 125 16
128 124 22
132 128 34
140 135 28
143 140 22
133 129 0
149 144 22
140 135 16
140 134 16
145 141 32
141 137 28
150 147 16
154 150 16
146 143 32
146 141 28
151 146 36
152 147 36
145 139 22
150 143 39
152 149 28
144 141 16
149 144 32
152 145 32
144 141 22
142 137 0
147 143 22
149 146 16
149 144 36
147 142 28
152 147 32
152 148 22
149 144 16
154 150 28
149 145 16
154 145 39
151 147 0
147 142 28
153 148 28
154 150 22
149 145 0
156 149 39
152 148 16
150 145 22
150 146 32
151 146 32
153 148 32
153 148 28
149 145 16
151 148 32
150 146 36
148 142 22
149 146 28
150 146 36
151 147 16
151 147 16
141 137 22
151 147 22
143 140 16
148 142 28
152 146 32
137 133 22
148 143 36
144 139 22
151 147 22
142 140 0
143 139 16
151 145 32
145 139 28
143 138 16
139 135 16
137 132 16
142 135 28
139 135 39
140 136 22
138 133 32
152 145 32
136 132 22
137 132 28
126 123 22
135 131 22
140 137 22
123 118 22
133 129 16
116 110 28
130 125 36
122 116 22
137 146 0
161 177 0
165 185 0
162 178 0
166 181 0
166 187 0
168 185 0
164 182 0
166 183 0
170 188 0
166 184 0
173 192 0
168 187 0
169 189 0
172 191 0
166 185 0
170 188 0
168 186 0
163 182 0
171 192 0
170 191 0
167 187 0
173 192 0
172 192 0
171 192 0
167 188 0
171 190 0
172 194 0
172 194 0
172 193 0
171 188 0
167 188 0
170 190 0
173 191 0
169 188 0
170 190 0
174 194 0
172 194 0
168 187 0
172 192 0
172 193 0
172 191 0
168 190 0
170 189 0
170 193 0
169 189 0
171 193 0
171 193 0
168 190 0
173 196 0
175 196 0
172 192 0
173 197 0
174 196 0
173 196 0
173 197 0
174 197 0
174 197 0
174 197 0
174 198 0
174 196 0
175 198 0
173 196 0
173 196 0
173 197 0
172 196 0
174 198 0
172 195 0
174 197 0
173 197 0
174 198 0
175 198 0
170 195 0
167 191 0
171 195 0
173 195 0
171 195 0
171 195 0
172 195 0
171 194 0
174 197 0
168 193 0
169 192 0
172 196 0
172 195 0
172 196 0
173 196 0
172 195 0
173 197 0
176 197 0
171 195 0
173 196 0
167 190 0
172 195 0
174 197 0
174 197 0
170 195 0
174 197 0
174 197 0
172 196 0
171 194 0
169 193 0
172 196 0
175 198 0
171 194 0
173 195 0
173 196 0
169 191 0
171 195 0
175 198 0
172 196 0
176 199 0
173 196 0
168 193 0
170 193 0
171 194 0
174 197 0
174 198 0
169 193 0
176 198 0
172 194 0
175 198 0
170 194 0
170 192 0
171 194 0
170 194 0
174 197 0
170 194 0
172 196 0
171 195 0
171 193 0
172 195 0
172 196 0
172 196 0
174 197 0
173 195 0
174 197 0
172 196 0
170 192 0
175 197 0
172 196 0
170 193 0
172 195 0
173 196 0
169 191 0
172 195 0
173 196 0
172 196 0
170 194 0
166 189 0
171 194 0
170 193 0
173 197 0
164 187 0
174 197 0
169 192 0
167 191 0
168 193 0
170 193 0
166 189 0
169 193 0
169 191 0
171 195 0
171 195 0
171 195 0
169 192 0
167 190 0
168 192 0
167 189 0
170 191 0
171 194 0
170 191 0
168 192 0
171 194 0
171 192 0
170 194 0
169 192 0
168 192 0
171 195 0
167 190 0
169 193 0
166 190 0
169 193 0
163 185 0
163 187 0
172 193 0
165 188 0
169 193 0
169 191 0
169 191 0
168 191 0
173 195 0
169 191 0
166 189 0
167 190 0
171 194 0
167 189 0
166 189 0
159 182 0
168 192 0
168 189 0
166 189 0
169 191 0
165 187 0
167 190 0
167 188 0
157 181 0
157 180 0
168 191 0
158 179 0
164 188 0
162 186 0
161 185 0
163 185 0
164 185 0
170 191 0
166 187 0
162 185 0
158 181 0
170 192 0
157 178 0
171 194 0
161 184 0
161 184 0
168 191 0
162 185 0
164 185 0
166 187 0
165 188 0
170 193 0
158 181 0
163 186 0
168 190 0
155 178 0
167 188 0
150 175 0
162 185 0
165 185 0
158 179 0
160 182 0
163 185 0
162 183 0
163 186 0
160 179 0
162 184 0
161 182 0
161 182 0
154 176 0
163 182 0
160 182 0
157 176 0
159 181 0
157 178 0
168 190 0
158 177 0
169 191 0
164 183 0
163 184 0
168 190 0
162 183 0
160 178 0
165 186 0
160 181 0
160 181 0
166 186 0
167 188 0
159 180 0
154 172 0
163 182 0
162 181 0
159 177 0
161 181 0
159 179 0
165 183 0
158 177 0
163 184 0
163 184 0
153 173 0
154 174 0
166 184 0
159 176 0
159 178 0
155 175 0
159 178 0
158 175 0
157 173 0
157 174 0
156 170 0
159 177 0
152 167 0
145 160 0
161 180 0
157 174 0
150 165 0
156 174 0
150 169 0
159 175 0
160 173 0
144 159 0
157 175 0
160 175 0
153 170 0
120 120 16
108 104 0
109 106 0
104 101 11
124 119 27
121 117 14
129 122 11
128 126 22
129 123 23
140 134 37
135 131 32
146 142 32
144 137 28
138 136 16
142 136 32
138 132 22
139 135 22
139 136 0
142 137 22
148 143 32
144 140 16
149 144 42
138 134 22
152 148 36
142 137 22
145 141 32
138 134 36
144 139 22
145 140 32
141 136 16
142 139 22
151 148 16
149 145 22
147 142 22
147 141 28
152 149 32
148 144 16
156 150 45
144 140 22
150 143 28
155 149 28
153 149 32
150 146 16
149 146 16
154 148 36
150 147 36
151 148 16
149 145 32
154 151 28
148 145 16
153 148 16
146 141 22
152 148 28
151 146 16
151 147 22
153 148 39
141 139 28
147 142 16
143 142 0
153 148 28
146 141 16
150 145 16
151 146 32
146 143 16
148 143 36
140 135 0
150 145 16
151 146 16
143 139 32
145 141 32
152 146 28
151 146 36
143 140 32
137 133 0
149 145 32
146 143 16
147 142 0
147 142 32
142 136 28
146 141 28
154 150 39
148 143 22
149 143 22
142 137 28
133 126 28
133 129 22
141 137 28
137 132 22
132 129 0
139 135 28
133 128 22
141 137 32
121 118 0
128 124 22
133 129 39
115 110 16
105 102 22
118 113 16
147 155 0
164 182 0
165 182 0
160 176 0
170 190 0
162 180 0
160 178 0
170 187 0
166 183 0
166 182 0
170 188 0
169 189 0
166 186 0
170 189 0
170 191 0
170 190 0
165 186 0
168 186 0
171 192 0
171 192 0
170 188 0
173 193 0
171 191 0
166 183 0
173 192 0
172 191 0
172 192 0
165 185 0
171 191 0
168 190 0
170 189 0
172 194 0
169 188 0
168 190 0
172 191 0
172 193 0
173 193 0
168 188 0
169 190 0
168 191 0
170 189 0
171 192 0
171 194 0
166 188 0
174 195 0
171 194 0
168 190 0
171 193 0
167 188 0
174 197 0
172 193 0
170 192 0
171 195 0
175 198 0
171 195 0
171 194 0
171 194 0
174 197 0
174 198 0
172 196 0
171 195 0
169 192 0
173 196 0
174 197 0
171 194 0
174 196 0
171 194 0
172 196 0
169 192 0
174 197 0
172 196 0
170 194 0
172 196 0
174 198 0
174 198 0
175 197 0
177 199 0
174 197 0
175 198 0
172 196 0
175 196 0
171 195 0
172 196 0
174 196 0
170 195 0
170 195 0
172 196 0
174 196 0
174 196 0
174 196 0
172 196 0
172 195 0
173 195 0
169 192 0
173 196 0
176 199 0
172 196 0
174 197 0
170 193 0
170 195 0
171 195 0
168 192 0
173 197 0
173 196 0
172 196 0
171 195 0
169 192 0
168 191 0
172 196 0
170 194 0
176 198 0
175 197 0
168 192 0
172 196 0
170 193 0
172 196 0
176 198 0
171 195 0
166 189 0
172 194 0
169 192 0
168 191 0
172 194 0
170 194 0
168 192 0
169 192 0
171 195 0
172 195 0
168 192 0
170 193 0
173 197 0
173 196 0
171 195 0
170 192 0
173 196 0
172 196 0
173 195 0
171 195 0
172 195 0
168 192 0
173 196 0
169 192 0
170 193 0
172 194 0
172 196 0
168 192 0
167 192 0
174 198 0
170 194 0
173 195 0
172 194 0
166 188 0
172 196 0
171 194 0
171 194 0
175 198 0
169 192 0
171 193 0
169 192 0
169 191 0
171 195 0
166 189 0
170 194 0
171 194 0
161 183 0
165 188 0
174 195 0
172 195 0
168 190 0
169 193 0
172 195 0
163 186 0
172 196 0
173 196 0
172 195 0
162 185 0
169 192 0
167 191 0
169 191 0
166 188 0
168 190 0
170 193 0
170 194 0
175 197 0
169 192 0
168 191 0
168 192 0
164 186 0
160 182 0
169 191 0
170 192 0
172 195 0
165 187 0
170 193 0
164 184 0
167 188 0
175 198 0
170 194 0
169 191 0
172 193 0
165 187 0
167 191 0
166 189 0
167 188 0
165 188 0
163 186 0
169 190 0
161 185 0
173 195 0
165 188 0
166 188 0
167 188 0
165 188 0
161 183 0
165 186 0
168 191 0
166 187 0
166 189 0
167 192 0
165 187 0
164 187 0
169 192 0
166 188 0
170 192 0
161 183 0
160 182 0
167 189 0
170 193 0
159 180 0
165 186 0
164 186 0
163 184 0
164 188 0
156 178 0
165 186 0
160 183 0
166 187 0
172 194 0
166 187 0
166 186 0
161 182 0
160 181 0
156 180 0
160 179 0
167 186 0
161 181 0
170 189 0
161 182 0
163 185 0
155 177 0
166 187 0
162 182 0
162 183 0
159 179 0
161 179 0
161 183 0
163 185 0
160 180 0
160 180 0
167 185 0
163 183 0
168 190 0
165 184 0
164 185 0
164 186 0
163 184 0
163 183 0
165 185 0
158 178 0
157 178 0
153 172 0
166 185 0
154 175 0
169 190 0
161 180 0
155 170 0
157 174 0
160 178 0
157 177 0
163 182 0
152 167 0
148 167 0
156 170 0
154 174 0
166 185 0
154 173 0
159 177 0
152 168 0
149 166 0
163 183 0
161 179 0
159 177 0
159 176 0
160 173 0
156 173 0
154 172 0
154 171 0
152 167 0
149 168 0
152 168 0
150 163 0
153 165 0
110 108 22
116 112 25
113 108 0
116 111 22
119 116 5
125 120 22
120 116 16
117 115 22
124 119 22
135 132 25
135 131 22
124 121 28
134 131 16
149 144 32
140 137 16
145 140 28
142 139 32
145 142 22
134 130 22
147 142 22
151 145 22
136 133 22
148 145 32
150 146 32
146 142 28
146 140 32
150 145 22
144 140 0
146 143 0
150 143 36
147 143 22
150 145 28
143 139 22
148 142 32
156 152 36
139 134 32
146 141 22
147 142 32
153 147 22
150 146 28
148 144 22
141 139 16
150 145 28
145 141 16
145 142 16
149 142 39
150 145 0
156 150 32
151 145 32
145 142 0
145 142 22
148 143 16
150 146 16
148 144 16
154 149 39
152 148 32
144 141 28
151 147 28
148 147 0
155 149 32
153 149 32
155 150 45
151 148 22
148 142 28
148 144 0
155 152 32
148 144 22
150 145 22
151 145 28
155 151 28
146 142 22
150 146 32
151 146 22
149 145 16
131 127 22
147 143 22
146 141 36
141 135 22
150 145 32
147 141 39
147 143 16
143 139 16
144 138 28
143 139 28
137 133 32
138 134 28
128 125 28
148 142 36
139 133 16
134 129 22
134 130 22
125 122 16
135 131 36
130 126 16
134 131 16
120 116 16
130 126 22
121 118 32
168 186 0
165 178 0
168 185 0
168 179 0
166 183 0
161 178 0
169 186 0
165 182 0
172 190 0
167 187 0
166 185 0
167 186 0
172 192 0
170 192 0
168 188 0
168 188 0
169 186 0
173 194 0
170 188 0
169 187 0
169 188 0
171 190 0
171 190 0
169 190 0
165 184 0
173 193 0
172 193 0
170 189 0
170 191 0
169 187 0
167 189 0
172 193 0
171 193 0
171 190 0
171 191 0
174 194 0
170 190 0
171 192 0
173 194 0
171 191 0
167 185 0
171 192 0
168 191 0
171 191 0
169 191 0
173 195 0
170 191 0
174 196 0
173 195 0
172 193 0
172 195 0
169 191 0
173 196 0
173 196 0
173 196 0
174 198 0
172 196 0
173 197 0
175 198 0
171 195 0
170 193 0
171 195 0
170 195 0
175 198 0
172 196 0
171 195 0
174 197 0
173 196 0
173 197 0
172 195 0
173 197 0
175 198 0
176 199 0
173 196 0
170 193 0
173 197 0
168 192 0
173 197 0
172 196 0
174 196 0
170 194 0
170 192 0
172 195 0
176 198 0
172 195 0
173 196 0
169 192 0
171 195 0
172 197 0
171 195 0
171 194 0
169 193 0
174 197 0
172 195 0
172 196 0
172 195 0
170 193 0
169 193 0
175 197 0
176 198 0
173 197 0
167 190 0
173 196 0
169 193 0
170 195 0
169 192 0
174 197 0
175 198 0
175 198 0
169 192 0
172 195 0
174 196 0
175 198 0
165 189 0
171 196 0
173 195 0
169 192 0
168 192 0
173 196 0
173 197 0
172 196 0
167 190 0
170 193 0
171 194 0
171 195 0
172 196 0
170 194 0
173 196 0
170 193 0
171 194 0
171 195 0
171 195 0
170 193 0
172 196 0
175 198 0
171 194 0
173 197 0
174 197 0
168 191 0
168 191 0
172 195 0
170 193 0
170 193 0
169 193 0
173 197 0
169 192 0
170 195 0
173 195 0
168 191 0
171 194 0
169 191 0
171 195 0
172 194 0
170 194 0
171 193 0
169 192 0
168 192 0
173 196 0
158 181 0
172 195 0
175 197 0
174 197 0
168 191 0
169 192 0
171 194 0
170 193 0
174 197 0
168 191 0
175 197 0
172 195 0
174 197 0
170 194 0
168 191 0
168 193 0
169 193 0
169 193 0
165 188 0
170 194 0
168 191 0
171 195 0
171 194 0
172 194 0
167 191 0
168 191 0
169 193 0
166 190 0
164 186 0
165 187 0
171 194 0
168 191 0
163 186 0
161 185 0
165 189 0
167 189 0
163 186 0
162 185 0
169 192 0
171 195 0
166 187 0
162 185 0
158 181 0
165 186 0
171 192 0
169 192 0
163 187 0
166 189 0
167 190 0
168 190 0
163 185 0
170 192 0
168 187 0
165 188 0
164 187 0
169 192 0
166 188 0
163 187 0
168 192 0
158 180 0
163 187 0
168 191 0
165 187 0
164 186 0
161 182 0
166 188 0
159 180 0
169 192 0
163 182 0
162 184 0
160 181 0
166 187 0
162 183 0
156 176 0
160 182 0
169 191 0
159 180 0
162 184 0
160 184 0
161 185 0
168 190 0
171 193 0
168 191 0
169 190 0
160 182 0
165 187 0
165 187 0
168 188 0
161 183 0
158 181 0
162 183 0
161 180 0
161 182 0
165 185 0
156 175 0
159 178 0
164 186 0
158 178 0
156 177 0
162 182 0
161 183 0
165 186 0
161 180 0
164 185 0
159 181 0
166 188 0
164 183 0
159 178 0
166 184 0
160 178 0
161 180 0
160 178 0
160 179 0
161 180 0
165 183 0
158 177 0
168 185 0
159 177 0
165 186 0
168 189 0
161 180 0
158 179 0
155 175 0
166 186 0
160 180 0
154 174 0
160 176 0
164 183 0
155 169 0
148 166 0
161 179 0
157 175 0
159 177 0
154 172 0
155 171 0
160 177 0
154 170 0
146 158 0
162 180 0
162 181 0
148 165 0
157 171 0
149 166 0
141 153 0
109 104 28
112 109 16
114 111 0
105 102 11
117 112 16
118 115 0
127 123 28
135 130 32
133 129 16
124 119 30
143 138 28
135 131 16
138 133 30
134 128 25
142 137 36
141 137 22
140 136 22
138 133 16
144 139 28
146 141 22
147 143 28
143 138 22
148 144 32
146 141 32
140 135 22
150 143 36
144 139 36
144 140 32
143 138 28
149 144 28
151 148 16
150 145 28
153 148 28
151 148 22
141 137 16
153 148 22
149 145 22
143 139 16
147 143 16
146 142 28
151 145 32
148 144 28
152 147 22
154 149 22
155 149 32
151 143 36
149 145 28
145 142 0
153 150 28
149 146 22
157 152 36
140 137 16
149 145 32
148 143 28
152 146 36
146 141 28
149 144 22
153 147 28
147 143 22
151 147 16
151 146 22
147 143 22
145 141 32
144 139 28
145 140 16
154 149 32
145 141 22
156 150 22
150 145 28
146 141 28
150 147 22
150 147 36
144 141 16
147 142 32
146 142 22
144 140 32
145 141 22
144 140 32
148 143 28
147 142 36
144 140 32
140 135 28
145 140 28
145 140 32
134 130 28
135 131 22
140 135 32
135 131 16
133 130 16
135 131 16
144 138 28
129 127 28
121 116 36
138 131 32
121 117 28
132 128 28
120 115 28
125 130 0
158 175 0
167 187 0
164 181 0
173 193 0
159 177 0
168 187 0
170 188 0
167 185 0
166 183 0
170 186 0
171 188 0
169 188 0
172 193 0
170 189 0
159 176 0
172 193 0
172 191 0
171 189 0
170 188 0
160 181 0
174 195 0
170 190 0
172 191 0
169 191 0
173 193 0
168 188 0
168 187 0
167 185 0
164 184 0
168 186 0
169 190 0
173 193 0
167 189 0
170 191 0
168 189 0
170 192 0
171 189 0
170 192 0
170 191 0
168 189 0
172 191 0
171 193 0
171 191 0
172 192 0
170 189 0
172 193 0
170 189 0
169 191 0
173 197 0
170 192 0
172 195 0
171 192 0
170 195 0
171 195 0
173 195 0
173 196 0
173 197 0
167 191 0
175 198 0
172 196 0
173 195 0
174 197 0
172 196 0
174 197 0
170 195 0
170 193 0
174 196 0
173 196 0
173 196 0
175 198 0
173 197 0
169 193 0
176 198 0
174 197 0
174 197 0
172 196 0
171 194 0
174 197 0
174 197 0
171 194 0
172 196 0
173 197 0
172 195 0
172 196 0
171 195 0
171 195 0
173 196 0
173 196 0
172 195 0
169 193 0
172 195 0
172 195 0
176 198 0
174 197 0
172 194 0
171 194 0
172 195 0
172 195 0
174 197 0
171 194 0
175 198 0
173 197 0
171 195 0
172 196 0
174 196 0
170 193 0
175 198 0
168 191 0
174 197 0
171 193 0
173 196 0
174 197 0
171 193 0
169 193 0
171 195 0
173 196 0
172 196 0
170 194 0
167 189 0
170 194 0
170 194 0
173 195 0
172 194 0
165 190 0
175 198 0
174 196 0
174 197 0
168 190 0
171 193 0
170 194 0
170 194 0
167 191 0
174 196 0
172 196 0
172 196 0
169 192 0
173 196 0
167 191 0
168 192 0
171 195 0
173 195 0
171 195 0
169 193 0
169 193 0
175 197 0
169 193 0
167 190 0
170 190 0
170 193 0
173 196 0
169 193 0
172 196 0
174 197 0
172 193 0
172 195 0
169 193 0
170 192 0
169 191 0
170 193 0
165 188 0
173 196 0
165 188 0
168 192 0
173 196 0
171 194 0
169 192 0
168 191 0
169 191 0
170 192 0
170 193 0
170 193 0
172 195 0
165 189 0
169 192 0
172 195 0
172 194 0
169 193 0
167 190 0
171 195 0
169 192 0
169 193 0
168 191 0
172 194 0
171 195 0
167 189 0
162 185 0
172 195 0
165 188 0
168 191 0
167 191 0
166 187 0
172 194 0
164 182 0
164 186 0
165 188 0
171 193 0
169 192 0
167 190 0
167 189 0
168 191 0
167 190 0
171 195 0
174 195 0
168 191 0
168 190 0
165 189 0
163 183 0
168 191 0
157 179 0
166 187 0
166 187 0
158 182 0
165 189 0
164 186 0
165 187 0
166 188 0
164 187 0
162 184 0
161 183 0
163 186 0
163 185 0
168 189 0
168 191 0
165 188 0
167 188 0
171 192 0
161 182 0
161 183 0
169 190 0
166 188 0
168 192 0
165 189 0
170 192 0
168 191 0
166 190 0
162 185 0
162 183 0
162 183 0
166 186 0
168 190 0
165 187 0
165 187 0
166 187 0
162 183 0
163 183 0
160 180 0
158 177 0
159 181 0
166 187 0
159 181 0
166 184 0
164 182 0
159 180 0
163 183 0
160 181 0
165 186 0
165 185 0
170 191 0
166 183 0
161 181 0
158 178 0
154 176 0
160 182 0
162 183 0
169 189 0
160 181 0
163 182 0
163 182 0
163 182 0
165 186 0
164 183 0
162 182 0
153 172 0
149 168 0
161 180 0
155 172 0
157 176 0
165 182 0
163 181 0
148 165 0
161 180 0
151 168 0
155 177 0
161 179 0
161 180 0
160 179 0
161 177 0
163 182 0
146 164 0
154 173 0
160 177 0
160 179 0
164 179 0
155 172 0
149 167 0
158 173 0
157 171 0
143 156 0
155 174 0
148 165 0
156 172 0
151 166 0
112 109 0
110 104 19
113 109 0
116 113 0
112 110 0
127 122 16
126 122 32
122 118 32
123 120 19
123 120 25
127 124 28
131 126 28
140 134 36
133 128 32
147 141 36
140 136 16
138 134 22
138 135 28
134 129 22
130 125 22
139 133 16
144 139 28
148 143 16
151 147 36
146 141 32
151 147 32
152 146 16
146 143 16
144 139 22
147 143 32
149 145 28
153 148 32
142 139 28
153 148 16
153 148 39
143 139 28
145 140 39
148 143 22
147 143 22
152 147 22
152 147 32
147 143 28
144 138 28
147 143 28
148 142 32
146 141 0
151 146 22
146 142 16
150 146 22
147 140 0
148 143 22
145 141 32
149 143 28
148 144 22
155 150 36
150 145 32
150 146 16
147 143 36
155 149 32
151 145 28
148 143 22
158 152 39
152 148 32
140 133 16
148 144 0
151 148 28
136 131 22
146 141 16
148 143 28
150 146 16
143 140 36
151 144 32
145 140 22
144 138 22
146 143 0
142 137 32
149 145 28
149 145 36
139 135 32
146 142 22
142 137 16
130 127 16
143 139 22
146 141 28
139 135 22
143 138 32
141 136 36
139 133 32
146 139 36
142 138 32
139 134 28
124 121 22
119 115 0
136 132 0
113 110 22
121 118 0
107 103 0
157 169 0
160 176 0
165 183 0
164 179 0
159 176 0
169 186 0
163 179 0
165 182 0
165 182 0
167 186 0
171 191 0
168 185 0
168 183 0
163 181 0
169 189 0
166 186 0
169 187 0
167 186 0
167 186 0
173 194 0
169 190 0
166 186 0
165 184 0
170 190 0
169 189 0
171 189 0
168 189 0
170 191 0
167 186 0
174 193 0
172 192 0
172 193 0
174 194 0
166 189 0
169 188 0
171 192 0
173 192 0
170 190 0
167 189 0
170 191 0
170 192 0
175 195 0
171 192 0
171 194 0
168 190 0
167 188 0
169 190 0
167 187 0
171 193 0
173 192 0
170 194 0
171 190 0
170 192 0
171 194 0
170 192 0
174 197 0
174 197 0
171 195 0
171 195 0
171 194 0
172 196 0
174 198 0
175 198 0
173 196 0
172 194 0
167 190 0
169 193 0
171 194 0
171 194 0
175 198 0
174 198 0
172 195 0
170 194 0
170 193 0
171 194 0
172 195 0
173 197 0
172 195 0
170 194 0
174 197 0
172 194 0
173 197 0
172 194 0
173 196 0
169 194 0
176 198 0
175 198 0
173 197 0
174 197 0
172 196 0
174 197 0
172 195 0
174 198 0
175 197 0
173 196 0
174 197 0
172 196 0
173 197 0
171 193 0
173 196 0
171 195 0
174 197 0
171 194 0
172 195 0
171 195 0
171 193 0
172 196 0
172 196 0
171 193 0
175 197 0
175 198 0
173 197 0
170 193 0
167 191 0
174 197 0
174 198 0
175 197 0
173 197 0
172 196 0
169 193 0
172 194 0
169 193 0
174 197 0
172 195 0
174 196 0
170 194 0
169 192 0
173 196 0
172 195 0
174 197 0
170 194 0
169 192 0
168 192 0
173 197 0
168 190 0
167 190 0
173 196 0
170 195 0
170 194 0
173 197 0
171 195 0
169 192 0
173 197 0
172 196 0
171 194 0
172 196 0
174 195 0
171 196 0
172 195 0
173 196 0
170 193 0
173 196 0
169 192 0
173 195 0
171 192 0
170 193 0
174 197 0
168 191 0
171 195 0
171 195 0
169 192 0
169 193 0
168 193 0
172 195 0
173 197 0
169 193 0
165 190 0
174 195 0
169 193 0
166 188 0
175 197 0
172 193 0
169 193 0
169 192 0
166 189 0
172 195 0
172 196 0
165 189 0
172 194 0
169 193 0
173 197 0
161 184 0
169 192 0
172 194 0
172 196 0
166 190 0
168 189 0
170 194 0
169 191 0
170 193 0
169 193 0
168 190 0
167 190 0
168 191 0
170 193 0
167 188 0
168 191 0
162 182 0
160 180 0
165 189 0
168 192 0
166 189 0
168 191 0
166 190 0
164 186 0
167 191 0
162 184 0
167 191 0
167 189 0
166 190 0
154 177 0
163 186 0
171 194 0
166 189 0
163 184 0
169 193 0
166 189 0
163 187 0
159 180 0
161 184 0
165 187 0
163 185 0
164 187 0
170 193 0
168 189 0
168 190 0
172 194 0
168 190 0
154 175 0
164 187 0
162 184 0
170 194 0
165 186 0
164 188 0
167 191 0
164 187 0
162 185 0
164 186 0
163 184 0
165 188 0
156 178 0
159 181 0
163 183 0
156 176 0
163 185 0
164 184 0
158 179 0
159 179 0
162 181 0
164 187 0
167 188 0
155 177 0
156 176 0
168 188 0
161 181 0
164 182 0
163 183 0
167 187 0
156 177 0
162 184 0
158 178 0
166 188 0
157 173 0
159 180 0
161 179 0
160 180 0
161 185 0
164 184 0
164 184 0
162 184 0
163 183 0
159 177 0
163 184 0
158 180 0
162 181 0
154 173 0
157 175 0
163 185 0
162 183 0
165 185 0
162 178 0
165 183 0
161 180 0
156 175 0
154 174 0
153 172 0
155 176 0
162 182 0
150 165 0
153 170 0
167 185 0
160 178 0
158 179 0
158 174 0
159 177 0
147 164 0
149 165 0
161 175 0
156 170 0
155 170 0
155 170 0
153 167 0
150 165 0
112 113 0
100 96 11
96 91 5
123 118 16
121 115 34
125 121 11
125 123 22
125 121 11
128 122 39
133 130 0
134 130 32
128 124 16
132 128 32
134 130 32
135 132 16
140 136 28
132 129 25
142 134 22
144 138 28
152 146 36
139 134 28
149 145 28
144 139 28
144 138 28
153 147 32
149 144 39
145 142 0
149 144 39
150 146 16
149 144 22
147 142 28
152 148 32
151 146 16
139 135 28
151 147 39
144 138 22
146 143 16
147 141 45
149 146 22
149 144 28
149 144 22
153 148 22
148 145 28
154 149 32
149 145 22
149 145 32
151 147 28
145 140 22
152 147 22
156 151 39
146 143 22
152 149 36
146 142 16
153 147 32
151 146 22
156 151 36
151 145 0
150 144 32
158 153 28
147 141 28
150 146 32
144 139 22
149 145 28
150 144 32
144 139 16
147 143 28
150 146 28
154 148 28
145 141 28
142 140 32
146 141 16
156 150 36
147 142 36
145 141 22
156 151 32
145 140 22
150 144 32
148 144 16
142 138 22
140 138 28
146 143 22
140 135 22
143 139 22
146 141 28
139 135 28
141 137 28
144 140 28
137 133 22
138 133 32
139 134 36
140 135 28
126 123 16
118 114 16
129 124 16
125 120 22
119 114 28
118 114 22
159 174 16
169 184 0
157 171 0
164 183 0
166 182 0
163 176 0
164 183 0
169 189 0
165 183 0
166 182 0
166 183 0
170 188 0
166 184 0
171 189 0
173 189 0
171 189 0
169 185 0
170 191 0
166 185 0
167 185 0
168 189 0
159 176 0
170 189 0
172 191 0
170 190 0
169 190 0
168 191 0
170 189 0
167 187 0
165 182 0
171 191 0
169 190 0
170 189 0
169 188 0
169 191 0
174 194 0
171 192 0
167 187 0
163 185 0
167 187 0
168 188 0
170 194 0
173 194 0
169 193 0
173 193 0
172 194 0
171 190 0
171 189 0
172 194 0
171 192 0
172 194 0
171 193 0
169 188 0
173 196 0
174 198 0
171 195 0
174 197 0
173 196 0
170 193 0
175 198 0
173 196 0
172 195 0
174 198 0
172 196 0
173 196 0
174 197 0
174 197 0
172 196 0
174 197 0
173 197 0
173 197 0
173 196 0
171 195 0
173 196 0
173 196 0
172 197 0
175 198 0
170 192 0
173 197 0
172 195 0
173 196 0
173 197 0
174 197 0
174 197 0
172 197 0
172 196 0
172 196 0
176 198 0
170 195 0
172 194 0
171 194 0
171 194 0
174 197 0
171 195 0
171 194 0
173 196 0
172 194 0
169 191 0
174 197 0
171 195 0
173 196 0
174 198 0
172 196 0
170 192 0
171 195 0
171 194 0
172 197 0
172 195 0
170 194 0
172 195 0
171 194 0
170 193 0
170 193 0
174 196 0
171 195 0
171 195 0
173 195 0
173 195 0
173 197 0
169 193 0
168 193 0
168 192 0
173 196 0
172 195 0
174 197 0
172 195 0
172 194 0
174 197 0
174 197 0
173 196 0
170 194 0
171 194 0
169 192 0
170 193 0
170 194 0
174 197 0
171 194 0
165 190 0
172 195 0
169 192 0
165 190 0
169 193 0
172 196 0
175 198 0
174 196 0
171 193 0
165 189 0
169 192 0
167 191 0
168 191 0
172 195 0
172 195 0
168 192 0
171 194 0
170 193 0
171 194 0
174 196 0
169 193 0
172 195 0
170 194 0
169 192 0
172 195 0
166 188 0
168 190 0
165 187 0
169 192 0
164 188 0
166 190 0
171 195 0
166 190 0
174 196 0
170 194 0
168 192 0
166 189 0
168 192 0
169 192 0
165 187 0
163 187 0
174 196 0
169 192 0
170 194 0
167 189 0
169 193 0
168 191 0
164 188 0
168 190 0
170 193 0
169 191 0
172 194 0
169 193 0
165 189 0
170 194 0
167 191 0
167 191 0
166 189 0
163 185 0
162 184 0
166 189 0
170 193 0
170 194 0
162 184 0
169 192 0
167 189 0
170 191 0
167 190 0
163 185 0
166 187 0
164 185 0
162 184 0
171 194 0
169 191 0
165 189 0
168 191 0
167 190 0
168 191 0
166 188 0
163 183 0
167 189 0
161 182 0
166 188 0
165 188 0
153 175 0
165 187 0
164 186 0
170 193 0
163 185 0
165 187 0
163 184 0
164 187 0
164 188 0
166 187 0
156 177 0
159 182 0
163 185 0
170 193 0
169 191 0
165 187 0
169 191 0
161 183 0
165 186 0
160 180 0
167 189 0
160 181 0
163 184 0
159 181 0
164 185 0
164 184 0
163 183 0
169 189 0
163 187 0
163 185 0
165 185 0
168 190 0
161 182 0
163 185 0
163 186 0
158 173 0
158 179 0
160 179 0
167 189 0
161 179 0
161 183 0
156 176 0
167 187 0
162 184 0
163 182 0
168 190 0
153 171 0
153 171 0
160 181 0
162 181 0
165 185 0
162 184 0
168 187 0
166 186 0
165 184 0
168 190 0
156 174 0
164 182 0
169 187 0
158 175 0
165 185 0
158 177 0
164 183 0
165 185 0
161 178 0
160 179 0
156 173 0
162 177 0
157 173 0
150 167 0
157 177 0
159 176 0
163 180 0
159 176 0
160 177 0
155 168 0
155 170 0
150 164 0
162 180 0
152 169 0
151 169 0
156 172 0
93 89 0
107 102 28
103 101 22
105 102 11
115 111 16
116 113 19
134 129 28
138 131 28
127 122 28
127 124 0
132 127 28
146 140 16
146 141 39
140 136 22
140 134 22
141 138 0
141 138 22
147 143 32
143 138 16
142 138 28
142 137 22
145 140 16
153 149 39
146 140 28
142 136 22
148 143 16
149 144 28
146 143 22
140 134 32
136 132 22
153 148 39
147 143 36
152 148 28
146 140 36
148 143 22
154 149 22
150 145 32
154 149 28
151 144 28
141 137 22
154 150 36
144 139 16
148 143 28
156 149 45
152 145 36
151 146 32
148 144 0
145 141 16
149 143 22
147 143 16
151 145 39
147 144 22
150 147 28
149 143 28
148 145 28
156 151 0
156 151 32
145 139 22
150 146 32
147 143 22
148 144 22
154 149 32
149 143 28
160 155 32
150 146 28
148 143 22
151 146 32
148 142 28
153 148 32
142 138 22
146 142 0
143 140 22
146 142 0
152 148 22
150 144 36
152 148 32
144 141 36
148 143 22
138 133 28
149 144 39
140 134 28
138 135 22
153 145 39
146 140 32
149 144 39
128 125 22
139 134 28
143 139 22
142 137 28
130 124 32
143 137 28
132 126 0
131 126 28
135 130 39
123 119 22
122 117 22
134 134 22
163 176 0
169 185 0
163 178 0
168 183 0
166 181 0
162 177 0
166 185 0
170 189 0
166 181 0
166 186 0
167 184 0
172 192 0
167 182 0
167 186 0
170 189 0
165 184 0
172 191 0
171 191 0
164 181 0
167 187 0
171 189 0
170 191 0
174 194 0
172 191 0
172 192 0
170 191 0
168 188 0
173 193 0
170 193 0
163 182 0
170 190 0
168 186 0
171 193 0
171 193 0
165 184 0
168 191 0
171 192 0
169 189 0
168 189 0
172 192 0
174 193 0
166 188 0
170 192 0
167 189 0
172 193 0
173 195 0
168 189 0
168 187 0
169 191 0
170 192 0
173 194 0
175 197 0
168 188 0
178 199 0
173 197 0
176 198 0
175 198 0
175 198 0
172 196 0
173 196 0
172 197 0
176 199 0
174 196 0
174 198 0
170 195 0
173 195 0
172 196 0
172 195 0
173 196 0
175 198 0
175 198 0
173 197 0
175 197 0
173 197 0
173 195 0
173 197 0
173 196 0
172 194 0
173 196 0
174 197 0
173 196 0
173 195 0
173 196 0
173 196 0
172 196 0
173 196 0
171 194 0
175 197 0
174 196 0
171 195 0
173 197 0
169 193 0
175 197 0
172 196 0
171 195 0
171 194 0
174 197 0
172 196 0
173 196 0
172 195 0
174 197 0
173 196 0
171 195 0
173 196 0
170 195 0
174 197 0
174 197 0
173 197 0
174 198 0
173 197 0
170 193 0
176 199 0
171 193 0
172 196 0
170 194 0
171 194 0
172 195 0
170 194 0
174 197 0
169 193 0
172 196 0
172 194 0
174 197 0
174 197 0
168 191 0
173 197 0
166 190 0
170 193 0
171 196 0
169 192 0
169 193 0
174 197 0
170 193 0
175 197 0
170 192 0
174 197 0
170 193 0
170 194 0
168 191 0
173 196 0
169 192 0
175 197 0
174 198 0
169 192 0
169 193 0
171 194 0
171 196 0
173 195 0
168 190 0
171 193 0
170 192 0
171 194 0
172 194 0
170 194 0
172 196 0
172 194 0
170 194 0
171 194 0
174 197 0
170 192 0
168 190 0
173 197 0
172 196 0
168 190 0
170 193 0
168 191 0
166 190 0
170 193 0
170 194 0
170 193 0
168 191 0
170 194 0
169 193 0
169 194 0
172 195 0
169 193 0
170 193 0
171 192 0
170 192 0
167 191 0
160 183 0
167 189 0
171 194 0
170 193 0
170 192 0
167 189 0
169 192 0
168 191 0
172 196 0
167 189 0
166 187 0
169 191 0
165 188 0
167 190 0
164 187 0
171 192 0
161 184 0
168 190 0
169 193 0
164 187 0
167 188 0
167 188 0
168 191 0
171 195 0
165 189 0
167 189 0
171 193 0
169 190 0
165 188 0
165 187 0
166 189 0
169 192 0
166 188 0
165 186 0
170 193 0
169 192 0
163 186 0
164 187 0
165 187 0
158 180 0
169 193 0
166 187 0
167 189 0
154 176 0
159 180 0
159 180 0
170 193 0
170 191 0
160 182 0
166 187 0
169 192 0
169 193 0
158 180 0
171 194 0
165 187 0
167 190 0
157 178 0
172 192 0
163 186 0
161 182 0
159 180 0
169 192 0
170 194 0
170 193 0
166 188 0
160 182 0
167 189 0
162 183 0
155 177 0
164 186 0
164 185 0
164 184 0
157 179 0
161 184 0
169 190 0
162 182 0
167 186 0
165 189 0
160 179 0
165 189 0
166 186 0
162 182 0
158 180 0
164 184 0
161 182 0
157 175 0
156 177 0
170 190 0
162 183 0
158 176 0
159 177 0
163 184 0
160 180 0
164 182 0
164 185 0
165 181 0
166 187 0
155 172 0
164 186 0
163 182 0
162 181 0
163 182 0
151 168 0
162 179 0
157 177 0
155 175 0
168 188 0
166 186 0
163 182 0
161 178 0
166 183 0
162 179 0
163 180 0
151 166 0
160 176 0
157 175 0
161 177 0
156 169 0
156 171 0
156 172 0
155 172 0
150 167 0
153 168 0
134 137 0
102 97 0
111 107 0
119 113 16
108 104 19
109 107 11
117 113 19
121 115 0
132 125 22
129 125 16
133 128 32
130 126 16
134 131 22
132 127 28
134 130 16
135 132 22
132 128 22
135 129 16
141 138 22
140 136 32
143 139 22
142 137 16
146 141 22
137 133 22
151 146 22
131 126 16
147 141 32
149 143 39
148 142 28
145 140 28
141 135 28
149 144 16
147 142 0
156 150 32
147 141 32
145 140 16
150 143 28
148 142 32
148 144 16
147 143 22
150 145 22
146 139 22
153 150 36
151 146 39
153 147 36
149 144 28
142 138 22
146 140 32
144 140 36
147 143 28
150 145 22
150 145 36
149 143 28
147 144 36
150 147 22
154 148 28
151 149 22
152 147 36
151 145 32
158 152 39
151 148 0
155 151 32
146 140 28
145 140 22
145 141 28
154 149 22
152 149 28
152 147 36
145 141 28
149 145 32
151 147 36
142 137 16
148 144 28
155 150 36
143 138 28
151 147 28
135 133 0
146 143 32
153 148 32
152 148 28
143 138 22
141 135 28
140 135 28
149 142 36
136 133 28
137 131 22
135 131 22
141 136 22
139 134 36
137 133 22
137 132 32
131 125 16
133 128 22
121 116 16
115 111 22
127 123 0
147 157 16
166 184 0
167 184 0
167 182 0
169 186 0
167 182 0
171 188 0
158 173 0
166 184 0
164 181 0
164 178 0
166 186 0
164 183 0
170 189 0
164 181 0
172 192 0
166 180 0
169 189 0
164 183 0
170 190 0
164 183 0
171 187 0
174 193 0
174 194 0
171 190 0
167 188 0
167 188 0
170 190 0
171 193 0
168 189 0
166 187 0
170 190 0
165 183 0
173 193 0
168 190 0
170 191 0
170 190 0
171 192 0
168 186 0
169 189 0
171 193 0
167 187 0
171 192 0
172 194 0
169 188 0
169 189 0
171 191 0
166 188 0
173 196 0
173 193 0
169 193 0
169 190 0
174 196 0
171 195 0
171 195 0
173 195 0
173 197 0
172 195 0
175 198 0
170 194 0
177 199 0
177 199 0
175 198 0
170 195 0
173 195 0
171 195 0
177 199 0
174 197 0
174 197 0
172 197 0
174 197 0
173 196 0
173 196 0
169 192 0
174 197 0
171 195 0
172 197 0
173 196 0
172 197 0
172 195 0
175 198 0
172 196 0
178 199 0
171 194 0
174 198 0
175 198 0
172 196 0
173 196 0
174 197 0
174 196 0
171 195 0
174 197 0
171 195 0
171 195 0
172 196 0
172 196 0
172 196 0
171 194 0
173 196 0
171 193 0
165 187 0
169 193 0
171 194 0
167 191 0
169 193 0
175 197 0
174 197 0
167 190 0
173 196 0
172 196 0
173 196 0
172 196 0
170 194 0
171 194 0
173 196 0
170 194 0
171 195 0
167 191 0
168 192 0
173 196 0
172 194 0
168 192 0
172 195 0
175 198 0
172 196 0
173 195 0
167 191 0
169 192 0
173 195 0
172 195 0
172 196 0
170 193 0
167 189 0
166 188 0
171 194 0
165 188 0
174 197 0
170 194 0
171 194 0
173 195 0
169 192 0
174 198 0
170 194 0
168 192 0
170 194 0
172 194 0
173 196 0
171 194 0
172 196 0
167 191 0
166 190 0
172 194 0
172 195 0
166 189 0
171 194 0
171 194 0
171 193 0
173 196 0
172 194 0
173 194 0
173 196 0
168 192 0
168 192 0
170 193 0
166 188 0
166 190 0
172 195 0
169 193 0
168 191 0
169 192 0
166 190 0
169 193 0
172 195 0
173 195 0
168 191 0
174 197 0
168 193 0
165 187 0
171 195 0
172 196 0
169 192 0
171 193 0
169 192 0
171 192 0
170 194 0
167 190 0
170 193 0
170 192 0
167 190 0
172 195 0
167 191 0
165 187 0
164 187 0
167 192 0
163 185 0
173 197 0
169 192 0
168 191 0
170 193 0
168 191 0
167 190 0
166 189 0
168 190 0
162 183 0
166 188 0
167 189 0
171 194 0
167 190 0
170 193 0
164 187 0
172 195 0
167 189 0
165 186 0
168 189 0
167 190 0
169 192 0
170 193 0
166 189 0
164 187 0
165 186 0
172 193 0
171 195 0
166 188 0
163 187 0
170 193 0
165 186 0
164 185 0
167 190 0
166 187 0
174 196 0
163 183 0
164 185 0
169 192 0
166 189 0
168 191 0
170 191 0
166 188 0
163 185 0
169 190 0
162 184 0
163 184 0
170 192 0
154 173 0
167 186 0
166 188 0
163 183 0
168 187 0
163 186 0
159 182 0
160 182 0
166 187 0
163 184 0
158 180 0
163 183 0
162 183 0
159 180 0
157 177 0
159 178 0
166 185 0
163 184 0
160 182 0
163 181 0
158 177 0
158 179 0
161 183 0
157 177 0
150 171 0
164 182 0
155 175 0
163 184 0
161 184 0
156 176 0
164 186 0
159 177 0
160 178 0
163 183 0
159 179 0
160 177 0
161 180 0
167 187 0
160 179 0
161 179 0
163 182 0
154 173 0
160 178 0
155 173 0
155 174 0
160 179 0
156 171 0
157 177 0
160 179 0
143 159 0
163 181 0
162 178 0
149 167 0
163 179 0
151 168 0
157 174 0
163 182 0
162 178 0
150 167 0
157 172 0
152 169 0
149 163 0
125 128 0
117 111 16
107 104 11
115 112 16
123 118 16
119 116 16
127 123 22
114 112 16
132 125 28
134 131 11
136 131 28
122 118 16
130 126 22
132 126 22
137 133 28
140 136 28
138 136 0
146 142 16
142 138 28
145 141 16
146 143 16
143 136 39
146 140 16
140 136 0
137 133 22
145 139 16
152 146 0
144 140 0
143 138 22
145 139 16
143 138 22
146 141 0
154 148 39
148 142 32
151 147 36
149 143 16
145 141 22
147 141 28
144 138 16
146 143 0
145 140 28
145 141 22
155 149 22
153 148 22
143 138 22
151 146 16
147 144 28
149 144 32
153 146 22
153 148 28
146 142 28
153 146 22
146 142 28
154 148 39
152 147 28
150 144 16
146 142 22
153 147 28
148 143 28
155 149 36
154 149 36
149 144 28
156 151 28
152 147 39
149 144 16
144 139 16
156 150 39
150 143 36
144 139 36
141 138 16
147 142 32
141 137 28
146 142 28
139 134 0
150 146 28
154 148 28
144 139 22
146 142 16
142 137 16
136 132 32
143 139 16
139 135 28
143 139 28
136 131 28
153 148 36
143 139 36
132 128 16
137 132 36
144 137 28
133 128 22
114 111 22
136 130 39
137 132 16
123 118 22
121 116 16
111 105 16
161 172 0
162 178 0
163 178 0
168 187 0
168 189 0
164 180 0
167 184 0
167 184 0
169 185 0
167 185 0
162 180 0
169 186 0
161 180 0
170 186 0
167 184 0
172 188 0
167 187 0
168 186 0
169 186 0
169 187 0
171 190 0
167 189 0
173 193 0
171 192 0
172 190 0
171 191 0
166 184 0
172 195 0
171 191 0
172 193 0
174 196 0
169 190 0
169 191 0
166 187 0
171 191 0
169 188 0
168 187 0
170 188 0
170 191 0
169 190 0
170 189 0
169 188 0
170 193 0
168 190 0
172 192 0
168 188 0
169 193 0
168 190 0
170 192 0
168 189 0
171 194 0
168 188 0
171 191 0
170 192 0
172 197 0
172 195 0
172 196 0
173 197 0
171 196 0
171 196 0
174 197 0
173 195 0
173 197 0
172 196 0
171 195 0
172 196 0
176 198 0
174 197 0
173 197 0
175 198 0
170 195 0
173 196 0
175 197 0
174 197 0
171 195 0
171 195 0
174 197 0
177 199 0
171 194 0
172 196 0
174 197 0
172 195 0
174 197 0
172 195 0
174 197 0
176 198 0
173 196 0
171 194 0
171 195 0
174 197 0
172 196 0
173 197 0
174 197 0
173 197 0
171 195 0
172 193 0
171 194 0
168 191 0
174 197 0
172 194 0
171 195 0
172 194 0
172 195 0
172 195 0
172 196 0
174 197 0
173 197 0
175 198 0
172 197 0
172 196 0
168 191 0
171 194 0
174 197 0
175 198 0
171 194 0
171 193 0
173 197 0
175 198 0
169 193 0
173 197 0
172 195 0
168 191 0
169 192 0
174 197 0
172 194 0
172 195 0
169 193 0
171 193 0
172 196 0
172 196 0
167 190 0
170 194 0
170 193 0
172 196 0
172 195 0
173 197 0
173 196 0
167 190 0
173 196 0
174 196 0
173 196 0
173 197 0
169 193 0
173 196 0
170 191 0
174 197 0
173 196 0
175 195 0
174 197 0
170 193 0
172 194 0
171 194 0
173 197 0
175 198 0
168 192 0
173 196 0
171 195 0
169 191 0
174 197 0
167 189 0
170 194 0
173 196 0
169 193 0
169 193 0
172 195 0
165 189 0
167 192 0
176 197 0
173 196 0
173 196 0
170 193 0
166 189 0
171 195 0
170 193 0
170 194 0
172 195 0
168 190 0
166 190 0
171 196 0
169 192 0
171 194 0
170 194 0
166 190 0
166 189 0
165 188 0
166 188 0
168 191 0
171 194 0
166 190 0
161 184 0
170 194 0
166 188 0
170 192 0
166 189 0
169 190 0
165 188 0
168 191 0
165 187 0
170 193 0
171 193 0
172 195 0
171 193 0
169 193 0
172 194 0
163 187 0
163 184 0
161 183 0
166 189 0
166 189 0
161 184 0
165 187 0
165 189 0
167 190 0
170 192 0
172 195 0
169 191 0
162 185 0
167 189 0
166 188 0
164 187 0
167 191 0
160 180 0
167 189 0
166 188 0
170 194 0
171 193 0
164 185 0
167 188 0
165 186 0
157 179 0
162 183 0
159 182 0
171 194 0
158 180 0
169 190 0
167 188 0
167 190 0
166 187 0
166 187 0
166 188 0
170 192 0
167 188 0
162 183 0
159 180 0
162 182 0
167 187 0
162 183 0
161 183 0
163 184 0
161 182 0
169 191 0
166 187 0
167 188 0
164 184 0
167 188 0
161 180 0
161 182 0
155 177 0
151 173 0
171 192 0
167 189 0
165 187 0
154 175 0
162 179 0
161 183 0
163 182 0
163 183 0
160 181 0
168 187 0
160 180 0
165 184 0
161 179 0
164 186 0
164 182 0
166 185 0
158 178 0
164 181 0
160 180 0
164 182 0
162 183 0
158 179 0
160 182 0
160 179 0
162 183 0
166 184 0
164 185 0
161 183 0
165 183 0
158 175 0
160 178 0
153 169 0
149 166 0
163 180 0
159 177 0
153 173 0
151 168 0
157 170 0
157 175 0
143 158 0
158 173 0
152 167 0
154 168 0
152 165 0
154 170 0
150 160 22
115 111 0
100 97 0
123 116 32
112 107 22
115 113 11
117 111 0
129 124 28
118 114 25
129 124 0
133 129 19
133 126 22
127 122 32
121 118 16
134 131 16
134 128 19
147 143 22
141 136 0
141 137 0
148 143 32
142 137 22
142 136 28
134 130 22
136 130 28
150 146 32
141 138 16
139 135 22
147 142 32
137 133 22
147 143 22
147 142 22
152 146 28
135 132 16
145 138 36
138 135 16
153 148 16
145 142 22
158 154 28
147 142 16
147 143 22
152 146 16
150 146 28
152 147 28
149 145 16
150 146 16
147 143 22
150 147 22
150 145 22
151 144 28
148 142 28
149 145 0
150 146 16
150 147 22
148 144 22
157 152 22
157 151 32
152 146 32
149 147 16
151 145 36
148 142 22
142 139 28
153 149 22
142 138 22
147 143 16
145 139 32
143 138 16
148 141 42
147 141 32
149 144 22
145 140 22
138 133 16
149 144 32
142 136 16
144 139 28
145 141 36
147 145 22
140 134 36
155 149 42
150 145 36
137 133 22
135 131 28
137 133 32
141 135 28
145 140 32
143 137 32
144 140 32
138 132 22
134 127 16
136 131 16
125 122 22
132 125 22
140 135 32
122 116 28
114 112 16
132 129 22
125 123 22
166 179 0
160 176 0
164 181 0
160 174 0
166 181 0
167 184 0
164 182 0
166 183 0
165 179 0
165 181 0
166 184 0
172 193 0
171 188 0
169 187 0
171 188 0
165 182 0
167 185 0
168 188 0
172 190 0
174 192 0
170 191 0
170 190 0
168 188 0
169 191 0
169 190 0
169 188 0
175 194 0
171 189 0
170 189 0
167 185 0
169 189 0
173 194 0
169 189 0
169 186 0
173 192 0
174 194 0
168 188 0
173 194 0
173 194 0
171 193 0
174 195 0
170 192 0
172 189 0
167 186 0
175 197 0
170 192 0
174 196 0
170 187 0
171 193 0
172 193 0
170 191 0
170 191 0
172 193 0
170 193 0
172 196 0
171 194 0
172 196 0
172 196 0
171 194 0
174 197 0
173 197 0
172 196 0
176 198 0
170 195 0
175 197 0
173 196 0
173 197 0
172 195 0
173 196 0
173 196 0
173 196 0
170 194 0
174 197 0
172 196 0
173 197 0
176 198 0
176 199 0
174 198 0
177 199 0
171 196 0
173 196 0
173 196 0
173 197 0
169 191 0
171 193 0
174 196 0
171 195 0
172 196 0
174 197 0
170 194 0
173 196 0
172 196 0
172 196 0
172 196 0
174 198 0
173 195 0
175 198 0
175 198 0
172 195 0
172 195 0
174 197 0
174 197 0
168 192 0
172 195 0
173 196 0
173 195 0
172 196 0
170 193 0
175 198 0
168 192 0
172 195 0
173 196 0
173 196 0
172 195 0
174 197 0
172 195 0
173 194 0
171 194 0
170 193 0
168 192 0
171 194 0
171 194 0
168 191 0
174 197 0
168 192 0
173 196 0
168 193 0
173 197 0
172 196 0
173 195 0
173 196 0
172 194 0
173 196 0
165 188 0
166 190 0
170 194 0
173 196 0
170 194 0
173 197 0
170 193 0
170 193 0
170 194 0
175 198 0
170 193 0
169 191 0
172 195 0
171 194 0
172 196 0
170 192 0
172 195 0
174 197 0
171 194 0
168 191 0
173 195 0
170 194 0
172 196 0
172 195 0
172 195 0
169 191 0
172 195 0
170 193 0
171 194 0
170 194 0
171 195 0
172 194 0
172 194 0
171 194 0
164 188 0
165 189 0
167 190 0
166 189 0
168 191 0
164 185 0
172 196 0
173 196 0
161 182 0
170 193 0
161 185 0
166 190 0
169 191 0
169 193 0
170 194 0
165 189 0
173 195 0
171 194 0
168 191 0
173 197 0
170 194 0
168 192 0
170 191 0
167 191 0
171 196 0
166 190 0
173 196 0
167 191 0
167 191 0
167 191 0
165 189 0
166 189 0
167 189 0
169 193 0
172 192 0
167 191 0
169 192 0
167 189 0
167 190 0
173 196 0
169 192 0
163 186 0
163 184 0
168 192 0
164 186 0
165 187 0
174 195 0
170 193 0
166 186 0
170 194 0
162 186 0
167 190 0
167 189 0
167 189 0
167 189 0
165 187 0
163 186 0
172 195 0
164 188 0
165 188 0
165 186 0
162 184 0
165 188 0
168 191 0
169 191 0
168 190 0
164 187 0
163 186 0
163 184 0
163 184 0
163 184 0
162 185 0
160 179 0
171 193 0
169 191 0
169 191 0
166 187 0
164 185 0
165 186 0
166 187 0
164 185 0
166 188 0
161 181 0
163 185 0
167 188 0
166 189 0
163 184 0
161 184 0
167 189 0
167 189 0
163 185 0
152 171 0
166 186 0
165 186 0
170 192 0
169 189 0
163 182 0
156 177 0
165 187 0
155 175 0
164 182 0
152 171 0
158 178 0
168 188 0
157 175 0
166 186 0
169 189 0
168 188 0
169 187 0
167 187 0
161 182 0
162 183 0
164 185 0
154 175 0
162 180 0
163 180 0
157 174 0
164 185 0
155 170 0
164 182 0
162 177 0
159 176 0
160 178 0
165 183 0
160 181 0
161 179 0
157 175 0
157 173 0
158 172 0
154 170 0
157 171 0
160 177 0
149 161 0
161 179 0
144 156 0
157 175 0
143 159 0
153 166 16
104 97 16
116 113 0
107 102 30
134 131 22
125 121 0
126 122 11
113 108 0
130 126 0
137 131 16
125 120 22
136 130 16
139 136 28
139 135 22
136 131 22
151 145 36
136 131 28
141 138 16
134 128 22
145 140 28
147 140 32
146 140 0
148 143 16
143 139 16
142 138 28
145 138 28
138 135 22
141 136 32
144 139 16
140 137 22
154 148 39
151 145 32
147 143 22
148 143 0
151 145 32
146 141 16
145 142 0
154 149 32
148 144 16
149 145 28
147 142 22
148 144 22
150 143 16
148 145 28
148 143 16
146 142 22
156 150 42
149 144 22
149 144 32
148 142 32
149 143 16
144 139 22
150 146 28
148 142 22
150 146 36
158 151 28
146 140 36
152 148 22
148 142 36
148 142 32
138 134 0
144 139 28
153 147 45
146 143 22
143 136 28
148 143 22
142 137 22
139 134 32
146 140 28
145 140 36
148 143 22
143 139 22
151 147 28
146 140 0
142 139 28
137 131 28
144 139 28
148 145 16
142 135 28
149 145 16
139 135 22
143 137 16
145 139 22
131 127 16
145 139 16
134 130 28
136 130 28
139 134 28
139 134 28
140 135 22
135 131 32
141 135 22
123 120 16
119 115 16
111 106 0
118 117 22
165 180 0
164 183 0
160 175 0
160 173 0
161 176 0
165 180 0
161 178 0
163 181 0
166 184 0
163 179 0
168 185 0
171 188 0
163 180 0
164 183 0
164 182 0
169 186 0
171 192 0
172 190 0
174 195 0
168 189 0
166 181 0
170 188 0
170 188 0
172 191 0
169 187 0
170 188 0
172 192 0
166 187 0
172 192 0
169 186 0
171 191 0
174 193 0
172 193 0
169 186 0
172 194 0
171 193 0
167 188 0
169 189 0
170 190 0
172 194 0
174 194 0
168 190 0
170 190 0
172 191 0
171 194 0
171 190 0
174 196 0
173 194 0
170 192 0
168 188 0
168 188 0
174 197 0
170 192 0
170 193 0
170 194 0
172 196 0
171 195 0
173 197 0
173 197 0
173 197 0
173 197 0
172 194 0
174 198 0
177 199 0
173 196 0
169 193 0
172 195 0
172 196 0
171 195 0
173 197 0
173 196 0
173 196 0
174 198 0
172 196 0
175 198 0
175 198 0
171 195 0
174 198 0
173 195 0
173 196 0
172 195 0
175 198 0
174 197 0
173 197 0
173 197 0
174 197 0
174 197 0
174 198 0
176 198 0
172 196 0
175 197 0
174 196 0
172 196 0
175 197 0
172 196 0
171 195 0
171 195 0
173 196 0
175 198 0
172 194 0
172 195 0
169 193 0
174 198 0
173 197 0
171 195 0
173 197 0
171 195 0
172 196 0
172 195 0
172 195 0
170 194 0
172 194 0
171 195 0
172 196 0
174 197 0
172 196 0
173 196 0
170 193 0
170 193 0
172 196 0
174 197 0
174 197 0
166 188 0
171 193 0
174 196 0
174 197 0
173 196 0
169 191 0
172 194 0
172 195 0
173 197 0
175 198 0
172 195 0
169 191 0
170 193 0
168 192 0
174 196 0
173 197 0
170 192 0
170 193 0
169 192 0
168 192 0
171 194 0
170 193 0
175 197 0
170 192 0
172 196 0
167 191 0
168 191 0
172 196 0
173 196 0
174 197 0
172 195 0
173 197 0
172 196 0
173 195 0
173 196 0
172 195 0
172 194 0
169 192 0
172 195 0
171 195 0
174 197 0
168 190 0
172 197 0
170 193 0
170 195 0
172 195 0
168 190 0
171 195 0
170 194 0
171 194 0
170 192 0
167 191 0
167 190 0
167 193 0
168 191 0
169 193 0
163 187 0
165 186 0
170 192 0
171 195 0
170 193 0
165 189 0
163 186 0
168 190 0
170 192 0
172 196 0
174 197 0
171 194 0
172 194 0
174 197 0
168 189 0
170 194 0
167 191 0
169 192 0
170 192 0
165 188 0
168 192 0
167 190 0
167 190 0
169 192 0
168 191 0
163 187 0
167 188 0
165 188 0
167 189 0
170 191 0
166 187 0
168 191 0
165 186 0
163 184 0
163 187 0
166 189 0
170 191 0
172 193 0
164 185 0
164 188 0
168 190 0
169 191 0
164 187 0
166 187 0
162 185 0
168 190 0
164 186 0
164 186 0
168 192 0
167 189 0
168 191 0
165 189 0
161 183 0
163 187 0
170 192 0
166 189 0
165 185 0
171 194 0
164 183 0
157 180 0
167 189 0
160 181 0
159 182 0
169 189 0
160 181 0
169 191 0
161 182 0
158 180 0
163 184 0
164 186 0
162 184 0
164 187 0
161 182 0
159 179 0
165 187 0
168 187 0
169 190 0
161 179 0
167 188 0
166 189 0
163 182 0
163 182 0
160 177 0
166 187 0
165 185 0
169 188 0
169 190 0
165 185 0
160 180 0
165 185 0
159 181 0
166 187 0
165 181 0
164 184 0
160 177 0
157 179 0
159 178 0
166 189 0
168 186 0
160 181 0
164 181 0
157 178 0
164 183 0
162 181 0
164 183 0
164 185 0
162 180 0
163 183 0
164 184 0
161 180 0
158 175 0
159 176 0
158 173 0
164 183 0
158 176 0
151 170 0
159 173 0
165 181 0
161 180 0
159 176 0
161 178 0
159 173 0
153 167 0
159 173 0
152 165 0
150 165 0
156 169 0
108 110 0
105 100 16
107 102 0
111 105 19
129 124 30
118 113 25
134 125 28
113 110 16
122 121 16
126 121 0
124 119 16
133 127 22
149 142 39
142 138 28
145 140 28
131 128 0
134 130 22
130 124 0
135 130 16
146 141 36
144 141 16
142 135 32
147 142 28
148 143 28
151 144 32
143 138 28
144 139 0
152 145 42
140 135 16
138 134 22
147 140 39
145 139 28
141 136 22
144 140 28
149 143 39
145 138 28
149 146 0
151 143 0
143 139 32
151 147 28
147 142 22
142 138 0
147 143 16
149 144 28
140 137 32
152 147 32
149 142 22
147 143 28
146 141 0
147 143 16
145 142 22
157 151 42
150 146 36
151 145 28
150 144 36
139 134 22
149 144 32
151 148 32
152 148 36
144 139 32
148 142 28
149 146 32
147 144 22
147 142 22
147 142 16
147 144 16
156 150 36
148 144 32
158 151 51
147 141 32
152 148 16
144 139 16
145 141 0
141 137 28
143 137 42
142 138 22
147 141 28
141 137 16
138 134 32
149 144 36
139 135 16
138 132 28
133 127 22
134 131 16
137 134 22
146 142 32
137 131 32
124 121 16
132 129 22
121 115 32
124 118 32
107 104 0
107 102 16
116 111 28
146 151 16
159 174 0
164 178 0
168 183 0
161 178 0
166 185 0
170 185 0
167 185 0
166 181 0
167 185 0
166 185 0
166 183 0
159 175 0
169 188 0
167 184 0
167 184 0
166 184 0
165 184 0
168 184 0
170 188 0
170 191 0
164 184 0
168 187 0
169 188 0
165 185 0
171 186 0
169 191 0
167 184 0
170 191 0
164 184 0
168 189 0
170 190 0
173 193 0
171 191 0
170 189 0
169 190 0
169 188 0
171 189 0
166 187 0
170 190 0
169 189 0
174 196 0
173 193 0
171 191 0
173 193 0
168 190 0
171 190 0
170 191 0
170 191 0
171 192 0
173 192 0
170 193 0
171 191 0
170 194 0
170 190 0
169 192 0
173 197 0
172 196 0
173 197 0
174 197 0
174 197 0
171 195 0
172 197 0
174 198 0
174 197 0
176 198 0
175 198 0
175 197 0
174 197 0
171 195 0
174 196 0
171 194 0
175 198 0
171 194 0
175 197 0
175 198 0
172 195 0
173 196 0
173 196 0
175 198 0
171 195 0
169 193 0
172 195 0
171 195 0
174 197 0
174 197 0
173 196 0
171 195 0
173 196 0
171 194 0
173 195 0
172 195 0
174 197 0
169 193 0
172 196 0
173 196 0
175 198 0
174 196 0
171 194 0
171 196 0
172 196 0
171 195 0
171 195 0
173 197 0
171 195 0
172 196 0
171 195 0
172 195 0
169 192 0
174 196 0
174 197 0
172 196 0
170 195 0
169 191 0
174 197 0
173 195 0
169 193 0
169 193 0
173 195 0
170 193 0
171 195 0
172 196 0
173 196 0
169 193 0
168 191 0
167 190 0
175 198 0
174 197 0
170 193 0
169 191 0
173 197 0
174 196 0
165 188 0
174 198 0
172 196 0
171 194 0
169 192 0
172 196 0
174 197 0
171 195 0
171 196 0
170 192 0
174 196 0
172 193 0
172 196 0
171 194 0
168 191 0
172 196 0
169 191 0
172 195 0
170 193 0
175 197 0
171 195 0
169 192 0
169 193 0
171 195 0
171 195 0
167 190 0
173 197 0
170 194 0
167 190 0
169 192 0
171 196 0
171 193 0
171 195 0
172 194 0
171 195 0
170 194 0
171 194 0
170 192 0
170 193 0
170 193 0
171 195 0
170 194 0
169 194 0
169 191 0
165 189 0
170 192 0
166 190 0
169 192 0
172 194 0
170 195 0
172 194 0
166 189 0
173 196 0
167 189 0
169 193 0
170 192 0
168 190 0
166 188 0
170 192 0
171 193 0
170 195 0
168 190 0
170 194 0
169 191 0
166 189 0
171 192 0
169 193 0
169 192 0
169 192 0
170 192 0
167 188 0
170 193 0
166 188 0
170 195 0
164 189 0
168 190 0
168 190 0
168 191 0
168 191 0
163 187 0
169 193 0
169 192 0
169 191 0
163 186 0
166 188 0
168 190 0
170 191 0
169 191 0
158 181 0
172 193 0
167 190 0
169 192 0
167 188 0
170 194 0
163 185 0
164 186 0
169 191 0
161 183 0
170 191 0
167 189 0
166 188 0
160 182 0
166 187 0
167 188 0
159 182 0
165 186 0
165 189 0
166 188 0
164 185 0
167 189 0
160 183 0
167 186 0
168 189 0
168 188 0
167 187 0
161 182 0
167 188 0
163 185 0
160 179 0
169 190 0
165 185 0
170 192 0
166 187 0
161 183 0
164 183 0
163 184 0
162 182 0
164 185 0
162 182 0
166 188 0
160 181 0
166 185 0
164 184 0
159 180 0
163 182 0
169 189 0
162 181 0
155 173 0
159 180 0
171 192 0
165 187 0
159 179 0
165 182 0
168 188 0
170 190 0
161 182 0
156 175 0
163 183 0
161 182 0
165 187 0
160 178 0
156 172 0
155 174 0
159 177 0
157 176 0
155 173 0
160 180 0
153 171 0
157 175 0
160 181 0
149 165 0
160 178 0
155 173 0
154 173 0
153 171 0
162 179 0
163 177 0
161 175 0
156 172 0
158 173 0
158 173 0
158 173 0
161 176 0
156 170 0
133 135 16
119 112 16
116 112 0
107 102 16
126 120 0
124 119 16
132 129 16
124 118 16
113 110 0
139 133 32
131 125 22
129 126 16
135 130 22
140 134 16
141 134 32
144 136 32
139 134 28
139 134 22
136 130 0
134 128 0
146 142 22
139 135 22
137 130 16
146 142 28
146 141 16
143 138 22
146 142 22
142 138 16
143 137 28
149 144 16
150 146 28
144 138 28
154 148 16
140 134 22
151 144 22
154 149 42
149 146 22
139 134 0
153 147 39
146 139 36
152 147 22
155 151 36
152 146 28
153 148 22
150 145 32
149 143 16
150 143 28
142 138 16
151 146 28
149 143 22
147 141 16
152 147 28
140 133 22
147 142 16
146 142 28
151 147 22
149 144 16
145 139 16
149 144 22
151 147 22
151 146 22
149 144 16
149 145 16
148 143 16
149 144 32
150 146 22
151 146 22
151 145 0
141 136 22
144 141 0
150 144 22
147 143 22
144 142 0
138 134 16
152 147 28
141 136 22
136 130 22
146 141 28
139 133 32
138 131 39
129 123 16
143 138 36
140 135 36
133 127 28
139 135 22
135 130 22
140 135 28
132 126 22
131 126 22
125 119 32
121 118 0
133 127 22
130 125 32
122 117 28
160 175 16
166 179 0
168 184 0
166 180 0
162 176 0
166 182 0
163 181 0
166 181 0
164 181 0
165 182 0
170 191 0
162 182 0
167 188 0
166 185 0
167 186 0
169 185 0
169 186 0
164 181 0
166 187 0
166 184 0
170 186 0
170 188 0
171 190 0
169 187 0
171 193 0
169 188 0
167 186 0
173 194 0
166 185 0
166 185 0
167 187 0
168 188 0
168 187 0
172 194 0
169 188 0
172 193 0
167 189 0
170 193 0
169 188 0
170 189 0
166 185 0
168 190 0
172 192 0
172 192 0
168 189 0
172 193 0
171 192 0
168 190 0
173 193 0
173 192 0
172 193 0
172 193 0
170 190 0
173 193 0
173 194 0
171 194 0
176 198 0
172 197 0
174 196 0
174 198 0
173 196 0
172 196 0
172 196 0
173 195 0
173 196 0
174 197 0
171 196 0
173 196 0
174 197 0
172 195 0
173 197 0
175 198 0
173 195 0
170 194 0
171 195 0
173 196 0
174 197 0
175 197 0
174 197 0
173 196 0
174 196 0
174 197 0
172 196 0
172 196 0
173 196 0
174 197 0
170 194 0
173 196 0
170 193 0
173 197 0
172 195 0
175 198 0
175 198 0
172 196 0
174 197 0
171 194 0
171 195 0
173 197 0
172 196 0
174 197 0
174 197 0
174 198 0
174 197 0
176 198 0
170 193 0
171 194 0
172 196 0
174 197 0
171 194 0
172 197 0
168 192 0
171 194 0
175 198 0
172 194 0
171 195 0
173 195 0
173 197 0
172 195 0
173 197 0
171 194 0
170 194 0
168 191 0
172 195 0
169 192 0
172 195 0
173 196 0
171 193 0
173 196 0
172 196 0
173 195 0
172 196 0
176 198 0
171 193 0
176 199 0
170 193 0
168 191 0
170 194 0
170 193 0
168 193 0
172 196 0
170 193 0
173 195 0
172 196 0
169 192 0
175 198 0
170 194 0
171 194 0
170 194 0
170 194 0
171 195 0
171 195 0
174 197 0
168 190 0
169 192 0
170 193 0
173 195 0
167 190 0
168 191 0
171 194 0
174 197 0
169 191 0
171 194 0
169 193 0
170 193 0
172 194 0
169 192 0
170 192 0
174 197 0
171 194 0
169 192 0
173 197 0
162 185 0
170 193 0
171 194 0
169 193 0
172 194 0
168 191 0
169 193 0
169 192 0
167 189 0
165 190 0
172 195 0
166 188 0
174 196 0
169 191 0
167 190 0
168 192 0
170 193 0
172 195 0
168 191 0
171 194 0
166 188 0
170 192 0
168 192 0
171 194 0
167 189 0
171 193 0
170 195 0
172 194 0
168 190 0
164 187 0
165 189 0
168 192 0
168 192 0
166 189 0
171 192 0
160 184 0
164 186 0
168 190 0
167 189 0
168 191 0
169 191 0
165 188 0
166 190 0
170 193 0
164 185 0
165 188 0
167 188 0
166 186 0
171 195 0
170 191 0
160 182 0
161 183 0
161 180 0
167 189 0
165 188 0
164 187 0
171 194 0
168 189 0
169 190 0
164 187 0
168 188 0
172 195 0
169 191 0
167 190 0
159 179 0
167 189 0
170 190 0
164 184 0
167 187 0
170 191 0
167 187 0
165 185 0
166 187 0
163 186 0
155 176 0
164 186 0
164 186 0
167 187 0
172 194 0
164 184 0
164 187 0
164 186 0
170 190 0
160 182 0
163 184 0
163 184 0
160 181 0
163 183 0
165 185 0
161 182 0
165 183 0
161 180 0
160 181 0
166 187 0
168 188 0
162 182 0
161 180 0
157 176 0
165 186 0
161 178 0
171 191 0
159 179 0
168 189 0
165 186 0
167 188 0
159 176 0
164 185 0
157 174 0
164 181 0
156 173 0
159 176 0
161 181 0
162 183 0
169 189 0
151 168 0
159 176 0
158 177 0
153 174 0
157 174 0
155 172 0
167 184 0
151 169 0
158 174 0
161 180 0
160 175 0
153 172 0
161 180 0
156 172 0
156 176 0
159 173 0
158 171 0
156 170 0
149 166 0
157 174 0
153 167 0
138 150 0
109 102 0
107 99 0
118 112 0
125 118 22
123 118 25
125 122 16
140 133 28
133 126 22
125 118 16
127 122 0
131 126 22
140 134 28
133 128 0
128 122 16
138 134 22
133 129 16
141 136 16
135 132 22
140 134 22
137 133 16
137 133 22
142 136 22
144 138 28
134 130 32
151 146 16
139 135 28
145 139 36
147 144 16
140 137 16
144 139 28
149 144 22
146 142 22
140 136 28
146 141 22
147 143 22
142 138 22
143 139 16
150 145 32
150 144 22
153 149 22
147 143 22
149 145 28
149 145 0
144 141 0
146 142 28
145 139 28
149 145 22
146 138 22
145 139 32
156 149 28
147 141 22
146 142 32
150 146 28
152 147 36
153 147 36
141 136 16
152 146 36
143 137 22
149 144 22
144 140 16
146 141 22
146 142 16
150 144 28
152 147 22
149 145 22
146 140 32
147 143 28
149 143 16
152 147 22
154 148 42
129 124 0
152 148 36
141 134 0
143 137 22
145 142 28
150 145 16
141 137 22
140 135 22
148 143 36
132 127 22
131 126 16
143 137 22
129 124 0
139 133 32
132 126 28
139 134 28
138 133 22
131 127 28
123 119 28
135 129 28
120 116 22
124 120 36
126 128 22
167 182 0
166 182 0
159 171 0
162 178 0
156 170 0
166 180 0
159 178 0
157 173 0
165 182 0
162 179 0
162 180 0
162 178 0
162 179 0
167 183 0
167 186 0
164 181 0
169 188 0
166 184 0
168 186 0
165 186 0
170 189 0
166 186 0
170 190 0
170 191 0
175 196 0
167 187 0
171 191 0
171 190 0
166 185 0
167 186 0
169 188 0
173 192 0
168 191 0
171 190 0
168 188 0
174 192 0
172 191 0
170 190 0
170 189 0
171 191 0
167 188 0
171 192 0
172 195 0
171 193 0
172 194 0
170 191 0
168 190 0
168 190 0
171 190 0
171 193 0
173 194 0
168 189 0
173 194 0
169 190 0
173 194 0
169 194 0
175 198 0
171 195 0
170 194 0
177 199 0
172 197 0
173 197 0
174 197 0
174 197 0
175 197 0
171 195 0
172 196 0
172 195 0
172 196 0
170 193 0
171 194 0
171 195 0
174 198 0
175 198 0
171 195 0
171 195 0
174 197 0
171 195 0
171 194 0
175 198 0
173 195 0
173 196 0
170 193 0
171 194 0
174 198 0
172 195 0
170 194 0
173 196 0
173 196 0
170 194 0
174 197 0
172 195 0
172 194 0
173 195 0
170 193 0
173 196 0
173 195 0
174 196 0
170 194 0
173 196 0
174 196 0
174 196 0
168 191 0
174 196 0
173 196 0
173 197 0
173 196 0
172 195 0
173 196 0
173 197 0
172 195 0
173 196 0
174 196 0
173 197 0
169 193 0
171 194 0
168 191 0
172 195 0
174 198 0
169 193 0
170 193 0
172 196 0
166 190 0
173 196 0
172 195 0
174 197 0
173 196 0
171 195 0
171 195 0
172 197 0
174 197 0
172 195 0
172 195 0
171 195 0
168 193 0
169 193 0
174 196 0
171 195 0
171 195 0
170 193 0
171 194 0
170 192 0
170 193 0
171 193 0
170 193 0
172 195 0
168 191 0
171 193 0
172 196 0
168 191 0
172 195 0
174 197 0
171 194 0
170 194 0
177 199 0
171 194 0
168 192 0
172 196 0
171 194 0
170 194 0
167 191 0
172 193 0
169 192 0
167 189 0
169 192 0
173 196 0
171 194 0
171 192 0
168 190 0
170 192 0
166 188 0
170 194 0
171 194 0
171 193 0
168 192 0
166 189 0
173 196 0
169 191 0
168 191 0
173 195 0
170 193 0
162 186 0
172 193 0
175 198 0
172 196 0
169 194 0
174 198 0
173 195 0
165 188 0
169 192 0
170 193 0
165 188 0
165 189 0
169 193 0
170 193 0
168 192 0
171 195 0
168 190 0
165 188 0
170 193 0
169 191 0
163 188 0
167 189 0
169 192 0
171 192 0
164 188 0
166 191 0
171 192 0
163 188 0
175 197 0
174 197 0
166 189 0
164 185 0
171 193 0
167 190 0
170 190 0
166 189 0
169 191 0
164 185 0
173 196 0
168 191 0
169 190 0
173 196 0
167 189 0
168 191 0
166 188 0
172 194 0
168 192 0
162 182 0
166 188 0
168 191 0
168 191 0
166 189 0
165 188 0
168 190 0
166 186 0
163 184 0
165 188 0
160 181 0
159 181 0
167 190 0
169 191 0
167 191 0
173 195 0
161 182 0
162 184 0
159 181 0
165 186 0
163 184 0
163 185 0
165 187 0
163 182 0
165 186 0
167 191 0
149 169 0
156 177 0
170 190 0
160 182 0
168 191 0
167 186 0
165 187 0
167 189 0
166 185 0
161 185 0
169 191 0
165 189 0
164 185 0
168 188 0
165 187 0
166 188 0
169 191 0
165 182 0
166 184 0
164 183 0
167 188 0
160 180 0
162 181 0
166 185 0
160 178 0
162 182 0
162 182 0
165 184 0
146 166 0
163 181 0
166 186 0
162 180 0
161 180 0
156 174 0
162 181 0
159 177 0
167 186 0
163 181 0
158 177 0
155 173 0
160 177 0
166 184 0
152 168 0
161 175 0
156 174 0
154 171 0
159 174 0
158 175 0
148 166 0
162 179 0
154 171 0
151 166 0
159 174 0
133 131 22
113 107 25
122 118 16
125 119 0
116 113 16
132 125 32
129 123 0
128 122 16
137 133 22
143 137 39
141 134 22
142 139 28
133 129 22
136 131 22
146 141 28
134 129 0
142 135 16
145 140 0
132 128 28
145 141 16
138 132 16
143 140 16
144 139 16
145 140 22
140 135 36
149 144 42
143 137 22
147 143 32
152 145 32
134 131 16
134 127 16
140 136 22
143 138 32
153 147 16
144 140 16
143 138 16
151 149 16
147 143 28
141 137 16
144 139 16
151 145 36
145 139 28
148 143 28
147 142 32
145 140 22
148 142 28
149 143 28
146 141 28
147 142 16
151 147 28
144 140 16
151 146 22
144 141 22
155 149 39
151 146 28
142 138 28
153 149 22
144 140 28
146 143 16
149 143 22
144 138 28
147 142 32
145 139 28
151 145 32
147 142 22
141 136 22
149 144 28
145 140 32
144 140 16
143 138 28
139 134 22
147 141 22
147 142 32
145 140 16
147 141 28
150 144 36
140 137 16
147 143 39
148 142 32
147 143 32
139 135 16
133 128 32
135 129 22
133 129 16
131 125 28
141 135 28
126 123 0
123 118 22
132 126 32
127 120 22
116 111 22
111 107 28
143 149 0
160 174 0
155 166 0
168 179 0
165 183 0
165 181 0
167 183 0
161 174 0
162 176 0
169 188 0
170 187 0
167 183 0
164 181 0
164 180 0
160 177 0
169 188 0
168 185 0
165 181 0
171 190 0
167 184 0
170 190 0
164 181 0
172 194 0
172 189 0
168 185 0
170 190 0
168 189 0
168 186 0
166 184 0
171 189 0
167 187 0
168 190 0
172 193 0
164 183 0
173 194 0
170 191 0
171 191 0
167 189 0
169 192 0
171 193 0
170 189 0
172 190 0
171 191 0
170 190 0
173 195 0
171 194 0
172 194 0
172 193 0
173 194 0
171 192 0
170 191 0
171 190 0
171 193 0
174 194 0
172 193 0
171 194 0
172 196 0
170 194 0
171 195 0
175 198 0
171 194 0
174 197 0
174 197 0
172 195 0
172 194 0
175 198 0
171 195 0
172 196 0
173 196 0
174 196 0
170 194 0
172 195 0
176 199 0
173 196 0
173 196 0
174 197 0
173 196 0
174 197 0
170 193 0
173 197 0
173 196 0
171 194 0
171 195 0
175 198 0
173 197 0
172 195 0
174 198 0
174 197 0
171 194 0
172 195 0
172 197 0
172 196 0
172 195 0
176 197 0
174 197 0
172 195 0
169 192 0
171 195 0
172 196 0
173 196 0
172 195 0
168 191 0
172 196 0
169 193 0
171 194 0
173 197 0
172 196 0
167 192 0
172 197 0
173 197 0
170 193 0
172 196 0
172 196 0
171 195 0
173 195 0
170 193 0
171 194 0
172 195 0
170 194 0
173 197 0
173 197 0
170 194 0
166 189 0
171 193 0
174 197 0
169 192 0
172 195 0
171 194 0
173 197 0
172 196 0
174 197 0
172 196 0
172 195 0
169 193 0
170 194 0
172 195 0
173 195 0
175 197 0
172 196 0
167 190 0
169 192 0
174 197 0
169 193 0
173 195 0
172 195 0
174 196 0
168 193 0
169 192 0
171 194 0
172 193 0
175 197 0
171 194 0
169 192 0
168 191 0
169 192 0
171 194 0
170 193 0
169 192 0
172 196 0
171 195 0
172 195 0
172 194 0
171 196 0
171 195 0
173 196 0
168 191 0
168 192 0
168 191 0
171 194 0
164 188 0
169 192 0
168 191 0
172 195 0
163 187 0
169 193 0
173 196 0
173 196 0
167 189 0
171 194 0
174 196 0
171 193 0
170 194 0
167 190 0
171 194 0
169 191 0
169 192 0
165 187 0
172 195 0
170 193 0
172 194 0
167 190 0
169 194 0
165 188 0
169 192 0
168 190 0
164 186 0
168 191 0
169 192 0
173 196 0
169 193 0
167 190 0
173 196 0
172 194 0
168 190 0
170 191 0
174 197 0
166 190 0
168 190 0
165 188 0
172 195 0
167 190 0
165 187 0
170 193 0
168 191 0
173 194 0
166 187 0
168 191 0
163 186 0
165 187 0
168 190 0
167 189 0
171 192 0
169 192 0
168 189 0
169 191 0
165 189 0
167 189 0
160 185 0
161 184 0
166 187 0
168 190 0
163 186 0
167 187 0
170 193 0
167 189 0
167 188 0
166 188 0
168 191 0
164 186 0
164 186 0
168 191 0
163 185 0
167 189 0
164 185 0
170 191 0
168 191 0
164 187 0
165 185 0
160 182 0
169 190 0
167 189 0
167 188 0
164 184 0
168 189 0
167 189 0
164 184 0
164 184 0
163 182 0
160 182 0
165 188 0
167 189 0
163 184 0
163 183 0
164 185 0
158 180 0
166 188 0
163 184 0
162 183 0
168 188 0
171 193 0
161 183 0
157 177 0
164 185 0
158 178 0
167 188 0
156 176 0
167 187 0
159 178 0
164 183 0
163 182 0
162 180 0
166 183 0
164 183 0
161 178 0
168 189 0
156 176 0
160 180 0
158 178 0
158 177 0
166 182 0
156 173 0
156 174 0
158 176 0
158 174 0
154 170 0
150 167 0
162 179 0
157 176 0
162 179 0
152 168 0
158 173 0
148 161 0
151 162 0
166 183 0
161 180 0
161 175 0
153 170 0
148 159 0
140 149 22
122 115 0
121 114 32
125 118 16
123 118 22
128 123 22
134 128 16
117 111 16
123 117 22
120 118 0
139 133 16
133 128 32
135 130 22
141 135 25
143 138 42
140 135 22
141 137 28
144 138 39
147 141 28
142 136 16
139 134 16
147 141 32
145 140 32
149 143 28
139 136 22
140 136 0
149 143 16
141 137 0
148 144 22
143 138 28
149 144 28
148 144 16
149 144 22
151 145 28
146 139 39
148 142 22
148 144 32
147 143 16
143 139 22
146 141 22
153 148 28
143 137 0
150 145 22
158 150 36
146 139 22
143 138 22
147 143 28
152 148 22
153 150 22
152 145 0
147 142 28
147 143 22
149 141 36
152 148 28
151 145 16
154 149 32
153 147 28
144 139 16
146 142 16
145 142 22
143 138 22
145 141 16
137 131 28
147 142 22
146 140 16
144 140 32
148 142 32
143 137 28
151 145 28
142 138 16
152 147 36
140 136 22
143 138 32
151 147 28
146 142 28
141 135 32
139 135 36
146 139 28
132 128 0
132 127 22
122 119 16
130 126 0
132 129 16
139 133 16
129 124 22
125 120 0
133 128 32
126 119 0
122 118 22
124 118 32
130 124 22
116 111 28
152 162 0
159 178 0
163 175 0
157 172 0
164 180 0
165 183 0
165 179 0
167 185 0
157 172 0
167 186 0
164 177 0
165 176 0
167 184 0
170 187 0
172 191 0
164 179 0
168 186 0
171 191 0
171 188 0
169 187 0
170 188 0
168 187 0
170 189 0
169 188 0
169 189 0
169 189 0
170 185 0
172 192 0
172 191 0
166 182 0
171 190 0
170 191 0
171 192 0
167 187 0
174 196 0
173 192 0
168 187 0
167 184 0
169 189 0
171 190 0
171 193 0
170 189 0
173 195 0
172 194 0
172 192 0
172 194 0
174 194 0
170 191 0
173 193 0
173 192 0
171 194 0
172 192 0
171 190 0
172 192 0
174 195 0
172 193 0
173 197 0
175 197 0
173 197 0
173 196 0
172 195 0
171 196 0
175 198 0
172 196 0
173 196 0
171 195 0
172 197 0
174 198 0
171 194 0
172 195 0
174 197 0
174 197 0
169 193 0
176 199 0
175 197 0
175 198 0
175 198 0
173 196 0
173 195 0
174 197 0
172 196 0
174 198 0
176 198 0
172 194 0
174 198 0
170 194 0
173 197 0
172 195 0
170 194 0
172 196 0
174 197 0
173 196 0
170 194 0
172 195 0
174 196 0
173 197 0
172 197 0
169 193 0
175 197 0
174 196 0
169 193 0
169 193 0
174 198 0
174 196 0
174 197 0
173 196 0
173 196 0
174 198 0
172 195 0
171 195 0
170 192 0
168 193 0
173 195 0
173 195 0
175 197 0
173 197 0
174 198 0
171 195 0
174 196 0
174 197 0
171 195 0
171 195 0
170 194 0
172 195 0
167 191 0
174 198 0
173 197 0
169 193 0
171 193 0
171 194 0
173 196 0
170 195 0
174 197 0
173 196 0
169 193 0
175 198 0
173 196 0
170 193 0
172 196 0
172 196 0
172 196 0
166 190 0
170 194 0
171 195 0
171 194 0
168 192 0
172 196 0
172 196 0
169 193 0
172 195 0
173 196 0
175 196 0
173 197 0
174 197 0
172 196 0
168 192 0
172 195 0
173 197 0
175 197 0
171 194 0
170 194 0
172 195 0
172 194 0
171 193 0
169 192 0
171 193 0
171 195 0
174 197 0
169 193 0
165 188 0
172 196 0
174 197 0
171 194 0
167 190 0
171 194 0
172 195 0
169 192 0
173 196 0
169 191 0
167 190 0
172 195 0
167 189 0
167 190 0
171 193 0
168 190 0
173 195 0
162 185 0
166 190 0
168 193 0
167 191 0
167 189 0
167 190 0
171 194 0
171 194 0
170 194 0
166 188 0
173 197 0
168 190 0
168 190 0
167 190 0
164 186 0
171 194 0
171 194 0
165 189 0
170 193 0
169 192 0
171 192 0
171 195 0
170 192 0
168 191 0
166 190 0
164 188 0
171 193 0
171 193 0
170 193 0
171 193 0
164 187 0
168 189 0
162 185 0
168 191 0
169 193 0
167 189 0
165 189 0
168 190 0
168 191 0
162 184 0
159 182 0
172 193 0
165 186 0
164 187 0
167 190 0
169 190 0
168 190 0
167 189 0
171 194 0
169 189 0
168 191 0
168 189 0
159 181 0
166 186 0
169 189 0
171 193 0
157 178 0
165 186 0
173 194 0
166 188 0
170 192 0
169 191 0
162 183 0
161 184 0
165 187 0
165 187 0
165 186 0
166 189 0
159 183 0
163 187 0
161 184 0
161 182 0
168 189 0
167 188 0
160 180 0
160 179 0
165 186 0
166 187 0
167 186 0
163 184 0
169 190 0
170 193 0
163 185 0
163 185 0
163 181 0
166 189 0
168 188 0
166 184 0
162 180 0
170 191 0
163 184 0
164 186 0
162 181 0
162 180 0
167 184 0
156 175 0
163 181 0
164 184 0
155 174 0
166 186 0
168 187 0
161 183 0
168 189 0
161 178 0
159 179 0
162 180 0
156 173 0
162 182 0
160 178 0
163 179 0
163 182 0
161 177 0
161 177 0
159 176 0
157 174 0
160 177 0
158 172 0
151 161 0
160 175 0
158 172 0
155 170 0
151 163 0
161 176 0
120 116 11
121 110 16
135 130 22
127 121 16
126 120 16
129 120 16
133 127 16
138 132 22
138 133 22
139 134 22
132 127 25
128 122 16
133 130 16
132 127 22
136 130 22
143 136 22
131 123 16
143 137 22
135 132 16
142 137 28
141 136 16
145 141 28
144 138 28
136 130 16
133 128 22
134 129 22
149 142 28
144 141 22
149 141 28
149 143 32
142 135 22
149 144 28
145 142 22
144 138 0
144 137 28
143 138 32
150 145 16
140 137 0
153 146 16
146 141 16
142 136 28
146 143 16
158 150 28
152 146 42
145 139 22
145 140 16
147 141 28
150 145 22
153 148 28
146 142 0
146 142 16
148 143 28
150 143 22
151 146 0
148 142 28
152 147 22
147 143 0
150 146 28
147 142 16
142 138 32
141 137 28
145 141 16
134 128 16
149 144 22
146 141 28
144 138 0
140 136 0
148 142 28
146 140 32
149 143 22
139 135 22
144 140 16
138 132 32
144 140 32
142 138 36
143 137 16
131 126 32
152 146 36
139 134 32
140 135 22
136 132 22
141 136 16
133 127 22
134 131 22
128 122 22
142 136 28
126 123 32
125 122 22
129 123 22
119 114 0
123 126 22
163 180 0
166 182 0
165 181 0
162 179 0
162 178 0
163 177 0
159 174 0
162 175 0
165 182 0
168 186 0
171 189 0
160 177 0
164 177 0
168 186 0
168 187 0
169 188 0
167 188 0
166 185 0
171 187 0
165 184 0
164 185 0
172 191 0
168 188 0
167 187 0
167 186 0
169 187 0
168 187 0
170 188 0
160 177 0
168 187 0
172 190 0
170 190 0
174 193 0
174 196 0
170 189 0
173 193 0
171 192 0
172 194 0
169 191 0
166 185 0
168 187 0
172 194 0
170 189 0
173 191 0
170 188 0
170 191 0
170 193 0
172 191 0
173 195 0
171 193 0
167 187 0
171 194 0
168 190 0
172 193 0
173 193 0
173 194 0
175 198 0
172 195 0
173 196 0
172 197 0
174 197 0
172 194 0
175 198 0
170 195 0
175 198 0
174 198 0
172 196 0
174 197 0
168 192 0
173 196 0
172 196 0
170 193 0
171 194 0
173 196 0
174 198 0
173 196 0
177 199 0
173 196 0
173 196 0
175 198 0
171 194 0
177 199 0
176 199 0
174 197 0
174 197 0
175 198 0
172 195 0
172 196 0
175 198 0
170 193 0
172 196 0
176 198 0
172 196 0
170 195 0
170 193 0
170 195 0
176 199 0
170 195 0
169 193 0
172 195 0
174 198 0
173 197 0
173 196 0
175 197 0
172 196 0
171 195 0
173 196 0
172 195 0
171 194 0
174 196 0
173 197 0
170 193 0
169 193 0
172 193 0
171 194 0
173 197 0
175 198 0
171 195 0
169 193 0
173 196 0
171 194 0
171 195 0
174 197 0
174 197 0
170 193 0
172 195 0
172 195 0
173 196 0
173 196 0
170 195 0
172 196 0
168 192 0
172 195 0
170 194 0
168 191 0
173 196 0
172 195 0
171 195 0
168 191 0
173 196 0
173 196 0
170 193 0
170 195 0
166 190 0
174 197 0
174 198 0
174 196 0
171 194 0
171 194 0
170 193 0
171 195 0
169 193 0
170 193 0
174 196 0
170 193 0
170 194 0
170 193 0
170 194 0
170 193 0
174 197 0
169 192 0
170 194 0
172 196 0
173 196 0
176 198 0
168 191 0
165 189 0
170 192 0
166 189 0
172 194 0
172 195 0
169 192 0
166 189 0
168 191 0
171 193 0
174 196 0
170 193 0
168 192 0
167 189 0
166 189 0
172 195 0
171 196 0
171 194 0
169 192 0
170 194 0
169 193 0
170 193 0
171 195 0
172 194 0
169 191 0
169 193 0
169 191 0
168 191 0
172 194 0
167 188 0
166 189 0
171 194 0
166 189 0
169 189 0
165 188 0
166 188 0
167 189 0
161 183 0
173 195 0
168 191 0
173 195 0
171 193 0
167 187 0
168 192 0
166 188 0
170 193 0
166 188 0
171 193 0
171 193 0
171 194 0
166 189 0
167 190 0
171 193 0
168 190 0
162 184 0
162 185 0
168 189 0
168 192 0
166 189 0
170 190 0
168 188 0
163 185 0
167 188 0
166 189 0
169 189 0
166 189 0
163 183 0
172 195 0
165 188 0
167 187 0
164 186 0
162 185 0
172 195 0
169 190 0
162 185 0
168 192 0
169 191 0
167 191 0
171 193 0
169 191 0
165 187 0
168 189 0
166 187 0
168 189 0
166 187 0
168 190 0
170 192 0
169 191 0
164 187 0
167 187 0
163 182 0
161 182 0
166 189 0
164 184 0
166 188 0
163 187 0
163 185 0
171 191 0
167 187 0
168 188 0
166 188 0
167 188 0
168 187 0
160 181 0
159 177 0
157 176 0
159 178 0
165 183 0
161 180 0
163 182 0
170 193 0
156 177 0
160 179 0
158 174 0
165 184 0
164 185 0
160 180 0
170 189 0
158 176 0
159 176 0
157 177 0
161 179 0
164 182 0
167 187 0
158 175 0
156 171 0
148 164 0
157 175 0
166 184 0
165 181 0
161 180 0
165 182 0
164 182 0
158 174 0
161 180 0
160 177 0
156 174 0
152 170 0
156 171 0
157 173 0
154 169 0
153 169 0
156 169 0
157 167 0
157 167 0
119 111 30
127 121 0
117 113 22
115 108 0
129 120 0
125 119 22
125 120 22
139 131 28
131 126 28
143 137 28
138 133 28
136 131 22
130 127 22
142 138 16
137 131 22
139 135 22
139 135 0
148 141 22
137 132 28
142 137 16
147 141 28
135 130 16
139 133 28
143 137 22
149 146 16
150 146 39
140 135 16
143 138 0
149 142 32
148 142 32
146 142 22
151 145 22
151 145 39
149 143 36
155 149 42
152 149 28
149 142 28
142 135 22
152 145 32
148 143 28
150 145 0
143 139 32
142 138 22
151 146 28
145 139 22
144 138 28
153 148 22
147 143 16
146 142 28
146 141 28
148 143 16
146 140 22
151 145 22
147 144 22
142 137 22
145 139 16
145 138 32
146 142 0
145 139 28
148 145 28
151 146 16
148 143 32
136 132 16
145 139 32
152 147 32
144 139 16
153 146 22
151 145 28
147 141 22
139 134 22
141 136 22
139 135 22
134 129 28
147 142 28
151 145 22
141 138 16
140 136 22
141 137 28
140 135 32
142 138 28
138 133 22
134 130 32
134 129 28
138 132 32
115 112 16
126 121 22
119 113 28
126 121 16
118 112 16
134 133 16
158 172 0
170 184 0
157 174 0
167 182 0
161 176 0
160 173 0
166 183 0
161 180 0
169 187 0
169 185 0
170 189 0
166 182 0
164 181 0
166 184 0
168 187 0
171 189 0
168 188 0
165 184 0
166 184 0
162 179 0
172 191 0
166 184 0
164 184 0
170 188 0
168 188 0
171 190 0
169 187 0
172 190 0
171 190 0
162 181 0
165 184 0
169 189 0
171 190 0
168 187 0
171 192 0
173 196 0
171 192 0
169 191 0
172 192 0
171 193 0
172 194 0
171 190 0
167 188 0
170 189 0
171 192 0
171 191 0
169 187 0
170 189 0
170 189 0
171 190 0
167 189 0
172 193 0
171 193 0
167 187 0
174 196 0
172 195 0
175 198 0
173 197 0
173 196 0
174 197 0
177 199 0
170 196 0
171 195 0
172 195 0
173 197 0
173 197 0
175 197 0
171 195 0
174 198 0
175 198 0
172 195 0
174 197 0
175 198 0
174 198 0
174 197 0
174 197 0
174 197 0
175 198 0
174 197 0
172 195 0
175 198 0
173 195 0
175 198 0
174 198 0
174 196 0
175 197 0
171 195 0
176 198 0
174 197 0
172 197 0
175 198 0
171 195 0
173 196 0
174 197 0
170 194 0
171 195 0
175 197 0
172 196 0
168 192 0
171 194 0
171 195 0
173 197 0
169 193 0
174 197 0
173 196 0
173 196 0
174 198 0
173 197 0
172 196 0
168 190 0
172 196 0
169 193 0
170 194 0
174 197 0
174 198 0
170 194 0
175 198 0
173 195 0
171 195 0
172 196 0
170 194 0
170 194 0
172 196 0
173 197 0
172 195 0
172 196 0
168 192 0
169 193 0
170 194 0
172 195 0
173 197 0
172 195 0
170 195 0
173 196 0
171 193 0
171 195 0
171 194 0
172 194 0
172 196 0
174 198 0
172 196 0
171 195 0
169 192 0
169 191 0
174 196 0
171 195 0
170 193 0
170 195 0
172 196 0
171 195 0
167 191 0
173 197 0
169 191 0
173 196 0
170 193 0
173 197 0
168 191 0
169 192 0
168 191 0
171 194 0
169 191 0
170 193 0
171 195 0
171 195 0
171 195 0
169 192 0
174 197 0
171 195 0
166 190 0
164 187 0
172 196 0
172 195 0
173 193 0
166 190 0
174 196 0
170 193 0
168 191 0
171 193 0
170 193 0
169 191 0
166 188 0
164 187 0
165 189 0
170 194 0
169 192 0
170 192 0
174 197 0
169 192 0
169 192 0
166 191 0
171 193 0
168 190 0
167 189 0
173 195 0
166 188 0
170 194 0
164 186 0
166 189 0
168 190 0
167 190 0
166 188 0
171 192 0
171 195 0
174 195 0
169 193 0
167 189 0
169 191 0
168 191 0
171 194 0
165 187 0
169 192 0
171 194 0
170 191 0
170 193 0
162 185 0
169 190 0
171 192 0
166 187 0
169 193 0
167 190 0
168 190 0
167 187 0
170 194 0
168 190 0
169 191 0
168 192 0
170 190 0
168 190 0
166 187 0
167 189 0
166 189 0
165 187 0
170 193 0
160 179 0
168 188 0
164 185 0
165 187 0
168 191 0
167 189 0
165 188 0
168 190 0
169 192 0
165 189 0
165 188 0
164 189 0
159 181 0
163 184 0
163 186 0
165 187 0
168 190 0
163 183 0
171 192 0
170 192 0
167 187 0
164 185 0
162 184 0
165 186 0
167 187 0
165 186 0
156 176 0
165 186 0
168 189 0
166 187 0
164 185 0
165 185 0
171 191 0
165 187 0
161 181 0
165 187 0
166 186 0
155 175 0
154 174 0
163 184 0
163 183 0
163 182 0
168 188 0
169 189 0
160 179 0
165 186 0
164 181 0
164 185 0
162 180 0
170 192 0
166 184 0
165 184 0
159 178 0
164 181 0
165 184 0
165 184 0
154 170 0
158 173 0
160 176 0
158 177 0
154 172 0
167 186 0
162 180 0
167 186 0
153 168 0
166 185 0
162 180 0
157 174 0
156 172 0
158 170 0
150 167 0
158 173 0
155 173 0
159 175 0
153 167 0
145 161 0
144 157 0
126 123 0
122 115 22
128 119 22
131 125 25
118 113 22
130 122 22
133 126 0
138 133 0
143 139 28
142 137 28
129 123 22
141 137 32
144 138 32
145 140 16
131 127 22
143 136 32
143 137 0
142 136 22
146 141 36
145 140 22
142 138 22
140 137 28
140 136 28
144 137 28
145 139 22
133 128 16
148 143 28
145 139 16
148 143 16
147 142 22
153 147 32
146 141 22
150 145 28
146 139 28
148 143 28
150 146 16
144 139 22
146 141 28
145 141 28
150 146 22
149 143 28
152 147 22
149 144 22
143 138 22
143 139 16
142 136 0
154 148 36
147 139 16
142 136 16
153 147 32
153 149 22
150 144 22
157 152 42
149 144 36
150 144 28
145 142 32
149 145 22
149 143 28
140 134 16
144 140 28
142 137 22
148 145 32
145 140 16
147 143 16
146 142 16
150 146 22
143 139 16
138 134 22
134 130 16
152 146 39
143 137 22
146 141 16
140 136 28
134 128 22
145 140 28
134 128 22
143 138 22
136 132 22
136 130 22
137 133 28
135 129 28
127 123 22
145 140 36
129 123 32
127 123 22
119 116 16
124 117 36
125 119 22
133 124 22
145 158 0
156 168 0
162 177 0
169 186 0
165 180 0
169 186 0
162 177 0
159 176 0
166 180 0
159 173 0
168 184 0
170 186 0
162 183 0
171 189 0
170 187 0
164 177 0
167 185 0
165 183 0
166 185 0
168 188 0
167 185 0
164 178 0
168 188 0
168 186 0
165 186 0
167 187 0
167 186 0
168 185 0
171 190 0
170 190 0
169 187 0
169 189 0
169 187 0
169 187 0
170 189 0
174 195 0
172 192 0
169 190 0
174 193 0
167 186 0
169 190 0
170 191 0
167 186 0
171 190 0
165 185 0
171 194 0
171 194 0
170 192 0
169 186 0
170 190 0
169 193 0
168 189 0
173 194 0
171 191 0
167 188 0
172 193 0
168 190 0
174 197 0
173 196 0
172 195 0
174 196 0
171 195 0
174 197 0
174 196 0
173 197 0
173 196 0
173 196 0
176 198 0
171 193 0
173 197 0
172 196 0
173 196 0
170 194 0
173 196 0
175 198 0
173 197 0
175 198 0
175 198 0
173 196 0
174 196 0
174 197 0
171 194 0
173 196 0
171 195 0
172 196 0
175 197 0
173 196 0
170 195 0
174 197 0
173 196 0
175 198 0
173 196 0
174 198 0
175 198 0
172 195 0
173 197 0
167 190 0
174 197 0
170 193 0
169 193 0
172 195 0
170 193 0
171 194 0
174 197 0
173 197 0
170 193 0
173 196 0
171 195 0
174 196 0
171 194 0
174 197 0
171 194 0
171 195 0
168 190 0
168 193 0
170 194 0
175 197 0
167 190 0
171 195 0
173 196 0
171 195 0
174 196 0
171 193 0
175 198 0
172 195 0
170 192 0
171 194 0
169 193 0
175 198 0
172 195 0
172 196 0
171 194 0
173 196 0
168 192 0
172 194 0
171 194 0
170 195 0
168 192 0
170 195 0
169 192 0
171 195 0
170 194 0
169 192 0
173 196 0
172 196 0
169 191 0
169 192 0
171 196 0
168 191 0
172 196 0
170 194 0
169 191 0
174 197 0
176 199 0
169 192 0
172 195 0
170 192 0
170 193 0
170 194 0
173 195 0
174 197 0
174 197 0
174 197 0
172 195 0
170 192 0
170 194 0
170 194 0
169 193 0
169 192 0
169 192 0
172 197 0
173 197 0
169 194 0
168 191 0
166 189 0
167 190 0
171 194 0
171 195 0
173 195 0
170 193 0
169 192 0
170 193 0
167 190 0
170 194 0
167 189 0
168 192 0
170 194 0
174 197 0
170 192 0
173 195 0
170 193 0
170 192 0
169 193 0
171 193 0
174 197 0
163 187 0
171 193 0
166 188 0
172 196 0
170 193 0
166 189 0
174 197 0
169 192 0
165 188 0
167 191 0
174 195 0
173 196 0
159 181 0
169 191 0
168 191 0
170 192 0
165 188 0
166 189 0
168 191 0
169 192 0
168 189 0
167 190 0
162 185 0
172 195 0
171 193 0
164 187 0
168 189 0
166 188 0
161 185 0
169 192 0
167 188 0
171 193 0
166 188 0
169 192 0
172 196 0
168 189 0
165 187 0
169 191 0
170 191 0
167 186 0
167 190 0
164 186 0
171 193 0
163 183 0
164 186 0
172 193 0
169 190 0
168 189 0
172 195 0
170 193 0
165 184 0
163 186 0
168 189 0
167 188 0
167 187 0
169 190 0
163 184 0
162 183 0
160 179 0
156 178 0
167 190 0
163 186 0
167 191 0
162 184 0
165 187 0
165 186 0
167 189 0
169 191 0
168 190 0
163 183 0
165 185 0
170 189 0
161 182 0
166 188 0
163 184 0
165 186 0
162 179 0
166 186 0
164 181 0
167 187 0
168 188 0
160 180 0
154 174 0
155 172 0
162 182 0
160 180 0
166 187 0
164 182 0
166 184 0
162 178 0
166 185 0
158 173 0
163 180 0
159 180 0
158 176 0
160 176 0
162 181 0
160 177 0
154 172 0
158 177 0
160 179 0
162 183 0
160 179 0
160 179 0
147 164 0
156 174 0
158 171 0
163 180 0
158 176 0
165 181 0
154 171 0
161 179 0
151 168 0
159 176 0
156 171 0
158 173 0
147 155 0
120 115 30
119 113 0
118 112 16
123 117 16
132 126 32
135 128 0
130 123 22
136 129 28
140 134 36
139 133 28
137 132 32
144 138 0
136 129 16
146 141 36
148 141 36
145 139 16
139 136 22
133 129 28
146 142 28
148 142 16
148 144 16
145 141 0
145 139 0
141 137 28
147 144 22
138 130 16
148 143 22
144 141 22
148 145 0
142 138 16
147 140 28
142 136 28
145 137 28
148 144 28
146 140 32
137 131 22
151 144 32
146 142 22
153 149 16
145 139 22
149 143 39
153 149 22
144 139 16
148 143 16
145 140 16
150 144 28
146 141 22
146 139 22
140 134 16
150 143 32
148 142 22
147 143 16
145 139 32
155 150 28
145 139 28
146 140 22
148 143 28
146 141 16
147 143 16
149 143 22
141 138 0
148 142 39
145 141 22
146 139 22
146 142 16
138 133 22
144 139 28
147 143 22
142 137 22
151 146 32
139 134 32
144 140 22
149 142 39
160 154 36
139 132 22
142 135 28
145 140 28
134 130 16
133 127 16
136 133 16
122 118 0
138 133 22
127 122 32
119 113 16
118 113 0
118 112 32
115 111 22
115 108 22
156 170 0
160 173 0
160 175 0
163 180 0
169 186 0
166 182 0
163 176 0
166 181 0
163 179 0
162 180 0
171 189 0
167 184 0
165 184 0
170 185 0
170 190 0
169 186 0
169 188 0
166 185 0
169 189 0
167 186 0
165 183 0
167 188 0
168 184 0
169 188 0
165 184 0
169 189 0
166 184 0
171 187 0
172 193 0
169 187 0
172 191 0
170 190 0
171 188 0
173 191 0
173 194 0
166 186 0
170 188 0
171 191 0
171 190 0
173 191 0
172 192 0
169 188 0
172 193 0
171 192 0
168 187 0
172 193 0
169 191 0
172 194 0
170 191 0
176 198 0
167 185 0
171 194 0
170 191 0
174 194 0
175 197 0
170 190 0
173 195 0
173 196 0
177 199 0
173 196 0
177 199 0
173 197 0
173 197 0
174 196 0
175 198 0
172 196 0
175 196 0
175 198 0
175 197 0
174 198 0
175 198 0
170 194 0
174 196 0
172 196 0
171 194 0
175 198 0
172 195 0
173 196 0
175 198 0
176 198 0
174 197 0
173 197 0
175 197 0
174 198 0
171 195 0
173 196 0
171 194 0
176 199 0
172 195 0
173 196 0
172 196 0
174 197 0
170 194 0
170 193 0
173 197 0
173 197 0
174 197 0
173 197 0
174 196 0
171 194 0
174 197 0
172 196 0
173 197 0
170 193 0
171 195 0
171 193 0
172 195 0
171 196 0
172 195 0
173 195 0
169 193 0
171 194 0
169 192 0
174 197 0
172 196 0
171 195 0
170 194 0
168 192 0
173 195 0
170 194 0
174 197 0
171 194 0
173 196 0
173 197 0
175 198 0
171 194 0
169 192 0
172 195 0
168 192 0
175 198 0
173 197 0
172 196 0
172 195 0
174 197 0
170 195 0
173 195 0
172 195 0
171 193 0
171 194 0
174 197 0
171 194 0
174 197 0
173 196 0
173 195 0
171 195 0
171 194 0
173 196 0
172 194 0
169 192 0
171 195 0
168 191 0
173 194 0
172 194 0
172 196 0
173 195 0
167 189 0
174 197 0
170 193 0
172 195 0
171 194 0
169 193 0
174 195 0
172 195 0
171 194 0
164 188 0
172 196 0
169 191 0
175 198 0
168 190 0
172 195 0
175 198 0
167 190 0
174 195 0
172 195 0
171 196 0
170 192 0
165 188 0
164 189 0
173 196 0
168 192 0
168 190 0
172 195 0
167 191 0
169 191 0
166 190 0
169 193 0
168 192 0
171 196 0
170 192 0
171 192 0
171 194 0
171 193 0
168 190 0
166 187 0
173 197 0
170 194 0
169 193 0
169 192 0
171 195 0
171 193 0
174 196 0
167 191 0
170 193 0
171 194 0
173 196 0
167 189 0
170 192 0
163 185 0
167 190 0
166 185 0
173 196 0
171 195 0
172 195 0
168 191 0
168 190 0
171 192 0
168 190 0
164 186 0
158 181 0
166 190 0
172 194 0
167 190 0
165 189 0
168 192 0
167 190 0
171 194 0
169 190 0
167 187 0
169 192 0
166 188 0
170 193 0
170 193 0
168 191 0
175 195 0
169 191 0
167 189 0
168 190 0
164 184 0
161 181 0
168 190 0
167 188 0
166 188 0
167 188 0
168 189 0
169 191 0
169 190 0
173 194 0
168 191 0
169 190 0
159 180 0
166 185 0
166 190 0
160 184 0
161 182 0
164 184 0
168 189 0
159 180 0
165 187 0
163 184 0
169 190 0
159 181 0
165 185 0
158 178 0
165 187 0
165 184 0
165 189 0
164 185 0
161 182 0
161 180 0
168 189 0
162 182 0
159 176 0
163 183 0
166 187 0
164 184 0
168 185 0
164 184 0
158 179 0
163 185 0
166 184 0
162 180 0
167 189 0
165 185 0
163 183 0
168 184 0
169 190 0
159 180 0
167 185 0
168 188 0
160 177 0
168 186 0
156 175 0
166 185 0
161 180 0
160 179 0
160 175 0
167 186 0
158 174 0
167 181 0
152 169 0
157 176 0
159 178 0
157 172 0
160 179 0
167 182 0
156 172 0
153 167 0
151 166 0
157 170 0
159 174 0
148 161 0
158 173 0
132 133 22
118 111 16
129 121 28
130 123 28
132 126 16
134 127 28
122 116 0
130 125 22
147 139 28
136 130 22
144 137 28
134 130 16
137 130 16
128 121 16
145 140 22
144 141 22
132 127 16
148 144 32
141 136 32
142 138 22
146 141 0
142 138 22
147 140 16
149 143 36
149 143 28
147 142 32
147 141 16
141 135 22
140 135 22
146 140 22
148 141 28
149 145 22
140 136 22
150 143 22
146 141 22
146 142 16
147 142 28
150 144 32
147 140 32
153 148 32
143 139 22
149 145 22
151 145 22
153 149 32
146 141 16
144 140 22
144 139 16
148 141 28
155 150 28
151 145 36
144 139 22
153 148 22
147 141 16
148 143 22
142 139 16
145 139 22
151 145 32
151 146 36
145 138 36
147 143 16
149 143 28
145 140 22
140 135 22
143 138 22
142 135 22
145 142 22
143 137 32
140 135 22
140 136 28
136 132 22
150 144 36
146 140 28
141 137 16
152 146 42
135 128 16
140 135 16
137 135 16
138 134 32
131 125 32
126 120 22
130 126 16
133 129 22
133 127 22
130 125 32
130 123 28
122 115 32
123 118 0
140 139 0
154 166 0
167 184 0
166 177 0
162 178 0
163 178 0
164 178 0
167 181 0
160 174 0
165 183 0
169 186 0
157 174 0
161 176 0
168 184 0
165 182 0
161 175 0
168 184 0
162 180 0
167 185 0
167 184 0
168 187 0
167 182 0
168 184 0
173 193 0
167 183 0
168 186 0
169 189 0
168 191 0
169 188 0
171 189 0
170 192 0
171 191 0
167 183 0
170 189 0
171 189 0
171 191 0
167 187 0
172 195 0
170 191 0
172 192 0
167 186 0
170 189 0
174 193 0
170 192 0
172 192 0
171 190 0
169 188 0
170 189 0
173 192 0
170 191 0
171 191 0
171 189 0
173 194 0
169 190 0
169 190 0
170 192 0
172 193 0
173 195 0
173 196 0
169 193 0
174 197 0
171 195 0
174 196 0
173 196 0
172 195 0
173 197 0
173 196 0
173 197 0
174 196 0
172 197 0
176 198 0
171 194 0
178 199 0
175 198 0
174 197 0
171 196 0
175 198 0
174 197 0
172 196 0
171 196 0
173 196 0
171 195 0
171 195 0
171 194 0
173 197 0
174 197 0
173 196 0
173 197 0
170 194 0
173 197 0
171 193 0
171 195 0
175 198 0
173 196 0
175 198 0
172 196 0
173 197 0
172 196 0
174 197 0
171 193 0
173 197 0
174 197 0
173 197 0
170 193 0
173 196 0
173 195 0
172 195 0
170 193 0
174 197 0
171 193 0
168 192 0
171 194 0
173 196 0
171 195 0
173 197 0
170 193 0
170 194 0
170 194 0
174 196 0
172 195 0
170 194 0
168 191 0
173 197 0
171 194 0
174 196 0
171 195 0
167 191 0
171 195 0
171 195 0
167 191 0
173 197 0
169 192 0
168 192 0
172 194 0
171 195 0
174 196 0
171 194 0
170 194 0
170 192 0
174 197 0
172 194 0
172 195 0
171 194 0
174 197 0
171 195 0
171 195 0
173 196 0
174 198 0
167 191 0
171 195 0
171 195 0
172 195 0
173 196 0
170 194 0
174 197 0
172 193 0
170 192 0
169 190 0
169 193 0
173 197 0
173 197 0
165 187 0
171 194 0
172 197 0
176 197 0
172 196 0
173 197 0
172 194 0
173 196 0
169 191 0
168 192 0
170 192 0
172 195 0
173 195 0
170 192 0
170 194 0
173 195 0
171 195 0
166 189 0
169 192 0
171 195 0
169 192 0
170 193 0
173 197 0
172 195 0
164 188 0
168 191 0
173 197 0
170 193 0
166 187 0
169 192 0
170 194 0
173 195 0
166 189 0
171 194 0
169 191 0
167 190 0
169 191 0
167 188 0
168 191 0
174 197 0
168 192 0
173 196 0
169 192 0
170 192 0
167 188 0
171 194 0
163 184 0
172 194 0
169 192 0
171 192 0
168 192 0
165 189 0
168 191 0
169 194 0
168 191 0
171 193 0
170 193 0
164 186 0
171 193 0
169 190 0
170 193 0
168 191 0
170 193 0
168 191 0
170 193 0
165 187 0
168 190 0
170 190 0
171 193 0
171 193 0
173 196 0
158 180 0
168 191 0
162 184 0
171 194 0
165 185 0
165 186 0
166 188 0
173 195 0
166 189 0
171 192 0
165 186 0
171 193 0
165 185 0
166 187 0
165 188 0
162 185 0
168 190 0
169 191 0
168 191 0
162 183 0
169 187 0
166 188 0
168 190 0
166 188 0
163 184 0
165 184 0
160 180 0
170 190 0
163 185 0
169 191 0
164 183 0
169 192 0
162 184 0
163 184 0
161 183 0
163 182 0
169 190 0
169 190 0
163 184 0
164 185 0
170 192 0
155 175 0
165 184 0
170 191 0
163 182 0
165 186 0
159 177 0
164 184 0
162 182 0
163 184 0
165 186 0
166 185 0
168 190 0
171 190 0
163 183 0
165 186 0
162 179 0
162 181 0
165 183 0
165 185 0
160 179 0
168 187 0
159 175 0
163 182 0
167 185 0
159 178 0
162 180 0
162 176 0
161 181 0
159 173 0
156 173 0
160 180 0
164 183 0
159 176 0
157 174 0
156 175 0
156 172 0
165 182 0
160 175 0
155 171 0
158 171 0
153 163 0
132 126 16
130 123 28
138 131 32
132 126 22
129 121 0
129 122 16
140 135 28
137 131 28
149 143 28
139 134 22
140 135 22
144 138 16
135 129 16
135 131 16
139 134 22
142 137 22
147 140 22
145 140 22
141 133 16
139 134 28
142 138 16
140 135 32
146 142 0
143 138 28
150 145 16
133 129 22
145 140 16
151 146 32
135 129 28
148 141 32
150 145 0
139 134 22
146 141 32
145 140 16
146 142 16
143 138 16
136 131 0
146 142 22
148 141 28
142 135 16
151 146 16
148 144 0
152 148 32
144 139 22
149 143 16
147 139 28
149 144 28
153 148 36
147 142 28
145 139 32
146 143 22
150 143 22
151 145 32
140 137 22
154 148 32
144 139 22
145 140 0
147 142 16
152 145 28
142 139 16
142 137 0
141 136 16
141 138 0
141 136 28
144 138 28
142 138 0
146 140 16
142 137 32
141 134 16
143 138 22
141 135 28
144 138 32
140 136 28
144 138 16
146 139 32
139 134 16
139 134 22
137 132 28
131 124 36
122 117 22
124 120 22
142 138 16
130 124 22
118 114 16
116 109 22
118 112 22
148 152 16
153 165 0
160 175 0
161 176 0
161 177 0
158 171 0
161 176 0
166 181 0
166 182 0
161 176 0
162 180 0
165 178 0
167 183 0
166 183 0
166 184 0
170 187 0
164 179 0
166 184 0
168 187 0
165 181 0
161 179 0
169 184 0
164 179 0
169 186 0
167 188 0
169 188 0
170 191 0
170 188 0
169 190 0
171 189 0
168 190 0
170 192 0
171 191 0
173 194 0
170 192 0
171 192 0
167 187 0
171 192 0
171 188 0
168 188 0
170 190 0
169 189 0
169 188 0
170 188 0
171 191 0
174 195 0
169 189 0
168 188 0
168 186 0
171 191 0
173 192 0
171 191 0
169 191 0
171 192 0
170 189 0
171 191 0
167 187 0
172 193 0
175 198 0
173 197 0
172 195 0
176 199 0
172 196 0
173 197 0
172 196 0
173 197 0
169 194 0
173 196 0
174 197 0
172 196 0
170 194 0
175 197 0
171 195 0
176 198 0
172 197 0
171 195 0
173 197 0
175 198 0
175 198 0
173 195 0
174 198 0
173 196 0
173 196 0
174 196 0
173 196 0
171 195 0
173 196 0
172 195 0
176 198 0
172 196 0
170 194 0
173 197 0
170 195 0
174 196 0
172 196 0
168 192 0
171 194 0
171 195 0
170 194 0
174 198 0
172 196 0
173 196 0
169 193 0
174 197 0
174 197 0
174 197 0
175 198 0
173 196 0
170 192 0
173 197 0
175 198 0
171 195 0
172 196 0
172 195 0
171 195 0
173 197 0
173 196 0
173 197 0
171 194 0
169 193 0
174 196 0
172 196 0
175 198 0
173 197 0
174 197 0
173 196 0
168 191 0
171 195 0
171 195 0
173 196 0
170 194 0
174 197 0
175 198 0
172 195 0
174 197 0
175 197 0
172 195 0
171 194 0
172 196 0
173 197 0
173 195 0
170 193 0
175 197 0
171 195 0
172 195 0
174 197 0
174 196 0
170 193 0
171 194 0
173 194 0
170 192 0
174 197 0
171 194 0
169 192 0
172 195 0
172 196 0
168 192 0
174 197 0
169 193 0
168 191 0
168 192 0
171 193 0
172 194 0
170 193 0
173 196 0
173 196 0
171 195 0
169 193 0
172 196 0
171 193 0
169 192 0
170 194 0
169 193 0
170 192 0
169 191 0
171 195 0
171 195 0
171 194 0
163 186 0
168 191 0
172 195 0
171 195 0
169 192 0
167 189 0
165 188 0
171 193 0
167 190 0
169 192 0
170 192 0
168 190 0
171 194 0
165 186 0
174 197 0
168 191 0
167 190 0
170 193 0
173 196 0
168 192 0
169 193 0
167 189 0
163 184 0
166 190 0
170 193 0
167 191 0
172 193 0
173 196 0
170 195 0
164 186 0
171 194 0
169 192 0
166 189 0
170 193 0
168 191 0
168 193 0
171 193 0
171 192 0
169 190 0
170 193 0
171 194 0
172 195 0
166 190 0
162 185 0
173 195 0
171 194 0
164 185 0
166 189 0
171 194 0
166 188 0
166 187 0
166 187 0
165 185 0
163 183 0
168 190 0
171 192 0
168 191 0
165 187 0
167 188 0
172 194 0
164 184 0
167 187 0
166 188 0
168 188 0
164 185 0
164 186 0
170 191 0
163 183 0
166 185 0
164 186 0
169 191 0
161 183 0
163 186 0
164 186 0
161 182 0
169 190 0
166 187 0
168 189 0
167 188 0
164 184 0
166 186 0
167 187 0
171 193 0
165 186 0
168 192 0
170 190 0
171 192 0
159 178 0
164 186 0
165 186 0
170 190 0
163 185 0
170 189 0
171 194 0
164 184 0
164 184 0
161 178 0
155 175 0
160 181 0
164 184 0
163 184 0
165 185 0
165 184 0
160 177 0
156 174 0
161 181 0
159 180 0
167 183 0
165 187 0
162 181 0
161 180 0
162 181 0
165 184 0
160 177 0
168 187 0
163 180 0
167 186 0
149 168 0
160 178 0
155 169 0
162 179 0
166 183 0
162 179 0
160 176 0
165 182 0
160 177 0
153 167 0
166 183 0
158 177 0
163 178 0
149 165 0
160 176 0
154 169 0
151 163 0
152 167 0
157 172 0
157 161 28
130 123 28
122 116 14
129 122 16
130 125 16
132 125 32
135 127 16
130 123 0
137 132 22
144 136 32
145 139 42
136 131 16
138 133 22
142 137 16
138 133 22
145 137 28
140 137 22
129 124 16
145 138 36
141 134 28
143 138 16
138 134 16
143 140 22
142 137 22
147 142 28
145 140 16
143 140 16
147 142 16
149 144 22
143 136 22
151 145 16
153 147 28
153 147 32
148 142 28
145 138 32
146 140 16
148 143 22
152 145 45
147 142 28
149 142 39
152 146 36
151 146 16
143 139 28
150 144 16
144 140 16
153 146 22
142 138 16
150 146 28
151 144 28
150 145 22
150 143 28
144 139 22
141 137 22
145 141 22
143 139 0
148 144 16
142 135 16
148 143 28
154 149 0
145 141 28
141 137 22
148 141 22
148 142 16
146 141 16
145 138 32
146 139 36
141 137 16
142 137 22
135 131 32
135 131 22
129 124 22
148 144 22
142 136 28
143 136 16
140 135 22
135 129 32
128 123 16
133 127 22
135 129 32
130 124 32
135 131 0
125 118 22
132 124 28
124 118 22
124 115 0
112 107 28
149 162 16
165 182 0
155 167 0
160 175 0
165 183 0
163 175 0
163 178 0
162 178 0
167 183 0
165 181 0
162 175 0
163 180 0
171 190 0
168 187 0
166 181 0
163 182 0
163 183 0
167 185 0
163 177 0
164 181 0
168 187 0
172 192 0
170 190 0
169 188 0
171 192 0
168 185 0
170 187 0
169 191 0
172 192 0
172 190 0
170 187 0
169 190 0
171 193 0
170 189 0
172 194 0
169 190 0
171 191 0
169 188 0
168 190 0
174 194 0
169 186 0
170 190 0
167 186 0
171 190 0
171 191 0
168 191 0
169 186 0
167 186 0
168 191 0
170 194 0
174 196 0
169 191 0
171 192 0
174 193 0
174 196 0
172 191 0
172 193 0
173 195 0
172 196 0
174 197 0
173 196 0
174 197 0
175 198 0
171 195 0
169 193 0
175 198 0
173 197 0
172 195 0
174 196 0
171 195 0
174 198 0
173 196 0
168 193 0
176 199 0
174 198 0
174 197 0
171 195 0
169 192 0
175 198 0
174 196 0
173 197 0
172 196 0
173 197 0
174 197 0
175 198 0
171 195 0
172 195 0
172 195 0
170 195 0
173 196 0
173 196 0
173 196 0
171 194 0
171 195 0
174 196 0
173 197 0
172 195 0
174 197 0
170 195 0
170 194 0
173 195 0
171 196 0
172 195 0
172 196 0
175 198 0
173 197 0
170 193 0
175 197 0
174 197 0
174 197 0
173 196 0
174 197 0
174 196 0
173 197 0
172 195 0
170 195 0
170 193 0
173 195 0
172 196 0
176 197 0
167 190 0
175 197 0
171 195 0
174 196 0
171 195 0
170 194 0
173 196 0
171 195 0
172 196 0
173 195 0
170 194 0
167 191 0
172 195 0
171 195 0
171 194 0
170 194 0
172 195 0
173 195 0
173 196 0
170 193 0
170 194 0
175 197 0
175 197 0
172 194 0
173 196 0
174 197 0
174 197 0
169 192 0
170 193 0
172 194 0
171 194 0
173 196 0
169 193 0
169 193 0
172 195 0
173 195 0
170 193 0
172 196 0
172 195 0
169 192 0
173 196 0
171 194 0
170 193 0
171 194 0
174 197 0
171 194 0
170 192 0
173 197 0
172 196 0
174 198 0
170 194 0
172 196 0
169 192 0
172 195 0
168 191 0
168 191 0
167 189 0
171 194 0
171 194 0
166 190 0
172 195 0
171 195 0
168 191 0
170 194 0
172 195 0
172 194 0
170 192 0
175 198 0
167 192 0
171 194 0
173 195 0
170 193 0
168 190 0
170 193 0
175 197 0
168 191 0
168 191 0
169 192 0
171 192 0
171 192 0
171 194 0
169 192 0
166 188 0
169 191 0
168 192 0
173 195 0
168 191 0
167 189 0
170 192 0
170 194 0
170 192 0
170 191 0
167 191 0
168 191 0
166 189 0
167 190 0
170 192 0
174 196 0
171 194 0
174 197 0
168 190 0
166 188 0
172 195 0
162 185 0
170 192 0
165 187 0
167 190 0
170 193 0
169 191 0
169 192 0
171 195 0
163 186 0
172 195 0
169 191 0
165 188 0
170 194 0
172 193 0
166 188 0
166 187 0
162 184 0
167 187 0
162 183 0
170 191 0
164 187 0
168 192 0
166 187 0
167 187 0
169 189 0
168 188 0
171 193 0
168 188 0
167 189 0
168 189 0
163 184 0
163 184 0
164 183 0
161 182 0
165 188 0
163 186 0
168 187 0
162 181 0
159 181 0
169 191 0
163 182 0
169 187 0
167 185 0
167 190 0
165 185 0
165 186 0
163 180 0
165 184 0
171 192 0
161 181 0
162 181 0
168 190 0
171 191 0
171 192 0
162 179 0
156 175 0
167 188 0
161 183 0
162 182 0
161 182 0
170 188 0
168 189 0
159 178 0
166 184 0
158 177 0
159 176 0
159 177 0
160 180 0
159 176 0
164 181 0
163 182 0
155 171 0
168 186 0
165 184 0
169 188 0
163 182 0
165 186 0
161 179 0
159 177 0
155 173 0
163 183 0
165 183 0
156 173 0
156 173 0
158 175 0
165 180 0
155 167 0
160 178 0
156 170 0
157 169 0
158 173 0
155 170 0
154 154 32
119 113 0
127 120 0
127 121 16
117 111 19
123 116 22
143 135 28
138 133 28
133 128 16
141 133 28
140 135 16
138 131 28
130 124 0
139 132 16
148 142 32
149 140 32
144 138 28
141 134 22
142 139 22
141 135 22
143 138 22
138 133 16
145 138 22
142 137 0
146 141 16
148 143 16
140 134 16
137 133 0
142 136 16
138 134 16
148 143 22
147 143 22
147 143 16
149 144 28
143 138 16
144 138 16
151 145 28
148 144 16
147 142 22
142 135 16
149 142 28
144 137 22
152 146 22
146 140 16
147 142 32
147 144 16
144 138 16
144 139 22
138 132 0
150 144 28
147 142 22
147 141 28
137 133 0
152 144 16
136 130 0
152 146 16
148 141 22
143 139 28
144 138 39
143 139 16
149 145 28
140 135 22
144 137 32
148 143 22
149 143 32
146 141 16
147 142 16
141 137 22
134 129 22
142 136 16
139 134 36
136 129 22
137 130 0
136 131 0
131 127 0
133 127 28
140 133 39
138 134 0
127 122 28
119 115 0
135 126 16
132 126 32
125 120 16
117 112 16
125 124 28
160 171 0
163 178 0
164 178 0
165 180 0
157 172 0
161 178 0
163 179 0
159 177 0
160 174 0
163 176 0
156 171 0
169 188 0
165 179 0
167 184 0
168 185 0
163 179 0
169 187 0
168 188 0
170 191 0
169 187 0
170 189 0
170 189 0
164 180 0
171 190 0
165 181 0
170 185 0
169 187 0
165 184 0
168 185 0
169 189 0
170 192 0
171 191 0
172 192 0
169 188 0
170 191 0
170 190 0
169 186 0
169 188 0
170 193 0
172 189 0
166 184 0
168 188 0
170 191 0
171 190 0
170 187 0
169 190 0
173 192 0
169 191 0
171 191 0
171 192 0
170 191 0
169 189 0
169 189 0
171 191 0
174 194 0
169 187 0
170 192 0
171 193 0
170 194 0
174 197 0
173 196 0
174 196 0
175 198 0
175 198 0
176 198 0
174 197 0
172 195 0
173 197 0
173 196 0
171 195 0
174 198 0
171 195 0
172 196 0
173 197 0
172 195 0
174 197 0
172 195 0
172 196 0
172 196 0
176 199 0
174 197 0
171 195 0
172 195 0
174 197 0
172 196 0
171 196 0
172 195 0
172 196 0
171 194 0
173 196 0
173 197 0
168 193 0
175 197 0
171 195 0
172 195 0
170 195 0
171 196 0
172 195 0
176 197 0
172 196 0
168 192 0
172 196 0
172 196 0
172 196 0
175 198 0
170 193 0
175 198 0
175 198 0
170 194 0
171 194 0
173 196 0
171 194 0
175 198 0
173 195 0
169 193 0
173 197 0
171 194 0
172 196 0
175 197 0
170 194 0
176 198 0
171 195 0
171 195 0
174 195 0
174 197 0
172 195 0
171 195 0
173 196 0
171 195 0
172 195 0
175 198 0
167 191 0
173 194 0
170 193 0
172 195 0
169 191 0
172 196 0
172 195 0
168 191 0
171 195 0
167 191 0
171 195 0
173 196 0
172 196 0
171 195 0
173 195 0
171 194 0
172 195 0
171 193 0
174 198 0
170 194 0
173 195 0
170 193 0
171 195 0
171 196 0
169 193 0
174 197 0
171 194 0
174 196 0
173 195 0
171 195 0
170 192 0
168 192 0
167 190 0
164 187 0
170 193 0
171 194 0
173 197 0
172 194 0
171 195 0
176 199 0
173 196 0
172 194 0
170 193 0
170 192 0
173 196 0
172 196 0
168 189 0
173 196 0
173 196 0
170 194 0
170 193 0
172 196 0
171 194 0
171 193 0
168 190 0
167 190 0
168 190 0
171 194 0
171 193 0
172 196 0
168 190 0
169 191 0
164 187 0
170 193 0
166 190 0
170 193 0
170 194 0
172 195 0
169 192 0
168 190 0
170 194 0
168 192 0
169 194 0
169 192 0
170 192 0
172 195 0
168 192 0
170 193 0
164 186 0
165 189 0
169 191 0
170 192 0
166 187 0
166 189 0
159 180 0
161 183 0
167 189 0
171 193 0
169 191 0
165 188 0
163 184 0
167 190 0
171 194 0
167 189 0
167 190 0
168 191 0
168 191 0
170 192 0
161 184 0
172 196 0
167 188 0
169 191 0
166 186 0
166 190 0
170 193 0
166 188 0
162 184 0
166 188 0
171 193 0
169 192 0
167 189 0
168 191 0
160 181 0
169 191 0
171 194 0
164 185 0
172 194 0
170 189 0
163 183 0
168 190 0
169 191 0
163 185 0
171 194 0
168 189 0
167 188 0
171 194 0
168 191 0
172 193 0
168 192 0
163 185 0
163 186 0
169 190 0
166 186 0
165 187 0
168 190 0
160 182 0
162 183 0
165 183 0
165 184 0
164 183 0
164 185 0
167 190 0
165 186 0
164 186 0
165 184 0
162 183 0
167 185 0
164 184 0
166 182 0
162 180 0
167 188 0
165 182 0
160 181 0
167 186 0
164 182 0
164 184 0
161 178 0
164 184 0
159 176 0
164 183 0
164 181 0
164 181 0
169 188 0
163 182 0
161 181 0
164 180 0
158 175 0
166 187 0
165 184 0
165 184 0
156 174 0
163 181 0
161 176 0
162 177 0
156 172 0
164 180 0
165 179 0
160 173 0
155 171 0
155 172 0
165 178 0
161 177 0
157 172 0
159 175 0
157 172 0
150 149 22
124 117 22
127 122 0
139 132 22
136 129 28
122 116 16
128 122 16
136 129 16
142 136 36
138 130 28
131 124 22
146 140 22
145 138 22
142 135 22
142 136 22
143 138 28
137 131 36
136 130 16
133 126 22
137 131 22
150 145 22
156 150 32
144 139 16
136 132 16
150 144 32
145 140 22
150 143 22
148 142 22
145 139 22
144 138 28
141 136 28
151 144 28
150 144 22
153 148 32
150 144 28
148 145 22
146 139 16
150 144 32
147 142 28
143 136 22
143 138 22
147 142 16
138 134 16
143 138 22
149 144 0
150 144 22
146 140 32
142 137 22
151 145 28
141 136 16
146 143 16
143 137 22
141 136 16
151 144 16
146 142 0
146 141 32
141 136 16
142 138 0
142 136 0
143 139 16
150 145 28
140 134 36
148 140 28
144 138 0
140 134 22
141 134 0
144 138 0
139 135 28
147 142 28
143 138 16
131 126 28
129 123 36
139 130 32
137 131 28
131 125 28
138 134 28
138 133 22
129 125 16
132 128 28
137 132 28
129 124 0
122 119 16
113 108 22
138 143 0
151 161 0
165 175 0
162 174 0
160 175 0
161 175 0
164 181 0
162 176 0
168 186 0
162 176 0
167 183 0
165 183 0
170 186 0
161 178 0
166 182 0
161 176 0
166 182 0
172 191 0
168 184 0
174 192 0
168 185 0
165 180 0
169 185 0
170 189 0
169 188 0
166 184 0
170 190 0
168 185 0
171 193 0
166 186 0
170 190 0
169 189 0
167 186 0
169 188 0
169 189 0
171 190 0
172 193 0
168 188 0
170 192 0
174 195 0
171 190 0
168 189 0
171 193 0
165 185 0
171 191 0
171 189 0
171 194 0
170 191 0
171 192 0
171 192 0
166 188 0
170 190 0
168 189 0
169 189 0
173 195 0
173 196 0
169 190 0
172 193 0
173 195 0
175 198 0
174 197 0
173 196 0
174 198 0
171 194 0
175 198 0
173 196 0
175 197 0
169 193 0
174 197 0
173 197 0
172 195 0
175 198 0
171 195 0
174 198 0
175 198 0
173 196 0
171 196 0
172 197 0
174 197 0
174 197 0
174 197 0
173 196 0
173 196 0
171 195 0
175 197 0
169 193 0
174 197 0
173 197 0
174 197 0
172 195 0
170 193 0
174 198 0
176 199 0
170 194 0
175 198 0
171 196 0
171 194 0
176 198 0
176 199 0
174 196 0
171 194 0
173 197 0
174 196 0
171 194 0
172 195 0
170 194 0
174 197 0
171 194 0
174 197 0
174 197 0
172 195 0
173 197 0
173 196 0
172 196 0
170 192 0
171 194 0
167 191 0
173 196 0
173 197 0
171 195 0
173 196 0
169 191 0
175 198 0
173 196 0
171 194 0
175 198 0
173 194 0
173 196 0
170 194 0
169 192 0
169 192 0
167 192 0
172 195 0
171 195 0
175 198 0
172 195 0
173 196 0
171 196 0
173 197 0
172 195 0
173 195 0
171 195 0
176 199 0
173 196 0
167 190 0
174 197 0
175 198 0
169 193 0
171 194 0
171 195 0
174 196 0
170 193 0
172 196 0
170 192 0
170 194 0
169 193 0
169 192 0
169 192 0
177 199 0
171 196 0
173 196 0
166 188 0
170 193 0
173 196 0
173 196 0
172 196 0
168 191 0
172 196 0
174 197 0
174 197 0
174 198 0
166 191 0
169 193 0
170 192 0
168 192 0
172 193 0
173 197 0
175 197 0
170 193 0
174 197 0
172 194 0
171 195 0
169 193 0
173 196 0
172 194 0
170 193 0
166 189 0
169 192 0
172 196 0
173 196 0
170 193 0
172 194 0
167 190 0
171 194 0
173 194 0
169 192 0
169 193 0
169 193 0
164 184 0
171 194 0
173 196 0
172 195 0
170 193 0
165 189 0
169 191 0
169 192 0
165 188 0
168 192 0
170 191 0
168 192 0
168 190 0
167 189 0
170 192 0
170 195 0
172 195 0
173 196 0
168 190 0
164 188 0
167 190 0
172 196 0
167 189 0
165 188 0
169 190 0
166 188 0
170 193 0
162 184 0
167 189 0
170 192 0
172 195 0
168 190 0
163 184 0
160 181 0
168 192 0
165 188 0
173 196 0
169 192 0
167 188 0
165 186 0
166 187 0
167 190 0
167 191 0
166 188 0
164 186 0
167 188 0
172 194 0
165 188 0
161 182 0
172 196 0
168 191 0
166 188 0
172 194 0
167 189 0
168 188 0
164 184 0
169 189 0
167 186 0
164 185 0
166 188 0
164 184 0
165 188 0
168 190 0
168 191 0
169 192 0
155 175 0
167 189 0
166 188 0
166 186 0
162 183 0
165 186 0
168 187 0
161 181 0
168 189 0
164 184 0
166 187 0
164 186 0
159 176 0
161 182 0
172 194 0
163 183 0
166 186 0
161 182 0
167 187 0
170 189 0
168 187 0
164 183 0
162 182 0
168 190 0
167 187 0
161 180 0
169 187 0
165 184 0
160 180 0
158 179 0
166 185 0
165 187 0
168 186 0
163 182 0
167 186 0
162 178 0
159 176 0
162 183 0
159 176 0
159 179 0
168 188 0
163 180 0
170 190 0
168 185 0
164 180 0
159 177 0
160 175 0
165 179 0
155 170 0
155 170 0
153 170 0
158 172 0
163 175 0
158 173 0
157 170 0
135 138 22
137 129 22
135 126 22
123 118 0
134 124 32
146 137 28
130 126 16
139 132 22
139 131 22
140 135 22
145 139 28
140 131 22
142 137 16
134 129 28
147 140 16
136 132 0
143 138 28
142 136 39
139 134 16
146 141 32
145 139 16
137 130 28
142 137 22
153 148 22
143 136 28
144 138 22
150 143 22
148 142 22
138 129 28
150 145 22
144 139 22
144 139 16
144 140 16
146 140 32
146 141 16
151 144 36
147 142 0
152 146 36
143 137 22
150 144 28
140 135 28
151 142 32
149 142 16
149 143 16
152 145 28
151 144 28
138 132 16
151 145 22
147 141 28
145 142 0
143 139 22
151 143 28
154 147 32
142 137 22
150 143 32
143 138 22
152 145 32
143 137 0
142 134 22
140 134 36
146 141 28
147 142 28
148 142 28
136 130 28
145 140 22
139 135 0
137 132 32
142 139 22
135 129 22
134 130 16
134 128 22
134 129 28
130 124 36
134 127 32
141 135 22
125 122 16
137 131 32
125 117 22
118 112 22
119 115 0
120 114 22
114 107 16
155 165 0
155 169 0
163 180 0
157 172 0
159 175 0
161 175 0
167 179 0
160 172 0
162 175 0
160 177 0
164 179 0
171 189 0
168 186 0
165 181 0
164 181 0
161 179 0
166 185 0
161 177 0
171 187 0
167 183 0
171 190 0
166 184 0
167 184 0
169 189 0
163 180 0
166 183 0
167 184 0
165 185 0
169 189 0
167 187 0
169 189 0
168 186 0
166 188 0
171 192 0
173 192 0
173 191 0
164 181 0
170 190 0
171 191 0
171 192 0
170 190 0
171 192 0
170 189 0
170 192 0
173 192 0
174 195 0
166 187 0
169 190 0
166 185 0
168 190 0
173 195 0
171 193 0
169 192 0
169 191 0
170 188 0
169 189 0
167 188 0
171 192 0
167 189 0
172 194 0
173 197 0
176 199 0
172 195 0
171 194 0
173 197 0
172 196 0
173 197 0
174 198 0
173 195 0
174 198 0
173 197 0
171 196 0
171 193 0
174 197 0
173 196 0
175 198 0
170 194 0
174 196 0
174 198 0
172 195 0
175 198 0
170 194 0
174 197 0
173 196 0
175 197 0
174 196 0
172 196 0
172 197 0
175 198 0
173 197 0
174 197 0
173 196 0
173 197 0
171 195 0
172 195 0
169 193 0
171 195 0
169 192 0
170 194 0
174 196 0
169 193 0
174 197 0
169 192 0
170 194 0
171 195 0
172 195 0
175 198 0
173 197 0
173 197 0
173 196 0
174 197 0
171 196 0
174 196 0
174 197 0
172 196 0
171 194 0
172 195 0
171 195 0
173 196 0
175 198 0
170 193 0
172 195 0
173 197 0
173 197 0
173 195 0
172 195 0
170 194 0
172 196 0
175 197 0
172 196 0
167 191 0
174 197 0
173 196 0
166 189 0
170 195 0
171 195 0
170 194 0
169 192 0
173 195 0
170 193 0
172 196 0
172 196 0
165 187 0
172 196 0
173 196 0
169 194 0
172 195 0
171 195 0
171 195 0
172 196 0
170 193 0
169 193 0
169 192 0
172 195 0
170 193 0
170 194 0
170 193 0
170 194 0
172 195 0
168 193 0
171 195 0
172 195 0
170 192 0
171 194 0
172 196 0
166 191 0
173 196 0
174 197 0
170 193 0
168 190 0
169 193 0
169 192 0
172 196 0
172 195 0
171 193 0
173 196 0
171 194 0
170 191 0
174 196 0
169 192 0
172 194 0
167 190 0
167 190 0
167 192 0
171 193 0
174 194 0
168 190 0
170 193 0
168 192 0
167 190 0
170 192 0
172 196 0
173 196 0
167 190 0
169 191 0
169 192 0
172 196 0
170 192 0
168 192 0
169 191 0
165 189 0
168 190 0
166 189 0
170 194 0
157 180 0
171 194 0
165 187 0
163 186 0
171 194 0
169 191 0
170 190 0
171 194 0
173 196 0
172 194 0
165 188 0
173 197 0
166 189 0
170 193 0
172 195 0
172 194 0
171 194 0
167 189 0
170 193 0
168 190 0
170 194 0
165 186 0
169 192 0
167 191 0
169 191 0
171 193 0
167 190 0
170 193 0
168 191 0
168 189 0
168 190 0
166 188 0
167 189 0
172 193 0
165 188 0
163 184 0
167 190 0
170 193 0
167 190 0
169 193 0
167 188 0
160 181 0
169 192 0
173 196 0
164 188 0
171 193 0
163 184 0
160 182 0
164 185 0
165 184 0
168 190 0
172 192 0
169 190 0
168 189 0
168 189 0
165 185 0
162 184 0
169 190 0
168 187 0
166 187 0
163 183 0
166 187 0
166 189 0
169 189 0
168 189 0
169 191 0
166 187 0
166 186 0
160 182 0
168 188 0
173 194 0
160 177 0
162 178 0
168 188 0
163 181 0
166 186 0
169 188 0
163 185 0
171 189 0
165 184 0
163 185 0
165 185 0
165 185 0
165 183 0
165 184 0
165 185 0
159 179 0
165 186 0
161 180 0
160 178 0
166 185 0
167 185 0
164 182 0
160 179 0
163 180 0
161 176 0
155 172 0
168 188 0
161 179 0
159 177 0
164 182 0
161 178 0
167 183 0
168 187 0
158 175 0
162 181 0
155 170 0
155 169 0
159 175 0
148 167 0
161 178 0
160 175 0
150 165 0
153 167 0
162 173 16
130 128 0
124 116 0
136 129 28
129 123 16
132 124 22
133 125 16
134 128 16
133 128 16
143 136 36
133 128 0
146 140 22
139 133 16
140 133 16
140 133 22
140 136 16
141 135 28
134 127 22
137 131 22
150 143 36
150 145 22
145 140 16
152 145 22
145 139 32
141 137 0
146 138 16
147 143 16
150 144 32
151 146 32
152 147 32
133 127 16
140 136 0
145 140 22
153 146 32
152 145 32
146 141 28
151 146 16
134 127 16
148 143 28
146 141 28
144 139 16
144 138 16
143 137 22
148 144 22
143 136 22
148 143 0
149 144 22
141 137 22
148 143 16
148 141 32
149 142 0
147 142 0
146 142 0
152 144 39
142 137 16
141 134 16
150 145 32
148 142 0
145 139 16
145 140 22
149 142 39
147 141 28
142 137 28
135 129 0
133 126 0
139 132 28
134 129 32
136 130 16
141 136 32
133 128 16
142 135 16
137 131 22
138 132 28
132 124 16
138 131 16
122 117 28
132 127 16
122 117 0
119 111 22
122 117 28
123 117 16
118 115 22
163 176 0
153 162 0
163 179 0
159 172 0
170 189 0
163 176 0
160 176 0
164 180 0
161 176 0
162 178 0
167 181 0
164 180 0
159 175 0
164 181 0
166 182 0
165 180 0
171 187 0
168 186 0
168 187 0
167 186 0
165 182 0
165 185 0
171 188 0
163 181 0
167 186 0
170 189 0
166 183 0
173 193 0
172 191 0
165 184 0
168 188 0
165 184 0
170 189 0
171 190 0
168 189 0
169 189 0
170 189 0
166 187 0
172 192 0
170 190 0
173 196 0
170 189 0
170 190 0
169 189 0
172 190 0
173 195 0
171 191 0
167 190 0
174 195 0
170 190 0
173 194 0
170 190 0
168 188 0
172 193 0
172 194 0
172 190 0
173 193 0
174 196 0
170 193 0
